P3
256 256
255
0 0 0
0 0 0
0 0 0
0 0 0
0 0 0
0 0 0
0 0 0
0 0 0
0 0 0
0 0 0
0 0 0
0 0 0
0 0 0
0 0 0
0 0 0
0 0 0
0 0 0
0 0 0
0 0 0
0 0 0
0 0 0
0 0 0
0 0 0
0 0 0
0 0 0
0 0 0
0 0 0
0 0 0
0 0 0
0 0 0
0 0 0
0 0 0
0 0 0
0 0 0
0 0 0
0 0 0
0 0 0
0 0 0
0 0 0
0 0 0
0 0 0
0 0 0
0 0 0
0 0 0
0 0 0
0 0 0
0 0 0
0 0 0
0 0 0
0 0 0
0 0 0
0 0 0
0 0 0
0 0 0
0 0 0
0 0 0
0 0 0
0 0 0
0 0 0
0 0 0
0 0 0
0 0 0
0 0 0
0 0 0
0 0 0
0 0 0
0 0 0
0 0 0
0 0 0
0 0 0
0 0 0
0 0 0
0 0 0
0 0 0
0 0 0
0 0 0
0 0 0
0 0 0
0 0 0
0 0 0
0 0 0
0 0 0
0 0 0
0 0 0
0 0 0
0 0 0
0 0 0
0 0 0
0 0 0
0 0 0
0 0 0
0 0 0
0 0 0
0 0 0
0 0 0
0 0 0
0 0 0
0 0 0
0 0 0
0 0 0
0 0 0
0 0 0
0 0 0
0 0 0
0 0 0
0 0 0
0 0 0
0 0 0
0 0 0
0 0 0
0 0 0
0 0 0
0 0 0
0 0 0
0 0 0
0 0 0
0 0 0
0 0 0
0 0 0
0 0 0
0 0 0
0 0 0
0 0 0
0 0 0
0 0 0
0 0 0
0 0 0
0 0 0
0 0 0
0 0 0
0 0 0
0 0 0
0 0 0
0 0 0
0 0 0
0 0 0
0 0 0
0 0 0
0 0 0
0 0 0
0 0 0
0 0 0
0 0 0
0 0 0
0 0 0
0 0 0
0 0 0
0 0 0
0 0 0
0 0 0
0 0 0
0 0 0
0 0 0
0 0 0
0 0 0
0 0 0
0 0 0
0 0 0
0 0 0
0 0 0
0 0 0
0 0 0
0 0 0
0 0 0
0 0 0
0 0 0
0 0 0
0 0 0
0 0 0
0 0 0
0 0 0
0 0 0
0 0 0
0 0 0
0 0 0
0 0 0
0 0 0
0 0 0
0 0 0
0 0 0
0 0 0
0 0 0
0 0 0
0 0 0
0 0 0
0 0 0
0 0 0
0 0 0
0 0 0
0 0 0
0 0 0
0 0 0
0 0 0
0 0 0
0 0 0
0 0 0
0 0 0
0 0 0
0 0 0
0 0 0
0 0 0
0 0 0
0 0 0
0 0 0
0 0 0
0 0 0
0 0 0
0 0 0
0 0 0
0 0 0
0 0 0
0 0 0
0 0 0
0 0 0
0 0 0
0 0 0
0 0 0
0 0 0
0 0 0
0 0 0
0 0 0
0 0 0
0 0 0
0 0 0
0 0 0
0 0 0
0 0 0
0 0 0
0 0 0
0 0 0
0 0 0
0 0 0
0 0 0
0 0 0
0 0 0
0 0 0
0 0 0
0 0 0
0 0 0
0 0 0
0 0 0
0 0 0
0 0 0
0 0 0
0 0 0
0 0 0
0 0 0
0 0 0
0 0 0
0 0 0
0 0 0
0 0 0
0 0 0
0 0 0
0 0 0
0 0 0
0 0 0
0 0 0
0 0 0
0 0 0
0 0 0
0 0 0
0 0 0
0 0 0
0 0 0
0 0 0
0 0 0
0 0 0
0 0 0
0 0 0
0 0 0
0 0 0
0 0 0
0 0 0
0 0 0
0 0 0
0 0 0
0 0 0
0 0 0
0 0 0
0 0 0
0 0 0
0 0 0
0 0 0
0 0 0
0 0 0
0 0 0
0 0 0
0 0 0
0 0 0
0 0 0
0 0 0
0 0 0
0 0 0
0 0 0
0 0 0
0 0 0
0 0 0
0 0 0
0 0 0
0 0 0
0 0 0
0 0 0
0 0 0
0 0 0
0 0 0
0 0 0
0 0 0
0 0 0
0 0 0
0 0 0
0 0 0
0 0 0
0 0 0
0 0 0
0 0 0
0 0 0
0 0 0
0 0 0
0 0 0
0 0 0
0 0 0
0 0 0
0 0 0
0 0 0
0 0 0
0 0 0
0 0 0
0 0 0
0 0 0
0 0 0
0 0 0
0 0 0
0 0 0
0 0 0
0 0 0
0 0 0
0 0 0
0 0 0
0 0 0
0 0 0
0 0 0
0 0 0
0 0 0
0 0 0
0 0 0
0 0 0
0 0 0
0 0 0
0 0 0
0 0 0
0 0 0
0 0 0
0 0 0
0 0 0
0 0 0
0 0 0
0 0 0
0 0 0
0 0 0
0 0 0
0 0 0
0 0 0
0 0 0
0 0 0
0 0 0
0 0 0
0 0 0
0 0 0
0 0 0
0 0 0
0 0 0
0 0 0
0 0 0
0 0 0
0 0 0
0 0 0
0 0 0
0 0 0
0 0 0
0 0 0
0 0 0
0 0 0
0 0 0
0 0 0
0 0 0
0 0 0
0 0 0
0 0 0
0 0 0
0 0 0
0 0 0
0 0 0
0 0 0
0 0 0
0 0 0
0 0 0
0 0 0
0 0 0
0 0 0
0 0 0
0 0 0
0 0 0
0 0 0
0 0 0
0 0 0
0 0 0
0 0 0
0 0 0
0 0 0
0 0 0
0 0 0
0 0 0
0 0 0
0 0 0
0 0 0
0 0 0
0 0 0
0 0 0
0 0 0
0 0 0
0 0 0
0 0 0
0 0 0
0 0 0
0 0 0
0 0 0
0 0 0
0 0 0
0 0 0
0 0 0
0 0 0
0 0 0
0 0 0
0 0 0
0 0 0
0 0 0
0 0 0
0 0 0
0 0 0
0 0 0
0 0 0
0 0 0
0 0 0
0 0 0
0 0 0
0 0 0
0 0 0
0 0 0
0 0 0
0 0 0
0 0 0
0 0 0
0 0 0
0 0 0
0 0 0
0 0 0
0 0 0
0 0 0
0 0 0
0 0 0
0 0 0
0 0 0
0 0 0
0 0 0
0 0 0
0 0 0
0 0 0
0 0 0
0 0 0
0 0 0
0 0 0
0 0 0
0 0 0
0 0 0
0 0 0
0 0 0
0 0 0
0 0 0
0 0 0
0 0 0
0 0 0
0 0 0
0 0 0
0 0 0
0 0 0
0 0 0
0 0 0
0 0 0
0 0 0
0 0 0
0 0 0
0 0 0
0 0 0
0 0 0
0 0 0
0 0 0
0 0 0
0 0 0
0 0 0
0 0 0
0 0 0
0 0 0
0 0 0
0 0 0
0 0 0
0 0 0
0 0 0
0 0 0
0 0 0
0 0 0
0 0 0
0 0 0
0 0 0
0 0 0
0 0 0
0 0 0
0 0 0
0 0 0
0 0 0
0 0 0
0 0 0
0 0 0
0 0 0
0 0 0
0 0 0
0 0 0
0 0 0
0 0 0
0 0 0
0 0 0
0 0 0
0 0 0
0 0 0
0 0 0
0 0 0
0 0 0
0 0 0
0 0 0
0 0 0
0 0 0
0 0 0
0 0 0
0 0 0
0 0 0
0 0 0
0 0 0
0 0 0
0 0 0
0 0 0
0 0 0
0 0 0
0 0 0
0 0 0
0 0 0
0 0 0
0 0 0
0 0 0
0 0 0
0 0 0
0 0 0
0 0 0
0 0 0
0 0 0
0 0 0
0 0 0
0 0 0
0 0 0
0 0 0
0 0 0
0 0 0
0 0 0
0 0 0
0 0 0
0 0 0
0 0 0
0 0 0
0 0 0
0 0 0
0 0 0
0 0 0
0 0 0
0 0 0
0 0 0
0 0 0
0 0 0
0 0 0
0 0 0
0 0 0
0 0 0
0 0 0
0 0 0
0 0 0
0 0 0
0 0 0
0 0 0
0 0 0
0 0 0
0 0 0
0 0 0
0 0 0
0 0 0
0 0 0
0 0 0
0 0 0
0 0 0
0 0 0
0 0 0
0 0 0
0 0 0
0 0 0
0 0 0
0 0 0
0 0 0
0 0 0
0 0 0
0 0 0
0 0 0
0 0 0
0 0 0
0 0 0
0 0 0
0 0 0
0 0 0
0 0 0
0 0 0
0 0 0
0 0 0
0 0 0
0 0 0
0 0 0
0 0 0
0 0 0
0 0 0
0 0 0
0 0 0
0 0 0
0 0 0
0 0 0
0 0 0
0 0 0
0 0 0
0 0 0
0 0 0
0 0 0
0 0 0
0 0 0
0 0 0
0 0 0
0 0 0
0 0 0
0 0 0
0 0 0
0 0 0
0 0 0
0 0 0
0 0 0
0 0 0
0 0 0
0 0 0
0 0 0
0 0 0
0 0 0
0 0 0
0 0 0
0 0 0
0 0 0
0 0 0
0 0 0
0 0 0
0 0 0
0 0 0
0 0 0
0 0 0
0 0 0
0 0 0
0 0 0
0 0 0
0 0 0
0 0 0
0 0 0
0 0 0
0 0 0
0 0 0
0 0 0
0 0 0
0 0 0
0 0 0
0 0 0
0 0 0
0 0 0
0 0 0
0 0 0
0 0 0
0 0 0
0 0 0
0 0 0
0 0 0
0 0 0
0 0 0
0 0 0
0 0 0
0 0 0
0 0 0
0 0 0
0 0 0
0 0 0
0 0 0
0 0 0
0 0 0
0 0 0
0 0 0
0 0 0
0 0 0
0 0 0
0 0 0
0 0 0
0 0 0
0 0 0
0 0 0
0 0 0
0 0 0
0 0 0
0 0 0
0 0 0
0 0 0
0 0 0
0 0 0
0 0 0
0 0 0
0 0 0
0 0 0
0 0 0
0 0 0
0 0 0
0 0 0
0 0 0
0 0 0
0 0 0
0 0 0
0 0 0
0 0 0
0 0 0
0 0 0
0 0 0
0 0 0
0 0 0
0 0 0
0 0 0
0 0 0
0 0 0
0 0 0
0 0 0
0 0 0
0 0 0
0 0 0
0 0 0
0 0 0
0 0 0
0 0 0
0 0 0
0 0 0
0 0 0
0 0 0
0 0 0
0 0 0
0 0 0
0 0 0
0 0 0
0 0 0
0 0 0
0 0 0
0 0 0
0 0 0
0 0 0
0 0 0
0 0 0
0 0 0
0 0 0
0 0 0
0 0 0
0 0 0
0 0 0
0 0 0
0 0 0
0 0 0
0 0 0
0 0 0
0 0 0
0 0 0
0 0 0
0 0 0
0 0 0
0 0 0
0 0 0
0 0 0
0 0 0
0 0 0
0 0 0
0 0 0
0 0 0
0 0 0
0 0 0
0 0 0
0 0 0
0 0 0
0 0 0
0 0 0
0 0 0
0 0 0
0 0 0
0 0 0
0 0 0
0 0 0
0 0 0
0 0 0
0 0 0
0 0 0
0 0 0
0 0 0
0 0 0
0 0 0
0 0 0
0 0 0
0 0 0
0 0 0
0 0 0
0 0 0
0 0 0
0 0 0
0 0 0
0 0 0
0 0 0
0 0 0
0 0 0
0 0 0
0 0 0
0 0 0
0 0 0
0 0 0
0 0 0
0 0 0
0 0 0
0 0 0
0 0 0
0 0 0
0 0 0
0 0 0
0 0 0
0 0 0
0 0 0
0 0 0
0 0 0
0 0 0
0 0 0
0 0 0
0 0 0
0 0 0
0 0 0
0 0 0
0 0 0
0 0 0
0 0 0
0 0 0
0 0 0
0 0 0
0 0 0
0 0 0
0 0 0
0 0 0
0 0 0
0 0 0
0 0 0
0 0 0
0 0 0
0 0 0
0 0 0
0 0 0
0 0 0
0 0 0
0 0 0
0 0 0
0 0 0
0 0 0
0 0 0
0 0 0
0 0 0
0 0 0
0 0 0
0 0 0
0 0 0
0 0 0
0 0 0
0 0 0
0 0 0
0 0 0
0 0 0
0 0 0
0 0 0
0 0 0
0 0 0
0 0 0
0 0 0
0 0 0
0 0 0
0 0 0
0 0 0
0 0 0
0 0 0
0 0 0
0 0 0
0 0 0
0 0 0
0 0 0
0 0 0
0 0 0
0 0 0
0 0 0
0 0 0
0 0 0
0 0 0
0 0 0
0 0 0
0 0 0
0 0 0
0 0 0
0 0 0
0 0 0
0 0 0
0 0 0
0 0 0
0 0 0
0 0 0
0 0 0
0 0 0
0 0 0
0 0 0
0 0 0
0 0 0
0 0 0
0 0 0
0 0 0
0 0 0
0 0 0
0 0 0
0 0 0
0 0 0
0 0 0
0 0 0
0 0 0
0 0 0
0 0 0
0 0 0
0 0 0
0 0 0
0 0 0
0 0 0
0 0 0
0 0 0
0 0 0
0 0 0
0 0 0
0 0 0
0 0 0
0 0 0
0 0 0
0 0 0
0 0 0
0 0 0
0 0 0
0 0 0
0 0 0
0 0 0
0 0 0
0 0 0
0 0 0
0 0 0
0 0 0
0 0 0
0 0 0
0 0 0
0 0 0
0 0 0
0 0 0
0 0 0
0 0 0
0 0 0
0 0 0
0 0 0
0 0 0
0 0 0
0 0 0
0 0 0
0 0 0
0 0 0
0 0 0
0 0 0
0 0 0
0 0 0
0 0 0
0 0 0
0 0 0
0 0 0
0 0 0
0 0 0
0 0 0
0 0 0
0 0 0
0 0 0
0 0 0
0 0 0
0 0 0
0 0 0
0 0 0
0 0 0
0 0 0
0 0 0
0 0 0
0 0 0
0 0 0
0 0 0
0 0 0
0 0 0
0 0 0
0 0 0
0 0 0
0 0 0
0 0 0
0 0 0
0 0 0
0 0 0
0 0 0
0 0 0
0 0 0
0 0 0
0 0 0
0 0 0
0 0 0
0 0 0
0 0 0
0 0 0
0 0 0
0 0 0
0 0 0
0 0 0
0 0 0
0 0 0
0 0 0
0 0 0
0 0 0
0 0 0
0 0 0
0 0 0
0 0 0
0 0 0
0 0 0
0 0 0
0 0 0
0 0 0
0 0 0
0 0 0
0 0 0
0 0 0
0 0 0
0 0 0
0 0 0
0 0 0
0 0 0
0 0 0
0 0 0
0 0 0
0 0 0
0 0 0
0 0 0
0 0 0
0 0 0
0 0 0
0 0 0
0 0 0
0 0 0
0 0 0
0 0 0
0 0 0
0 0 0
0 0 0
0 0 0
0 0 0
0 0 0
0 0 0
0 0 0
0 0 0
0 0 0
0 0 0
0 0 0
0 0 0
0 0 0
0 0 0
0 0 0
0 0 0
0 0 0
0 0 0
0 0 0
0 0 0
0 0 0
0 0 0
0 0 0
0 0 0
0 0 0
0 0 0
0 0 0
0 0 0
0 0 0
0 0 0
0 0 0
0 0 0
0 0 0
0 0 0
0 0 0
0 0 0
0 0 0
0 0 0
0 0 0
0 0 0
0 0 0
0 0 0
0 0 0
0 0 0
0 0 0
0 0 0
0 0 0
0 0 0
0 0 0
0 0 0
0 0 0
0 0 0
0 0 0
0 0 0
0 0 0
0 0 0
0 0 0
0 0 0
0 0 0
0 0 0
0 0 0
0 0 0
0 0 0
0 0 0
0 0 0
0 0 0
0 0 0
0 0 0
0 0 0
0 0 0
0 0 0
0 0 0
0 0 0
0 0 0
0 0 0
0 0 0
0 0 0
0 0 0
0 0 0
0 0 0
0 0 0
0 0 0
0 0 0
0 0 0
0 0 0
0 0 0
0 0 0
0 0 0
0 0 0
0 0 0
0 0 0
0 0 0
0 0 0
0 0 0
0 0 0
0 0 0
0 0 0
0 0 0
0 0 0
0 0 0
0 0 0
0 0 0
0 0 0
0 0 0
0 0 0
0 0 0
0 0 0
0 0 0
0 0 0
0 0 0
0 0 0
0 0 0
0 0 0
0 0 0
0 0 0
0 0 0
0 0 0
0 0 0
0 0 0
0 0 0
0 0 0
0 0 0
0 0 0
0 0 0
0 0 0
0 0 0
0 0 0
0 0 0
0 0 0
0 0 0
0 0 0
0 0 0
0 0 0
0 0 0
0 0 0
0 0 0
0 0 0
0 0 0
0 0 0
0 0 0
0 0 0
0 0 0
0 0 0
0 0 0
0 0 0
0 0 0
0 0 0
0 0 0
0 0 0
0 0 0
0 0 0
0 0 0
0 0 0
0 0 0
0 0 0
0 0 0
0 0 0
0 0 0
0 0 0
0 0 0
0 0 0
0 0 0
0 0 0
0 0 0
0 0 0
0 0 0
0 0 0
0 0 0
0 0 0
0 0 0
0 0 0
0 0 0
0 0 0
0 0 0
0 0 0
0 0 0
0 0 0
0 0 0
0 0 0
0 0 0
0 0 0
0 0 0
0 0 0
0 0 0
0 0 0
0 0 0
0 0 0
0 0 0
0 0 0
0 0 0
0 0 0
0 0 0
0 0 0
0 0 0
0 0 0
0 0 0
0 0 0
0 0 0
0 0 0
0 0 0
0 0 0
0 0 0
0 0 0
0 0 0
0 0 0
0 0 0
0 0 0
0 0 0
0 0 0
0 0 0
0 0 0
0 0 0
0 0 0
0 0 0
0 0 0
0 0 0
0 0 0
0 0 0
0 0 0
0 0 0
0 0 0
0 0 0
0 0 0
0 0 0
0 0 0
0 0 0
0 0 0
0 0 0
0 0 0
0 0 0
0 0 0
0 0 0
0 0 0
0 0 0
0 0 0
0 0 0
0 0 0
0 0 0
0 0 0
0 0 0
0 0 0
0 0 0
0 0 0
0 0 0
0 0 0
0 0 0
0 0 0
0 0 0
0 0 0
0 0 0
0 0 0
0 0 0
0 0 0
0 0 0
0 0 0
0 0 0
0 0 0
0 0 0
0 0 0
0 0 0
0 0 0
0 0 0
0 0 0
0 0 0
0 0 0
0 0 0
0 0 0
0 0 0
0 0 0
0 0 0
0 0 0
0 0 0
0 0 0
0 0 0
0 0 0
0 0 0
0 0 0
0 0 0
0 0 0
0 0 0
0 0 0
0 0 0
0 0 0
0 0 0
0 0 0
0 0 0
0 0 0
0 0 0
0 0 0
0 0 0
0 0 0
0 0 0
0 0 0
0 0 0
0 0 0
0 0 0
0 0 0
0 0 0
0 0 0
0 0 0
0 0 0
0 0 0
0 0 0
0 0 0
0 0 0
0 0 0
0 0 0
0 0 0
0 0 0
0 0 0
0 0 0
0 0 0
0 0 0
0 0 0
0 0 0
0 0 0
0 0 0
0 0 0
0 0 0
0 0 0
0 0 0
0 0 0
0 0 0
0 0 0
0 0 0
0 0 0
0 0 0
0 0 0
0 0 0
0 0 0
0 0 0
0 0 0
0 0 0
0 0 0
0 0 0
0 0 0
0 0 0
0 0 0
0 0 0
0 0 0
0 0 0
0 0 0
0 0 0
0 0 0
0 0 0
0 0 0
0 0 0
0 0 0
0 0 0
0 0 0
0 0 0
0 0 0
0 0 0
0 0 0
0 0 0
0 0 0
0 0 0
0 0 0
0 0 0
0 0 0
0 0 0
0 0 0
0 0 0
0 0 0
0 0 0
0 0 0
0 0 0
0 0 0
0 0 0
0 0 0
0 0 0
0 0 0
0 0 0
0 0 0
0 0 0
0 0 0
0 0 0
0 0 0
0 0 0
0 0 0
0 0 0
0 0 0
0 0 0
0 0 0
0 0 0
0 0 0
0 0 0
0 0 0
0 0 0
0 0 0
0 0 0
0 0 0
0 0 0
0 0 0
0 0 0
0 0 0
0 0 0
0 0 0
0 0 0
0 0 0
0 0 0
0 0 0
0 0 0
0 0 0
0 0 0
0 0 0
0 0 0
0 0 0
0 0 0
0 0 0
0 0 0
0 0 0
0 0 0
0 0 0
0 0 0
0 0 0
0 0 0
0 0 0
0 0 0
0 0 0
0 0 0
0 0 0
0 0 0
0 0 0
0 0 0
0 0 0
0 0 0
0 0 0
0 0 0
0 0 0
0 0 0
0 0 0
0 0 0
0 0 0
0 0 0
0 0 0
0 0 0
0 0 0
0 0 0
0 0 0
0 0 0
0 0 0
0 0 0
0 0 0
0 0 0
0 0 0
0 0 0
0 0 0
0 0 0
0 0 0
0 0 0
0 0 0
0 0 0
0 0 0
0 0 0
0 0 0
0 0 0
0 0 0
0 0 0
0 0 0
0 0 0
0 0 0
0 0 0
0 0 0
0 0 0
0 0 0
0 0 0
0 0 0
0 0 0
0 0 0
0 0 0
0 0 0
0 0 0
0 0 0
0 0 0
0 0 0
0 0 0
0 0 0
0 0 0
0 0 0
0 0 0
0 0 0
0 0 0
0 0 0
0 0 0
0 0 0
0 0 0
0 0 0
0 0 0
0 0 0
0 0 0
0 0 0
0 0 0
0 0 0
0 0 0
0 0 0
0 0 0
0 0 0
0 0 0
0 0 0
0 0 0
0 0 0
0 0 0
0 0 0
0 0 0
0 0 0
0 0 0
0 0 0
0 0 0
0 0 0
0 0 0
0 0 0
0 0 0
0 0 0
0 0 0
0 0 0
0 0 0
0 0 0
0 0 0
0 0 0
0 0 0
0 0 0
0 0 0
0 0 0
0 0 0
0 0 0
0 0 0
0 0 0
0 0 0
0 0 0
0 0 0
0 0 0
0 0 0
0 0 0
0 0 0
0 0 0
0 0 0
0 0 0
0 0 0
0 0 0
0 0 0
0 0 0
0 0 0
0 0 0
0 0 0
0 0 0
0 0 0
0 0 0
0 0 0
0 0 0
0 0 0
0 0 0
0 0 0
0 0 0
0 0 0
0 0 0
0 0 0
0 0 0
0 0 0
0 0 0
0 0 0
0 0 0
0 0 0
0 0 0
0 0 0
0 0 0
0 0 0
0 0 0
0 0 0
0 0 0
0 0 0
0 0 0
0 0 0
0 0 0
0 0 0
0 0 0
0 0 0
0 0 0
0 0 0
0 0 0
0 0 0
0 0 0
0 0 0
0 0 0
0 0 0
0 0 0
0 0 0
0 0 0
0 0 0
0 0 0
0 0 0
0 0 0
0 0 0
0 0 0
0 0 0
0 0 0
0 0 0
0 0 0
0 0 0
0 0 0
0 0 0
0 0 0
0 0 0
0 0 0
0 0 0
0 0 0
0 0 0
0 0 0
0 0 0
0 0 0
0 0 0
0 0 0
0 0 0
0 0 0
0 0 0
0 0 0
0 0 0
0 0 0
0 0 0
0 0 0
0 0 0
0 0 0
0 0 0
0 0 0
0 0 0
0 0 0
0 0 0
0 0 0
0 0 0
0 0 0
0 0 0
0 0 0
0 0 0
0 0 0
0 0 0
0 0 0
0 0 0
0 0 0
0 0 0
0 0 0
0 0 0
0 0 0
0 0 0
0 0 0
0 0 0
0 0 0
0 0 0
0 0 0
0 0 0
0 0 0
0 0 0
0 0 0
0 0 0
0 0 0
0 0 0
0 0 0
0 0 0
0 0 0
0 0 0
0 0 0
0 0 0
0 0 0
0 0 0
0 0 0
0 0 0
0 0 0
0 0 0
0 0 0
0 0 0
0 0 0
0 0 0
0 0 0
0 0 0
0 0 0
0 0 0
0 0 0
0 0 0
0 0 0
0 0 0
0 0 0
0 0 0
0 0 0
0 0 0
0 0 0
0 0 0
0 0 0
0 0 0
0 0 0
0 0 0
0 0 0
0 0 0
0 0 0
0 0 0
0 0 0
0 0 0
0 0 0
0 0 0
0 0 0
0 0 0
0 0 0
0 0 0
0 0 0
0 0 0
0 0 0
0 0 0
0 0 0
0 0 0
0 0 0
0 0 0
0 0 0
0 0 0
0 0 0
0 0 0
0 0 0
0 0 0
0 0 0
0 0 0
0 0 0
0 0 0
0 0 0
0 0 0
0 0 0
0 0 0
0 0 0
0 0 0
0 0 0
0 0 0
0 0 0
0 0 0
0 0 0
0 0 0
0 0 0
0 0 0
0 0 0
0 0 0
0 0 0
0 0 0
0 0 0
0 0 0
0 0 0
0 0 0
0 0 0
0 0 0
0 0 0
0 0 0
0 0 0
0 0 0
0 0 0
0 0 0
0 0 0
0 0 0
0 0 0
0 0 0
0 0 0
0 0 0
0 0 0
0 0 0
0 0 0
0 0 0
0 0 0
0 0 0
0 0 0
0 0 0
0 0 0
0 0 0
0 0 0
0 0 0
0 0 0
0 0 0
0 0 0
0 0 0
0 0 0
0 0 0
0 0 0
0 0 0
0 0 0
0 0 0
0 0 0
0 0 0
0 0 0
0 0 0
0 0 0
0 0 0
0 0 0
0 0 0
0 0 0
0 0 0
0 0 0
0 0 0
0 0 0
0 0 0
0 0 0
0 0 0
0 0 0
0 0 0
0 0 0
0 0 0
0 0 0
0 0 0
0 0 0
0 0 0
0 0 0
0 0 0
0 0 0
0 0 0
0 0 0
0 0 0
0 0 0
0 0 0
0 0 0
0 0 0
0 0 0
0 0 0
0 0 0
0 0 0
0 0 0
0 0 0
0 0 0
0 0 0
0 0 0
0 0 0
0 0 0
0 0 0
0 0 0
0 0 0
0 0 0
0 0 0
0 0 0
0 0 0
0 0 0
0 0 0
0 0 0
0 0 0
0 0 0
0 0 0
0 0 0
0 0 0
0 0 0
0 0 0
0 0 0
0 0 0
0 0 0
0 0 0
0 0 0
0 0 0
0 0 0
0 0 0
0 0 0
0 0 0
0 0 0
0 0 0
0 0 0
0 0 0
0 0 0
0 0 0
0 0 0
0 0 0
0 0 0
0 0 0
0 0 0
0 0 0
0 0 0
0 0 0
0 0 0
0 0 0
0 0 0
0 0 0
0 0 0
0 0 0
0 0 0
0 0 0
0 0 0
0 0 0
0 0 0
0 0 0
0 0 0
0 0 0
0 0 0
0 0 0
0 0 0
0 0 0
0 0 0
0 0 0
0 0 0
0 0 0
0 0 0
0 0 0
0 0 0
0 0 0
0 0 0
0 0 0
0 0 0
0 0 0
0 0 0
0 0 0
0 0 0
0 0 0
0 0 0
0 0 0
0 0 0
0 0 0
0 0 0
0 0 0
0 0 0
0 0 0
0 0 0
0 0 0
0 0 0
0 0 0
0 0 0
0 0 0
0 0 0
0 0 0
0 0 0
0 0 0
0 0 0
0 0 0
0 0 0
0 0 0
0 0 0
0 0 0
0 0 0
0 0 0
0 0 0
0 0 0
0 0 0
0 0 0
0 0 0
0 0 0
0 0 0
0 0 0
0 0 0
0 0 0
0 0 0
0 0 0
0 0 0
0 0 0
0 0 0
0 0 0
0 0 0
0 0 0
0 0 0
0 0 0
0 0 0
0 0 0
0 0 0
0 0 0
0 0 0
0 0 0
0 0 0
0 0 0
0 0 0
0 0 0
0 0 0
0 0 0
0 0 0
0 0 0
0 0 0
0 0 0
0 0 0
0 0 0
0 0 0
0 0 0
0 0 0
0 0 0
0 0 0
0 0 0
0 0 0
0 0 0
0 0 0
0 0 0
0 0 0
0 0 0
0 0 0
0 0 0
0 0 0
0 0 0
0 0 0
0 0 0
0 0 0
0 0 0
0 0 0
0 0 0
0 0 0
0 0 0
0 0 0
0 0 0
0 0 0
0 0 0
0 0 0
0 0 0
0 0 0
0 0 0
0 0 0
0 0 0
0 0 0
0 0 0
0 0 0
0 0 0
0 0 0
0 0 0
0 0 0
0 0 0
0 0 0
0 0 0
0 0 0
0 0 0
0 0 0
0 0 0
0 0 0
0 0 0
0 0 0
0 0 0
0 0 0
0 0 0
0 0 0
0 0 0
0 0 0
0 0 0
0 0 0
0 0 0
0 0 0
0 0 0
0 0 0
0 0 0
0 0 0
0 0 0
0 0 0
0 0 0
0 0 0
0 0 0
0 0 0
0 0 0
0 0 0
0 0 0
0 0 0
0 0 0
0 0 0
0 0 0
0 0 0
0 0 0
0 0 0
0 0 0
0 0 0
0 0 0
0 0 0
0 0 0
0 0 0
0 0 0
0 0 0
0 0 0
0 0 0
0 0 0
0 0 0
0 0 0
0 0 0
0 0 0
0 0 0
0 0 0
0 0 0
0 0 0
0 0 0
0 0 0
0 0 0
0 0 0
0 0 0
0 0 0
0 0 0
0 0 0
0 0 0
0 0 0
0 0 0
0 0 0
0 0 0
0 0 0
0 0 0
0 0 0
0 0 0
0 0 0
0 0 0
0 0 0
0 0 0
0 0 0
0 0 0
0 0 0
0 0 0
0 0 0
0 0 0
0 0 0
0 0 0
0 0 0
0 0 0
0 0 0
0 0 0
0 0 0
0 0 0
0 0 0
0 0 0
0 0 0
0 0 0
0 0 0
0 0 0
0 0 0
0 0 0
0 0 0
0 0 0
0 0 0
0 0 0
0 0 0
0 0 0
0 0 0
0 0 0
0 0 0
0 0 0
0 0 0
0 0 0
0 0 0
0 0 0
0 0 0
0 0 0
0 0 0
0 0 0
0 0 0
0 0 0
0 0 0
0 0 0
0 0 0
0 0 0
0 0 0
0 0 0
0 0 0
0 0 0
0 0 0
0 0 0
0 0 0
0 0 0
0 0 0
0 0 0
0 0 0
0 0 0
0 0 0
0 0 0
0 0 0
0 0 0
0 0 0
0 0 0
0 0 0
0 0 0
0 0 0
0 0 0
0 0 0
0 0 0
0 0 0
0 0 0
0 0 0
0 0 0
0 0 0
0 0 0
0 0 0
0 0 0
0 0 0
0 0 0
0 0 0
0 0 0
0 0 0
0 0 0
0 0 0
0 0 0
0 0 0
0 0 0
0 0 0
0 0 0
0 0 0
0 0 0
0 0 0
0 0 0
0 0 0
0 0 0
0 0 0
0 0 0
0 0 0
0 0 0
0 0 0
0 0 0
0 0 0
0 0 0
0 0 0
0 0 0
0 0 0
0 0 0
0 0 0
0 0 0
0 0 0
0 0 0
0 0 0
0 0 0
0 0 0
0 0 0
0 0 0
0 0 0
0 0 0
0 0 0
0 0 0
0 0 0
0 0 0
0 0 0
0 0 0
0 0 0
0 0 0
0 0 0
0 0 0
0 0 0
0 0 0
0 0 0
0 0 0
0 0 0
0 0 0
0 0 0
0 0 0
0 0 0
0 0 0
0 0 0
0 0 0
0 0 0
0 0 0
0 0 0
0 0 0
0 0 0
0 0 0
0 0 0
0 0 0
0 0 0
0 0 0
0 0 0
0 0 0
0 0 0
0 0 0
0 0 0
0 0 0
0 0 0
0 0 0
0 0 0
0 0 0
0 0 0
0 0 0
0 0 0
0 0 0
0 0 0
0 0 0
0 0 0
0 0 0
0 0 0
0 0 0
0 0 0
0 0 0
0 0 0
0 0 0
0 0 0
0 0 0
0 0 0
0 0 0
0 0 0
0 0 0
0 0 0
0 0 0
0 0 0
0 0 0
0 0 0
0 0 0
0 0 0
0 0 0
0 0 0
0 0 0
0 0 0
0 0 0
0 0 0
0 0 0
0 0 0
0 0 0
0 0 0
0 0 0
0 0 0
0 0 0
0 0 0
0 0 0
0 0 0
0 0 0
0 0 0
0 0 0
0 0 0
0 0 0
0 0 0
0 0 0
0 0 0
0 0 0
0 0 0
0 0 0
0 0 0
0 0 0
0 0 0
0 0 0
0 0 0
0 0 0
0 0 0
0 0 0
0 0 0
0 0 0
0 0 0
0 0 0
0 0 0
0 0 0
0 0 0
0 0 0
0 0 0
0 0 0
0 0 0
0 0 0
0 0 0
0 0 0
0 0 0
0 0 0
0 0 0
0 0 0
0 0 0
0 0 0
0 0 0
0 0 0
0 0 0
0 0 0
0 0 0
0 0 0
0 0 0
0 0 0
0 0 0
0 0 0
0 0 0
0 0 0
0 0 0
0 0 0
0 0 0
0 0 0
0 0 0
0 0 0
0 0 0
0 0 0
0 0 0
0 0 0
0 0 0
0 0 0
0 0 0
0 0 0
0 0 0
0 0 0
0 0 0
0 0 0
0 0 0
0 0 0
0 0 0
0 0 0
0 0 0
0 0 0
0 0 0
0 0 0
0 0 0
0 0 0
0 0 0
0 0 0
0 0 0
0 0 0
0 0 0
0 0 0
0 0 0
0 0 0
0 0 0
0 0 0
0 0 0
0 0 0
0 0 0
0 0 0
0 0 0
0 0 0
0 0 0
0 0 0
0 0 0
0 0 0
0 0 0
0 0 0
0 0 0
0 0 0
0 0 0
0 0 0
0 0 0
0 0 0
0 0 0
0 0 0
0 0 0
0 0 0
0 0 0
0 0 0
0 0 0
0 0 0
0 0 0
0 0 0
0 0 0
0 0 0
0 0 0
0 0 0
0 0 0
0 0 0
0 0 0
0 0 0
0 0 0
0 0 0
0 0 0
0 0 0
0 0 0
0 0 0
0 0 0
0 0 0
0 0 0
0 0 0
0 0 0
0 0 0
0 0 0
0 0 0
0 0 0
0 0 0
0 0 0
0 0 0
0 0 0
0 0 0
0 0 0
0 0 0
0 0 0
0 0 0
0 0 0
0 0 0
0 0 0
0 0 0
0 0 0
0 0 0
0 0 0
0 0 0
0 0 0
0 0 0
0 0 0
0 0 0
0 0 0
0 0 0
0 0 0
0 0 0
0 0 0
0 0 0
0 0 0
0 0 0
0 0 0
0 0 0
0 0 0
0 0 0
0 0 0
0 0 0
0 0 0
0 0 0
0 0 0
0 0 0
0 0 0
0 0 0
0 0 0
0 0 0
0 0 0
0 0 0
0 0 0
0 0 0
0 0 0
0 0 0
0 0 0
0 0 0
0 0 0
0 0 0
0 0 0
0 0 0
0 0 0
0 0 0
0 0 0
0 0 0
0 0 0
0 0 0
0 0 0
0 0 0
0 0 0
0 0 0
0 0 0
0 0 0
0 0 0
0 0 0
0 0 0
0 0 0
0 0 0
0 0 0
0 0 0
0 0 0
0 0 0
0 0 0
0 0 0
0 0 0
0 0 0
0 0 0
0 0 0
0 0 0
0 0 0
0 0 0
0 0 0
0 0 0
0 0 0
0 0 0
0 0 0
0 0 0
0 0 0
0 0 0
0 0 0
0 0 0
0 0 0
0 0 0
0 0 0
0 0 0
0 0 0
0 0 0
0 0 0
0 0 0
0 0 0
0 0 0
0 0 0
0 0 0
0 0 0
0 0 0
0 0 0
0 0 0
0 0 0
0 0 0
0 0 0
0 0 0
0 0 0
0 0 0
0 0 0
0 0 0
0 0 0
0 0 0
0 0 0
0 0 0
0 0 0
0 0 0
0 0 0
0 0 0
0 0 0
0 0 0
0 0 0
0 0 0
0 0 0
0 0 0
0 0 0
0 0 0
0 0 0
0 0 0
0 0 0
0 0 0
0 0 0
0 0 0
0 0 0
0 0 0
0 0 0
0 0 0
0 0 0
0 0 0
0 0 0
0 0 0
0 0 0
0 0 0
0 0 0
0 0 0
0 0 0
0 0 0
0 0 0
0 0 0
0 0 0
0 0 0
0 0 0
0 0 0
0 0 0
0 0 0
0 0 0
0 0 0
0 0 0
0 0 0
0 0 0
0 0 0
0 0 0
0 0 0
0 0 0
0 0 0
0 0 0
0 0 0
0 0 0
0 0 0
0 0 0
0 0 0
0 0 0
0 0 0
0 0 0
0 0 0
0 0 0
0 0 0
0 0 0
0 0 0
0 0 0
0 0 0
0 0 0
0 0 0
0 0 0
0 0 0
0 0 0
0 0 0
0 0 0
0 0 0
0 0 0
0 0 0
0 0 0
0 0 0
0 0 0
0 0 0
0 0 0
0 0 0
0 0 0
0 0 0
0 0 0
0 0 0
0 0 0
0 0 0
0 0 0
0 0 0
0 0 0
0 0 0
0 0 0
0 0 0
0 0 0
0 0 0
0 0 0
0 0 0
0 0 0
0 0 0
0 0 0
0 0 0
0 0 0
0 0 0
0 0 0
0 0 0
0 0 0
0 0 0
0 0 0
0 0 0
0 0 0
0 0 0
0 0 0
0 0 0
0 0 0
0 0 0
0 0 0
0 0 0
0 0 0
0 0 0
0 0 0
0 0 0
0 0 0
0 0 0
0 0 0
0 0 0
0 0 0
0 0 0
0 0 0
0 0 0
0 0 0
0 0 0
0 0 0
0 0 0
0 0 0
0 0 0
0 0 0
0 0 0
0 0 0
0 0 0
0 0 0
0 0 0
0 0 0
0 0 0
0 0 0
0 0 0
0 0 0
0 0 0
0 0 0
0 0 0
0 0 0
0 0 0
0 0 0
0 0 0
0 0 0
0 0 0
0 0 0
0 0 0
0 0 0
0 0 0
0 0 0
0 0 0
0 0 0
0 0 0
0 0 0
0 0 0
0 0 0
0 0 0
0 0 0
0 0 0
0 0 0
0 0 0
0 0 0
0 0 0
0 0 0
0 0 0
0 0 0
0 0 0
0 0 0
0 0 0
0 0 0
0 0 0
0 0 0
0 0 0
0 0 0
0 0 0
0 0 0
0 0 0
0 0 0
0 0 0
0 0 0
0 0 0
0 0 0
0 0 0
0 0 0
0 0 0
0 0 0
0 0 0
0 0 0
0 0 0
0 0 0
0 0 0
0 0 0
0 0 0
0 0 0
0 0 0
0 0 0
0 0 0
0 0 0
0 0 0
0 0 0
0 0 0
0 0 0
0 0 0
0 0 0
0 0 0
0 0 0
0 0 0
0 0 0
0 0 0
0 0 0
0 0 0
0 0 0
0 0 0
0 0 0
0 0 0
0 0 0
0 0 0
0 0 0
0 0 0
0 0 0
0 0 0
0 0 0
0 0 0
0 0 0
0 0 0
0 0 0
0 0 0
0 0 0
0 0 0
0 0 0
0 0 0
0 0 0
0 0 0
0 0 0
0 0 0
0 0 0
0 0 0
0 0 0
0 0 0
0 0 0
0 0 0
0 0 0
0 0 0
0 0 0
0 0 0
0 0 0
0 0 0
0 0 0
0 0 0
0 0 0
0 0 0
0 0 0
0 0 0
0 0 0
0 0 0
0 0 0
0 0 0
0 0 0
0 0 0
0 0 0
0 0 0
0 0 0
0 0 0
0 0 0
0 0 0
0 0 0
0 0 0
0 0 0
0 0 0
0 0 0
0 0 0
0 0 0
0 0 0
0 0 0
0 0 0
0 0 0
0 0 0
0 0 0
0 0 0
0 0 0
0 0 0
0 0 0
0 0 0
0 0 0
0 0 0
0 0 0
0 0 0
0 0 0
0 0 0
0 0 0
0 0 0
0 0 0
0 0 0
0 0 0
0 0 0
0 0 0
0 0 0
0 0 0
0 0 0
0 0 0
0 0 0
0 0 0
0 0 0
0 0 0
0 0 0
0 0 0
0 0 0
0 0 0
0 0 0
0 0 0
0 0 0
0 0 0
0 0 0
0 0 0
0 0 0
0 0 0
0 0 0
0 0 0
0 0 0
0 0 0
0 0 0
0 0 0
0 0 0
0 0 0
0 0 0
0 0 0
0 0 0
0 0 0
0 0 0
0 0 0
0 0 0
0 0 0
0 0 0
0 0 0
0 0 0
0 0 0
0 0 0
0 0 0
0 0 0
0 0 0
0 0 0
0 0 0
0 0 0
0 0 0
0 0 0
0 0 0
0 0 0
0 0 0
0 0 0
0 0 0
0 0 0
0 0 0
0 0 0
0 0 0
0 0 0
0 0 0
0 0 0
0 0 0
0 0 0
0 0 0
0 0 0
0 0 0
0 0 0
0 0 0
0 0 0
0 0 0
0 0 0
0 0 0
0 0 0
0 0 0
0 0 0
0 0 0
0 0 0
0 0 0
0 0 0
0 0 0
0 0 0
0 0 0
0 0 0
0 0 0
0 0 0
0 0 0
0 0 0
0 0 0
0 0 0
0 0 0
0 0 0
0 0 0
0 0 0
0 0 0
0 0 0
0 0 0
0 0 0
0 0 0
0 0 0
0 0 0
0 0 0
0 0 0
0 0 0
0 0 0
0 0 0
0 0 0
0 0 0
0 0 0
0 0 0
0 0 0
0 0 0
0 0 0
0 0 0
0 0 0
0 0 0
0 0 0
0 0 0
0 0 0
0 0 0
0 0 0
0 0 0
0 0 0
0 0 0
0 0 0
0 0 0
0 0 0
0 0 0
0 0 0
0 0 0
0 0 0
0 0 0
0 0 0
0 0 0
0 0 0
0 0 0
0 0 0
0 0 0
0 0 0
0 0 0
0 0 0
0 0 0
0 0 0
0 0 0
0 0 0
0 0 0
0 0 0
0 0 0
0 0 0
0 0 0
0 0 0
0 0 0
0 0 0
0 0 0
0 0 0
0 0 0
0 0 0
0 0 0
0 0 0
0 0 0
0 0 0
0 0 0
0 0 0
0 0 0
0 0 0
0 0 0
0 0 0
0 0 0
0 0 0
0 0 0
0 0 0
0 0 0
0 0 0
0 0 0
0 0 0
0 0 0
0 0 0
0 0 0
0 0 0
0 0 0
0 0 0
0 0 0
0 0 0
0 0 0
0 0 0
0 0 0
0 0 0
0 0 0
0 0 0
0 0 0
0 0 0
0 0 0
0 0 0
0 0 0
0 0 0
0 0 0
0 0 0
0 0 0
0 0 0
0 0 0
0 0 0
0 0 0
0 0 0
0 0 0
0 0 0
0 0 0
0 0 0
0 0 0
0 0 0
0 0 0
0 0 0
0 0 0
0 0 0
0 0 0
0 0 0
0 0 0
0 0 0
0 0 0
0 0 0
0 0 0
0 0 0
0 0 0
0 0 0
0 0 0
0 0 0
0 0 0
0 0 0
0 0 0
0 0 0
0 0 0
0 0 0
0 0 0
0 0 0
0 0 0
0 0 0
0 0 0
0 0 0
0 0 0
0 0 0
0 0 0
0 0 0
0 0 0
0 0 0
0 0 0
0 0 0
0 0 0
0 0 0
0 0 0
0 0 0
0 0 0
0 0 0
0 0 0
0 0 0
0 0 0
0 0 0
0 0 0
0 0 0
0 0 0
0 0 0
0 0 0
0 0 0
0 0 0
0 0 0
0 0 0
0 0 0
0 0 0
0 0 0
0 0 0
0 0 0
0 0 0
0 0 0
0 0 0
0 0 0
0 0 0
0 0 0
0 0 0
0 0 0
0 0 0
0 0 0
0 0 0
0 0 0
0 0 0
0 0 0
0 0 0
0 0 0
0 0 0
0 0 0
0 0 0
0 0 0
0 0 0
0 0 0
0 0 0
0 0 0
0 0 0
0 0 0
0 0 0
0 0 0
0 0 0
0 0 0
0 0 0
0 0 0
0 0 0
0 0 0
0 0 0
0 0 0
0 0 0
0 0 0
0 0 0
0 0 0
0 0 0
0 0 0
0 0 0
0 0 0
0 0 0
0 0 0
0 0 0
0 0 0
0 0 0
0 0 0
0 0 0
0 0 0
0 0 0
0 0 0
0 0 0
0 0 0
0 0 0
0 0 0
0 0 0
0 0 0
0 0 0
0 0 0
0 0 0
0 0 0
0 0 0
0 0 0
0 0 0
0 0 0
0 0 0
0 0 0
0 0 0
0 0 0
0 0 0
0 0 0
0 0 0
0 0 0
0 0 0
0 0 0
0 0 0
0 0 0
0 0 0
0 0 0
0 0 0
0 0 0
0 0 0
0 0 0
0 0 0
0 0 0
0 0 0
0 0 0
0 0 0
0 0 0
0 0 0
0 0 0
0 0 0
0 0 0
0 0 0
0 0 0
0 0 0
0 0 0
0 0 0
0 0 0
0 0 0
0 0 0
0 0 0
0 0 0
0 0 0
0 0 0
0 0 0
0 0 0
0 0 0
0 0 0
0 0 0
0 0 0
0 0 0
0 0 0
0 0 0
0 0 0
0 0 0
0 0 0
0 0 0
0 0 0
0 0 0
0 0 0
0 0 0
0 0 0
0 0 0
0 0 0
0 0 0
0 0 0
0 0 0
0 0 0
0 0 0
0 0 0
0 0 0
0 0 0
0 0 0
0 0 0
0 0 0
0 0 0
0 0 0
0 0 0
0 0 0
0 0 0
0 0 0
0 0 0
0 0 0
0 0 0
0 0 0
0 0 0
0 0 0
0 0 0
0 0 0
0 0 0
0 0 0
0 0 0
0 0 0
0 0 0
0 0 0
0 0 0
0 0 0
0 0 0
0 0 0
0 0 0
0 0 0
0 0 0
0 0 0
0 0 0
0 0 0
0 0 0
0 0 0
0 0 0
0 0 0
0 0 0
0 0 0
0 0 0
0 0 0
0 0 0
0 0 0
0 0 0
0 0 0
0 0 0
0 0 0
0 0 0
0 0 0
0 0 0
0 0 0
0 0 0
0 0 0
0 0 0
0 0 0
0 0 0
0 0 0
0 0 0
0 0 0
0 0 0
0 0 0
0 0 0
0 0 0
0 0 0
0 0 0
0 0 0
0 0 0
0 0 0
0 0 0
0 0 0
0 0 0
0 0 0
0 0 0
0 0 0
0 0 0
0 0 0
0 0 0
0 0 0
0 0 0
0 0 0
0 0 0
0 0 0
0 0 0
0 0 0
0 0 0
0 0 0
0 0 0
0 0 0
0 0 0
0 0 0
0 0 0
0 0 0
0 0 0
0 0 0
0 0 0
0 0 0
0 0 0
0 0 0
0 0 0
0 0 0
0 0 0
0 0 0
0 0 0
0 0 0
0 0 0
0 0 0
0 0 0
0 0 0
0 0 0
0 0 0
0 0 0
0 0 0
0 0 0
0 0 0
0 0 0
0 0 0
0 0 0
0 0 0
0 0 0
0 0 0
0 0 0
0 0 0
0 0 0
0 0 0
0 0 0
0 0 0
0 0 0
0 0 0
0 0 0
0 0 0
0 0 0
0 0 0
0 0 0
0 0 0
0 0 0
0 0 0
0 0 0
0 0 0
0 0 0
0 0 0
0 0 0
0 0 0
0 0 0
0 0 0
0 0 0
0 0 0
0 0 0
0 0 0
0 0 0
0 0 0
0 0 0
0 0 0
0 0 0
0 0 0
0 0 0
0 0 0
0 0 0
0 0 0
0 0 0
0 0 0
0 0 0
0 0 0
0 0 0
0 0 0
0 0 0
0 0 0
0 0 0
0 0 0
0 0 0
0 0 0
0 0 0
0 0 0
0 0 0
0 0 0
0 0 0
0 0 0
0 0 0
0 0 0
0 0 0
0 0 0
0 0 0
0 0 0
0 0 0
0 0 0
0 0 0
0 0 0
0 0 0
0 0 0
0 0 0
0 0 0
0 0 0
0 0 0
0 0 0
0 0 0
0 0 0
0 0 0
0 0 0
0 0 0
0 0 0
0 0 0
0 0 0
0 0 0
0 0 0
0 0 0
0 0 0
0 0 0
0 0 0
0 0 0
0 0 0
0 0 0
0 0 0
0 0 0
0 0 0
0 0 0
0 0 0
0 0 0
0 0 0
0 0 0
0 0 0
0 0 0
0 0 0
0 0 0
0 0 0
0 0 0
0 0 0
0 0 0
0 0 0
0 0 0
0 0 0
0 0 0
0 0 0
0 0 0
0 0 0
0 0 0
0 0 0
0 0 0
0 0 0
0 0 0
0 0 0
0 0 0
0 0 0
0 0 0
0 0 0
0 0 0
0 0 0
0 0 0
0 0 0
0 0 0
0 0 0
0 0 0
0 0 0
0 0 0
0 0 0
0 0 0
0 0 0
0 0 0
0 0 0
0 0 0
0 0 0
0 0 0
0 0 0
0 0 0
0 0 0
0 0 0
0 0 0
0 0 0
0 0 0
0 0 0
0 0 0
0 0 0
0 0 0
0 0 0
0 0 0
0 0 0
0 0 0
0 0 0
0 0 0
0 0 0
0 0 0
0 0 0
0 0 0
0 0 0
0 0 0
0 0 0
0 0 0
0 0 0
0 0 0
0 0 0
0 0 0
0 0 0
0 0 0
0 0 0
0 0 0
0 0 0
0 0 0
0 0 0
0 0 0
0 0 0
0 0 0
0 0 0
0 0 0
0 0 0
0 0 0
0 0 0
0 0 0
0 0 0
0 0 0
0 0 0
0 0 0
0 0 0
0 0 0
0 0 0
0 0 0
0 0 0
0 0 0
0 0 0
0 0 0
0 0 0
0 0 0
0 0 0
0 0 0
0 0 0
0 0 0
0 0 0
0 0 0
0 0 0
0 0 0
0 0 0
0 0 0
0 0 0
0 0 0
0 0 0
0 0 0
0 0 0
0 0 0
0 0 0
0 0 0
0 0 0
0 0 0
0 0 0
0 0 0
0 0 0
0 0 0
0 0 0
0 0 0
0 0 0
0 0 0
0 0 0
0 0 0
0 0 0
0 0 0
0 0 0
0 0 0
0 0 0
0 0 0
0 0 0
0 0 0
0 0 0
0 0 0
0 0 0
0 0 0
0 0 0
0 0 0
0 0 0
0 0 0
0 0 0
0 0 0
0 0 0
0 0 0
0 0 0
0 0 0
0 0 0
0 0 0
0 0 0
0 0 0
0 0 0
0 0 0
0 0 0
0 0 0
0 0 0
0 0 0
0 0 0
0 0 0
0 0 0
0 0 0
0 0 0
0 0 0
0 0 0
0 0 0
0 0 0
0 0 0
0 0 0
0 0 0
0 0 0
0 0 0
0 0 0
0 0 0
0 0 0
0 0 0
0 0 0
0 0 0
0 0 0
0 0 0
0 0 0
0 0 0
0 0 0
0 0 0
0 0 0
0 0 0
0 0 0
0 0 0
0 0 0
0 0 0
0 0 0
0 0 0
0 0 0
0 0 0
0 0 0
0 0 0
0 0 0
0 0 0
0 0 0
0 0 0
0 0 0
0 0 0
0 0 0
0 0 0
0 0 0
0 0 0
0 0 0
0 0 0
0 0 0
0 0 0
0 0 0
0 0 0
0 0 0
0 0 0
0 0 0
0 0 0
0 0 0
0 0 0
0 0 0
0 0 0
0 0 0
0 0 0
0 0 0
0 0 0
0 0 0
0 0 0
0 0 0
0 0 0
0 0 0
0 0 0
0 0 0
0 0 0
0 0 0
0 0 0
0 0 0
0 0 0
0 0 0
0 0 0
0 0 0
0 0 0
0 0 0
0 0 0
0 0 0
0 0 0
0 0 0
0 0 0
0 0 0
0 0 0
0 0 0
0 0 0
0 0 0
0 0 0
0 0 0
0 0 0
0 0 0
0 0 0
0 0 0
0 0 0
0 0 0
0 0 0
0 0 0
0 0 0
0 0 0
0 0 0
0 0 0
0 0 0
0 0 0
0 0 0
0 0 0
0 0 0
0 0 0
0 0 0
0 0 0
0 0 0
0 0 0
0 0 0
0 0 0
0 0 0
0 0 0
0 0 0
0 0 0
0 0 0
0 0 0
0 0 0
0 0 0
0 0 0
0 0 0
0 0 0
0 0 0
0 0 0
0 0 0
0 0 0
0 0 0
0 0 0
0 0 0
0 0 0
0 0 0
0 0 0
0 0 0
0 0 0
0 0 0
0 0 0
0 0 0
0 0 0
0 0 0
0 0 0
0 0 0
0 0 0
0 0 0
0 0 0
0 0 0
0 0 0
0 0 0
0 0 0
0 0 0
0 0 0
0 0 0
0 0 0
0 0 0
0 0 0
0 0 0
0 0 0
0 0 0
0 0 0
0 0 0
0 0 0
0 0 0
0 0 0
0 0 0
0 0 0
0 0 0
0 0 0
0 0 0
0 0 0
0 0 0
0 0 0
0 0 0
0 0 0
0 0 0
0 0 0
0 0 0
0 0 0
0 0 0
0 0 0
0 0 0
0 0 0
0 0 0
0 0 0
0 0 0
0 0 0
0 0 0
0 0 0
0 0 0
0 0 0
0 0 0
0 0 0
0 0 0
0 0 0
0 0 0
0 0 0
0 0 0
0 0 0
0 0 0
0 0 0
0 0 0
0 0 0
0 0 0
0 0 0
0 0 0
0 0 0
0 0 0
0 0 0
0 0 0
0 0 0
0 0 0
0 0 0
0 0 0
0 0 0
0 0 0
0 0 0
0 0 0
0 0 0
0 0 0
0 0 0
0 0 0
0 0 0
0 0 0
0 0 0
0 0 0
0 0 0
0 0 0
0 0 0
0 0 0
0 0 0
0 0 0
0 0 0
0 0 0
0 0 0
0 0 0
0 0 0
0 0 0
0 0 0
0 0 0
0 0 0
0 0 0
0 0 0
0 0 0
0 0 0
0 0 0
0 0 0
0 0 0
0 0 0
0 0 0
0 0 0
0 0 0
0 0 0
0 0 0
0 0 0
0 0 0
0 0 0
0 0 0
0 0 0
0 0 0
0 0 0
0 0 0
0 0 0
0 0 0
0 0 0
0 0 0
0 0 0
0 0 0
0 0 0
0 0 0
0 0 0
0 0 0
0 0 0
0 0 0
0 0 0
0 0 0
0 0 0
0 0 0
0 0 0
0 0 0
0 0 0
0 0 0
0 0 0
0 0 0
0 0 0
0 0 0
0 0 0
0 0 0
0 0 0
0 0 0
0 0 0
0 0 0
0 0 0
0 0 0
0 0 0
0 0 0
0 0 0
0 0 0
0 0 0
0 0 0
0 0 0
0 0 0
0 0 0
0 0 0
0 0 0
0 0 0
0 0 0
0 0 0
0 0 0
0 0 0
0 0 0
0 0 0
0 0 0
0 0 0
0 0 0
0 0 0
0 0 0
0 0 0
0 0 0
0 0 0
0 0 0
0 0 0
0 0 0
0 0 0
0 0 0
0 0 0
0 0 0
0 0 0
0 0 0
0 0 0
0 0 0
0 0 0
0 0 0
0 0 0
0 0 0
0 0 0
0 0 0
0 0 0
0 0 0
0 0 0
0 0 0
0 0 0
0 0 0
0 0 0
0 0 0
0 0 0
0 0 0
0 0 0
0 0 0
0 0 0
0 0 0
0 0 0
0 0 0
0 0 0
0 0 0
0 0 0
0 0 0
0 0 0
0 0 0
0 0 0
0 0 0
0 0 0
0 0 0
0 0 0
0 0 0
0 0 0
0 0 0
0 0 0
0 0 0
0 0 0
0 0 0
0 0 0
0 0 0
0 0 0
0 0 0
0 0 0
0 0 0
0 0 0
0 0 0
0 0 0
0 0 0
0 0 0
0 0 0
0 0 0
0 0 0
0 0 0
0 0 0
0 0 0
0 0 0
0 0 0
0 0 0
0 0 0
0 0 0
0 0 0
0 0 0
0 0 0
0 0 0
0 0 0
0 0 0
0 0 0
0 0 0
0 0 0
0 0 0
0 0 0
0 0 0
0 0 0
0 0 0
0 0 0
0 0 0
0 0 0
0 0 0
0 0 0
0 0 0
0 0 0
0 0 0
0 0 0
0 0 0
0 0 0
0 0 0
0 0 0
0 0 0
0 0 0
0 0 0
0 0 0
0 0 0
0 0 0
0 0 0
0 0 0
0 0 0
0 0 0
0 0 0
0 0 0
0 0 0
0 0 0
0 0 0
0 0 0
0 0 0
0 0 0
0 0 0
0 0 0
0 0 0
0 0 0
0 0 0
0 0 0
0 0 0
0 0 0
0 0 0
0 0 0
0 0 0
0 0 0
0 0 0
0 0 0
0 0 0
0 0 0
0 0 0
0 0 0
0 0 0
0 0 0
0 0 0
0 0 0
0 0 0
0 0 0
0 0 0
0 0 0
0 0 0
0 0 0
0 0 0
0 0 0
0 0 0
0 0 0
0 0 0
0 0 0
0 0 0
0 0 0
0 0 0
0 0 0
0 0 0
0 0 0
0 0 0
0 0 0
0 0 0
0 0 0
0 0 0
0 0 0
0 0 0
0 0 0
0 0 0
0 0 0
0 0 0
0 0 0
0 0 0
0 0 0
0 0 0
0 0 0
0 0 0
0 0 0
0 0 0
0 0 0
0 0 0
0 0 0
0 0 0
0 0 0
0 0 0
0 0 0
0 0 0
0 0 0
0 0 0
0 0 0
0 0 0
0 0 0
0 0 0
0 0 0
0 0 0
0 0 0
0 0 0
0 0 0
0 0 0
0 0 0
0 0 0
0 0 0
0 0 0
0 0 0
0 0 0
0 0 0
0 0 0
0 0 0
0 0 0
0 0 0
0 0 0
0 0 0
0 0 0
0 0 0
0 0 0
0 0 0
0 0 0
0 0 0
0 0 0
0 0 0
0 0 0
0 0 0
0 0 0
0 0 0
0 0 0
0 0 0
0 0 0
0 0 0
0 0 0
0 0 0
0 0 0
0 0 0
0 0 0
0 0 0
0 0 0
0 0 0
0 0 0
0 0 0
0 0 0
0 0 0
0 0 0
0 0 0
0 0 0
0 0 0
0 0 0
0 0 0
0 0 0
0 0 0
0 0 0
0 0 0
0 0 0
0 0 0
0 0 0
0 0 0
0 0 0
0 0 0
0 0 0
0 0 0
0 0 0
0 0 0
0 0 0
0 0 0
0 0 0
0 0 0
0 0 0
0 0 0
0 0 0
0 0 0
0 0 0
0 0 0
0 0 0
0 0 0
0 0 0
0 0 0
0 0 0
0 0 0
0 0 0
0 0 0
0 0 0
0 0 0
0 0 0
0 0 0
0 0 0
0 0 0
0 0 0
0 0 0
0 0 0
0 0 0
0 0 0
0 0 0
0 0 0
0 0 0
0 0 0
0 0 0
0 0 0
0 0 0
0 0 0
0 0 0
0 0 0
0 0 0
0 0 0
0 0 0
0 0 0
0 0 0
0 0 0
0 0 0
0 0 0
0 0 0
0 0 0
0 0 0
0 0 0
0 0 0
0 0 0
0 0 0
0 0 0
0 0 0
0 0 0
0 0 0
0 0 0
0 0 0
0 0 0
0 0 0
0 0 0
0 0 0
0 0 0
0 0 0
0 0 0
0 0 0
0 0 0
0 0 0
0 0 0
0 0 0
0 0 0
0 0 0
0 0 0
0 0 0
0 0 0
0 0 0
0 0 0
0 0 0
0 0 0
0 0 0
0 0 0
0 0 0
0 0 0
0 0 0
0 0 0
0 0 0
0 0 0
0 0 0
0 0 0
0 0 0
0 0 0
0 0 0
0 0 0
0 0 0
0 0 0
0 0 0
0 0 0
0 0 0
0 0 0
0 0 0
0 0 0
0 0 0
0 0 0
0 0 0
0 0 0
0 0 0
0 0 0
0 0 0
0 0 0
0 0 0
0 0 0
0 0 0
0 0 0
0 0 0
0 0 0
0 0 0
0 0 0
0 0 0
0 0 0
0 0 0
0 0 0
0 0 0
0 0 0
0 0 0
0 0 0
0 0 0
0 0 0
0 0 0
0 0 0
0 0 0
0 0 0
0 0 0
0 0 0
0 0 0
0 0 0
0 0 0
0 0 0
0 0 0
0 0 0
0 0 0
0 0 0
0 0 0
0 0 0
0 0 0
0 0 0
0 0 0
0 0 0
0 0 0
0 0 0
0 0 0
0 0 0
0 0 0
0 0 0
0 0 0
0 0 0
0 0 0
0 0 0
0 0 0
0 0 0
0 0 0
0 0 0
0 0 0
0 0 0
0 0 0
0 0 0
0 0 0
0 0 0
0 0 0
0 0 0
0 0 0
0 0 0
0 0 0
0 0 0
0 0 0
0 0 0
0 0 0
0 0 0
0 0 0
0 0 0
0 0 0
0 0 0
0 0 0
0 0 0
0 0 0
0 0 0
0 0 0
0 0 0
0 0 0
0 0 0
0 0 0
0 0 0
0 0 0
0 0 0
0 0 0
0 0 0
0 0 0
0 0 0
0 0 0
0 0 0
0 0 0
0 0 0
0 0 0
0 0 0
0 0 0
0 0 0
0 0 0
0 0 0
0 0 0
0 0 0
0 0 0
0 0 0
0 0 0
0 0 0
0 0 0
0 0 0
0 0 0
0 0 0
0 0 0
0 0 0
0 0 0
0 0 0
0 0 0
0 0 0
0 0 0
0 0 0
0 0 0
0 0 0
0 0 0
0 0 0
0 0 0
0 0 0
0 0 0
0 0 0
0 0 0
0 0 0
0 0 0
0 0 0
0 0 0
0 0 0
0 0 0
0 0 0
0 0 0
0 0 0
0 0 0
0 0 0
0 0 0
0 0 0
0 0 0
0 0 0
0 0 0
0 0 0
0 0 0
0 0 0
0 0 0
0 0 0
0 0 0
0 0 0
0 0 0
0 0 0
0 0 0
0 0 0
0 0 0
0 0 0
0 0 0
0 0 0
0 0 0
0 0 0
0 0 0
0 0 0
0 0 0
0 0 0
0 0 0
0 0 0
0 0 0
0 0 0
0 0 0
0 0 0
0 0 0
0 0 0
0 0 0
0 0 0
0 0 0
0 0 0
0 0 0
0 0 0
0 0 0
0 0 0
0 0 0
0 0 0
0 0 0
0 0 0
0 0 0
0 0 0
0 0 0
0 0 0
0 0 0
0 0 0
0 0 0
0 0 0
0 0 0
0 0 0
0 0 0
0 0 0
0 0 0
0 0 0
0 0 0
0 0 0
0 0 0
0 0 0
0 0 0
0 0 0
0 0 0
0 0 0
0 0 0
0 0 0
0 0 0
0 0 0
0 0 0
0 0 0
0 0 0
0 0 0
0 0 0
0 0 0
0 0 0
0 0 0
0 0 0
0 0 0
0 0 0
0 0 0
0 0 0
0 0 0
0 0 0
0 0 0
0 0 0
0 0 0
0 0 0
0 0 0
0 0 0
0 0 0
0 0 0
0 0 0
0 0 0
0 0 0
0 0 0
0 0 0
0 0 0
0 0 0
0 0 0
0 0 0
0 0 0
0 0 0
0 0 0
0 0 0
0 0 0
0 0 0
0 0 0
0 0 0
0 0 0
0 0 0
0 0 0
0 0 0
0 0 0
0 0 0
0 0 0
0 0 0
0 0 0
0 0 0
0 0 0
0 0 0
0 0 0
0 0 0
0 0 0
0 0 0
0 0 0
0 0 0
0 0 0
0 0 0
0 0 0
0 0 0
0 0 0
0 0 0
0 0 0
0 0 0
0 0 0
0 0 0
0 0 0
0 0 0
0 0 0
0 0 0
0 0 0
0 0 0
0 0 0
0 0 0
0 0 0
0 0 0
0 0 0
0 0 0
0 0 0
0 0 0
0 0 0
0 0 0
0 0 0
0 0 0
0 0 0
0 0 0
0 0 0
0 0 0
0 0 0
0 0 0
0 0 0
0 0 0
0 0 0
0 0 0
0 0 0
0 0 0
0 0 0
0 0 0
0 0 0
0 0 0
0 0 0
0 0 0
0 0 0
0 0 0
0 0 0
0 0 0
0 0 0
0 0 0
0 0 0
0 0 0
0 0 0
0 0 0
0 0 0
0 0 0
0 0 0
0 0 0
0 0 0
0 0 0
0 0 0
0 0 0
0 0 0
0 0 0
0 0 0
0 0 0
0 0 0
0 0 0
0 0 0
0 0 0
0 0 0
0 0 0
0 0 0
0 0 0
0 0 0
0 0 0
0 0 0
0 0 0
0 0 0
0 0 0
0 0 0
0 0 0
0 0 0
0 0 0
0 0 0
0 0 0
0 0 0
0 0 0
0 0 0
0 0 0
0 0 0
0 0 0
0 0 0
0 0 0
0 0 0
0 0 0
0 0 0
0 0 0
0 0 0
0 0 0
0 0 0
0 0 0
0 0 0
0 0 0
0 0 0
0 0 0
0 0 0
0 0 0
0 0 0
0 0 0
0 0 0
0 0 0
0 0 0
0 0 0
0 0 0
0 0 0
0 0 0
0 0 0
0 0 0
0 0 0
0 0 0
0 0 0
0 0 0
0 0 0
0 0 0
0 0 0
0 0 0
0 0 0
0 0 0
0 0 0
0 0 0
0 0 0
0 0 0
0 0 0
0 0 0
0 0 0
0 0 0
0 0 0
0 0 0
0 0 0
0 0 0
0 0 0
0 0 0
0 0 0
0 0 0
0 0 0
0 0 0
0 0 0
0 0 0
0 0 0
0 0 0
0 0 0
0 0 0
0 0 0
0 0 0
0 0 0
0 0 0
0 0 0
0 0 0
0 0 0
0 0 0
0 0 0
0 0 0
0 0 0
0 0 0
0 0 0
0 0 0
0 0 0
0 0 0
0 0 0
0 0 0
0 0 0
0 0 0
0 0 0
0 0 0
0 0 0
0 0 0
0 0 0
0 0 0
0 0 0
0 0 0
0 0 0
0 0 0
0 0 0
0 0 0
0 0 0
0 0 0
0 0 0
0 0 0
0 0 0
0 0 0
0 0 0
0 0 0
0 0 0
0 0 0
0 0 0
0 0 0
0 0 0
0 0 0
0 0 0
0 0 0
0 0 0
0 0 0
0 0 0
0 0 0
0 0 0
0 0 0
0 0 0
0 0 0
0 0 0
0 0 0
0 0 0
0 0 0
0 0 0
0 0 0
0 0 0
0 0 0
0 0 0
0 0 0
0 0 0
0 0 0
0 0 0
0 0 0
0 0 0
0 0 0
0 0 0
0 0 0
0 0 0
0 0 0
0 0 0
0 0 0
0 0 0
0 0 0
0 0 0
0 0 0
0 0 0
0 0 0
0 0 0
0 0 0
0 0 0
0 0 0
0 0 0
0 0 0
0 0 0
0 0 0
0 0 0
0 0 0
0 0 0
0 0 0
0 0 0
0 0 0
0 0 0
0 0 0
0 0 0
0 0 0
0 0 0
0 0 0
0 0 0
0 0 0
0 0 0
0 0 0
0 0 0
0 0 0
0 0 0
0 0 0
0 0 0
0 0 0
0 0 0
0 0 0
0 0 0
0 0 0
0 0 0
0 0 0
0 0 0
0 0 0
0 0 0
0 0 0
0 0 0
0 0 0
0 0 0
0 0 0
0 0 0
0 0 0
0 0 0
0 0 0
0 0 0
0 0 0
0 0 0
0 0 0
0 0 0
0 0 0
0 0 0
0 0 0
0 0 0
0 0 0
0 0 0
0 0 0
0 0 0
0 0 0
0 0 0
0 0 0
0 0 0
0 0 0
0 0 0
0 0 0
0 0 0
0 0 0
0 0 0
0 0 0
0 0 0
0 0 0
0 0 0
0 0 0
0 0 0
0 0 0
0 0 0
0 0 0
0 0 0
0 0 0
0 0 0
0 0 0
0 0 0
0 0 0
0 0 0
0 0 0
0 0 0
0 0 0
0 0 0
0 0 0
0 0 0
0 0 0
0 0 0
0 0 0
0 0 0
0 0 0
0 0 0
0 0 0
0 0 0
0 0 0
0 0 0
0 0 0
0 0 0
0 0 0
0 0 0
0 0 0
0 0 0
0 0 0
0 0 0
0 0 0
0 0 0
0 0 0
0 0 0
0 0 0
0 0 0
0 0 0
0 0 0
0 0 0
0 0 0
0 0 0
0 0 0
0 0 0
0 0 0
0 0 0
0 0 0
0 0 0
0 0 0
0 0 0
0 0 0
0 0 0
0 0 0
0 0 0
0 0 0
0 0 0
0 0 0
0 0 0
0 0 0
0 0 0
0 0 0
0 0 0
0 0 0
0 0 0
0 0 0
0 0 0
0 0 0
0 0 0
0 0 0
0 0 0
0 0 0
0 0 0
0 0 0
0 0 0
0 0 0
0 0 0
0 0 0
0 0 0
0 0 0
0 0 0
0 0 0
0 0 0
0 0 0
0 0 0
0 0 0
0 0 0
0 0 0
0 0 0
0 0 0
0 0 0
0 0 0
0 0 0
0 0 0
0 0 0
0 0 0
0 0 0
0 0 0
0 0 0
0 0 0
0 0 0
0 0 0
0 0 0
0 0 0
0 0 0
0 0 0
0 0 0
0 0 0
0 0 0
0 0 0
0 0 0
0 0 0
0 0 0
0 0 0
0 0 0
0 0 0
0 0 0
0 0 0
0 0 0
0 0 0
0 0 0
0 0 0
0 0 0
0 0 0
0 0 0
0 0 0
0 0 0
0 0 0
0 0 0
0 0 0
0 0 0
0 0 0
0 0 0
0 0 0
0 0 0
0 0 0
0 0 0
0 0 0
0 0 0
0 0 0
0 0 0
0 0 0
0 0 0
0 0 0
0 0 0
0 0 0
0 0 0
0 0 0
0 0 0
0 0 0
0 0 0
0 0 0
0 0 0
0 0 0
0 0 0
0 0 0
0 0 0
0 0 0
0 0 0
0 0 0
0 0 0
0 0 0
0 0 0
0 0 0
0 0 0
0 0 0
0 0 0
0 0 0
0 0 0
0 0 0
0 0 0
0 0 0
0 0 0
0 0 0
0 0 0
0 0 0
0 0 0
0 0 0
0 0 0
0 0 0
0 0 0
0 0 0
0 0 0
0 0 0
0 0 0
0 0 0
0 0 0
0 0 0
0 0 0
0 0 0
0 0 0
0 0 0
0 0 0
0 0 0
0 0 0
0 0 0
0 0 0
0 0 0
0 0 0
0 0 0
0 0 0
0 0 0
0 0 0
0 0 0
0 0 0
0 0 0
0 0 0
0 0 0
0 0 0
0 0 0
0 0 0
0 0 0
0 0 0
0 0 0
0 0 0
0 0 0
0 0 0
0 0 0
0 0 0
0 0 0
0 0 0
0 0 0
0 0 0
0 0 0
0 0 0
0 0 0
0 0 0
0 0 0
0 0 0
0 0 0
0 0 0
0 0 0
0 0 0
0 0 0
0 0 0
0 0 0
0 0 0
0 0 0
0 0 0
0 0 0
0 0 0
0 0 0
0 0 0
0 0 0
0 0 0
0 0 0
0 0 0
0 0 0
0 0 0
0 0 0
0 0 0
0 0 0
0 0 0
0 0 0
0 0 0
0 0 0
0 0 0
0 0 0
0 0 0
0 0 0
0 0 0
0 0 0
0 0 0
0 0 0
0 0 0
0 0 0
0 0 0
0 0 0
0 0 0
0 0 0
0 0 0
0 0 0
0 0 0
0 0 0
0 0 0
0 0 0
0 0 0
0 0 0
0 0 0
0 0 0
0 0 0
0 0 0
0 0 0
0 0 0
0 0 0
0 0 0
0 0 0
0 0 0
0 0 0
0 0 0
0 0 0
0 0 0
0 0 0
0 0 0
0 0 0
0 0 0
0 0 0
0 0 0
0 0 0
0 0 0
0 0 0
0 0 0
0 0 0
0 0 0
0 0 0
0 0 0
0 0 0
0 0 0
0 0 0
0 0 0
0 0 0
0 0 0
0 0 0
0 0 0
0 0 0
0 0 0
0 0 0
0 0 0
0 0 0
0 0 0
0 0 0
0 0 0
0 0 0
0 0 0
0 0 0
0 0 0
0 0 0
0 0 0
0 0 0
0 0 0
0 0 0
0 0 0
0 0 0
0 0 0
0 0 0
0 0 0
0 0 0
0 0 0
0 0 0
0 0 0
0 0 0
0 0 0
0 0 0
0 0 0
0 0 0
0 0 0
0 0 0
0 0 0
0 0 0
0 0 0
0 0 0
0 0 0
0 0 0
0 0 0
0 0 0
0 0 0
0 0 0
0 0 0
0 0 0
0 0 0
0 0 0
0 0 0
0 0 0
0 0 0
0 0 0
0 0 0
0 0 0
0 0 0
0 0 0
0 0 0
0 0 0
0 0 0
0 0 0
0 0 0
0 0 0
0 0 0
0 0 0
0 0 0
0 0 0
0 0 0
0 0 0
0 0 0
0 0 0
0 0 0
0 0 0
0 0 0
0 0 0
0 0 0
0 0 0
0 0 0
0 0 0
0 0 0
0 0 0
0 0 0
0 0 0
0 0 0
0 0 0
0 0 0
0 0 0
0 0 0
0 0 0
0 0 0
0 0 0
0 0 0
0 0 0
0 0 0
0 0 0
0 0 0
0 0 0
0 0 0
0 0 0
0 0 0
0 0 0
0 0 0
0 0 0
0 0 0
0 0 0
0 0 0
0 0 0
0 0 0
0 0 0
0 0 0
0 0 0
0 0 0
0 0 0
0 0 0
0 0 0
0 0 0
0 0 0
0 0 0
0 0 0
0 0 0
0 0 0
0 0 0
0 0 0
0 0 0
0 0 0
0 0 0
0 0 0
0 0 0
0 0 0
0 0 0
0 0 0
0 0 0
0 0 0
0 0 0
0 0 0
0 0 0
0 0 0
0 0 0
0 0 0
0 0 0
0 0 0
0 0 0
0 0 0
0 0 0
0 0 0
0 0 0
0 0 0
0 0 0
0 0 0
0 0 0
0 0 0
0 0 0
0 0 0
0 0 0
0 0 0
0 0 0
0 0 0
0 0 0
0 0 0
0 0 0
0 0 0
0 0 0
0 0 0
0 0 0
0 0 0
0 0 0
0 0 0
0 0 0
0 0 0
0 0 0
0 0 0
0 0 0
0 0 0
0 0 0
0 0 0
0 0 0
0 0 0
0 0 0
0 0 0
0 0 0
0 0 0
0 0 0
0 0 0
0 0 0
0 0 0
0 0 0
0 0 0
0 0 0
0 0 0
0 0 0
0 0 0
0 0 0
0 0 0
0 0 0
0 0 0
0 0 0
0 0 0
0 0 0
0 0 0
0 0 0
0 0 0
0 0 0
0 0 0
0 0 0
0 0 0
0 0 0
0 0 0
0 0 0
0 0 0
0 0 0
0 0 0
0 0 0
0 0 0
0 0 0
0 0 0
0 0 0
0 0 0
0 0 0
0 0 0
0 0 0
0 0 0
0 0 0
0 0 0
0 0 0
0 0 0
0 0 0
0 0 0
0 0 0
0 0 0
0 0 0
0 0 0
0 0 0
0 0 0
0 0 0
0 0 0
0 0 0
0 0 0
0 0 0
0 0 0
0 0 0
0 0 0
0 0 0
0 0 0
0 0 0
0 0 0
0 0 0
0 0 0
0 0 0
0 0 0
0 0 0
0 0 0
0 0 0
0 0 0
0 0 0
0 0 0
0 0 0
0 0 0
0 0 0
0 0 0
0 0 0
0 0 0
0 0 0
0 0 0
0 0 0
0 0 0
0 0 0
0 0 0
0 0 0
0 0 0
0 0 0
0 0 0
0 0 0
0 0 0
0 0 0
0 0 0
0 0 0
0 0 0
0 0 0
0 0 0
0 0 0
0 0 0
0 0 0
0 0 0
0 0 0
0 0 0
0 0 0
0 0 0
0 0 0
0 0 0
0 0 0
0 0 0
0 0 0
0 0 0
0 0 0
0 0 0
0 0 0
0 0 0
0 0 0
0 0 0
0 0 0
0 0 0
0 0 0
0 0 0
0 0 0
0 0 0
0 0 0
0 0 0
0 0 0
0 0 0
0 0 0
0 0 0
0 0 0
0 0 0
0 0 0
0 0 0
0 0 0
0 0 0
0 0 0
0 0 0
0 0 0
0 0 0
0 0 0
0 0 0
0 0 0
0 0 0
0 0 0
0 0 0
0 0 0
0 0 0
0 0 0
0 0 0
0 0 0
0 0 0
0 0 0
0 0 0
0 0 0
0 0 0
0 0 0
0 0 0
0 0 0
0 0 0
0 0 0
0 0 0
0 0 0
0 0 0
0 0 0
0 0 0
0 0 0
0 0 0
0 0 0
0 0 0
0 0 0
0 0 0
0 0 0
0 0 0
0 0 0
0 0 0
0 0 0
0 0 0
0 0 0
0 0 0
0 0 0
0 0 0
0 0 0
0 0 0
0 0 0
0 0 0
0 0 0
0 0 0
0 0 0
0 0 0
0 0 0
0 0 0
0 0 0
0 0 0
0 0 0
0 0 0
0 0 0
0 0 0
0 0 0
0 0 0
0 0 0
0 0 0
0 0 0
0 0 0
0 0 0
0 0 0
0 0 0
0 0 0
0 0 0
0 0 0
0 0 0
0 0 0
0 0 0
0 0 0
0 0 0
0 0 0
0 0 0
0 0 0
0 0 0
0 0 0
0 0 0
0 0 0
0 0 0
0 0 0
0 0 0
0 0 0
0 0 0
0 0 0
0 0 0
0 0 0
0 0 0
0 0 0
0 0 0
0 0 0
0 0 0
0 0 0
0 0 0
0 0 0
0 0 0
0 0 0
0 0 0
0 0 0
0 0 0
0 0 0
0 0 0
0 0 0
0 0 0
0 0 0
0 0 0
0 0 0
0 0 0
0 0 0
0 0 0
0 0 0
0 0 0
0 0 0
0 0 0
0 0 0
0 0 0
0 0 0
0 0 0
0 0 0
0 0 0
0 0 0
0 0 0
0 0 0
0 0 0
0 0 0
0 0 0
0 0 0
0 0 0
0 0 0
0 0 0
0 0 0
0 0 0
0 0 0
0 0 0
0 0 0
0 0 0
0 0 0
0 0 0
0 0 0
0 0 0
0 0 0
0 0 0
0 0 0
0 0 0
0 0 0
0 0 0
0 0 0
0 0 0
0 0 0
0 0 0
0 0 0
0 0 0
0 0 0
0 0 0
0 0 0
0 0 0
0 0 0
0 0 0
0 0 0
0 0 0
0 0 0
0 0 0
0 0 0
0 0 0
0 0 0
0 0 0
0 0 0
0 0 0
0 0 0
0 0 0
0 0 0
0 0 0
0 0 0
0 0 0
0 0 0
0 0 0
0 0 0
0 0 0
0 0 0
0 0 0
0 0 0
0 0 0
0 0 0
0 0 0
0 0 0
0 0 0
0 0 0
0 0 0
0 0 0
0 0 0
0 0 0
0 0 0
0 0 0
0 0 0
0 0 0
0 0 0
0 0 0
0 0 0
0 0 0
0 0 0
0 0 0
0 0 0
0 0 0
0 0 0
0 0 0
0 0 0
0 0 0
0 0 0
0 0 0
0 0 0
0 0 0
0 0 0
0 0 0
0 0 0
0 0 0
0 0 0
0 0 0
0 0 0
0 0 0
0 0 0
0 0 0
0 0 0
0 0 0
0 0 0
0 0 0
0 0 0
0 0 0
0 0 0
0 0 0
0 0 0
0 0 0
0 0 0
0 0 0
0 0 0
0 0 0
0 0 0
0 0 0
0 0 0
0 0 0
0 0 0
0 0 0
0 0 0
0 0 0
0 0 0
0 0 0
0 0 0
0 0 0
0 0 0
0 0 0
0 0 0
0 0 0
0 0 0
0 0 0
0 0 0
0 0 0
0 0 0
0 0 0
0 0 0
0 0 0
0 0 0
0 0 0
0 0 0
0 0 0
0 0 0
0 0 0
0 0 0
0 0 0
0 0 0
0 0 0
0 0 0
0 0 0
0 0 0
0 0 0
0 0 0
0 0 0
0 0 0
0 0 0
0 0 0
0 0 0
0 0 0
0 0 0
0 0 0
0 0 0
0 0 0
0 0 0
0 0 0
0 0 0
0 0 0
0 0 0
0 0 0
0 0 0
0 0 0
0 0 0
0 0 0
0 0 0
0 0 0
0 0 0
0 0 0
0 0 0
0 0 0
0 0 0
0 0 0
0 0 0
0 0 0
0 0 0
0 0 0
0 0 0
0 0 0
0 0 0
0 0 0
0 0 0
0 0 0
0 0 0
0 0 0
0 0 0
0 0 0
0 0 0
0 0 0
0 0 0
0 0 0
0 0 0
0 0 0
0 0 0
0 0 0
0 0 0
0 0 0
0 0 0
0 0 0
0 0 0
0 0 0
0 0 0
0 0 0
0 0 0
0 0 0
0 0 0
0 0 0
0 0 0
0 0 0
0 0 0
0 0 0
0 0 0
0 0 0
0 0 0
0 0 0
0 0 0
0 0 0
0 0 0
0 0 0
0 0 0
0 0 0
0 0 0
0 0 0
0 0 0
0 0 0
0 0 0
0 0 0
0 0 0
0 0 0
0 0 0
0 0 0
0 0 0
0 0 0
0 0 0
0 0 0
0 0 0
0 0 0
0 0 0
0 0 0
0 0 0
0 0 0
0 0 0
0 0 0
0 0 0
0 0 0
0 0 0
0 0 0
0 0 0
0 0 0
0 0 0
0 0 0
0 0 0
0 0 0
0 0 0
0 0 0
0 0 0
0 0 0
0 0 0
0 0 0
0 0 0
0 0 0
0 0 0
0 0 0
0 0 0
0 0 0
0 0 0
0 0 0
0 0 0
0 0 0
0 0 0
0 0 0
0 0 0
0 0 0
0 0 0
0 0 0
0 0 0
0 0 0
0 0 0
0 0 0
0 0 0
0 0 0
0 0 0
0 0 0
0 0 0
0 0 0
0 0 0
0 0 0
0 0 0
0 0 0
0 0 0
0 0 0
0 0 0
0 0 0
0 0 0
0 0 0
0 0 0
0 0 0
0 0 0
0 0 0
0 0 0
0 0 0
0 0 0
0 0 0
0 0 0
0 0 0
0 0 0
0 0 0
0 0 0
0 0 0
0 0 0
0 0 0
0 0 0
0 0 0
0 0 0
0 0 0
0 0 0
0 0 0
0 0 0
0 0 0
0 0 0
0 0 0
0 0 0
0 0 0
0 0 0
0 0 0
0 0 0
0 0 0
0 0 0
0 0 0
0 0 0
0 0 0
0 0 0
0 0 0
0 0 0
0 0 0
0 0 0
0 0 0
0 0 0
0 0 0
0 0 0
0 0 0
0 0 0
0 0 0
0 0 0
0 0 0
0 0 0
0 0 0
0 0 0
0 0 0
0 0 0
0 0 0
0 0 0
0 0 0
0 0 0
0 0 0
0 0 0
0 0 0
0 0 0
0 0 0
0 0 0
0 0 0
0 0 0
0 0 0
0 0 0
0 0 0
0 0 0
0 0 0
0 0 0
0 0 0
0 0 0
0 0 0
0 0 0
0 0 0
0 0 0
0 0 0
0 0 0
0 0 0
0 0 0
0 0 0
0 0 0
0 0 0
0 0 0
0 0 0
0 0 0
0 0 0
0 0 0
0 0 0
0 0 0
0 0 0
0 0 0
0 0 0
0 0 0
0 0 0
0 0 0
0 0 0
0 0 0
0 0 0
0 0 0
0 0 0
0 0 0
0 0 0
0 0 0
0 0 0
0 0 0
0 0 0
0 0 0
0 0 0
0 0 0
0 0 0
0 0 0
0 0 0
0 0 0
0 0 0
0 0 0
0 0 0
0 0 0
0 0 0
0 0 0
0 0 0
0 0 0
0 0 0
0 0 0
0 0 0
0 0 0
0 0 0
0 0 0
0 0 0
0 0 0
0 0 0
0 0 0
0 0 0
0 0 0
0 0 0
0 0 0
0 0 0
0 0 0
0 0 0
0 0 0
0 0 0
0 0 0
0 0 0
0 0 0
0 0 0
0 0 0
0 0 0
0 0 0
0 0 0
0 0 0
0 0 0
0 0 0
0 0 0
0 0 0
0 0 0
0 0 0
0 0 0
0 0 0
0 0 0
0 0 0
0 0 0
0 0 0
0 0 0
0 0 0
0 0 0
0 0 0
0 0 0
0 0 0
0 0 0
0 0 0
0 0 0
0 0 0
0 0 0
0 0 0
0 0 0
0 0 0
0 0 0
0 0 0
0 0 0
0 0 0
0 0 0
0 0 0
0 0 0
0 0 0
0 0 0
0 0 0
0 0 0
0 0 0
0 0 0
0 0 0
0 0 0
0 0 0
0 0 0
0 0 0
0 0 0
0 0 0
0 0 0
0 0 0
0 0 0
0 0 0
0 0 0
0 0 0
0 0 0
0 0 0
0 0 0
0 0 0
0 0 0
0 0 0
0 0 0
0 0 0
0 0 0
0 0 0
0 0 0
0 0 0
0 0 0
0 0 0
0 0 0
0 0 0
0 0 0
0 0 0
0 0 0
0 0 0
0 0 0
0 0 0
0 0 0
0 0 0
0 0 0
0 0 0
0 0 0
0 0 0
0 0 0
0 0 0
0 0 0
0 0 0
0 0 0
0 0 0
0 0 0
0 0 0
0 0 0
0 0 0
0 0 0
0 0 0
0 0 0
0 0 0
0 0 0
0 0 0
0 0 0
0 0 0
0 0 0
0 0 0
0 0 0
0 0 0
0 0 0
0 0 0
0 0 0
0 0 0
0 0 0
0 0 0
0 0 0
0 0 0
0 0 0
0 0 0
0 0 0
0 0 0
0 0 0
0 0 0
0 0 0
0 0 0
0 0 0
0 0 0
0 0 0
0 0 0
0 0 0
0 0 0
0 0 0
0 0 0
0 0 0
0 0 0
0 0 0
0 0 0
0 0 0
0 0 0
0 0 0
0 0 0
0 0 0
0 0 0
0 0 0
0 0 0
0 0 0
0 0 0
0 0 0
0 0 0
0 0 0
0 0 0
0 0 0
0 0 0
0 0 0
0 0 0
0 0 0
0 0 0
0 0 0
0 0 0
0 0 0
0 0 0
0 0 0
0 0 0
0 0 0
0 0 0
0 0 0
0 0 0
0 0 0
0 0 0
0 0 0
0 0 0
0 0 0
0 0 0
0 0 0
0 0 0
0 0 0
0 0 0
0 0 0
0 0 0
0 0 0
0 0 0
0 0 0
0 0 0
0 0 0
0 0 0
0 0 0
0 0 0
0 0 0
0 0 0
0 0 0
0 0 0
0 0 0
0 0 0
0 0 0
0 0 0
0 0 0
0 0 0
0 0 0
0 0 0
0 0 0
0 0 0
0 0 0
0 0 0
0 0 0
0 0 0
0 0 0
0 0 0
0 0 0
0 0 0
0 0 0
0 0 0
0 0 0
0 0 0
0 0 0
0 0 0
0 0 0
0 0 0
0 0 0
0 0 0
0 0 0
0 0 0
0 0 0
0 0 0
0 0 0
0 0 0
0 0 0
0 0 0
0 0 0
0 0 0
0 0 0
0 0 0
0 0 0
0 0 0
0 0 0
0 0 0
0 0 0
0 0 0
0 0 0
0 0 0
0 0 0
0 0 0
0 0 0
0 0 0
0 0 0
0 0 0
0 0 0
0 0 0
0 0 0
0 0 0
0 0 0
0 0 0
0 0 0
0 0 0
0 0 0
0 0 0
0 0 0
0 0 0
0 0 0
0 0 0
0 0 0
0 0 0
0 0 0
0 0 0
0 0 0
0 0 0
0 0 0
0 0 0
0 0 0
0 0 0
0 0 0
0 0 0
0 0 0
0 0 0
0 0 0
0 0 0
0 0 0
0 0 0
0 0 0
0 0 0
0 0 0
0 0 0
0 0 0
0 0 0
0 0 0
0 0 0
0 0 0
0 0 0
0 0 0
0 0 0
0 0 0
0 0 0
0 0 0
0 0 0
0 0 0
0 0 0
0 0 0
0 0 0
0 0 0
0 0 0
0 0 0
0 0 0
0 0 0
0 0 0
0 0 0
0 0 0
0 0 0
0 0 0
0 0 0
0 0 0
0 0 0
0 0 0
0 0 0
0 0 0
0 0 0
0 0 0
0 0 0
0 0 0
0 0 0
0 0 0
0 0 0
0 0 0
0 0 0
0 0 0
0 0 0
0 0 0
0 0 0
0 0 0
0 0 0
0 0 0
0 0 0
0 0 0
0 0 0
0 0 0
0 0 0
0 0 0
0 0 0
0 0 0
0 0 0
0 0 0
0 0 0
0 0 0
0 0 0
0 0 0
0 0 0
0 0 0
0 0 0
0 0 0
0 0 0
0 0 0
0 0 0
0 0 0
0 0 0
0 0 0
0 0 0
0 0 0
0 0 0
0 0 0
0 0 0
0 0 0
0 0 0
0 0 0
0 0 0
0 0 0
0 0 0
0 0 0
0 0 0
0 0 0
0 0 0
0 0 0
0 0 0
0 0 0
0 0 0
0 0 0
0 0 0
0 0 0
0 0 0
0 0 0
0 0 0
0 0 0
0 0 0
0 0 0
0 0 0
0 0 0
0 0 0
0 0 0
0 0 0
0 0 0
0 0 0
0 0 0
0 0 0
0 0 0
0 0 0
0 0 0
0 0 0
0 0 0
0 0 0
0 0 0
0 0 0
0 0 0
0 0 0
0 0 0
0 0 0
0 0 0
0 0 0
0 0 0
0 0 0
0 0 0
0 0 0
0 0 0
0 0 0
0 0 0
0 0 0
0 0 0
0 0 0
0 0 0
0 0 0
0 0 0
0 0 0
0 0 0
0 0 0
0 0 0
0 0 0
0 0 0
0 0 0
0 0 0
0 0 0
0 0 0
0 0 0
0 0 0
0 0 0
0 0 0
0 0 0
0 0 0
0 0 0
0 0 0
0 0 0
0 0 0
0 0 0
0 0 0
0 0 0
0 0 0
0 0 0
0 0 0
0 0 0
0 0 0
0 0 0
0 0 0
0 0 0
0 0 0
0 0 0
0 0 0
0 0 0
0 0 0
0 0 0
0 0 0
0 0 0
0 0 0
0 0 0
0 0 0
0 0 0
0 0 0
0 0 0
0 0 0
0 0 0
0 0 0
0 0 0
0 0 0
0 0 0
0 0 0
0 0 0
0 0 0
0 0 0
0 0 0
0 0 0
0 0 0
0 0 0
0 0 0
0 0 0
0 0 0
0 0 0
0 0 0
0 0 0
0 0 0
0 0 0
0 0 0
0 0 0
0 0 0
0 0 0
0 0 0
0 0 0
0 0 0
0 0 0
0 0 0
0 0 0
0 0 0
0 0 0
0 0 0
0 0 0
0 0 0
0 0 0
0 0 0
0 0 0
0 0 0
0 0 0
0 0 0
0 0 0
0 0 0
0 0 0
0 0 0
0 0 0
0 0 0
0 0 0
0 0 0
0 0 0
0 0 0
0 0 0
0 0 0
0 0 0
0 0 0
0 0 0
0 0 0
0 0 0
0 0 0
0 0 0
0 0 0
0 0 0
0 0 0
0 0 0
0 0 0
0 0 0
0 0 0
0 0 0
0 0 0
0 0 0
0 0 0
0 0 0
0 0 0
0 0 0
0 0 0
0 0 0
0 0 0
0 0 0
0 0 0
0 0 0
0 0 0
0 0 0
0 0 0
0 0 0
0 0 0
0 0 0
0 0 0
0 0 0
0 0 0
0 0 0
0 0 0
0 0 0
0 0 0
0 0 0
0 0 0
0 0 0
0 0 0
0 0 0
0 0 0
0 0 0
0 0 0
0 0 0
0 0 0
0 0 0
0 0 0
0 0 0
0 0 0
0 0 0
0 0 0
0 0 0
0 0 0
0 0 0
0 0 0
0 0 0
0 0 0
0 0 0
0 0 0
0 0 0
0 0 0
0 0 0
0 0 0
0 0 0
0 0 0
0 0 0
0 0 0
0 0 0
0 0 0
0 0 0
0 0 0
0 0 0
0 0 0
0 0 0
0 0 0
0 0 0
0 0 0
0 0 0
0 0 0
0 0 0
0 0 0
0 0 0
0 0 0
0 0 0
0 0 0
0 0 0
0 0 0
0 0 0
0 0 0
0 0 0
0 0 0
0 0 0
0 0 0
0 0 0
0 0 0
0 0 0
0 0 0
0 0 0
0 0 0
0 0 0
0 0 0
0 0 0
0 0 0
0 0 0
0 0 0
0 0 0
0 0 0
0 0 0
0 0 0
0 0 0
0 0 0
0 0 0
0 0 0
0 0 0
0 0 0
0 0 0
0 0 0
0 0 0
0 0 0
0 0 0
0 0 0
0 0 0
0 0 0
0 0 0
0 0 0
0 0 0
0 0 0
0 0 0
0 0 0
0 0 0
0 0 0
0 0 0
0 0 0
0 0 0
0 0 0
0 0 0
0 0 0
0 0 0
0 0 0
0 0 0
0 0 0
0 0 0
0 0 0
0 0 0
0 0 0
0 0 0
0 0 0
0 0 0
0 0 0
0 0 0
0 0 0
0 0 0
0 0 0
0 0 0
0 0 0
0 0 0
0 0 0
0 0 0
0 0 0
0 0 0
0 0 0
0 0 0
0 0 0
0 0 0
0 0 0
0 0 0
0 0 0
0 0 0
0 0 0
0 0 0
0 0 0
0 0 0
0 0 0
0 0 0
0 0 0
0 0 0
0 0 0
0 0 0
0 0 0
0 0 0
0 0 0
0 0 0
0 0 0
0 0 0
0 0 0
0 0 0
0 0 0
0 0 0
0 0 0
0 0 0
0 0 0
0 0 0
0 0 0
0 0 0
0 0 0
0 0 0
0 0 0
0 0 0
0 0 0
0 0 0
0 0 0
0 0 0
0 0 0
0 0 0
0 0 0
0 0 0
0 0 0
0 0 0
0 0 0
0 0 0
0 0 0
0 0 0
0 0 0
0 0 0
0 0 0
0 0 0
0 0 0
0 0 0
0 0 0
0 0 0
0 0 0
0 0 0
0 0 0
0 0 0
0 0 0
0 0 0
0 0 0
0 0 0
0 0 0
0 0 0
0 0 0
0 0 0
0 0 0
0 0 0
0 0 0
0 0 0
0 0 0
0 0 0
0 0 0
0 0 0
0 0 0
0 0 0
0 0 0
0 0 0
0 0 0
0 0 0
0 0 0
0 0 0
0 0 0
0 0 0
0 0 0
0 0 0
0 0 0
0 0 0
0 0 0
0 0 0
0 0 0
0 0 0
0 0 0
0 0 0
0 0 0
0 0 0
0 0 0
0 0 0
0 0 0
0 0 0
0 0 0
0 0 0
0 0 0
0 0 0
0 0 0
0 0 0
0 0 0
0 0 0
0 0 0
0 0 0
0 0 0
0 0 0
0 0 0
0 0 0
0 0 0
0 0 0
0 0 0
0 0 0
0 0 0
0 0 0
0 0 0
0 0 0
0 0 0
0 0 0
0 0 0
0 0 0
0 0 0
0 0 0
0 0 0
0 0 0
0 0 0
0 0 0
0 0 0
0 0 0
0 0 0
0 0 0
0 0 0
0 0 0
0 0 0
0 0 0
0 0 0
0 0 0
0 0 0
0 0 0
0 0 0
0 0 0
0 0 0
0 0 0
0 0 0
0 0 0
0 0 0
0 0 0
0 0 0
0 0 0
0 0 0
0 0 0
0 0 0
0 0 0
0 0 0
0 0 0
0 0 0
0 0 0
0 0 0
0 0 0
0 0 0
0 0 0
0 0 0
0 0 0
0 0 0
0 0 0
0 0 0
0 0 0
0 0 0
0 0 0
0 0 0
0 0 0
0 0 0
0 0 0
0 0 0
0 0 0
0 0 0
0 0 0
0 0 0
0 0 0
0 0 0
0 0 0
0 0 0
0 0 0
0 0 0
0 0 0
0 0 0
0 0 0
0 0 0
0 0 0
0 0 0
0 0 0
0 0 0
0 0 0
0 0 0
0 0 0
0 0 0
0 0 0
0 0 0
0 0 0
0 0 0
0 0 0
0 0 0
0 0 0
0 0 0
0 0 0
0 0 0
0 0 0
0 0 0
0 0 0
0 0 0
0 0 0
0 0 0
0 0 0
0 0 0
0 0 0
0 0 0
0 0 0
0 0 0
0 0 0
0 0 0
0 0 0
0 0 0
0 0 0
0 0 0
0 0 0
0 0 0
0 0 0
0 0 0
0 0 0
0 0 0
0 0 0
0 0 0
0 0 0
0 0 0
0 0 0
0 0 0
0 0 0
0 0 0
0 0 0
0 0 0
0 0 0
0 0 0
0 0 0
0 0 0
0 0 0
0 0 0
0 0 0
0 0 0
0 0 0
0 0 0
0 0 0
0 0 0
0 0 0
0 0 0
0 0 0
0 0 0
0 0 0
0 0 0
0 0 0
0 0 0
0 0 0
0 0 0
0 0 0
0 0 0
0 0 0
0 0 0
0 0 0
0 0 0
0 0 0
0 0 0
0 0 0
0 0 0
0 0 0
0 0 0
0 0 0
0 0 0
0 0 0
0 0 0
0 0 0
0 0 0
0 0 0
0 0 0
0 0 0
0 0 0
0 0 0
0 0 0
0 0 0
0 0 0
0 0 0
0 0 0
0 0 0
0 0 0
0 0 0
0 0 0
0 0 0
0 0 0
0 0 0
0 0 0
0 0 0
0 0 0
0 0 0
0 0 0
0 0 0
0 0 0
0 0 0
0 0 0
0 0 0
0 0 0
0 0 0
0 0 0
0 0 0
0 0 0
0 0 0
0 0 0
0 0 0
0 0 0
0 0 0
0 0 0
0 0 0
0 0 0
0 0 0
0 0 0
0 0 0
0 0 0
0 0 0
0 0 0
0 0 0
0 0 0
0 0 0
0 0 0
0 0 0
0 0 0
0 0 0
0 0 0
0 0 0
0 0 0
0 0 0
0 0 0
0 0 0
0 0 0
0 0 0
0 0 0
0 0 0
0 0 0
0 0 0
0 0 0
0 0 0
0 0 0
0 0 0
0 0 0
0 0 0
0 0 0
0 0 0
0 0 0
0 0 0
0 0 0
0 0 0
0 0 0
0 0 0
0 0 0
0 0 0
0 0 0
0 0 0
0 0 0
0 0 0
0 0 0
0 0 0
0 0 0
0 0 0
0 0 0
0 0 0
0 0 0
0 0 0
0 0 0
0 0 0
0 0 0
0 0 0
0 0 0
0 0 0
0 0 0
0 0 0
0 0 0
0 0 0
0 0 0
0 0 0
0 0 0
0 0 0
0 0 0
0 0 0
0 0 0
0 0 0
0 0 0
0 0 0
0 0 0
0 0 0
0 0 0
0 0 0
0 0 0
0 0 0
0 0 0
0 0 0
0 0 0
0 0 0
0 0 0
0 0 0
0 0 0
0 0 0
0 0 0
0 0 0
0 0 0
0 0 0
0 0 0
0 0 0
0 0 0
0 0 0
0 0 0
0 0 0
0 0 0
0 0 0
0 0 0
0 0 0
0 0 0
0 0 0
0 0 0
0 0 0
0 0 0
0 0 0
0 0 0
0 0 0
0 0 0
0 0 0
0 0 0
0 0 0
0 0 0
0 0 0
0 0 0
0 0 0
0 0 0
0 0 0
0 0 0
0 0 0
0 0 0
0 0 0
0 0 0
0 0 0
0 0 0
0 0 0
0 0 0
0 0 0
0 0 0
0 0 0
0 0 0
0 0 0
0 0 0
0 0 0
0 0 0
0 0 0
0 0 0
0 0 0
0 0 0
0 0 0
0 0 0
0 0 0
0 0 0
0 0 0
0 0 0
0 0 0
0 0 0
0 0 0
0 0 0
0 0 0
0 0 0
0 0 0
0 0 0
0 0 0
0 0 0
0 0 0
0 0 0
0 0 0
0 0 0
0 0 0
0 0 0
0 0 0
0 0 0
0 0 0
0 0 0
0 0 0
0 0 0
0 0 0
0 0 0
0 0 0
0 0 0
0 0 0
0 0 0
0 0 0
0 0 0
0 0 0
0 0 0
0 0 0
0 0 0
0 0 0
0 0 0
0 0 0
0 0 0
0 0 0
0 0 0
0 0 0
0 0 0
0 0 0
0 0 0
0 0 0
0 0 0
0 0 0
0 0 0
0 0 0
0 0 0
0 0 0
0 0 0
0 0 0
0 0 0
0 0 0
0 0 0
0 0 0
0 0 0
0 0 0
0 0 0
0 0 0
0 0 0
0 0 0
0 0 0
0 0 0
0 0 0
0 0 0
0 0 0
0 0 0
0 0 0
0 0 0
0 0 0
0 0 0
0 0 0
0 0 0
0 0 0
0 0 0
0 0 0
0 0 0
0 0 0
0 0 0
0 0 0
0 0 0
0 0 0
0 0 0
0 0 0
0 0 0
0 0 0
0 0 0
0 0 0
0 0 0
0 0 0
0 0 0
0 0 0
0 0 0
0 0 0
0 0 0
0 0 0
0 0 0
0 0 0
0 0 0
0 0 0
0 0 0
0 0 0
0 0 0
0 0 0
0 0 0
0 0 0
0 0 0
0 0 0
0 0 0
0 0 0
0 0 0
0 0 0
0 0 0
0 0 0
0 0 0
0 0 0
0 0 0
0 0 0
0 0 0
0 0 0
0 0 0
0 0 0
0 0 0
0 0 0
0 0 0
0 0 0
0 0 0
0 0 0
0 0 0
0 0 0
0 0 0
0 0 0
0 0 0
0 0 0
0 0 0
0 0 0
0 0 0
0 0 0
0 0 0
0 0 0
0 0 0
0 0 0
0 0 0
0 0 0
0 0 0
0 0 0
0 0 0
0 0 0
0 0 0
0 0 0
0 0 0
0 0 0
0 0 0
0 0 0
0 0 0
0 0 0
0 0 0
0 0 0
0 0 0
0 0 0
0 0 0
0 0 0
0 0 0
0 0 0
0 0 0
0 0 0
0 0 0
0 0 0
0 0 0
0 0 0
0 0 0
0 0 0
0 0 0
0 0 0
0 0 0
0 0 0
0 0 0
0 0 0
0 0 0
0 0 0
0 0 0
0 0 0
0 0 0
0 0 0
0 0 0
0 0 0
0 0 0
0 0 0
0 0 0
0 0 0
0 0 0
0 0 0
0 0 0
0 0 0
0 0 0
0 0 0
0 0 0
0 0 0
0 0 0
0 0 0
0 0 0
0 0 0
0 0 0
0 0 0
0 0 0
0 0 0
0 0 0
0 0 0
0 0 0
0 0 0
0 0 0
0 0 0
0 0 0
0 0 0
0 0 0
0 0 0
0 0 0
0 0 0
0 0 0
0 0 0
0 0 0
0 0 0
0 0 0
0 0 0
0 0 0
0 0 0
0 0 0
0 0 0
0 0 0
0 0 0
0 0 0
0 0 0
0 0 0
0 0 0
0 0 0
0 0 0
0 0 0
0 0 0
0 0 0
0 0 0
0 0 0
0 0 0
0 0 0
0 0 0
0 0 0
0 0 0
0 0 0
0 0 0
0 0 0
0 0 0
0 0 0
0 0 0
0 0 0
0 0 0
0 0 0
0 0 0
0 0 0
0 0 0
0 0 0
0 0 0
0 0 0
0 0 0
0 0 0
0 0 0
0 0 0
0 0 0
0 0 0
0 0 0
0 0 0
0 0 0
0 0 0
0 0 0
0 0 0
0 0 0
0 0 0
0 0 0
0 0 0
0 0 0
0 0 0
0 0 0
0 0 0
0 0 0
0 0 0
0 0 0
0 0 0
0 0 0
0 0 0
0 0 0
0 0 0
0 0 0
0 0 0
0 0 0
0 0 0
0 0 0
0 0 0
0 0 0
0 0 0
0 0 0
0 0 0
0 0 0
0 0 0
0 0 0
0 0 0
0 0 0
0 0 0
0 0 0
0 0 0
0 0 0
0 0 0
0 0 0
0 0 0
0 0 0
0 0 0
0 0 0
0 0 0
0 0 0
0 0 0
0 0 0
0 0 0
0 0 0
0 0 0
0 0 0
0 0 0
0 0 0
0 0 0
0 0 0
0 0 0
0 0 0
0 0 0
0 0 0
0 0 0
0 0 0
0 0 0
0 0 0
0 0 0
0 0 0
0 0 0
0 0 0
0 0 0
0 0 0
0 0 0
0 0 0
0 0 0
0 0 0
0 0 0
0 0 0
0 0 0
0 0 0
0 0 0
0 0 0
0 0 0
0 0 0
0 0 0
0 0 0
0 0 0
0 0 0
0 0 0
0 0 0
0 0 0
0 0 0
0 0 0
0 0 0
0 0 0
0 0 0
0 0 0
0 0 0
0 0 0
0 0 0
0 0 0
0 0 0
0 0 0
0 0 0
0 0 0
0 0 0
0 0 0
0 0 0
0 0 0
0 0 0
0 0 0
0 0 0
0 0 0
0 0 0
0 0 0
0 0 0
0 0 0
0 0 0
0 0 0
0 0 0
0 0 0
0 0 0
0 0 0
0 0 0
0 0 0
0 0 0
0 0 0
0 0 0
0 0 0
0 0 0
0 0 0
0 0 0
0 0 0
0 0 0
0 0 0
0 0 0
0 0 0
0 0 0
0 0 0
0 0 0
0 0 0
0 0 0
0 0 0
0 0 0
0 0 0
0 0 0
0 0 0
0 0 0
0 0 0
0 0 0
0 0 0
0 0 0
0 0 0
0 0 0
0 0 0
0 0 0
0 0 0
0 0 0
0 0 0
0 0 0
0 0 0
0 0 0
0 0 0
0 0 0
0 0 0
0 0 0
0 0 0
0 0 0
0 0 0
0 0 0
0 0 0
0 0 0
0 0 0
0 0 0
0 0 0
0 0 0
0 0 0
0 0 0
0 0 0
0 0 0
0 0 0
0 0 0
0 0 0
0 0 0
0 0 0
0 0 0
0 0 0
0 0 0
0 0 0
0 0 0
0 0 0
0 0 0
0 0 0
0 0 0
0 0 0
0 0 0
0 0 0
0 0 0
0 0 0
0 0 0
0 0 0
0 0 0
0 0 0
0 0 0
0 0 0
0 0 0
0 0 0
0 0 0
0 0 0
0 0 0
0 0 0
0 0 0
0 0 0
0 0 0
0 0 0
0 0 0
0 0 0
0 0 0
0 0 0
0 0 0
0 0 0
0 0 0
0 0 0
0 0 0
0 0 0
0 0 0
0 0 0
0 0 0
0 0 0
0 0 0
0 0 0
0 0 0
0 0 0
0 0 0
0 0 0
0 0 0
0 0 0
0 0 0
0 0 0
0 0 0
0 0 0
0 0 0
0 0 0
0 0 0
0 0 0
0 0 0
0 0 0
0 0 0
0 0 0
0 0 0
0 0 0
0 0 0
0 0 0
0 0 0
0 0 0
0 0 0
0 0 0
0 0 0
0 0 0
0 0 0
0 0 0
0 0 0
0 0 0
0 0 0
0 0 0
0 0 0
0 0 0
0 0 0
0 0 0
0 0 0
0 0 0
0 0 0
0 0 0
0 0 0
0 0 0
0 0 0
0 0 0
0 0 0
0 0 0
0 0 0
0 0 0
0 0 0
0 0 0
0 0 0
0 0 0
0 0 0
0 0 0
0 0 0
0 0 0
0 0 0
0 0 0
0 0 0
0 0 0
0 0 0
0 0 0
0 0 0
0 0 0
0 0 0
0 0 0
0 0 0
0 0 0
0 0 0
0 0 0
0 0 0
0 0 0
0 0 0
0 0 0
0 0 0
0 0 0
0 0 0
0 0 0
0 0 0
0 0 0
0 0 0
0 0 0
0 0 0
0 0 0
0 0 0
0 0 0
0 0 0
0 0 0
0 0 0
0 0 0
0 0 0
0 0 0
0 0 0
0 0 0
0 0 0
0 0 0
0 0 0
0 0 0
0 0 0
0 0 0
0 0 0
0 0 0
0 0 0
0 0 0
0 0 0
0 0 0
0 0 0
0 0 0
0 0 0
0 0 0
0 0 0
0 0 0
0 0 0
0 0 0
0 0 0
0 0 0
0 0 0
0 0 0
0 0 0
0 0 0
0 0 0
0 0 0
0 0 0
0 0 0
0 0 0
0 0 0
0 0 0
0 0 0
0 0 0
0 0 0
0 0 0
0 0 0
0 0 0
0 0 0
0 0 0
0 0 0
0 0 0
0 0 0
0 0 0
0 0 0
0 0 0
0 0 0
0 0 0
0 0 0
0 0 0
0 0 0
0 0 0
0 0 0
0 0 0
0 0 0
0 0 0
0 0 0
0 0 0
0 0 0
0 0 0
0 0 0
0 0 0
0 0 0
0 0 0
0 0 0
0 0 0
0 0 0
0 0 0
0 0 0
0 0 0
0 0 0
0 0 0
0 0 0
0 0 0
0 0 0
0 0 0
0 0 0
0 0 0
0 0 0
0 0 0
0 0 0
0 0 0
0 0 0
0 0 0
0 0 0
0 0 0
0 0 0
0 0 0
0 0 0
0 0 0
0 0 0
0 0 0
0 0 0
0 0 0
0 0 0
0 0 0
0 0 0
0 0 0
0 0 0
0 0 0
0 0 0
0 0 0
0 0 0
0 0 0
0 0 0
0 0 0
0 0 0
0 0 0
0 0 0
0 0 0
0 0 0
0 0 0
0 0 0
0 0 0
0 0 0
0 0 0
0 0 0
0 0 0
0 0 0
0 0 0
0 0 0
0 0 0
0 0 0
0 0 0
0 0 0
0 0 0
0 0 0
0 0 0
0 0 0
0 0 0
0 0 0
0 0 0
0 0 0
0 0 0
0 0 0
0 0 0
0 0 0
0 0 0
0 0 0
0 0 0
0 0 0
0 0 0
0 0 0
0 0 0
0 0 0
0 0 0
0 0 0
0 0 0
0 0 0
0 0 0
0 0 0
0 0 0
0 0 0
0 0 0
0 0 0
0 0 0
0 0 0
0 0 0
0 0 0
0 0 0
0 0 0
0 0 0
0 0 0
0 0 0
0 0 0
0 0 0
0 0 0
0 0 0
0 0 0
0 0 0
0 0 0
0 0 0
0 0 0
0 0 0
0 0 0
0 0 0
0 0 0
0 0 0
0 0 0
0 0 0
0 0 0
0 0 0
0 0 0
0 0 0
0 0 0
0 0 0
0 0 0
0 0 0
0 0 0
0 0 0
0 0 0
0 0 0
0 0 0
0 0 0
0 0 0
0 0 0
0 0 0
0 0 0
0 0 0
0 0 0
0 0 0
0 0 0
0 0 0
0 0 0
0 0 0
0 0 0
0 0 0
0 0 0
0 0 0
0 0 0
0 0 0
0 0 0
0 0 0
0 0 0
0 0 0
0 0 0
0 0 0
0 0 0
0 0 0
0 0 0
0 0 0
0 0 0
0 0 0
0 0 0
0 0 0
0 0 0
0 0 0
0 0 0
0 0 0
0 0 0
0 0 0
0 0 0
0 0 0
0 0 0
0 0 0
0 0 0
0 0 0
0 0 0
0 0 0
0 0 0
0 0 0
0 0 0
0 0 0
0 0 0
0 0 0
0 0 0
0 0 0
0 0 0
0 0 0
0 0 0
0 0 0
0 0 0
0 0 0
0 0 0
0 0 0
0 0 0
0 0 0
0 0 0
0 0 0
0 0 0
0 0 0
0 0 0
0 0 0
0 0 0
0 0 0
0 0 0
0 0 0
0 0 0
0 0 0
0 0 0
0 0 0
0 0 0
0 0 0
0 0 0
0 0 0
0 0 0
0 0 0
0 0 0
0 0 0
0 0 0
0 0 0
0 0 0
0 0 0
0 0 0
0 0 0
0 0 0
0 0 0
0 0 0
0 0 0
0 0 0
0 0 0
0 0 0
0 0 0
0 0 0
0 0 0
0 0 0
0 0 0
0 0 0
0 0 0
0 0 0
0 0 0
0 0 0
0 0 0
0 0 0
0 0 0
0 0 0
0 0 0
0 0 0
0 0 0
0 0 0
0 0 0
0 0 0
0 0 0
0 0 0
0 0 0
0 0 0
0 0 0
0 0 0
0 0 0
0 0 0
0 0 0
0 0 0
0 0 0
0 0 0
0 0 0
0 0 0
0 0 0
0 0 0
0 0 0
0 0 0
0 0 0
0 0 0
0 0 0
0 0 0
0 0 0
0 0 0
0 0 0
0 0 0
0 0 0
0 0 0
0 0 0
0 0 0
0 0 0
0 0 0
0 0 0
0 0 0
0 0 0
0 0 0
0 0 0
0 0 0
0 0 0
0 0 0
0 0 0
0 0 0
0 0 0
0 0 0
0 0 0
0 0 0
0 0 0
0 0 0
0 0 0
0 0 0
0 0 0
0 0 0
0 0 0
0 0 0
0 0 0
0 0 0
0 0 0
0 0 0
0 0 0
0 0 0
0 0 0
0 0 0
0 0 0
0 0 0
0 0 0
0 0 0
0 0 0
0 0 0
0 0 0
0 0 0
0 0 0
0 0 0
0 0 0
0 0 0
0 0 0
0 0 0
0 0 0
0 0 0
0 0 0
0 0 0
0 0 0
0 0 0
0 0 0
0 0 0
0 0 0
0 0 0
0 0 0
0 0 0
0 0 0
0 0 0
0 0 0
0 0 0
0 0 0
0 0 0
0 0 0
0 0 0
0 0 0
0 0 0
0 0 0
0 0 0
0 0 0
0 0 0
0 0 0
0 0 0
0 0 0
0 0 0
0 0 0
0 0 0
0 0 0
0 0 0
0 0 0
0 0 0
0 0 0
0 0 0
0 0 0
0 0 0
0 0 0
0 0 0
0 0 0
0 0 0
0 0 0
0 0 0
0 0 0
0 0 0
0 0 0
0 0 0
0 0 0
0 0 0
0 0 0
0 0 0
0 0 0
0 0 0
0 0 0
0 0 0
0 0 0
0 0 0
0 0 0
0 0 0
0 0 0
0 0 0
0 0 0
0 0 0
0 0 0
0 0 0
0 0 0
0 0 0
0 0 0
0 0 0
0 0 0
0 0 0
0 0 0
0 0 0
0 0 0
0 0 0
0 0 0
0 0 0
0 0 0
0 0 0
0 0 0
0 0 0
0 0 0
0 0 0
0 0 0
0 0 0
0 0 0
0 0 0
0 0 0
0 0 0
0 0 0
0 0 0
0 0 0
0 0 0
0 0 0
0 0 0
0 0 0
0 0 0
0 0 0
0 0 0
0 0 0
0 0 0
0 0 0
0 0 0
0 0 0
0 0 0
0 0 0
0 0 0
0 0 0
0 0 0
0 0 0
0 0 0
0 0 0
0 0 0
0 0 0
0 0 0
0 0 0
0 0 0
0 0 0
0 0 0
0 0 0
0 0 0
0 0 0
0 0 0
0 0 0
0 0 0
0 0 0
0 0 0
0 0 0
0 0 0
0 0 0
0 0 0
0 0 0
0 0 0
0 0 0
0 0 0
0 0 0
0 0 0
0 0 0
0 0 0
0 0 0
0 0 0
0 0 0
0 0 0
0 0 0
0 0 0
0 0 0
0 0 0
0 0 0
0 0 0
0 0 0
0 0 0
0 0 0
0 0 0
0 0 0
0 0 0
0 0 0
0 0 0
0 0 0
0 0 0
0 0 0
0 0 0
0 0 0
0 0 0
0 0 0
0 0 0
0 0 0
0 0 0
0 0 0
0 0 0
0 0 0
0 0 0
0 0 0
0 0 0
0 0 0
0 0 0
0 0 0
0 0 0
0 0 0
0 0 0
0 0 0
0 0 0
0 0 0
0 0 0
0 0 0
0 0 0
0 0 0
0 0 0
0 0 0
0 0 0
0 0 0
0 0 0
0 0 0
0 0 0
0 0 0
0 0 0
0 0 0
0 0 0
0 0 0
0 0 0
0 0 0
0 0 0
0 0 0
0 0 0
0 0 0
0 0 0
0 0 0
0 0 0
0 0 0
0 0 0
0 0 0
0 0 0
0 0 0
0 0 0
0 0 0
0 0 0
0 0 0
0 0 0
0 0 0
0 0 0
0 0 0
0 0 0
0 0 0
0 0 0
0 0 0
0 0 0
0 0 0
0 0 0
0 0 0
0 0 0
0 0 0
0 0 0
0 0 0
0 0 0
0 0 0
0 0 0
0 0 0
0 0 0
0 0 0
0 0 0
0 0 0
0 0 0
0 0 0
0 0 0
0 0 0
0 0 0
0 0 0
0 0 0
0 0 0
0 0 0
0 0 0
0 0 0
0 0 0
0 0 0
0 0 0
0 0 0
0 0 0
0 0 0
0 0 0
0 0 0
0 0 0
0 0 0
0 0 0
0 0 0
0 0 0
0 0 0
0 0 0
0 0 0
0 0 0
0 0 0
0 0 0
0 0 0
0 0 0
0 0 0
0 0 0
0 0 0
0 0 0
0 0 0
0 0 0
0 0 0
0 0 0
0 0 0
0 0 0
0 0 0
0 0 0
0 0 0
0 0 0
0 0 0
0 0 0
0 0 0
0 0 0
0 0 0
0 0 0
0 0 0
0 0 0
0 0 0
0 0 0
0 0 0
0 0 0
0 0 0
0 0 0
0 0 0
0 0 0
0 0 0
0 0 0
0 0 0
0 0 0
0 0 0
0 0 0
0 0 0
0 0 0
0 0 0
0 0 0
0 0 0
0 0 0
0 0 0
0 0 0
0 0 0
0 0 0
0 0 0
0 0 0
0 0 0
0 0 0
0 0 0
0 0 0
0 0 0
0 0 0
0 0 0
0 0 0
0 0 0
0 0 0
0 0 0
0 0 0
0 0 0
0 0 0
0 0 0
0 0 0
0 0 0
0 0 0
0 0 0
0 0 0
0 0 0
0 0 0
0 0 0
0 0 0
0 0 0
0 0 0
0 0 0
0 0 0
0 0 0
0 0 0
0 0 0
0 0 0
0 0 0
0 0 0
0 0 0
0 0 0
0 0 0
0 0 0
0 0 0
0 0 0
0 0 0
0 0 0
0 0 0
0 0 0
0 0 0
0 0 0
0 0 0
0 0 0
0 0 0
0 0 0
0 0 0
0 0 0
0 0 0
0 0 0
0 0 0
0 0 0
0 0 0
0 0 0
0 0 0
0 0 0
0 0 0
0 0 0
0 0 0
0 0 0
0 0 0
0 0 0
0 0 0
0 0 0
0 0 0
0 0 0
0 0 0
0 0 0
0 0 0
0 0 0
0 0 0
0 0 0
0 0 0
0 0 0
0 0 0
0 0 0
0 0 0
0 0 0
0 0 0
0 0 0
0 0 0
0 0 0
0 0 0
0 0 0
0 0 0
0 0 0
0 0 0
0 0 0
0 0 0
0 0 0
0 0 0
0 0 0
0 0 0
0 0 0
0 0 0
0 0 0
0 0 0
0 0 0
0 0 0
0 0 0
0 0 0
0 0 0
0 0 0
0 0 0
0 0 0
0 0 0
0 0 0
0 0 0
0 0 0
0 0 0
0 0 0
0 0 0
0 0 0
0 0 0
0 0 0
0 0 0
0 0 0
0 0 0
0 0 0
0 0 0
0 0 0
0 0 0
0 0 0
0 0 0
0 0 0
0 0 0
0 0 0
0 0 0
0 0 0
0 0 0
0 0 0
0 0 0
0 0 0
0 0 0
0 0 0
0 0 0
0 0 0
0 0 0
0 0 0
0 0 0
0 0 0
0 0 0
0 0 0
0 0 0
0 0 0
0 0 0
0 0 0
0 0 0
0 0 0
0 0 0
0 0 0
0 0 0
0 0 0
0 0 0
0 0 0
0 0 0
0 0 0
0 0 0
0 0 0
0 0 0
0 0 0
0 0 0
0 0 0
0 0 0
0 0 0
0 0 0
0 0 0
0 0 0
0 0 0
0 0 0
0 0 0
0 0 0
0 0 0
0 0 0
0 0 0
0 0 0
0 0 0
0 0 0
0 0 0
0 0 0
0 0 0
0 0 0
0 0 0
0 0 0
0 0 0
0 0 0
0 0 0
0 0 0
0 0 0
0 0 0
0 0 0
0 0 0
0 0 0
0 0 0
0 0 0
0 0 0
0 0 0
0 0 0
0 0 0
0 0 0
0 0 0
0 0 0
0 0 0
0 0 0
0 0 0
0 0 0
0 0 0
0 0 0
0 0 0
0 0 0
0 0 0
0 0 0
0 0 0
0 0 0
0 0 0
0 0 0
0 0 0
0 0 0
0 0 0
0 0 0
0 0 0
0 0 0
0 0 0
0 0 0
0 0 0
0 0 0
0 0 0
0 0 0
0 0 0
0 0 0
0 0 0
0 0 0
0 0 0
0 0 0
0 0 0
0 0 0
0 0 0
0 0 0
0 0 0
0 0 0
0 0 0
0 0 0
0 0 0
0 0 0
0 0 0
0 0 0
0 0 0
0 0 0
0 0 0
0 0 0
0 0 0
0 0 0
0 0 0
0 0 0
0 0 0
0 0 0
0 0 0
0 0 0
0 0 0
0 0 0
0 0 0
0 0 0
0 0 0
0 0 0
0 0 0
0 0 0
0 0 0
0 0 0
0 0 0
0 0 0
0 0 0
0 0 0
0 0 0
0 0 0
0 0 0
0 0 0
0 0 0
0 0 0
0 0 0
0 0 0
0 0 0
0 0 0
0 0 0
0 0 0
0 0 0
0 0 0
0 0 0
0 0 0
0 0 0
0 0 0
0 0 0
0 0 0
0 0 0
0 0 0
0 0 0
0 0 0
0 0 0
0 0 0
0 0 0
0 0 0
0 0 0
0 0 0
0 0 0
0 0 0
0 0 0
0 0 0
0 0 0
0 0 0
0 0 0
0 0 0
0 0 0
0 0 0
0 0 0
0 0 0
0 0 0
0 0 0
0 0 0
0 0 0
0 0 0
0 0 0
0 0 0
0 0 0
0 0 0
0 0 0
0 0 0
0 0 0
0 0 0
0 0 0
0 0 0
0 0 0
0 0 0
0 0 0
0 0 0
0 0 0
0 0 0
0 0 0
0 0 0
0 0 0
0 0 0
0 0 0
0 0 0
0 0 0
0 0 0
0 0 0
0 0 0
0 0 0
0 0 0
0 0 0
0 0 0
0 0 0
0 0 0
0 0 0
0 0 0
0 0 0
0 0 0
0 0 0
0 0 0
0 0 0
0 0 0
0 0 0
0 0 0
0 0 0
0 0 0
0 0 0
0 0 0
0 0 0
0 0 0
0 0 0
0 0 0
0 0 0
0 0 0
0 0 0
0 0 0
0 0 0
0 0 0
0 0 0
0 0 0
0 0 0
0 0 0
0 0 0
0 0 0
0 0 0
0 0 0
0 0 0
0 0 0
0 0 0
0 0 0
0 0 0
0 0 0
0 0 0
0 0 0
0 0 0
0 0 0
0 0 0
0 0 0
0 0 0
0 0 0
0 0 0
0 0 0
0 0 0
0 0 0
0 0 0
0 0 0
0 0 0
0 0 0
0 0 0
0 0 0
0 0 0
0 0 0
0 0 0
0 0 0
0 0 0
0 0 0
0 0 0
0 0 0
0 0 0
0 0 0
0 0 0
0 0 0
0 0 0
0 0 0
0 0 0
0 0 0
0 0 0
0 0 0
0 0 0
0 0 0
0 0 0
0 0 0
0 0 0
0 0 0
0 0 0
0 0 0
0 0 0
0 0 0
0 0 0
0 0 0
0 0 0
0 0 0
0 0 0
0 0 0
0 0 0
0 0 0
0 0 0
0 0 0
0 0 0
0 0 0
0 0 0
0 0 0
0 0 0
0 0 0
0 0 0
0 0 0
0 0 0
0 0 0
0 0 0
0 0 0
0 0 0
0 0 0
0 0 0
0 0 0
0 0 0
0 0 0
0 0 0
0 0 0
0 0 0
0 0 0
0 0 0
0 0 0
0 0 0
0 0 0
0 0 0
0 0 0
0 0 0
0 0 0
0 0 0
0 0 0
0 0 0
0 0 0
0 0 0
0 0 0
0 0 0
0 0 0
0 0 0
0 0 0
0 0 0
0 0 0
0 0 0
0 0 0
0 0 0
0 0 0
0 0 0
0 0 0
0 0 0
0 0 0
0 0 0
0 0 0
0 0 0
0 0 0
0 0 0
0 0 0
0 0 0
0 0 0
0 0 0
0 0 0
0 0 0
0 0 0
0 0 0
0 0 0
0 0 0
0 0 0
0 0 0
0 0 0
0 0 0
0 0 0
0 0 0
0 0 0
0 0 0
0 0 0
0 0 0
0 0 0
0 0 0
0 0 0
0 0 0
0 0 0
0 0 0
0 0 0
0 0 0
0 0 0
0 0 0
0 0 0
0 0 0
0 0 0
0 0 0
0 0 0
0 0 0
0 0 0
0 0 0
0 0 0
0 0 0
0 0 0
0 0 0
0 0 0
0 0 0
0 0 0
0 0 0
0 0 0
0 0 0
0 0 0
0 0 0
0 0 0
0 0 0
0 0 0
0 0 0
0 0 0
0 0 0
0 0 0
0 0 0
0 0 0
0 0 0
0 0 0
0 0 0
0 0 0
0 0 0
0 0 0
0 0 0
0 0 0
0 0 0
0 0 0
0 0 0
0 0 0
0 0 0
0 0 0
0 0 0
0 0 0
0 0 0
0 0 0
0 0 0
0 0 0
0 0 0
0 0 0
0 0 0
0 0 0
0 0 0
0 0 0
0 0 0
0 0 0
0 0 0
0 0 0
0 0 0
0 0 0
0 0 0
0 0 0
0 0 0
0 0 0
0 0 0
0 0 0
0 0 0
0 0 0
0 0 0
0 0 0
0 0 0
0 0 0
0 0 0
0 0 0
0 0 0
0 0 0
0 0 0
0 0 0
0 0 0
0 0 0
0 0 0
0 0 0
0 0 0
0 0 0
0 0 0
0 0 0
0 0 0
0 0 0
0 0 0
0 0 0
0 0 0
0 0 0
0 0 0
0 0 0
0 0 0
0 0 0
0 0 0
0 0 0
0 0 0
0 0 0
0 0 0
0 0 0
0 0 0
0 0 0
0 0 0
0 0 0
0 0 0
0 0 0
0 0 0
0 0 0
0 0 0
0 0 0
0 0 0
0 0 0
0 0 0
0 0 0
0 0 0
0 0 0
0 0 0
0 0 0
0 0 0
0 0 0
0 0 0
0 0 0
0 0 0
0 0 0
0 0 0
0 0 0
0 0 0
0 0 0
0 0 0
0 0 0
0 0 0
0 0 0
0 0 0
0 0 0
0 0 0
0 0 0
0 0 0
0 0 0
0 0 0
0 0 0
0 0 0
0 0 0
0 0 0
0 0 0
0 0 0
0 0 0
0 0 0
0 0 0
0 0 0
0 0 0
0 0 0
0 0 0
0 0 0
0 0 0
0 0 0
0 0 0
0 0 0
0 0 0
0 0 0
0 0 0
0 0 0
0 0 0
0 0 0
0 0 0
0 0 0
0 0 0
0 0 0
0 0 0
0 0 0
0 0 0
0 0 0
0 0 0
0 0 0
0 0 0
0 0 0
0 0 0
0 0 0
0 0 0
0 0 0
0 0 0
0 0 0
0 0 0
0 0 0
0 0 0
0 0 0
0 0 0
0 0 0
0 0 0
0 0 0
0 0 0
0 0 0
0 0 0
0 0 0
0 0 0
0 0 0
0 0 0
0 0 0
0 0 0
0 0 0
0 0 0
0 0 0
0 0 0
0 0 0
0 0 0
0 0 0
0 0 0
0 0 0
0 0 0
0 0 0
0 0 0
0 0 0
0 0 0
0 0 0
0 0 0
0 0 0
0 0 0
0 0 0
0 0 0
0 0 0
0 0 0
0 0 0
0 0 0
0 0 0
0 0 0
0 0 0
0 0 0
0 0 0
0 0 0
0 0 0
0 0 0
0 0 0
0 0 0
0 0 0
0 0 0
0 0 0
0 0 0
0 0 0
0 0 0
0 0 0
0 0 0
0 0 0
0 0 0
0 0 0
0 0 0
0 0 0
0 0 0
0 0 0
0 0 0
0 0 0
0 0 0
0 0 0
0 0 0
0 0 0
0 0 0
0 0 0
0 0 0
0 0 0
0 0 0
0 0 0
0 0 0
0 0 0
0 0 0
0 0 0
0 0 0
0 0 0
0 0 0
0 0 0
0 0 0
0 0 0
0 0 0
0 0 0
0 0 0
0 0 0
0 0 0
0 0 0
0 0 0
0 0 0
0 0 0
0 0 0
0 0 0
0 0 0
0 0 0
0 0 0
0 0 0
0 0 0
0 0 0
0 0 0
0 0 0
0 0 0
0 0 0
0 0 0
0 0 0
0 0 0
0 0 0
0 0 0
0 0 0
0 0 0
0 0 0
0 0 0
0 0 0
0 0 0
0 0 0
0 0 0
0 0 0
0 0 0
0 0 0
0 0 0
0 0 0
0 0 0
0 0 0
0 0 0
0 0 0
0 0 0
0 0 0
0 0 0
0 0 0
0 0 0
0 0 0
0 0 0
0 0 0
0 0 0
0 0 0
0 0 0
0 0 0
0 0 0
0 0 0
0 0 0
0 0 0
0 0 0
0 0 0
0 0 0
0 0 0
0 0 0
0 0 0
0 0 0
0 0 0
0 0 0
0 0 0
0 0 0
0 0 0
0 0 0
0 0 0
0 0 0
0 0 0
0 0 0
0 0 0
0 0 0
0 0 0
0 0 0
0 0 0
0 0 0
0 0 0
0 0 0
0 0 0
0 0 0
0 0 0
0 0 0
0 0 0
0 0 0
0 0 0
0 0 0
0 0 0
0 0 0
0 0 0
0 0 0
0 0 0
0 0 0
0 0 0
0 0 0
0 0 0
0 0 0
0 0 0
0 0 0
0 0 0
0 0 0
0 0 0
0 0 0
0 0 0
0 0 0
0 0 0
0 0 0
0 0 0
0 0 0
0 0 0
0 0 0
0 0 0
0 0 0
0 0 0
0 0 0
0 0 0
0 0 0
0 0 0
0 0 0
0 0 0
0 0 0
0 0 0
0 0 0
0 0 0
0 0 0
0 0 0
0 0 0
0 0 0
0 0 0
0 0 0
0 0 0
0 0 0
0 0 0
0 0 0
0 0 0
0 0 0
0 0 0
0 0 0
0 0 0
0 0 0
0 0 0
0 0 0
0 0 0
0 0 0
0 0 0
0 0 0
0 0 0
0 0 0
0 0 0
0 0 0
0 0 0
0 0 0
0 0 0
0 0 0
0 0 0
0 0 0
0 0 0
0 0 0
0 0 0
0 0 0
0 0 0
0 0 0
0 0 0
0 0 0
0 0 0
0 0 0
0 0 0
0 0 0
0 0 0
0 0 0
0 0 0
0 0 0
0 0 0
0 0 0
0 0 0
0 0 0
0 0 0
0 0 0
0 0 0
0 0 0
0 0 0
0 0 0
0 0 0
0 0 0
0 0 0
0 0 0
0 0 0
0 0 0
0 0 0
0 0 0
0 0 0
0 0 0
0 0 0
0 0 0
0 0 0
0 0 0
0 0 0
0 0 0
0 0 0
0 0 0
0 0 0
0 0 0
0 0 0
0 0 0
0 0 0
0 0 0
0 0 0
0 0 0
0 0 0
0 0 0
0 0 0
0 0 0
0 0 0
0 0 0
0 0 0
0 0 0
0 0 0
0 0 0
0 0 0
0 0 0
0 0 0
0 0 0
0 0 0
0 0 0
0 0 0
0 0 0
0 0 0
0 0 0
0 0 0
0 0 0
0 0 0
0 0 0
0 0 0
0 0 0
0 0 0
0 0 0
0 0 0
0 0 0
0 0 0
0 0 0
0 0 0
0 0 0
0 0 0
0 0 0
0 0 0
0 0 0
0 0 0
0 0 0
0 0 0
0 0 0
0 0 0
0 0 0
0 0 0
0 0 0
0 0 0
0 0 0
0 0 0
0 0 0
0 0 0
0 0 0
0 0 0
0 0 0
0 0 0
0 0 0
0 0 0
0 0 0
0 0 0
0 0 0
0 0 0
0 0 0
0 0 0
0 0 0
0 0 0
0 0 0
0 0 0
0 0 0
0 0 0
0 0 0
0 0 0
0 0 0
0 0 0
0 0 0
0 0 0
0 0 0
0 0 0
0 0 0
0 0 0
0 0 0
0 0 0
0 0 0
0 0 0
0 0 0
0 0 0
0 0 0
0 0 0
0 0 0
0 0 0
0 0 0
0 0 0
0 0 0
0 0 0
0 0 0
0 0 0
0 0 0
0 0 0
0 0 0
0 0 0
0 0 0
0 0 0
0 0 0
0 0 0
0 0 0
0 0 0
0 0 0
0 0 0
0 0 0
0 0 0
0 0 0
0 0 0
0 0 0
0 0 0
0 0 0
0 0 0
0 0 0
0 0 0
0 0 0
0 0 0
0 0 0
0 0 0
0 0 0
0 0 0
0 0 0
0 0 0
0 0 0
0 0 0
0 0 0
0 0 0
0 0 0
0 0 0
0 0 0
0 0 0
0 0 0
0 0 0
0 0 0
0 0 0
0 0 0
0 0 0
0 0 0
0 0 0
0 0 0
0 0 0
0 0 0
0 0 0
0 0 0
0 0 0
0 0 0
0 0 0
0 0 0
0 0 0
0 0 0
0 0 0
0 0 0
0 0 0
0 0 0
0 0 0
0 0 0
0 0 0
0 0 0
0 0 0
0 0 0
0 0 0
0 0 0
0 0 0
0 0 0
0 0 0
0 0 0
0 0 0
0 0 0
0 0 0
0 0 0
0 0 0
0 0 0
0 0 0
0 0 0
0 0 0
0 0 0
0 0 0
0 0 0
0 0 0
0 0 0
0 0 0
0 0 0
0 0 0
0 0 0
0 0 0
0 0 0
0 0 0
0 0 0
0 0 0
0 0 0
0 0 0
0 0 0
0 0 0
0 0 0
0 0 0
0 0 0
0 0 0
0 0 0
0 0 0
0 0 0
0 0 0
0 0 0
0 0 0
0 0 0
0 0 0
0 0 0
0 0 0
0 0 0
0 0 0
0 0 0
0 0 0
0 0 0
0 0 0
0 0 0
0 0 0
0 0 0
0 0 0
0 0 0
0 0 0
0 0 0
0 0 0
0 0 0
0 0 0
0 0 0
0 0 0
0 0 0
0 0 0
0 0 0
0 0 0
0 0 0
0 0 0
0 0 0
0 0 0
0 0 0
0 0 0
0 0 0
0 0 0
0 0 0
0 0 0
0 0 0
0 0 0
0 0 0
0 0 0
0 0 0
0 0 0
0 0 0
0 0 0
0 0 0
0 0 0
0 0 0
0 0 0
0 0 0
0 0 0
0 0 0
0 0 0
0 0 0
0 0 0
0 0 0
0 0 0
0 0 0
0 0 0
0 0 0
0 0 0
0 0 0
0 0 0
0 0 0
0 0 0
0 0 0
0 0 0
0 0 0
0 0 0
0 0 0
0 0 0
0 0 0
0 0 0
0 0 0
0 0 0
0 0 0
0 0 0
0 0 0
0 0 0
0 0 0
0 0 0
0 0 0
0 0 0
0 0 0
0 0 0
0 0 0
0 0 0
0 0 0
0 0 0
0 0 0
0 0 0
0 0 0
0 0 0
0 0 0
0 0 0
0 0 0
0 0 0
0 0 0
0 0 0
0 0 0
0 0 0
0 0 0
0 0 0
0 0 0
0 0 0
0 0 0
0 0 0
0 0 0
0 0 0
0 0 0
0 0 0
0 0 0
0 0 0
0 0 0
0 0 0
0 0 0
0 0 0
0 0 0
0 0 0
0 0 0
0 0 0
0 0 0
0 0 0
0 0 0
0 0 0
0 0 0
0 0 0
0 0 0
0 0 0
0 0 0
0 0 0
0 0 0
0 0 0
0 0 0
0 0 0
0 0 0
0 0 0
0 0 0
0 0 0
0 0 0
0 0 0
0 0 0
0 0 0
0 0 0
0 0 0
0 0 0
0 0 0
0 0 0
0 0 0
0 0 0
0 0 0
0 0 0
0 0 0
0 0 0
0 0 0
0 0 0
0 0 0
0 0 0
0 0 0
0 0 0
0 0 0
0 0 0
0 0 0
0 0 0
0 0 0
0 0 0
0 0 0
0 0 0
0 0 0
0 0 0
0 0 0
0 0 0
0 0 0
0 0 0
0 0 0
0 0 0
0 0 0
0 0 0
0 0 0
0 0 0
0 0 0
0 0 0
0 0 0
0 0 0
0 0 0
0 0 0
0 0 0
0 0 0
0 0 0
0 0 0
0 0 0
0 0 0
0 0 0
0 0 0
0 0 0
0 0 0
0 0 0
0 0 0
0 0 0
0 0 0
0 0 0
0 0 0
0 0 0
0 0 0
0 0 0
0 0 0
0 0 0
0 0 0
0 0 0
0 0 0
0 0 0
0 0 0
0 0 0
0 0 0
0 0 0
0 0 0
0 0 0
0 0 0
0 0 0
0 0 0
0 0 0
0 0 0
0 0 0
0 0 0
0 0 0
0 0 0
0 0 0
0 0 0
0 0 0
0 0 0
0 0 0
0 0 0
0 0 0
0 0 0
0 0 0
0 0 0
0 0 0
0 0 0
0 0 0
0 0 0
0 0 0
0 0 0
0 0 0
0 0 0
0 0 0
0 0 0
0 0 0
0 0 0
0 0 0
0 0 0
0 0 0
0 0 0
0 0 0
0 0 0
0 0 0
0 0 0
0 0 0
0 0 0
0 0 0
0 0 0
0 0 0
0 0 0
0 0 0
0 0 0
0 0 0
0 0 0
0 0 0
0 0 0
0 0 0
0 0 0
0 0 0
0 0 0
0 0 0
0 0 0
0 0 0
0 0 0
0 0 0
0 0 0
0 0 0
0 0 0
0 0 0
0 0 0
0 0 0
0 0 0
0 0 0
0 0 0
0 0 0
0 0 0
0 0 0
0 0 0
0 0 0
0 0 0
0 0 0
0 0 0
0 0 0
0 0 0
0 0 0
0 0 0
0 0 0
0 0 0
0 0 0
0 0 0
0 0 0
0 0 0
0 0 0
0 0 0
0 0 0
0 0 0
0 0 0
0 0 0
0 0 0
0 0 0
0 0 0
0 0 0
0 0 0
0 0 0
0 0 0
0 0 0
0 0 0
0 0 0
0 0 0
0 0 0
0 0 0
0 0 0
0 0 0
0 0 0
0 0 0
0 0 0
0 0 0
0 0 0
0 0 0
0 0 0
0 0 0
0 0 0
0 0 0
0 0 0
0 0 0
0 0 0
0 0 0
0 0 0
0 0 0
0 0 0
0 0 0
0 0 0
0 0 0
0 0 0
0 0 0
0 0 0
0 0 0
0 0 0
0 0 0
0 0 0
0 0 0
0 0 0
0 0 0
0 0 0
0 0 0
0 0 0
0 0 0
0 0 0
0 0 0
0 0 0
0 0 0
0 0 0
0 0 0
0 0 0
0 0 0
0 0 0
0 0 0
0 0 0
0 0 0
0 0 0
0 0 0
0 0 0
0 0 0
0 0 0
0 0 0
0 0 0
0 0 0
0 0 0
0 0 0
0 0 0
0 0 0
0 0 0
0 0 0
0 0 0
0 0 0
0 0 0
0 0 0
0 0 0
0 0 0
0 0 0
0 0 0
0 0 0
0 0 0
0 0 0
0 0 0
0 0 0
0 0 0
0 0 0
0 0 0
0 0 0
0 0 0
0 0 0
0 0 0
0 0 0
0 0 0
0 0 0
0 0 0
0 0 0
0 0 0
0 0 0
0 0 0
0 0 0
0 0 0
0 0 0
0 0 0
0 0 0
0 0 0
0 0 0
0 0 0
0 0 0
0 0 0
0 0 0
0 0 0
0 0 0
0 0 0
0 0 0
0 0 0
0 0 0
0 0 0
0 0 0
0 0 0
0 0 0
0 0 0
0 0 0
0 0 0
0 0 0
0 0 0
0 0 0
0 0 0
0 0 0
0 0 0
0 0 0
0 0 0
0 0 0
0 0 0
0 0 0
0 0 0
0 0 0
0 0 0
0 0 0
0 0 0
0 0 0
0 0 0
0 0 0
0 0 0
0 0 0
0 0 0
0 0 0
0 0 0
0 0 0
0 0 0
0 0 0
0 0 0
0 0 0
0 0 0
0 0 0
0 0 0
0 0 0
0 0 0
0 0 0
0 0 0
0 0 0
0 0 0
0 0 0
0 0 0
0 0 0
0 0 0
0 0 0
0 0 0
0 0 0
0 0 0
0 0 0
0 0 0
0 0 0
0 0 0
0 0 0
0 0 0
0 0 0
0 0 0
0 0 0
0 0 0
0 0 0
0 0 0
0 0 0
0 0 0
0 0 0
0 0 0
0 0 0
0 0 0
0 0 0
0 0 0
0 0 0
0 0 0
0 0 0
0 0 0
0 0 0
0 0 0
0 0 0
0 0 0
0 0 0
0 0 0
0 0 0
0 0 0
0 0 0
0 0 0
0 0 0
0 0 0
0 0 0
0 0 0
0 0 0
0 0 0
0 0 0
0 0 0
0 0 0
0 0 0
0 0 0
0 0 0
0 0 0
0 0 0
0 0 0
0 0 0
0 0 0
0 0 0
0 0 0
0 0 0
0 0 0
0 0 0
0 0 0
0 0 0
0 0 0
0 0 0
0 0 0
0 0 0
0 0 0
0 0 0
0 0 0
0 0 0
0 0 0
0 0 0
0 0 0
0 0 0
0 0 0
0 0 0
0 0 0
0 0 0
0 0 0
0 0 0
0 0 0
0 0 0
0 0 0
0 0 0
0 0 0
0 0 0
0 0 0
0 0 0
0 0 0
0 0 0
0 0 0
0 0 0
0 0 0
0 0 0
0 0 0
0 0 0
0 0 0
0 0 0
0 0 0
0 0 0
0 0 0
0 0 0
0 0 0
0 0 0
0 0 0
0 0 0
0 0 0
0 0 0
0 0 0
0 0 0
0 0 0
0 0 0
0 0 0
0 0 0
0 0 0
0 0 0
0 0 0
0 0 0
0 0 0
0 0 0
0 0 0
0 0 0
0 0 0
0 0 0
0 0 0
0 0 0
0 0 0
0 0 0
0 0 0
0 0 0
0 0 0
0 0 0
0 0 0
0 0 0
0 0 0
0 0 0
0 0 0
0 0 0
0 0 0
0 0 0
0 0 0
0 0 0
0 0 0
0 0 0
0 0 0
0 0 0
0 0 0
0 0 0
0 0 0
0 0 0
0 0 0
0 0 0
0 0 0
0 0 0
0 0 0
0 0 0
0 0 0
0 0 0
0 0 0
0 0 0
0 0 0
0 0 0
0 0 0
0 0 0
0 0 0
0 0 0
0 0 0
0 0 0
0 0 0
0 0 0
0 0 0
0 0 0
0 0 0
0 0 0
0 0 0
0 0 0
0 0 0
0 0 0
0 0 0
0 0 0
0 0 0
0 0 0
0 0 0
0 0 0
0 0 0
0 0 0
0 0 0
0 0 0
0 0 0
0 0 0
0 0 0
0 0 0
0 0 0
0 0 0
0 0 0
0 0 0
0 0 0
0 0 0
0 0 0
0 0 0
0 0 0
0 0 0
0 0 0
0 0 0
0 0 0
0 0 0
0 0 0
0 0 0
0 0 0
0 0 0
0 0 0
0 0 0
0 0 0
0 0 0
0 0 0
0 0 0
0 0 0
0 0 0
0 0 0
0 0 0
0 0 0
0 0 0
0 0 0
0 0 0
0 0 0
0 0 0
0 0 0
0 0 0
0 0 0
0 0 0
0 0 0
0 0 0
0 0 0
0 0 0
0 0 0
0 0 0
0 0 0
0 0 0
0 0 0
0 0 0
0 0 0
0 0 0
0 0 0
0 0 0
0 0 0
0 0 0
0 0 0
0 0 0
0 0 0
0 0 0
0 0 0
0 0 0
0 0 0
0 0 0
0 0 0
0 0 0
0 0 0
0 0 0
0 0 0
0 0 0
0 0 0
0 0 0
0 0 0
0 0 0
0 0 0
0 0 0
0 0 0
0 0 0
0 0 0
0 0 0
0 0 0
0 0 0
0 0 0
0 0 0
0 0 0
0 0 0
0 0 0
0 0 0
0 0 0
0 0 0
0 0 0
0 0 0
0 0 0
0 0 0
0 0 0
0 0 0
0 0 0
0 0 0
0 0 0
0 0 0
0 0 0
0 0 0
0 0 0
0 0 0
0 0 0
0 0 0
0 0 0
0 0 0
0 0 0
0 0 0
0 0 0
0 0 0
0 0 0
0 0 0
0 0 0
0 0 0
0 0 0
0 0 0
0 0 0
0 0 0
0 0 0
0 0 0
0 0 0
0 0 0
0 0 0
0 0 0
0 0 0
0 0 0
0 0 0
0 0 0
0 0 0
0 0 0
0 0 0
0 0 0
0 0 0
0 0 0
0 0 0
0 0 0
0 0 0
0 0 0
0 0 0
0 0 0
0 0 0
0 0 0
0 0 0
0 0 0
0 0 0
0 0 0
0 0 0
0 0 0
0 0 0
0 0 0
0 0 0
0 0 0
0 0 0
0 0 0
0 0 0
0 0 0
0 0 0
0 0 0
0 0 0
0 0 0
0 0 0
0 0 0
0 0 0
0 0 0
0 0 0
0 0 0
0 0 0
0 0 0
0 0 0
0 0 0
0 0 0
0 0 0
0 0 0
0 0 0
0 0 0
0 0 0
0 0 0
0 0 0
0 0 0
0 0 0
0 0 0
0 0 0
0 0 0
0 0 0
0 0 0
0 0 0
0 0 0
0 0 0
0 0 0
0 0 0
0 0 0
0 0 0
0 0 0
0 0 0
0 0 0
0 0 0
0 0 0
0 0 0
0 0 0
0 0 0
0 0 0
0 0 0
0 0 0
0 0 0
0 0 0
0 0 0
0 0 0
0 0 0
0 0 0
0 0 0
0 0 0
0 0 0
0 0 0
0 0 0
0 0 0
0 0 0
0 0 0
0 0 0
0 0 0
0 0 0
0 0 0
0 0 0
0 0 0
0 0 0
0 0 0
0 0 0
0 0 0
0 0 0
0 0 0
0 0 0
0 0 0
0 0 0
0 0 0
0 0 0
0 0 0
0 0 0
0 0 0
0 0 0
0 0 0
0 0 0
0 0 0
0 0 0
0 0 0
0 0 0
0 0 0
0 0 0
0 0 0
0 0 0
0 0 0
0 0 0
0 0 0
0 0 0
0 0 0
0 0 0
0 0 0
0 0 0
0 0 0
0 0 0
0 0 0
0 0 0
0 0 0
0 0 0
0 0 0
0 0 0
0 0 0
0 0 0
0 0 0
0 0 0
0 0 0
0 0 0
0 0 0
0 0 0
0 0 0
0 0 0
0 0 0
0 0 0
0 0 0
0 0 0
0 0 0
0 0 0
0 0 0
0 0 0
0 0 0
0 0 0
0 0 0
0 0 0
0 0 0
0 0 0
0 0 0
0 0 0
0 0 0
0 0 0
0 0 0
0 0 0
0 0 0
0 0 0
0 0 0
0 0 0
0 0 0
0 0 0
0 0 0
0 0 0
0 0 0
0 0 0
0 0 0
0 0 0
0 0 0
0 0 0
0 0 0
0 0 0
0 0 0
0 0 0
0 0 0
0 0 0
0 0 0
0 0 0
0 0 0
0 0 0
0 0 0
0 0 0
0 0 0
0 0 0
0 0 0
0 0 0
0 0 0
0 0 0
0 0 0
0 0 0
0 0 0
0 0 0
0 0 0
0 0 0
0 0 0
0 0 0
0 0 0
0 0 0
0 0 0
0 0 0
0 0 0
0 0 0
0 0 0
0 0 0
0 0 0
0 0 0
0 0 0
0 0 0
0 0 0
0 0 0
0 0 0
0 0 0
0 0 0
0 0 0
0 0 0
0 0 0
0 0 0
0 0 0
0 0 0
0 0 0
0 0 0
0 0 0
0 0 0
0 0 0
0 0 0
0 0 0
0 0 0
0 0 0
0 0 0
0 0 0
0 0 0
0 0 0
0 0 0
0 0 0
0 0 0
0 0 0
0 0 0
0 0 0
0 0 0
0 0 0
0 0 0
0 0 0
0 0 0
0 0 0
0 0 0
0 0 0
0 0 0
0 0 0
0 0 0
0 0 0
0 0 0
0 0 0
0 0 0
0 0 0
0 0 0
0 0 0
0 0 0
0 0 0
0 0 0
0 0 0
0 0 0
0 0 0
0 0 0
0 0 0
0 0 0
0 0 0
0 0 0
0 0 0
0 0 0
0 0 0
0 0 0
0 0 0
0 0 0
0 0 0
0 0 0
0 0 0
0 0 0
0 0 0
0 0 0
0 0 0
0 0 0
0 0 0
0 0 0
0 0 0
0 0 0
0 0 0
0 0 0
0 0 0
0 0 0
0 0 0
0 0 0
0 0 0
0 0 0
0 0 0
0 0 0
0 0 0
0 0 0
0 0 0
0 0 0
0 0 0
0 0 0
0 0 0
0 0 0
0 0 0
0 0 0
0 0 0
0 0 0
0 0 0
0 0 0
0 0 0
0 0 0
0 0 0
0 0 0
0 0 0
0 0 0
0 0 0
0 0 0
0 0 0
0 0 0
0 0 0
0 0 0
0 0 0
0 0 0
0 0 0
0 0 0
0 0 0
0 0 0
0 0 0
0 0 0
0 0 0
0 0 0
0 0 0
0 0 0
0 0 0
0 0 0
0 0 0
0 0 0
0 0 0
0 0 0
0 0 0
0 0 0
0 0 0
0 0 0
0 0 0
0 0 0
0 0 0
0 0 0
0 0 0
0 0 0
0 0 0
0 0 0
0 0 0
0 0 0
0 0 0
0 0 0
0 0 0
0 0 0
0 0 0
0 0 0
0 0 0
0 0 0
0 0 0
0 0 0
0 0 0
0 0 0
0 0 0
0 0 0
0 0 0
0 0 0
0 0 0
0 0 0
0 0 0
0 0 0
0 0 0
0 0 0
0 0 0
0 0 0
0 0 0
0 0 0
0 0 0
0 0 0
0 0 0
0 0 0
0 0 0
0 0 0
0 0 0
0 0 0
0 0 0
0 0 0
0 0 0
0 0 0
0 0 0
0 0 0
0 0 0
0 0 0
0 0 0
0 0 0
0 0 0
0 0 0
0 0 0
0 0 0
0 0 0
0 0 0
0 0 0
0 0 0
0 0 0
0 0 0
0 0 0
0 0 0
0 0 0
0 0 0
0 0 0
0 0 0
0 0 0
0 0 0
0 0 0
0 0 0
0 0 0
0 0 0
0 0 0
0 0 0
0 0 0
0 0 0
0 0 0
0 0 0
0 0 0
0 0 0
0 0 0
0 0 0
0 0 0
0 0 0
0 0 0
0 0 0
0 0 0
0 0 0
0 0 0
0 0 0
0 0 0
0 0 0
0 0 0
0 0 0
0 0 0
0 0 0
0 0 0
0 0 0
0 0 0
0 0 0
0 0 0
0 0 0
0 0 0
0 0 0
0 0 0
0 0 0
0 0 0
0 0 0
0 0 0
0 0 0
0 0 0
0 0 0
0 0 0
0 0 0
0 0 0
0 0 0
0 0 0
0 0 0
0 0 0
0 0 0
0 0 0
0 0 0
0 0 0
0 0 0
0 0 0
0 0 0
0 0 0
0 0 0
0 0 0
0 0 0
0 0 0
0 0 0
0 0 0
0 0 0
0 0 0
0 0 0
0 0 0
0 0 0
0 0 0
0 0 0
0 0 0
0 0 0
0 0 0
0 0 0
0 0 0
0 0 0
0 0 0
0 0 0
0 0 0
0 0 0
0 0 0
0 0 0
0 0 0
0 0 0
0 0 0
0 0 0
0 0 0
0 0 0
0 0 0
0 0 0
0 0 0
0 0 0
0 0 0
0 0 0
0 0 0
0 0 0
0 0 0
0 0 0
0 0 0
0 0 0
0 0 0
0 0 0
0 0 0
0 0 0
0 0 0
0 0 0
0 0 0
0 0 0
0 0 0
0 0 0
0 0 0
0 0 0
0 0 0
0 0 0
0 0 0
0 0 0
0 0 0
0 0 0
0 0 0
0 0 0
0 0 0
0 0 0
0 0 0
0 0 0
0 0 0
0 0 0
0 0 0
0 0 0
0 0 0
0 0 0
0 0 0
0 0 0
0 0 0
0 0 0
0 0 0
0 0 0
0 0 0
0 0 0
0 0 0
0 0 0
0 0 0
0 0 0
0 0 0
0 0 0
0 0 0
0 0 0
0 0 0
0 0 0
0 0 0
0 0 0
0 0 0
0 0 0
0 0 0
0 0 0
0 0 0
0 0 0
0 0 0
0 0 0
0 0 0
0 0 0
0 0 0
0 0 0
0 0 0
0 0 0
0 0 0
0 0 0
0 0 0
0 0 0
0 0 0
0 0 0
0 0 0
0 0 0
0 0 0
0 0 0
0 0 0
0 0 0
0 0 0
0 0 0
0 0 0
0 0 0
0 0 0
0 0 0
0 0 0
0 0 0
0 0 0
0 0 0
0 0 0
0 0 0
0 0 0
0 0 0
0 0 0
0 0 0
0 0 0
0 0 0
0 0 0
0 0 0
0 0 0
0 0 0
0 0 0
0 0 0
0 0 0
0 0 0
0 0 0
0 0 0
0 0 0
0 0 0
0 0 0
0 0 0
0 0 0
0 0 0
0 0 0
0 0 0
0 0 0
0 0 0
0 0 0
0 0 0
0 0 0
0 0 0
0 0 0
0 0 0
0 0 0
0 0 0
0 0 0
0 0 0
0 0 0
0 0 0
0 0 0
0 0 0
0 0 0
0 0 0
0 0 0
0 0 0
0 0 0
0 0 0
0 0 0
0 0 0
0 0 0
0 0 0
0 0 0
0 0 0
0 0 0
0 0 0
0 0 0
0 0 0
0 0 0
0 0 0
0 0 0
0 0 0
0 0 0
0 0 0
0 0 0
0 0 0
0 0 0
0 0 0
0 0 0
0 0 0
0 0 0
0 0 0
0 0 0
0 0 0
0 0 0
0 0 0
0 0 0
0 0 0
0 0 0
0 0 0
0 0 0
0 0 0
0 0 0
0 0 0
0 0 0
0 0 0
0 0 0
0 0 0
0 0 0
0 0 0
0 0 0
0 0 0
0 0 0
0 0 0
0 0 0
0 0 0
0 0 0
0 0 0
0 0 0
0 0 0
0 0 0
0 0 0
0 0 0
0 0 0
0 0 0
0 0 0
0 0 0
0 0 0
0 0 0
0 0 0
0 0 0
0 0 0
0 0 0
0 0 0
0 0 0
0 0 0
0 0 0
0 0 0
0 0 0
0 0 0
0 0 0
0 0 0
0 0 0
0 0 0
0 0 0
0 0 0
0 0 0
0 0 0
0 0 0
0 0 0
0 0 0
0 0 0
0 0 0
0 0 0
0 0 0
0 0 0
0 0 0
0 0 0
0 0 0
0 0 0
0 0 0
0 0 0
0 0 0
0 0 0
0 0 0
0 0 0
0 0 0
0 0 0
0 0 0
0 0 0
0 0 0
0 0 0
0 0 0
0 0 0
0 0 0
0 0 0
0 0 0
0 0 0
0 0 0
0 0 0
0 0 0
0 0 0
0 0 0
0 0 0
0 0 0
0 0 0
0 0 0
0 0 0
0 0 0
0 0 0
0 0 0
0 0 0
0 0 0
0 0 0
0 0 0
0 0 0
0 0 0
0 0 0
0 0 0
0 0 0
0 0 0
0 0 0
0 0 0
0 0 0
0 0 0
0 0 0
0 0 0
0 0 0
0 0 0
0 0 0
0 0 0
0 0 0
0 0 0
0 0 0
0 0 0
0 0 0
0 0 0
0 0 0
0 0 0
0 0 0
0 0 0
0 0 0
0 0 0
0 0 0
0 0 0
0 0 0
0 0 0
0 0 0
0 0 0
0 0 0
0 0 0
0 0 0
0 0 0
0 0 0
0 0 0
0 0 0
0 0 0
0 0 0
0 0 0
0 0 0
0 0 0
0 0 0
0 0 0
0 0 0
0 0 0
0 0 0
0 0 0
0 0 0
0 0 0
0 0 0
0 0 0
0 0 0
0 0 0
0 0 0
0 0 0
0 0 0
0 0 0
0 0 0
0 0 0
0 0 0
0 0 0
0 0 0
0 0 0
0 0 0
0 0 0
0 0 0
0 0 0
0 0 0
0 0 0
0 0 0
0 0 0
0 0 0
0 0 0
0 0 0
0 0 0
0 0 0
0 0 0
0 0 0
0 0 0
0 0 0
0 0 0
0 0 0
0 0 0
0 0 0
0 0 0
0 0 0
0 0 0
0 0 0
0 0 0
0 0 0
0 0 0
0 0 0
0 0 0
0 0 0
0 0 0
0 0 0
0 0 0
0 0 0
0 0 0
0 0 0
0 0 0
0 0 0
0 0 0
0 0 0
0 0 0
0 0 0
0 0 0
0 0 0
0 0 0
0 0 0
0 0 0
0 0 0
0 0 0
0 0 0
0 0 0
0 0 0
0 0 0
0 0 0
0 0 0
0 0 0
0 0 0
0 0 0
0 0 0
0 0 0
0 0 0
0 0 0
0 0 0
0 0 0
0 0 0
0 0 0
0 0 0
0 0 0
0 0 0
0 0 0
0 0 0
0 0 0
0 0 0
0 0 0
0 0 0
0 0 0
0 0 0
0 0 0
0 0 0
0 0 0
0 0 0
0 0 0
0 0 0
0 0 0
0 0 0
0 0 0
0 0 0
0 0 0
0 0 0
0 0 0
0 0 0
0 0 0
0 0 0
0 0 0
0 0 0
0 0 0
0 0 0
0 0 0
0 0 0
0 0 0
0 0 0
0 0 0
0 0 0
0 0 0
0 0 0
0 0 0
0 0 0
0 0 0
0 0 0
0 0 0
0 0 0
0 0 0
0 0 0
0 0 0
0 0 0
0 0 0
0 0 0
0 0 0
0 0 0
0 0 0
0 0 0
0 0 0
0 0 0
0 0 0
0 0 0
0 0 0
0 0 0
0 0 0
0 0 0
0 0 0
0 0 0
0 0 0
0 0 0
0 0 0
0 0 0
0 0 0
0 0 0
0 0 0
0 0 0
0 0 0
0 0 0
0 0 0
0 0 0
0 0 0
0 0 0
0 0 0
0 0 0
0 0 0
0 0 0
0 0 0
0 0 0
0 0 0
0 0 0
0 0 0
0 0 0
0 0 0
0 0 0
0 0 0
0 0 0
0 0 0
0 0 0
0 0 0
0 0 0
0 0 0
0 0 0
0 0 0
0 0 0
0 0 0
0 0 0
0 0 0
0 0 0
0 0 0
0 0 0
0 0 0
0 0 0
0 0 0
0 0 0
0 0 0
0 0 0
0 0 0
0 0 0
0 0 0
0 0 0
0 0 0
0 0 0
0 0 0
0 0 0
0 0 0
0 0 0
0 0 0
0 0 0
0 0 0
0 0 0
0 0 0
0 0 0
0 0 0
0 0 0
0 0 0
0 0 0
0 0 0
0 0 0
0 0 0
0 0 0
0 0 0
0 0 0
0 0 0
0 0 0
0 0 0
0 0 0
0 0 0
0 0 0
0 0 0
0 0 0
0 0 0
0 0 0
0 0 0
0 0 0
0 0 0
0 0 0
0 0 0
0 0 0
0 0 0
0 0 0
0 0 0
0 0 0
0 0 0
0 0 0
0 0 0
0 0 0
0 0 0
0 0 0
0 0 0
0 0 0
0 0 0
0 0 0
0 0 0
0 0 0
0 0 0
0 0 0
0 0 0
0 0 0
0 0 0
0 0 0
0 0 0
0 0 0
0 0 0
0 0 0
0 0 0
0 0 0
0 0 0
0 0 0
0 0 0
0 0 0
0 0 0
0 0 0
0 0 0
0 0 0
0 0 0
0 0 0
0 0 0
0 0 0
0 0 0
0 0 0
0 0 0
0 0 0
0 0 0
0 0 0
0 0 0
0 0 0
0 0 0
0 0 0
0 0 0
0 0 0
0 0 0
0 0 0
0 0 0
0 0 0
0 0 0
0 0 0
0 0 0
0 0 0
0 0 0
0 0 0
0 0 0
0 0 0
0 0 0
0 0 0
0 0 0
0 0 0
0 0 0
0 0 0
0 0 0
0 0 0
0 0 0
0 0 0
0 0 0
0 0 0
0 0 0
0 0 0
0 0 0
0 0 0
0 0 0
0 0 0
0 0 0
0 0 0
0 0 0
0 0 0
0 0 0
0 0 0
0 0 0
0 0 0
0 0 0
0 0 0
0 0 0
0 0 0
0 0 0
0 0 0
0 0 0
0 0 0
0 0 0
0 0 0
0 0 0
0 0 0
0 0 0
0 0 0
0 0 0
0 0 0
0 0 0
0 0 0
0 0 0
0 0 0
0 0 0
0 0 0
0 0 0
0 0 0
0 0 0
0 0 0
0 0 0
0 0 0
0 0 0
0 0 0
0 0 0
0 0 0
0 0 0
0 0 0
0 0 0
0 0 0
0 0 0
0 0 0
0 0 0
0 0 0
0 0 0
0 0 0
0 0 0
0 0 0
0 0 0
0 0 0
0 0 0
0 0 0
0 0 0
0 0 0
0 0 0
0 0 0
0 0 0
0 0 0
0 0 0
0 0 0
0 0 0
0 0 0
0 0 0
0 0 0
0 0 0
0 0 0
0 0 0
0 0 0
0 0 0
0 0 0
0 0 0
0 0 0
0 0 0
0 0 0
0 0 0
0 0 0
0 0 0
0 0 0
0 0 0
0 0 0
0 0 0
0 0 0
0 0 0
0 0 0
0 0 0
0 0 0
0 0 0
0 0 0
0 0 0
0 0 0
0 0 0
0 0 0
0 0 0
0 0 0
0 0 0
0 0 0
0 0 0
0 0 0
0 0 0
0 0 0
0 0 0
0 0 0
0 0 0
0 0 0
0 0 0
0 0 0
0 0 0
0 0 0
0 0 0
0 0 0
0 0 0
0 0 0
0 0 0
0 0 0
0 0 0
0 0 0
0 0 0
0 0 0
0 0 0
0 0 0
0 0 0
0 0 0
0 0 0
0 0 0
0 0 0
0 0 0
0 0 0
0 0 0
0 0 0
0 0 0
0 0 0
0 0 0
0 0 0
0 0 0
0 0 0
0 0 0
0 0 0
0 0 0
0 0 0
0 0 0
0 0 0
0 0 0
0 0 0
0 0 0
0 0 0
0 0 0
0 0 0
0 0 0
0 0 0
0 0 0
0 0 0
0 0 0
0 0 0
0 0 0
0 0 0
0 0 0
0 0 0
0 0 0
0 0 0
0 0 0
0 0 0
0 0 0
0 0 0
0 0 0
0 0 0
0 0 0
0 0 0
0 0 0
0 0 0
0 0 0
0 0 0
0 0 0
0 0 0
0 0 0
0 0 0
0 0 0
0 0 0
0 0 0
0 0 0
0 0 0
0 0 0
0 0 0
0 0 0
0 0 0
0 0 0
0 0 0
0 0 0
0 0 0
0 0 0
0 0 0
0 0 0
0 0 0
0 0 0
0 0 0
0 0 0
0 0 0
0 0 0
0 0 0
0 0 0
0 0 0
0 0 0
0 0 0
0 0 0
0 0 0
0 0 0
0 0 0
0 0 0
0 0 0
0 0 0
0 0 0
0 0 0
0 0 0
0 0 0
0 0 0
0 0 0
0 0 0
0 0 0
0 0 0
0 0 0
0 0 0
0 0 0
0 0 0
0 0 0
0 0 0
0 0 0
0 0 0
0 0 0
0 0 0
0 0 0
0 0 0
0 0 0
0 0 0
0 0 0
0 0 0
0 0 0
0 0 0
0 0 0
0 0 0
0 0 0
0 0 0
0 0 0
0 0 0
0 0 0
0 0 0
0 0 0
0 0 0
0 0 0
0 0 0
0 0 0
0 0 0
0 0 0
0 0 0
0 0 0
0 0 0
0 0 0
0 0 0
0 0 0
0 0 0
0 0 0
0 0 0
0 0 0
0 0 0
0 0 0
0 0 0
0 0 0
0 0 0
0 0 0
0 0 0
0 0 0
0 0 0
0 0 0
0 0 0
0 0 0
0 0 0
0 0 0
0 0 0
0 0 0
0 0 0
0 0 0
0 0 0
0 0 0
0 0 0
0 0 0
0 0 0
0 0 0
0 0 0
0 0 0
0 0 0
0 0 0
0 0 0
0 0 0
0 0 0
0 0 0
0 0 0
0 0 0
0 0 0
0 0 0
0 0 0
0 0 0
0 0 0
0 0 0
0 0 0
0 0 0
0 0 0
0 0 0
0 0 0
0 0 0
0 0 0
0 0 0
0 0 0
0 0 0
0 0 0
0 0 0
0 0 0
0 0 0
0 0 0
0 0 0
0 0 0
0 0 0
0 0 0
0 0 0
0 0 0
0 0 0
0 0 0
0 0 0
0 0 0
0 0 0
0 0 0
0 0 0
0 0 0
0 0 0
0 0 0
0 0 0
0 0 0
0 0 0
0 0 0
0 0 0
0 0 0
0 0 0
0 0 0
0 0 0
0 0 0
0 0 0
0 0 0
0 0 0
0 0 0
0 0 0
0 0 0
0 0 0
0 0 0
0 0 0
0 0 0
0 0 0
0 0 0
0 0 0
0 0 0
0 0 0
0 0 0
0 0 0
0 0 0
0 0 0
0 0 0
0 0 0
0 0 0
0 0 0
0 0 0
0 0 0
0 0 0
0 0 0
0 0 0
0 0 0
0 0 0
0 0 0
0 0 0
0 0 0
0 0 0
0 0 0
0 0 0
0 0 0
0 0 0
0 0 0
0 0 0
0 0 0
0 0 0
0 0 0
0 0 0
0 0 0
0 0 0
0 0 0
0 0 0
0 0 0
0 0 0
0 0 0
0 0 0
0 0 0
0 0 0
0 0 0
0 0 0
0 0 0
0 0 0
0 0 0
0 0 0
0 0 0
0 0 0
0 0 0
0 0 0
0 0 0
0 0 0
0 0 0
0 0 0
0 0 0
0 0 0
0 0 0
0 0 0
0 0 0
0 0 0
0 0 0
0 0 0
0 0 0
0 0 0
0 0 0
0 0 0
0 0 0
0 0 0
0 0 0
0 0 0
0 0 0
0 0 0
0 0 0
0 0 0
0 0 0
0 0 0
0 0 0
0 0 0
0 0 0
0 0 0
0 0 0
0 0 0
0 0 0
0 0 0
0 0 0
0 0 0
0 0 0
0 0 0
0 0 0
0 0 0
0 0 0
0 0 0
0 0 0
0 0 0
0 0 0
0 0 0
0 0 0
0 0 0
0 0 0
0 0 0
0 0 0
0 0 0
0 0 0
0 0 0
0 0 0
0 0 0
0 0 0
0 0 0
0 0 0
0 0 0
0 0 0
0 0 0
0 0 0
0 0 0
0 0 0
0 0 0
0 0 0
0 0 0
0 0 0
0 0 0
0 0 0
0 0 0
0 0 0
0 0 0
0 0 0
0 0 0
0 0 0
0 0 0
0 0 0
0 0 0
0 0 0
0 0 0
0 0 0
0 0 0
0 0 0
0 0 0
0 0 0
0 0 0
0 0 0
0 0 0
0 0 0
0 0 0
0 0 0
0 0 0
0 0 0
0 0 0
0 0 0
0 0 0
0 0 0
0 0 0
0 0 0
0 0 0
0 0 0
0 0 0
0 0 0
0 0 0
0 0 0
0 0 0
0 0 0
0 0 0
0 0 0
0 0 0
0 0 0
0 0 0
0 0 0
0 0 0
0 0 0
0 0 0
0 0 0
0 0 0
0 0 0
0 0 0
0 0 0
0 0 0
0 0 0
0 0 0
0 0 0
0 0 0
0 0 0
0 0 0
0 0 0
0 0 0
0 0 0
0 0 0
0 0 0
0 0 0
0 0 0
0 0 0
0 0 0
0 0 0
0 0 0
0 0 0
0 0 0
0 0 0
0 0 0
0 0 0
0 0 0
0 0 0
0 0 0
0 0 0
0 0 0
0 0 0
0 0 0
0 0 0
0 0 0
0 0 0
0 0 0
0 0 0
0 0 0
0 0 0
0 0 0
0 0 0
0 0 0
0 0 0
0 0 0
0 0 0
0 0 0
0 0 0
0 0 0
0 0 0
0 0 0
0 0 0
0 0 0
0 0 0
0 0 0
0 0 0
0 0 0
0 0 0
0 0 0
0 0 0
0 0 0
0 0 0
0 0 0
0 0 0
0 0 0
0 0 0
0 0 0
0 0 0
0 0 0
0 0 0
0 0 0
0 0 0
0 0 0
0 0 0
0 0 0
0 0 0
0 0 0
0 0 0
0 0 0
0 0 0
0 0 0
0 0 0
0 0 0
0 0 0
0 0 0
0 0 0
0 0 0
0 0 0
0 0 0
0 0 0
0 0 0
0 0 0
0 0 0
0 0 0
0 0 0
0 0 0
0 0 0
0 0 0
0 0 0
0 0 0
0 0 0
0 0 0
0 0 0
0 0 0
0 0 0
0 0 0
0 0 0
0 0 0
0 0 0
0 0 0
0 0 0
0 0 0
0 0 0
0 0 0
0 0 0
0 0 0
0 0 0
0 0 0
0 0 0
0 0 0
0 0 0
0 0 0
0 0 0
0 0 0
0 0 0
0 0 0
0 0 0
0 0 0
0 0 0
0 0 0
0 0 0
0 0 0
0 0 0
0 0 0
0 0 0
0 0 0
0 0 0
0 0 0
0 0 0
0 0 0
0 0 0
0 0 0
0 0 0
0 0 0
0 0 0
0 0 0
0 0 0
0 0 0
0 0 0
0 0 0
0 0 0
0 0 0
0 0 0
0 0 0
0 0 0
0 0 0
0 0 0
0 0 0
0 0 0
0 0 0
0 0 0
0 0 0
0 0 0
0 0 0
0 0 0
0 0 0
0 0 0
0 0 0
0 0 0
0 0 0
0 0 0
0 0 0
0 0 0
0 0 0
0 0 0
0 0 0
0 0 0
0 0 0
0 0 0
0 0 0
0 0 0
0 0 0
0 0 0
0 0 0
0 0 0
0 0 0
0 0 0
0 0 0
0 0 0
0 0 0
0 0 0
0 0 0
0 0 0
0 0 0
0 0 0
0 0 0
0 0 0
0 0 0
0 0 0
0 0 0
0 0 0
0 0 0
0 0 0
0 0 0
0 0 0
0 0 0
0 0 0
0 0 0
0 0 0
0 0 0
0 0 0
0 0 0
0 0 0
0 0 0
0 0 0
0 0 0
0 0 0
0 0 0
0 0 0
0 0 0
0 0 0
0 0 0
0 0 0
0 0 0
0 0 0
0 0 0
0 0 0
0 0 0
0 0 0
0 0 0
0 0 0
0 0 0
0 0 0
0 0 0
0 0 0
0 0 0
0 0 0
0 0 0
0 0 0
0 0 0
0 0 0
0 0 0
0 0 0
0 0 0
0 0 0
0 0 0
0 0 0
0 0 0
0 0 0
0 0 0
0 0 0
0 0 0
0 0 0
0 0 0
0 0 0
0 0 0
0 0 0
0 0 0
0 0 0
0 0 0
0 0 0
0 0 0
0 0 0
0 0 0
0 0 0
0 0 0
0 0 0
0 0 0
0 0 0
0 0 0
0 0 0
0 0 0
0 0 0
0 0 0
0 0 0
0 0 0
0 0 0
0 0 0
0 0 0
0 0 0
0 0 0
0 0 0
0 0 0
0 0 0
0 0 0
0 0 0
0 0 0
0 0 0
0 0 0
0 0 0
0 0 0
0 0 0
0 0 0
0 0 0
0 0 0
0 0 0
0 0 0
0 0 0
0 0 0
0 0 0
0 0 0
0 0 0
0 0 0
0 0 0
0 0 0
0 0 0
0 0 0
0 0 0
0 0 0
0 0 0
0 0 0
0 0 0
0 0 0
0 0 0
0 0 0
0 0 0
0 0 0
0 0 0
0 0 0
0 0 0
0 0 0
0 0 0
0 0 0
0 0 0
0 0 0
0 0 0
0 0 0
0 0 0
0 0 0
0 0 0
0 0 0
0 0 0
0 0 0
0 0 0
0 0 0
0 0 0
0 0 0
0 0 0
0 0 0
0 0 0
0 0 0
0 0 0
0 0 0
0 0 0
0 0 0
0 0 0
0 0 0
0 0 0
0 0 0
0 0 0
0 0 0
0 0 0
0 0 0
0 0 0
0 0 0
0 0 0
0 0 0
0 0 0
0 0 0
0 0 0
0 0 0
0 0 0
0 0 0
0 0 0
0 0 0
0 0 0
0 0 0
0 0 0
0 0 0
0 0 0
0 0 0
0 0 0
0 0 0
0 0 0
0 0 0
0 0 0
0 0 0
0 0 0
0 0 0
0 0 0
0 0 0
0 0 0
0 0 0
0 0 0
0 0 0
0 0 0
0 0 0
0 0 0
0 0 0
0 0 0
0 0 0
0 0 0
0 0 0
0 0 0
0 0 0
0 0 0
0 0 0
0 0 0
0 0 0
0 0 0
0 0 0
0 0 0
0 0 0
0 0 0
0 0 0
0 0 0
0 0 0
0 0 0
0 0 0
0 0 0
0 0 0
0 0 0
0 0 0
0 0 0
0 0 0
0 0 0
0 0 0
0 0 0
0 0 0
0 0 0
0 0 0
0 0 0
0 0 0
0 0 0
0 0 0
0 0 0
0 0 0
0 0 0
0 0 0
0 0 0
0 0 0
0 0 0
0 0 0
0 0 0
0 0 0
0 0 0
0 0 0
0 0 0
0 0 0
0 0 0
0 0 0
0 0 0
0 0 0
0 0 0
0 0 0
0 0 0
0 0 0
0 0 0
0 0 0
0 0 0
0 0 0
0 0 0
0 0 0
0 0 0
0 0 0
0 0 0
0 0 0
0 0 0
0 0 0
0 0 0
0 0 0
0 0 0
0 0 0
0 0 0
0 0 0
0 0 0
0 0 0
0 0 0
0 0 0
0 0 0
0 0 0
0 0 0
0 0 0
0 0 0
0 0 0
0 0 0
0 0 0
0 0 0
0 0 0
0 0 0
0 0 0
0 0 0
0 0 0
0 0 0
0 0 0
0 0 0
0 0 0
0 0 0
0 0 0
0 0 0
0 0 0
0 0 0
0 0 0
0 0 0
0 0 0
0 0 0
0 0 0
0 0 0
0 0 0
0 0 0
0 0 0
0 0 0
0 0 0
0 0 0
0 0 0
0 0 0
0 0 0
0 0 0
0 0 0
0 0 0
0 0 0
0 0 0
0 0 0
0 0 0
0 0 0
0 0 0
0 0 0
0 0 0
0 0 0
0 0 0
0 0 0
0 0 0
0 0 0
0 0 0
0 0 0
0 0 0
0 0 0
0 0 0
0 0 0
0 0 0
0 0 0
0 0 0
0 0 0
0 0 0
0 0 0
0 0 0
0 0 0
0 0 0
0 0 0
0 0 0
0 0 0
0 0 0
0 0 0
0 0 0
0 0 0
0 0 0
0 0 0
0 0 0
0 0 0
0 0 0
0 0 0
0 0 0
0 0 0
0 0 0
0 0 0
0 0 0
0 0 0
0 0 0
0 0 0
0 0 0
0 0 0
0 0 0
0 0 0
0 0 0
0 0 0
0 0 0
0 0 0
0 0 0
0 0 0
0 0 0
0 0 0
0 0 0
0 0 0
0 0 0
0 0 0
0 0 0
0 0 0
0 0 0
0 0 0
0 0 0
0 0 0
0 0 0
0 0 0
0 0 0
0 0 0
0 0 0
0 0 0
0 0 0
0 0 0
0 0 0
0 0 0
0 0 0
0 0 0
0 0 0
0 0 0
0 0 0
0 0 0
0 0 0
0 0 0
0 0 0
0 0 0
0 0 0
0 0 0
0 0 0
0 0 0
0 0 0
0 0 0
0 0 0
0 0 0
0 0 0
0 0 0
0 0 0
0 0 0
0 0 0
0 0 0
0 0 0
0 0 0
0 0 0
0 0 0
0 0 0
0 0 0
0 0 0
0 0 0
0 0 0
0 0 0
0 0 0
0 0 0
0 0 0
0 0 0
0 0 0
0 0 0
0 0 0
0 0 0
0 0 0
0 0 0
0 0 0
0 0 0
0 0 0
0 0 0
0 0 0
0 0 0
0 0 0
0 0 0
0 0 0
0 0 0
0 0 0
0 0 0
0 0 0
0 0 0
0 0 0
0 0 0
0 0 0
0 0 0
0 0 0
0 0 0
0 0 0
0 0 0
0 0 0
0 0 0
0 0 0
0 0 0
0 0 0
0 0 0
0 0 0
0 0 0
0 0 0
0 0 0
0 0 0
0 0 0
0 0 0
0 0 0
0 0 0
0 0 0
0 0 0
0 0 0
0 0 0
0 0 0
0 0 0
0 0 0
0 0 0
0 0 0
0 0 0
0 0 0
0 0 0
0 0 0
0 0 0
0 0 0
0 0 0
0 0 0
0 0 0
0 0 0
0 0 0
0 0 0
0 0 0
0 0 0
0 0 0
0 0 0
0 0 0
0 0 0
0 0 0
0 0 0
0 0 0
0 0 0
0 0 0
0 0 0
0 0 0
0 0 0
0 0 0
0 0 0
0 0 0
0 0 0
0 0 0
0 0 0
0 0 0
0 0 0
0 0 0
0 0 0
0 0 0
0 0 0
0 0 0
0 0 0
0 0 0
0 0 0
0 0 0
0 0 0
0 0 0
0 0 0
0 0 0
0 0 0
0 0 0
0 0 0
0 0 0
0 0 0
0 0 0
0 0 0
0 0 0
0 0 0
0 0 0
0 0 0
0 0 0
0 0 0
0 0 0
0 0 0
0 0 0
0 0 0
0 0 0
0 0 0
0 0 0
0 0 0
0 0 0
0 0 0
0 0 0
0 0 0
0 0 0
0 0 0
0 0 0
0 0 0
0 0 0
0 0 0
0 0 0
0 0 0
0 0 0
0 0 0
0 0 0
0 0 0
0 0 0
0 0 0
0 0 0
0 0 0
0 0 0
0 0 0
0 0 0
0 0 0
0 0 0
0 0 0
0 0 0
0 0 0
0 0 0
0 0 0
0 0 0
0 0 0
0 0 0
0 0 0
0 0 0
0 0 0
0 0 0
0 0 0
0 0 0
0 0 0
0 0 0
0 0 0
0 0 0
0 0 0
0 0 0
0 0 0
0 0 0
0 0 0
0 0 0
0 0 0
0 0 0
0 0 0
0 0 0
0 0 0
0 0 0
0 0 0
0 0 0
0 0 0
0 0 0
0 0 0
0 0 0
0 0 0
0 0 0
0 0 0
0 0 0
0 0 0
0 0 0
0 0 0
0 0 0
0 0 0
0 0 0
0 0 0
0 0 0
0 0 0
0 0 0
0 0 0
0 0 0
0 0 0
0 0 0
0 0 0
0 0 0
0 0 0
0 0 0
0 0 0
0 0 0
0 0 0
0 0 0
0 0 0
0 0 0
0 0 0
0 0 0
0 0 0
0 0 0
0 0 0
0 0 0
0 0 0
0 0 0
0 0 0
0 0 0
0 0 0
0 0 0
0 0 0
0 0 0
0 0 0
0 0 0
0 0 0
0 0 0
0 0 0
0 0 0
0 0 0
0 0 0
0 0 0
0 0 0
0 0 0
0 0 0
0 0 0
0 0 0
0 0 0
0 0 0
0 0 0
0 0 0
0 0 0
0 0 0
0 0 0
0 0 0
0 0 0
0 0 0
0 0 0
0 0 0
0 0 0
0 0 0
0 0 0
0 0 0
0 0 0
0 0 0
0 0 0
0 0 0
0 0 0
0 0 0
0 0 0
0 0 0
0 0 0
0 0 0
0 0 0
0 0 0
0 0 0
0 0 0
0 0 0
0 0 0
0 0 0
0 0 0
0 0 0
0 0 0
0 0 0
0 0 0
0 0 0
0 0 0
0 0 0
0 0 0
0 0 0
0 0 0
0 0 0
0 0 0
0 0 0
0 0 0
0 0 0
0 0 0
0 0 0
0 0 0
0 0 0
0 0 0
0 0 0
0 0 0
0 0 0
0 0 0
0 0 0
0 0 0
0 0 0
0 0 0
0 0 0
0 0 0
0 0 0
0 0 0
0 0 0
0 0 0
0 0 0
0 0 0
0 0 0
0 0 0
0 0 0
0 0 0
0 0 0
0 0 0
0 0 0
0 0 0
0 0 0
0 0 0
0 0 0
0 0 0
0 0 0
0 0 0
0 0 0
0 0 0
0 0 0
0 0 0
0 0 0
0 0 0
0 0 0
0 0 0
0 0 0
0 0 0
0 0 0
0 0 0
0 0 0
0 0 0
0 0 0
0 0 0
0 0 0
0 0 0
0 0 0
0 0 0
0 0 0
0 0 0
0 0 0
0 0 0
0 0 0
0 0 0
0 0 0
0 0 0
0 0 0
0 0 0
0 0 0
0 0 0
0 0 0
0 0 0
0 0 0
0 0 0
0 0 0
0 0 0
0 0 0
0 0 0
0 0 0
0 0 0
0 0 0
0 0 0
0 0 0
0 0 0
0 0 0
0 0 0
0 0 0
0 0 0
0 0 0
0 0 0
0 0 0
0 0 0
0 0 0
0 0 0
0 0 0
0 0 0
0 0 0
0 0 0
0 0 0
0 0 0
0 0 0
0 0 0
0 0 0
0 0 0
0 0 0
0 0 0
0 0 0
0 0 0
0 0 0
0 0 0
0 0 0
0 0 0
0 0 0
0 0 0
0 0 0
0 0 0
0 0 0
0 0 0
0 0 0
0 0 0
0 0 0
0 0 0
0 0 0
0 0 0
0 0 0
0 0 0
0 0 0
0 0 0
0 0 0
0 0 0
0 0 0
0 0 0
0 0 0
0 0 0
0 0 0
0 0 0
0 0 0
0 0 0
0 0 0
0 0 0
0 0 0
0 0 0
0 0 0
0 0 0
0 0 0
0 0 0
0 0 0
0 0 0
0 0 0
0 0 0
0 0 0
0 0 0
0 0 0
0 0 0
0 0 0
0 0 0
0 0 0
0 0 0
0 0 0
0 0 0
0 0 0
0 0 0
0 0 0
0 0 0
0 0 0
0 0 0
0 0 0
0 0 0
0 0 0
0 0 0
0 0 0
0 0 0
0 0 0
0 0 0
0 0 0
0 0 0
0 0 0
0 0 0
0 0 0
0 0 0
0 0 0
0 0 0
0 0 0
0 0 0
0 0 0
0 0 0
0 0 0
0 0 0
0 0 0
0 0 0
0 0 0
0 0 0
0 0 0
0 0 0
0 0 0
0 0 0
0 0 0
0 0 0
0 0 0
0 0 0
0 0 0
0 0 0
0 0 0
0 0 0
0 0 0
0 0 0
0 0 0
0 0 0
0 0 0
0 0 0
0 0 0
0 0 0
0 0 0
0 0 0
0 0 0
0 0 0
0 0 0
0 0 0
0 0 0
0 0 0
0 0 0
0 0 0
0 0 0
0 0 0
0 0 0
0 0 0
0 0 0
0 0 0
0 0 0
0 0 0
0 0 0
0 0 0
0 0 0
0 0 0
0 0 0
0 0 0
0 0 0
0 0 0
0 0 0
0 0 0
0 0 0
0 0 0
0 0 0
0 0 0
0 0 0
0 0 0
0 0 0
0 0 0
0 0 0
0 0 0
0 0 0
0 0 0
0 0 0
0 0 0
0 0 0
0 0 0
0 0 0
0 0 0
0 0 0
0 0 0
0 0 0
0 0 0
0 0 0
0 0 0
0 0 0
0 0 0
0 0 0
0 0 0
0 0 0
0 0 0
0 0 0
0 0 0
0 0 0
0 0 0
0 0 0
0 0 0
0 0 0
0 0 0
0 0 0
0 0 0
0 0 0
0 0 0
0 0 0
0 0 0
0 0 0
0 0 0
0 0 0
0 0 0
0 0 0
0 0 0
0 0 0
0 0 0
0 0 0
0 0 0
0 0 0
0 0 0
0 0 0
0 0 0
0 0 0
0 0 0
0 0 0
0 0 0
0 0 0
0 0 0
0 0 0
0 0 0
0 0 0
0 0 0
0 0 0
0 0 0
0 0 0
0 0 0
0 0 0
0 0 0
0 0 0
0 0 0
0 0 0
0 0 0
0 0 0
0 0 0
0 0 0
0 0 0
0 0 0
0 0 0
0 0 0
0 0 0
0 0 0
0 0 0
0 0 0
0 0 0
0 0 0
0 0 0
0 0 0
0 0 0
0 0 0
0 0 0
0 0 0
0 0 0
0 0 0
0 0 0
0 0 0
0 0 0
0 0 0
0 0 0
0 0 0
0 0 0
0 0 0
0 0 0
0 0 0
0 0 0
0 0 0
0 0 0
0 0 0
0 0 0
0 0 0
0 0 0
0 0 0
0 0 0
0 0 0
0 0 0
0 0 0
0 0 0
0 0 0
0 0 0
0 0 0
0 0 0
0 0 0
0 0 0
0 0 0
0 0 0
0 0 0
0 0 0
0 0 0
0 0 0
0 0 0
0 0 0
0 0 0
0 0 0
0 0 0
0 0 0
0 0 0
0 0 0
0 0 0
0 0 0
0 0 0
0 0 0
0 0 0
0 0 0
0 0 0
0 0 0
0 0 0
0 0 0
0 0 0
0 0 0
0 0 0
0 0 0
0 0 0
0 0 0
0 0 0
0 0 0
0 0 0
0 0 0
0 0 0
0 0 0
0 0 0
0 0 0
0 0 0
0 0 0
0 0 0
0 0 0
0 0 0
0 0 0
0 0 0
0 0 0
0 0 0
0 0 0
0 0 0
0 0 0
0 0 0
0 0 0
0 0 0
0 0 0
0 0 0
0 0 0
0 0 0
0 0 0
0 0 0
0 0 0
0 0 0
0 0 0
0 0 0
0 0 0
0 0 0
0 0 0
0 0 0
0 0 0
0 0 0
0 0 0
0 0 0
0 0 0
0 0 0
0 0 0
0 0 0
0 0 0
0 0 0
0 0 0
0 0 0
0 0 0
0 0 0
0 0 0
0 0 0
0 0 0
0 0 0
0 0 0
0 0 0
0 0 0
0 0 0
0 0 0
0 0 0
0 0 0
0 0 0
0 0 0
0 0 0
0 0 0
0 0 0
0 0 0
0 0 0
0 0 0
0 0 0
0 0 0
0 0 0
0 0 0
0 0 0
0 0 0
0 0 0
0 0 0
0 0 0
0 0 0
0 0 0
0 0 0
0 0 0
0 0 0
0 0 0
0 0 0
0 0 0
0 0 0
0 0 0
0 0 0
0 0 0
0 0 0
0 0 0
0 0 0
0 0 0
0 0 0
0 0 0
0 0 0
0 0 0
0 0 0
0 0 0
0 0 0
0 0 0
0 0 0
0 0 0
0 0 0
0 0 0
0 0 0
0 0 0
0 0 0
0 0 0
0 0 0
0 0 0
0 0 0
0 0 0
0 0 0
0 0 0
0 0 0
0 0 0
0 0 0
0 0 0
0 0 0
0 0 0
0 0 0
0 0 0
0 0 0
0 0 0
0 0 0
0 0 0
0 0 0
0 0 0
0 0 0
0 0 0
0 0 0
0 0 0
0 0 0
0 0 0
0 0 0
0 0 0
0 0 0
0 0 0
0 0 0
0 0 0
0 0 0
0 0 0
0 0 0
0 0 0
0 0 0
0 0 0
0 0 0
0 0 0
0 0 0
0 0 0
0 0 0
0 0 0
0 0 0
0 0 0
0 0 0
0 0 0
0 0 0
0 0 0
0 0 0
0 0 0
0 0 0
0 0 0
0 0 0
0 0 0
0 0 0
0 0 0
0 0 0
0 0 0
0 0 0
0 0 0
0 0 0
0 0 0
0 0 0
0 0 0
0 0 0
0 0 0
0 0 0
0 0 0
0 0 0
0 0 0
0 0 0
0 0 0
0 0 0
0 0 0
0 0 0
0 0 0
0 0 0
0 0 0
0 0 0
0 0 0
0 0 0
0 0 0
0 0 0
0 0 0
0 0 0
0 0 0
0 0 0
0 0 0
0 0 0
0 0 0
0 0 0
0 0 0
0 0 0
0 0 0
0 0 0
0 0 0
0 0 0
0 0 0
0 0 0
0 0 0
0 0 0
0 0 0
0 0 0
0 0 0
0 0 0
0 0 0
0 0 0
0 0 0
0 0 0
0 0 0
0 0 0
0 0 0
0 0 0
0 0 0
0 0 0
0 0 0
0 0 0
0 0 0
0 0 0
0 0 0
0 0 0
0 0 0
0 0 0
0 0 0
0 0 0
0 0 0
0 0 0
0 0 0
0 0 0
0 0 0
0 0 0
0 0 0
0 0 0
0 0 0
0 0 0
0 0 0
0 0 0
0 0 0
0 0 0
0 0 0
0 0 0
0 0 0
0 0 0
0 0 0
0 0 0
0 0 0
0 0 0
0 0 0
0 0 0
0 0 0
0 0 0
0 0 0
0 0 0
0 0 0
0 0 0
0 0 0
0 0 0
0 0 0
0 0 0
0 0 0
0 0 0
0 0 0
0 0 0
0 0 0
0 0 0
0 0 0
0 0 0
0 0 0
0 0 0
0 0 0
0 0 0
0 0 0
0 0 0
0 0 0
0 0 0
0 0 0
0 0 0
0 0 0
0 0 0
0 0 0
0 0 0
0 0 0
0 0 0
0 0 0
0 0 0
0 0 0
0 0 0
0 0 0
0 0 0
0 0 0
0 0 0
0 0 0
0 0 0
0 0 0
0 0 0
0 0 0
0 0 0
0 0 0
0 0 0
0 0 0
0 0 0
0 0 0
0 0 0
0 0 0
0 0 0
0 0 0
0 0 0
0 0 0
0 0 0
0 0 0
0 0 0
0 0 0
0 0 0
0 0 0
0 0 0
0 0 0
0 0 0
0 0 0
0 0 0
0 0 0
0 0 0
0 0 0
0 0 0
0 0 0
0 0 0
0 0 0
0 0 0
0 0 0
0 0 0
0 0 0
0 0 0
0 0 0
0 0 0
0 0 0
0 0 0
0 0 0
0 0 0
0 0 0
0 0 0
0 0 0
0 0 0
0 0 0
0 0 0
0 0 0
0 0 0
0 0 0
0 0 0
0 0 0
0 0 0
0 0 0
0 0 0
0 0 0
0 0 0
0 0 0
0 0 0
0 0 0
0 0 0
0 0 0
0 0 0
0 0 0
0 0 0
0 0 0
0 0 0
0 0 0
0 0 0
0 0 0
0 0 0
0 0 0
0 0 0
0 0 0
0 0 0
0 0 0
0 0 0
0 0 0
0 0 0
0 0 0
0 0 0
0 0 0
0 0 0
0 0 0
0 0 0
0 0 0
0 0 0
0 0 0
0 0 0
0 0 0
0 0 0
0 0 0
0 0 0
0 0 0
0 0 0
0 0 0
0 0 0
0 0 0
0 0 0
0 0 0
0 0 0
0 0 0
0 0 0
0 0 0
0 0 0
0 0 0
0 0 0
0 0 0
0 0 0
0 0 0
0 0 0
0 0 0
0 0 0
0 0 0
0 0 0
0 0 0
0 0 0
0 0 0
0 0 0
0 0 0
0 0 0
0 0 0
0 0 0
0 0 0
0 0 0
0 0 0
0 0 0
0 0 0
0 0 0
0 0 0
0 0 0
0 0 0
0 0 0
0 0 0
0 0 0
0 0 0
0 0 0
0 0 0
0 0 0
0 0 0
0 0 0
0 0 0
0 0 0
0 0 0
0 0 0
0 0 0
0 0 0
0 0 0
0 0 0
0 0 0
0 0 0
0 0 0
0 0 0
0 0 0
0 0 0
0 0 0
0 0 0
0 0 0
0 0 0
0 0 0
0 0 0
0 0 0
0 0 0
0 0 0
0 0 0
0 0 0
0 0 0
0 0 0
0 0 0
0 0 0
0 0 0
0 0 0
0 0 0
0 0 0
0 0 0
0 0 0
0 0 0
0 0 0
0 0 0
0 0 0
0 0 0
0 0 0
0 0 0
0 0 0
0 0 0
0 0 0
0 0 0
0 0 0
0 0 0
0 0 0
0 0 0
0 0 0
0 0 0
0 0 0
0 0 0
0 0 0
0 0 0
0 0 0
0 0 0
0 0 0
0 0 0
0 0 0
0 0 0
0 0 0
0 0 0
0 0 0
0 0 0
0 0 0
0 0 0
0 0 0
0 0 0
0 0 0
0 0 0
0 0 0
0 0 0
0 0 0
0 0 0
0 0 0
0 0 0
0 0 0
0 0 0
0 0 0
0 0 0
0 0 0
0 0 0
0 0 0
0 0 0
0 0 0
0 0 0
0 0 0
0 0 0
0 0 0
0 0 0
0 0 0
0 0 0
0 0 0
0 0 0
0 0 0
0 0 0
0 0 0
0 0 0
0 0 0
0 0 0
0 0 0
0 0 0
0 0 0
0 0 0
0 0 0
0 0 0
0 0 0
0 0 0
0 0 0
0 0 0
0 0 0
0 0 0
0 0 0
0 0 0
0 0 0
0 0 0
0 0 0
0 0 0
0 0 0
0 0 0
0 0 0
0 0 0
0 0 0
0 0 0
0 0 0
0 0 0
0 0 0
0 0 0
0 0 0
0 0 0
0 0 0
0 0 0
0 0 0
0 0 0
0 0 0
0 0 0
0 0 0
0 0 0
0 0 0
0 0 0
0 0 0
0 0 0
0 0 0
0 0 0
0 0 0
0 0 0
0 0 0
0 0 0
0 0 0
0 0 0
0 0 0
0 0 0
0 0 0
0 0 0
0 0 0
0 0 0
0 0 0
0 0 0
0 0 0
0 0 0
0 0 0
0 0 0
0 0 0
0 0 0
0 0 0
0 0 0
0 0 0
0 0 0
0 0 0
0 0 0
0 0 0
0 0 0
0 0 0
0 0 0
0 0 0
0 0 0
0 0 0
0 0 0
0 0 0
0 0 0
0 0 0
0 0 0
0 0 0
0 0 0
0 0 0
0 0 0
0 0 0
0 0 0
0 0 0
0 0 0
0 0 0
0 0 0
0 0 0
0 0 0
0 0 0
0 0 0
0 0 0
0 0 0
0 0 0
0 0 0
0 0 0
0 0 0
0 0 0
0 0 0
0 0 0
0 0 0
0 0 0
0 0 0
0 0 0
0 0 0
0 0 0
0 0 0
0 0 0
0 0 0
0 0 0
0 0 0
0 0 0
0 0 0
0 0 0
0 0 0
0 0 0
0 0 0
0 0 0
0 0 0
0 0 0
0 0 0
0 0 0
0 0 0
0 0 0
0 0 0
0 0 0
0 0 0
0 0 0
0 0 0
0 0 0
0 0 0
0 0 0
0 0 0
0 0 0
0 0 0
0 0 0
0 0 0
0 0 0
0 0 0
0 0 0
0 0 0
0 0 0
0 0 0
0 0 0
0 0 0
0 0 0
0 0 0
0 0 0
0 0 0
0 0 0
0 0 0
0 0 0
0 0 0
0 0 0
0 0 0
0 0 0
0 0 0
0 0 0
0 0 0
0 0 0
0 0 0
0 0 0
0 0 0
0 0 0
0 0 0
0 0 0
0 0 0
0 0 0
0 0 0
0 0 0
0 0 0
0 0 0
0 0 0
0 0 0
0 0 0
0 0 0
0 0 0
0 0 0
0 0 0
0 0 0
0 0 0
0 0 0
0 0 0
0 0 0
0 0 0
0 0 0
0 0 0
0 0 0
0 0 0
0 0 0
0 0 0
0 0 0
0 0 0
0 0 0
0 0 0
0 0 0
0 0 0
0 0 0
0 0 0
0 0 0
0 0 0
0 0 0
0 0 0
0 0 0
0 0 0
0 0 0
0 0 0
0 0 0
0 0 0
0 0 0
0 0 0
0 0 0
0 0 0
0 0 0
0 0 0
0 0 0
0 0 0
0 0 0
0 0 0
0 0 0
0 0 0
0 0 0
0 0 0
0 0 0
0 0 0
0 0 0
0 0 0
0 0 0
0 0 0
0 0 0
0 0 0
0 0 0
0 0 0
0 0 0
0 0 0
0 0 0
0 0 0
0 0 0
0 0 0
0 0 0
0 0 0
0 0 0
0 0 0
0 0 0
0 0 0
0 0 0
0 0 0
0 0 0
0 0 0
0 0 0
0 0 0
0 0 0
0 0 0
0 0 0
0 0 0
0 0 0
0 0 0
0 0 0
0 0 0
0 0 0
0 0 0
0 0 0
0 0 0
0 0 0
0 0 0
0 0 0
0 0 0
0 0 0
0 0 0
0 0 0
0 0 0
0 0 0
0 0 0
0 0 0
0 0 0
0 0 0
0 0 0
0 0 0
0 0 0
0 0 0
0 0 0
0 0 0
0 0 0
0 0 0
0 0 0
0 0 0
0 0 0
0 0 0
0 0 0
0 0 0
0 0 0
0 0 0
0 0 0
0 0 0
0 0 0
0 0 0
0 0 0
0 0 0
0 0 0
0 0 0
0 0 0
0 0 0
0 0 0
0 0 0
0 0 0
0 0 0
0 0 0
0 0 0
0 0 0
0 0 0
0 0 0
0 0 0
0 0 0
0 0 0
0 0 0
0 0 0
0 0 0
0 0 0
0 0 0
0 0 0
0 0 0
0 0 0
0 0 0
0 0 0
0 0 0
0 0 0
0 0 0
0 0 0
0 0 0
0 0 0
0 0 0
0 0 0
0 0 0
0 0 0
0 0 0
0 0 0
0 0 0
0 0 0
0 0 0
0 0 0
0 0 0
0 0 0
0 0 0
0 0 0
0 0 0
0 0 0
0 0 0
0 0 0
0 0 0
0 0 0
0 0 0
0 0 0
0 0 0
0 0 0
0 0 0
0 0 0
0 0 0
0 0 0
0 0 0
0 0 0
0 0 0
0 0 0
0 0 0
0 0 0
0 0 0
0 0 0
0 0 0
0 0 0
0 0 0
0 0 0
0 0 0
0 0 0
0 0 0
0 0 0
0 0 0
0 0 0
0 0 0
0 0 0
0 0 0
0 0 0
0 0 0
0 0 0
0 0 0
0 0 0
0 0 0
0 0 0
0 0 0
0 0 0
0 0 0
0 0 0
0 0 0
0 0 0
0 0 0
0 0 0
0 0 0
0 0 0
0 0 0
0 0 0
0 0 0
0 0 0
0 0 0
0 0 0
0 0 0
0 0 0
0 0 0
0 0 0
0 0 0
0 0 0
0 0 0
0 0 0
0 0 0
0 0 0
0 0 0
0 0 0
0 0 0
0 0 0
0 0 0
0 0 0
0 0 0
0 0 0
0 0 0
0 0 0
0 0 0
0 0 0
0 0 0
0 0 0
0 0 0
0 0 0
0 0 0
0 0 0
0 0 0
0 0 0
0 0 0
0 0 0
0 0 0
0 0 0
0 0 0
0 0 0
0 0 0
0 0 0
0 0 0
0 0 0
0 0 0
0 0 0
0 0 0
0 0 0
0 0 0
0 0 0
0 0 0
0 0 0
0 0 0
0 0 0
0 0 0
0 0 0
0 0 0
0 0 0
0 0 0
0 0 0
0 0 0
0 0 0
0 0 0
0 0 0
0 0 0
0 0 0
0 0 0
0 0 0
0 0 0
0 0 0
0 0 0
0 0 0
0 0 0
0 0 0
0 0 0
0 0 0
0 0 0
0 0 0
0 0 0
0 0 0
0 0 0
0 0 0
0 0 0
0 0 0
0 0 0
0 0 0
0 0 0
0 0 0
0 0 0
0 0 0
0 0 0
0 0 0
0 0 0
0 0 0
0 0 0
0 0 0
0 0 0
0 0 0
0 0 0
0 0 0
0 0 0
0 0 0
0 0 0
0 0 0
0 0 0
0 0 0
0 0 0
0 0 0
0 0 0
0 0 0
0 0 0
0 0 0
0 0 0
0 0 0
0 0 0
0 0 0
0 0 0
0 0 0
0 0 0
0 0 0
0 0 0
0 0 0
0 0 0
0 0 0
0 0 0
0 0 0
0 0 0
0 0 0
0 0 0
0 0 0
0 0 0
0 0 0
0 0 0
0 0 0
0 0 0
0 0 0
0 0 0
0 0 0
0 0 0
0 0 0
0 0 0
0 0 0
0 0 0
0 0 0
0 0 0
0 0 0
0 0 0
0 0 0
0 0 0
0 0 0
0 0 0
0 0 0
0 0 0
0 0 0
0 0 0
0 0 0
0 0 0
0 0 0
0 0 0
0 0 0
0 0 0
0 0 0
0 0 0
0 0 0
0 0 0
0 0 0
0 0 0
0 0 0
0 0 0
0 0 0
0 0 0
0 0 0
0 0 0
0 0 0
0 0 0
0 0 0
0 0 0
0 0 0
0 0 0
0 0 0
0 0 0
0 0 0
0 0 0
0 0 0
0 0 0
0 0 0
0 0 0
0 0 0
0 0 0
0 0 0
0 0 0
0 0 0
0 0 0
0 0 0
0 0 0
0 0 0
0 0 0
0 0 0
0 0 0
0 0 0
0 0 0
0 0 0
0 0 0
0 0 0
0 0 0
0 0 0
0 0 0
0 0 0
0 0 0
0 0 0
0 0 0
0 0 0
0 0 0
0 0 0
0 0 0
0 0 0
0 0 0
0 0 0
0 0 0
0 0 0
0 0 0
0 0 0
0 0 0
0 0 0
0 0 0
0 0 0
0 0 0
0 0 0
0 0 0
0 0 0
0 0 0
0 0 0
0 0 0
0 0 0
0 0 0
0 0 0
0 0 0
0 0 0
0 0 0
0 0 0
0 0 0
0 0 0
0 0 0
0 0 0
0 0 0
0 0 0
0 0 0
0 0 0
0 0 0
0 0 0
0 0 0
0 0 0
0 0 0
0 0 0
0 0 0
0 0 0
0 0 0
0 0 0
0 0 0
0 0 0
0 0 0
0 0 0
0 0 0
0 0 0
0 0 0
0 0 0
0 0 0
0 0 0
0 0 0
0 0 0
0 0 0
0 0 0
0 0 0
0 0 0
0 0 0
0 0 0
0 0 0
0 0 0
0 0 0
0 0 0
0 0 0
0 0 0
0 0 0
0 0 0
0 0 0
0 0 0
0 0 0
0 0 0
0 0 0
0 0 0
0 0 0
0 0 0
0 0 0
0 0 0
0 0 0
0 0 0
0 0 0
0 0 0
0 0 0
0 0 0
0 0 0
0 0 0
0 0 0
0 0 0
0 0 0
0 0 0
0 0 0
0 0 0
0 0 0
0 0 0
0 0 0
0 0 0
0 0 0
0 0 0
0 0 0
0 0 0
0 0 0
0 0 0
0 0 0
0 0 0
0 0 0
0 0 0
0 0 0
0 0 0
0 0 0
0 0 0
0 0 0
0 0 0
0 0 0
0 0 0
0 0 0
0 0 0
0 0 0
0 0 0
0 0 0
0 0 0
0 0 0
0 0 0
0 0 0
0 0 0
0 0 0
0 0 0
0 0 0
0 0 0
0 0 0
0 0 0
0 0 0
0 0 0
0 0 0
0 0 0
0 0 0
0 0 0
0 0 0
0 0 0
0 0 0
0 0 0
0 0 0
0 0 0
0 0 0
0 0 0
0 0 0
0 0 0
0 0 0
0 0 0
0 0 0
0 0 0
0 0 0
0 0 0
0 0 0
0 0 0
0 0 0
0 0 0
0 0 0
0 0 0
0 0 0
0 0 0
0 0 0
0 0 0
0 0 0
0 0 0
0 0 0
0 0 0
0 0 0
0 0 0
0 0 0
0 0 0
0 0 0
0 0 0
0 0 0
0 0 0
0 0 0
0 0 0
0 0 0
0 0 0
0 0 0
0 0 0
0 0 0
0 0 0
0 0 0
0 0 0
0 0 0
0 0 0
0 0 0
0 0 0
0 0 0
0 0 0
0 0 0
0 0 0
0 0 0
0 0 0
0 0 0
0 0 0
0 0 0
0 0 0
0 0 0
0 0 0
0 0 0
0 0 0
0 0 0
0 0 0
0 0 0
0 0 0
0 0 0
0 0 0
0 0 0
0 0 0
0 0 0
0 0 0
0 0 0
0 0 0
0 0 0
0 0 0
0 0 0
0 0 0
0 0 0
0 0 0
0 0 0
0 0 0
0 0 0
0 0 0
0 0 0
0 0 0
0 0 0
0 0 0
0 0 0
0 0 0
0 0 0
0 0 0
0 0 0
0 0 0
0 0 0
0 0 0
0 0 0
0 0 0
0 0 0
0 0 0
0 0 0
0 0 0
0 0 0
0 0 0
0 0 0
0 0 0
0 0 0
0 0 0
0 0 0
0 0 0
0 0 0
0 0 0
0 0 0
0 0 0
0 0 0
0 0 0
0 0 0
0 0 0
0 0 0
0 0 0
0 0 0
0 0 0
0 0 0
0 0 0
0 0 0
0 0 0
0 0 0
0 0 0
0 0 0
0 0 0
0 0 0
0 0 0
0 0 0
0 0 0
0 0 0
0 0 0
0 0 0
0 0 0
0 0 0
0 0 0
0 0 0
0 0 0
0 0 0
0 0 0
0 0 0
0 0 0
0 0 0
0 0 0
0 0 0
0 0 0
0 0 0
0 0 0
0 0 0
0 0 0
0 0 0
0 0 0
0 0 0
0 0 0
0 0 0
0 0 0
0 0 0
0 0 0
0 0 0
0 0 0
0 0 0
0 0 0
0 0 0
0 0 0
0 0 0
0 0 0
0 0 0
0 0 0
0 0 0
0 0 0
0 0 0
0 0 0
0 0 0
0 0 0
0 0 0
0 0 0
0 0 0
0 0 0
0 0 0
0 0 0
0 0 0
0 0 0
0 0 0
0 0 0
0 0 0
0 0 0
0 0 0
0 0 0
0 0 0
0 0 0
0 0 0
0 0 0
0 0 0
0 0 0
0 0 0
0 0 0
0 0 0
0 0 0
0 0 0
0 0 0
0 0 0
0 0 0
0 0 0
0 0 0
0 0 0
0 0 0
0 0 0
0 0 0
0 0 0
0 0 0
0 0 0
0 0 0
0 0 0
0 0 0
0 0 0
0 0 0
0 0 0
0 0 0
0 0 0
0 0 0
0 0 0
0 0 0
0 0 0
0 0 0
0 0 0
0 0 0
0 0 0
0 0 0
0 0 0
0 0 0
0 0 0
0 0 0
0 0 0
0 0 0
0 0 0
0 0 0
0 0 0
0 0 0
0 0 0
0 0 0
0 0 0
0 0 0
0 0 0
0 0 0
0 0 0
0 0 0
0 0 0
0 0 0
0 0 0
0 0 0
0 0 0
0 0 0
0 0 0
0 0 0
0 0 0
0 0 0
0 0 0
0 0 0
0 0 0
0 0 0
0 0 0
0 0 0
0 0 0
0 0 0
0 0 0
0 0 0
0 0 0
0 0 0
0 0 0
0 0 0
0 0 0
0 0 0
0 0 0
0 0 0
0 0 0
0 0 0
0 0 0
0 0 0
0 0 0
0 0 0
0 0 0
0 0 0
0 0 0
0 0 0
0 0 0
0 0 0
0 0 0
0 0 0
0 0 0
0 0 0
0 0 0
0 0 0
0 0 0
0 0 0
0 0 0
0 0 0
0 0 0
0 0 0
0 0 0
0 0 0
0 0 0
0 0 0
0 0 0
0 0 0
0 0 0
0 0 0
0 0 0
0 0 0
0 0 0
0 0 0
0 0 0
0 0 0
0 0 0
0 0 0
0 0 0
0 0 0
0 0 0
0 0 0
0 0 0
0 0 0
0 0 0
0 0 0
0 0 0
0 0 0
0 0 0
0 0 0
0 0 0
0 0 0
0 0 0
0 0 0
0 0 0
0 0 0
0 0 0
0 0 0
0 0 0
0 0 0
0 0 0
0 0 0
0 0 0
0 0 0
0 0 0
0 0 0
0 0 0
0 0 0
0 0 0
0 0 0
0 0 0
0 0 0
0 0 0
0 0 0
0 0 0
0 0 0
0 0 0
0 0 0
0 0 0
0 0 0
0 0 0
0 0 0
0 0 0
0 0 0
0 0 0
0 0 0
0 0 0
0 0 0
0 0 0
0 0 0
0 0 0
0 0 0
0 0 0
0 0 0
0 0 0
0 0 0
0 0 0
0 0 0
0 0 0
0 0 0
0 0 0
0 0 0
0 0 0
0 0 0
0 0 0
0 0 0
0 0 0
0 0 0
0 0 0
0 0 0
0 0 0
0 0 0
0 0 0
0 0 0
0 0 0
0 0 0
0 0 0
0 0 0
0 0 0
0 0 0
0 0 0
0 0 0
0 0 0
0 0 0
0 0 0
0 0 0
0 0 0
0 0 0
0 0 0
0 0 0
0 0 0
0 0 0
0 0 0
0 0 0
0 0 0
0 0 0
0 0 0
0 0 0
0 0 0
0 0 0
0 0 0
0 0 0
0 0 0
0 0 0
0 0 0
0 0 0
0 0 0
0 0 0
0 0 0
0 0 0
0 0 0
0 0 0
0 0 0
0 0 0
0 0 0
0 0 0
0 0 0
0 0 0
0 0 0
0 0 0
0 0 0
0 0 0
0 0 0
0 0 0
0 0 0
0 0 0
0 0 0
0 0 0
0 0 0
0 0 0
0 0 0
0 0 0
0 0 0
0 0 0
0 0 0
0 0 0
0 0 0
0 0 0
0 0 0
0 0 0
0 0 0
0 0 0
0 0 0
0 0 0
0 0 0
0 0 0
0 0 0
0 0 0
0 0 0
0 0 0
0 0 0
0 0 0
0 0 0
0 0 0
0 0 0
0 0 0
0 0 0
0 0 0
0 0 0
0 0 0
0 0 0
0 0 0
0 0 0
0 0 0
0 0 0
0 0 0
0 0 0
0 0 0
0 0 0
0 0 0
0 0 0
0 0 0
0 0 0
0 0 0
0 0 0
0 0 0
0 0 0
0 0 0
0 0 0
0 0 0
0 0 0
0 0 0
0 0 0
0 0 0
0 0 0
0 0 0
0 0 0
0 0 0
0 0 0
0 0 0
0 0 0
0 0 0
0 0 0
0 0 0
0 0 0
0 0 0
0 0 0
0 0 0
0 0 0
0 0 0
0 0 0
0 0 0
0 0 0
0 0 0
0 0 0
0 0 0
0 0 0
0 0 0
0 0 0
0 0 0
0 0 0
0 0 0
0 0 0
0 0 0
0 0 0
0 0 0
0 0 0
0 0 0
0 0 0
0 0 0
0 0 0
0 0 0
0 0 0
0 0 0
0 0 0
0 0 0
0 0 0
0 0 0
0 0 0
0 0 0
0 0 0
0 0 0
0 0 0
0 0 0
0 0 0
0 0 0
0 0 0
0 0 0
0 0 0
0 0 0
0 0 0
0 0 0
0 0 0
0 0 0
0 0 0
0 0 0
0 0 0
0 0 0
0 0 0
0 0 0
0 0 0
0 0 0
0 0 0
0 0 0
0 0 0
0 0 0
0 0 0
0 0 0
0 0 0
0 0 0
0 0 0
0 0 0
0 0 0
0 0 0
0 0 0
0 0 0
0 0 0
0 0 0
0 0 0
0 0 0
0 0 0
0 0 0
0 0 0
0 0 0
0 0 0
0 0 0
0 0 0
0 0 0
0 0 0
0 0 0
0 0 0
0 0 0
0 0 0
0 0 0
0 0 0
0 0 0
0 0 0
0 0 0
0 0 0
0 0 0
0 0 0
0 0 0
0 0 0
0 0 0
0 0 0
0 0 0
0 0 0
0 0 0
0 0 0
0 0 0
0 0 0
0 0 0
0 0 0
0 0 0
0 0 0
0 0 0
0 0 0
0 0 0
0 0 0
0 0 0
0 0 0
0 0 0
0 0 0
0 0 0
0 0 0
0 0 0
0 0 0
0 0 0
0 0 0
0 0 0
0 0 0
0 0 0
0 0 0
0 0 0
0 0 0
0 0 0
0 0 0
0 0 0
0 0 0
0 0 0
0 0 0
0 0 0
0 0 0
0 0 0
0 0 0
0 0 0
0 0 0
0 0 0
0 0 0
0 0 0
0 0 0
0 0 0
0 0 0
0 0 0
0 0 0
0 0 0
0 0 0
0 0 0
0 0 0
0 0 0
0 0 0
0 0 0
0 0 0
0 0 0
0 0 0
0 0 0
0 0 0
0 0 0
0 0 0
0 0 0
0 0 0
0 0 0
0 0 0
0 0 0
0 0 0
0 0 0
0 0 0
0 0 0
0 0 0
0 0 0
0 0 0
0 0 0
0 0 0
0 0 0
0 0 0
0 0 0
0 0 0
0 0 0
0 0 0
0 0 0
0 0 0
0 0 0
0 0 0
0 0 0
0 0 0
0 0 0
0 0 0
0 0 0
0 0 0
0 0 0
0 0 0
0 0 0
0 0 0
0 0 0
0 0 0
0 0 0
0 0 0
0 0 0
0 0 0
0 0 0
0 0 0
0 0 0
0 0 0
0 0 0
0 0 0
0 0 0
0 0 0
0 0 0
0 0 0
0 0 0
0 0 0
0 0 0
0 0 0
0 0 0
0 0 0
0 0 0
0 0 0
0 0 0
0 0 0
0 0 0
0 0 0
0 0 0
0 0 0
0 0 0
0 0 0
0 0 0
0 0 0
0 0 0
0 0 0
0 0 0
0 0 0
0 0 0
0 0 0
0 0 0
0 0 0
0 0 0
0 0 0
0 0 0
0 0 0
0 0 0
0 0 0
0 0 0
0 0 0
0 0 0
0 0 0
0 0 0
0 0 0
0 0 0
0 0 0
0 0 0
0 0 0
0 0 0
0 0 0
0 0 0
0 0 0
0 0 0
0 0 0
0 0 0
0 0 0
0 0 0
0 0 0
0 0 0
0 0 0
0 0 0
0 0 0
0 0 0
0 0 0
0 0 0
0 0 0
0 0 0
0 0 0
0 0 0
0 0 0
0 0 0
0 0 0
0 0 0
0 0 0
0 0 0
0 0 0
0 0 0
0 0 0
0 0 0
0 0 0
0 0 0
0 0 0
0 0 0
0 0 0
0 0 0
0 0 0
0 0 0
0 0 0
0 0 0
0 0 0
0 0 0
0 0 0
0 0 0
0 0 0
0 0 0
0 0 0
0 0 0
0 0 0
0 0 0
0 0 0
0 0 0
0 0 0
0 0 0
0 0 0
0 0 0
0 0 0
0 0 0
0 0 0
0 0 0
0 0 0
0 0 0
0 0 0
0 0 0
0 0 0
0 0 0
0 0 0
0 0 0
0 0 0
0 0 0
0 0 0
0 0 0
0 0 0
0 0 0
0 0 0
0 0 0
0 0 0
0 0 0
0 0 0
0 0 0
0 0 0
0 0 0
0 0 0
0 0 0
0 0 0
0 0 0
0 0 0
0 0 0
0 0 0
0 0 0
0 0 0
0 0 0
0 0 0
0 0 0
0 0 0
0 0 0
0 0 0
0 0 0
0 0 0
0 0 0
0 0 0
0 0 0
0 0 0
0 0 0
0 0 0
0 0 0
0 0 0
0 0 0
0 0 0
0 0 0
0 0 0
0 0 0
0 0 0
0 0 0
0 0 0
0 0 0
0 0 0
0 0 0
0 0 0
0 0 0
0 0 0
0 0 0
0 0 0
0 0 0
0 0 0
0 0 0
0 0 0
0 0 0
0 0 0
0 0 0
0 0 0
0 0 0
0 0 0
0 0 0
0 0 0
0 0 0
0 0 0
0 0 0
0 0 0
0 0 0
0 0 0
0 0 0
0 0 0
0 0 0
0 0 0
0 0 0
0 0 0
0 0 0
0 0 0
0 0 0
0 0 0
0 0 0
0 0 0
0 0 0
0 0 0
0 0 0
0 0 0
0 0 0
0 0 0
0 0 0
0 0 0
0 0 0
0 0 0
0 0 0
0 0 0
0 0 0
0 0 0
0 0 0
0 0 0
0 0 0
0 0 0
0 0 0
0 0 0
0 0 0
0 0 0
0 0 0
0 0 0
0 0 0
0 0 0
0 0 0
0 0 0
0 0 0
0 0 0
0 0 0
0 0 0
0 0 0
0 0 0
0 0 0
0 0 0
0 0 0
0 0 0
0 0 0
0 0 0
0 0 0
0 0 0
0 0 0
0 0 0
0 0 0
0 0 0
0 0 0
0 0 0
0 0 0
0 0 0
0 0 0
0 0 0
0 0 0
0 0 0
0 0 0
0 0 0
0 0 0
0 0 0
0 0 0
0 0 0
0 0 0
0 0 0
0 0 0
0 0 0
0 0 0
0 0 0
0 0 0
0 0 0
0 0 0
0 0 0
0 0 0
0 0 0
0 0 0
0 0 0
0 0 0
0 0 0
0 0 0
0 0 0
0 0 0
0 0 0
0 0 0
0 0 0
0 0 0
0 0 0
0 0 0
0 0 0
0 0 0
0 0 0
0 0 0
0 0 0
0 0 0
0 0 0
0 0 0
0 0 0
0 0 0
0 0 0
0 0 0
0 0 0
0 0 0
0 0 0
0 0 0
0 0 0
0 0 0
0 0 0
0 0 0
0 0 0
0 0 0
0 0 0
0 0 0
0 0 0
0 0 0
0 0 0
0 0 0
0 0 0
0 0 0
0 0 0
0 0 0
0 0 0
0 0 0
0 0 0
0 0 0
0 0 0
0 0 0
0 0 0
0 0 0
0 0 0
0 0 0
0 0 0
0 0 0
0 0 0
0 0 0
0 0 0
0 0 0
0 0 0
0 0 0
0 0 0
0 0 0
0 0 0
0 0 0
0 0 0
0 0 0
0 0 0
0 0 0
0 0 0
0 0 0
0 0 0
0 0 0
0 0 0
0 0 0
0 0 0
0 0 0
0 0 0
0 0 0
0 0 0
0 0 0
0 0 0
0 0 0
0 0 0
0 0 0
0 0 0
0 0 0
0 0 0
0 0 0
0 0 0
0 0 0
0 0 0
0 0 0
0 0 0
0 0 0
0 0 0
0 0 0
0 0 0
0 0 0
0 0 0
0 0 0
0 0 0
0 0 0
0 0 0
0 0 0
0 0 0
0 0 0
0 0 0
0 0 0
0 0 0
0 0 0
0 0 0
0 0 0
0 0 0
0 0 0
0 0 0
0 0 0
0 0 0
0 0 0
0 0 0
0 0 0
0 0 0
0 0 0
0 0 0
0 0 0
0 0 0
0 0 0
0 0 0
0 0 0
0 0 0
0 0 0
0 0 0
0 0 0
0 0 0
0 0 0
0 0 0
0 0 0
0 0 0
0 0 0
0 0 0
0 0 0
0 0 0
0 0 0
0 0 0
0 0 0
0 0 0
0 0 0
0 0 0
0 0 0
0 0 0
0 0 0
0 0 0
0 0 0
0 0 0
0 0 0
0 0 0
0 0 0
0 0 0
0 0 0
0 0 0
0 0 0
0 0 0
0 0 0
0 0 0
0 0 0
0 0 0
0 0 0
0 0 0
0 0 0
0 0 0
0 0 0
0 0 0
0 0 0
0 0 0
0 0 0
0 0 0
0 0 0
0 0 0
0 0 0
0 0 0
0 0 0
0 0 0
0 0 0
0 0 0
0 0 0
0 0 0
0 0 0
0 0 0
0 0 0
0 0 0
0 0 0
0 0 0
0 0 0
0 0 0
0 0 0
0 0 0
0 0 0
0 0 0
0 0 0
0 0 0
0 0 0
0 0 0
0 0 0
0 0 0
0 0 0
0 0 0
0 0 0
0 0 0
0 0 0
0 0 0
0 0 0
0 0 0
0 0 0
0 0 0
0 0 0
0 0 0
0 0 0
0 0 0
0 0 0
0 0 0
0 0 0
0 0 0
0 0 0
0 0 0
0 0 0
0 0 0
0 0 0
0 0 0
0 0 0
0 0 0
0 0 0
0 0 0
0 0 0
0 0 0
0 0 0
0 0 0
0 0 0
0 0 0
0 0 0
0 0 0
0 0 0
0 0 0
0 0 0
0 0 0
0 0 0
0 0 0
0 0 0
0 0 0
0 0 0
0 0 0
0 0 0
0 0 0
0 0 0
0 0 0
0 0 0
0 0 0
0 0 0
0 0 0
0 0 0
0 0 0
0 0 0
0 0 0
0 0 0
0 0 0
0 0 0
0 0 0
0 0 0
0 0 0
0 0 0
0 0 0
0 0 0
0 0 0
0 0 0
0 0 0
0 0 0
0 0 0
0 0 0
0 0 0
0 0 0
0 0 0
0 0 0
0 0 0
0 0 0
0 0 0
0 0 0
0 0 0
0 0 0
0 0 0
0 0 0
0 0 0
0 0 0
0 0 0
0 0 0
0 0 0
0 0 0
0 0 0
0 0 0
0 0 0
0 0 0
0 0 0
0 0 0
0 0 0
0 0 0
0 0 0
0 0 0
0 0 0
0 0 0
0 0 0
0 0 0
0 0 0
0 0 0
0 0 0
0 0 0
0 0 0
0 0 0
0 0 0
0 0 0
0 0 0
0 0 0
0 0 0
0 0 0
0 0 0
0 0 0
0 0 0
0 0 0
0 0 0
0 0 0
0 0 0
0 0 0
0 0 0
0 0 0
0 0 0
0 0 0
0 0 0
0 0 0
0 0 0
0 0 0
0 0 0
0 0 0
0 0 0
0 0 0
0 0 0
0 0 0
0 0 0
0 0 0
0 0 0
0 0 0
0 0 0
0 0 0
0 0 0
0 0 0
0 0 0
0 0 0
0 0 0
0 0 0
0 0 0
0 0 0
0 0 0
0 0 0
0 0 0
0 0 0
0 0 0
0 0 0
0 0 0
0 0 0
0 0 0
0 0 0
0 0 0
0 0 0
0 0 0
0 0 0
0 0 0
0 0 0
0 0 0
0 0 0
0 0 0
0 0 0
0 0 0
0 0 0
0 0 0
0 0 0
0 0 0
0 0 0
0 0 0
0 0 0
0 0 0
0 0 0
0 0 0
0 0 0
0 0 0
0 0 0
0 0 0
0 0 0
0 0 0
0 0 0
0 0 0
0 0 0
0 0 0
0 0 0
0 0 0
0 0 0
0 0 0
0 0 0
0 0 0
0 0 0
0 0 0
0 0 0
0 0 0
197 147 99
198 147 99
198 147 99
199 148 99
199 148 100
200 148 100
200 149 100
200 149 100
201 149 100
201 150 101
202 150 101
202 150 101
202 150 101
203 151 101
203 151 102
204 151 102
204 151 102
204 152 102
205 152 102
205 152 102
205 152 103
205 153 103
206 153 103
206 153 103
206 153 103
207 154 104
207 154 104
207 154 104
207 154 104
208 154 104
208 155 105
208 155 105
208 155 105
209 155 105
209 156 106
209 156 106
209 156 107
210 157 107
210 157 107
210 157 108
210 158 108
211 158 109
211 158 110
211 159 110
212 159 111
212 160 112
212 160 112
213 161 113
213 161 114
213 161 114
213 161 114
213 162 115
214 162 115
214 162 116
214 162 116
214 163 116
214 163 117
214 163 117
214 163 118
214 163 118
214 164 118
215 164 118
215 164 119
215 164 119
215 164 119
215 164 119
215 164 119
215 164 120
214 164 120
214 164 120
214 164 120
214 164 120
214 164 120
214 164 120
214 164 119
213 164 119
213 163 119
213 163 119
213 163 119
212 163 118
212 162 118
212 162 118
211 162 117
211 161 117
211 161 116
210 161 116
210 160 116
209 160 115
209 159 115
209 159 114
208 158 113
208 158 113
207 157 112
207 157 112
206 156 111
206 156 111
205 155 110
205 155 109
204 154 109
204 154 108
203 153 107
203 153 107
202 152 106
201 151 105
201 151 105
200 150 104
200 150 103
199 149 103
199 149 102
198 148 102
198 148 101
197 147 101
197 147 100
196 146 100
196 146 100
195 146 99
195 145 99
194 145 98
194 144 98
193 144 98
193 143 97
192 143 97
191 143 97
191 142 96
190 142 96
190 141 96
189 141 95
189 141 95
188 140 95
188 140 94
187 139 94
187 139 94
186 138 94
186 138 93
185 138 93
184 137 93
184 137 92
183 136 92
183 136 92
182 136 92
182 135 91
181 135 91
180 134 91
180 134 90
179 133 90
178 133 90
177 132 89
177 131 89
176 131 88
175 130 88
174 130 88
173 129 87
172 128 87
171 128 86
170 127 86
169 126 85
168 126 85
167 125 85
166 124 84
165 123 84
164 123 83
163 122 83
162 121 82
161 120 82
160 119 81
159 119 80
158 118 80
156 117 79
155 116 79
154 115 78
153 114 78
152 113 77
150 112 76
149 111 76
148 110 75
146 109 75
145 108 74
144 107 73
142 106 73
141 105 72
139 104 71
138 103 71
136 102 70
135 101 69
133 100 69
132 99 68
130 98 67
128 97 67
127 96 66
125 94 65
124 93 64
122 92 64
0 0 0
0 0 0
0 0 0
0 0 0
0 0 0
0 0 0
0 0 0
0 0 0
0 0 0
0 0 0
0 0 0
0 0 0
0 0 0
0 0 0
0 0 0
0 0 0
0 0 0
0 0 0
0 0 0
0 0 0
0 0 0
0 0 0
0 0 0
0 0 0
0 0 0
0 0 0
0 0 0
0 0 0
0 0 0
0 0 0
0 0 0
0 0 0
0 0 0
0 0 0
0 0 0
0 0 0
0 0 0
0 0 0
0 0 0
0 0 0
0 0 0
0 0 0
0 0 0
0 0 0
0 0 0
0 0 0
0 0 0
0 0 0
0 0 0
0 0 0
0 0 0
0 0 0
0 0 0
0 0 0
0 0 0
0 0 0
0 0 0
0 0 0
0 0 0
0 0 0
0 0 0
0 0 0
0 0 0
0 0 0
198 147 99
198 147 99
199 148 99
199 148 100
199 148 100
200 149 100
200 149 100
201 149 100
201 149 101
202 150 101
202 150 101
202 150 101
203 151 101
203 151 102
203 151 102
204 151 102
204 152 102
204 152 102
205 152 102
205 152 103
205 153 103
206 153 103
206 153 103
206 153 103
206 153 103
207 154 104
207 154 104
207 154 104
207 154 104
208 155 105
208 155 105
208 155 105
209 155 105
209 156 106
209 156 106
209 156 106
210 157 107
210 157 107
210 157 108
210 158 108
211 158 109
211 158 110
211 159 110
212 159 111
212 160 112
212 160 112
213 161 113
213 161 114
213 162 114
214 162 115
214 162 115
214 162 116
214 163 116
214 163 117
214 163 117
215 163 118
215 164 118
215 164 118
215 164 119
215 164 119
215 164 119
215 165 120
215 165 120
215 165 120
215 165 120
215 165 121
215 165 121
215 165 121
215 165 121
215 165 121
215 165 121
215 165 121
215 165 121
215 165 121
214 165 121
214 164 121
214 164 120
214 164 120
213 164 120
213 163 120
213 163 119
212 163 119
212 163 118
212 162 118
211 162 118
211 161 117
210 161 117
210 160 116
210 160 116
209 160 115
209 159 114
208 159 114
208 158 113
207 158 113
207 157 112
206 157 112
206 156 111
205 155 110
205 155 109
204 154 109
203 154 108
203 153 107
202 152 106
202 152 106
201 151 105
201 151 105
200 150 104
199 150 103
199 149 103
198 149 102
198 148 102
197 148 101
197 147 101
196 147 100
196 146 100
195 146 99
195 145 99
194 145 99
194 144 98
193 144 98
193 144 97
192 143 97
192 143 97
191 142 96
191 142 96
190 141 96
189 141 95
189 141 95
188 140 95
188 140 94
187 139 94
187 139 94
186 139 94
186 138 93
185 138 93
184 137 93
184 137 92
183 136 92
183 136 92
182 136 92
182 135 91
181 135 91
180 134 91
180 134 90
179 133 90
178 133 90
178 132 89
177 132 89
176 131 88
175 130 88
174 130 88
173 129 87
172 128 87
171 128 86
170 127 86
170 126 85
169 126 85
168 125 85
167 124 84
165 123 84
164 123 83
163 122 83
162 121 82
161 120 82
160 119 81
159 119 80
158 118 80
157 117 79
155 116 79
154 115 78
153 114 78
152 113 77
150 112 77
149 111 76
148 110 75
146 110 75
145 109 74
144 108 73
142 107 73
141 105 72
139 104 71
138 103 71
136 102 70
135 101 69
133 100 69
132 99 68
130 98 67
129 97 67
127 96 66
125 94 65
124 93 65
122 92 64
0 0 0
0 0 0
0 0 0
0 0 0
0 0 0
0 0 0
0 0 0
0 0 0
0 0 0
0 0 0
0 0 0
0 0 0
0 0 0
0 0 0
0 0 0
0 0 0
0 0 0
0 0 0
0 0 0
0 0 0
0 0 0
0 0 0
0 0 0
0 0 0
0 0 0
0 0 0
0 0 0
0 0 0
0 0 0
0 0 0
0 0 0
0 0 0
0 0 0
0 0 0
0 0 0
0 0 0
0 0 0
0 0 0
0 0 0
0 0 0
0 0 0
0 0 0
0 0 0
0 0 0
0 0 0
0 0 0
0 0 0
0 0 0
0 0 0
0 0 0
0 0 0
0 0 0
0 0 0
0 0 0
0 0 0
0 0 0
0 0 0
0 0 0
0 0 0
0 0 0
0 0 0
0 0 0
0 0 0
0 0 0
198 147 99
198 147 99
199 148 99
199 148 100
200 148 100
200 149 100
201 149 100
201 149 100
201 150 101
202 150 101
202 150 101
202 150 101
203 151 101
203 151 102
204 151 102
204 152 102
204 152 102
205 152 102
205 152 102
205 152 103
206 153 103
206 153 103
206 153 103
206 153 103
207 154 104
207 154 104
207 154 104
207 154 104
208 155 104
208 155 105
208 155 105
208 155 105
209 156 106
209 156 106
209 156 106
210 156 107
210 157 107
210 157 108
210 158 108
211 158 109
211 158 110
211 159 110
212 159 111
212 160 112
212 160 112
213 161 113
213 161 114
214 162 115
214 162 115
214 162 116
214 163 116
214 163 117
215 163 117
215 164 118
215 164 118
215 164 119
215 164 119
215 165 120
216 165 120
216 165 120
216 165 121
216 166 121
216 166 121
216 166 122
216 166 122
216 166 122
216 166 122
216 166 122
216 166 122
216 166 123
216 166 123
216 166 123
215 166 122
215 166 122
215 166 122
215 165 122
215 165 122
214 165 122
214 165 121
214 164 121
213 164 121
213 164 120
213 163 120
212 163 119
212 163 119
211 162 118
211 162 118
211 161 117
210 161 117
210 160 116
209 160 116
209 159 115
208 159 114
208 158 114
207 158 113
207 157 112
206 156 112
206 156 111
205 155 110
204 155 109
204 154 108
203 153 108
203 153 107
202 152 106
201 152 106
201 151 105
200 150 104
200 150 104
199 149 103
199 149 103
198 148 102
197 148 101
197 147 101
196 147 100
196 146 100
195 146 100
195 145 99
194 145 99
194 144 98
193 144 98
193 144 97
192 143 97
192 143 97
191 142 96
191 142 96
190 141 96
190 141 95
189 141 95
188 140 95
188 140 94
187 139 94
187 139 94
186 139 94
186 138 93
185 138 93
185 137 93
184 137 92
183 136 92
183 136 92
182 136 92
182 135 91
181 135 91
180 134 91
180 134 90
179 133 90
178 133 90
178 132 89
177 132 89
176 131 88
175 130 88
174 130 88
173 129 87
172 128 87
171 128 86
171 127 86
170 126 85
169 126 85
168 125 85
167 124 84
166 123 84
164 123 83
163 122 83
162 121 82
161 120 82
160 119 81
159 119 81
158 118 80
157 117 79
155 116 79
154 115 78
153 114 78
152 113 77
150 112 77
149 111 76
148 111 75
146 110 75
145 109 74
144 108 73
142 107 73
141 106 72
139 104 72
138 103 71
136 102 70
135 101 69
133 100 69
132 99 68
130 98 67
129 97 67
127 96 66
125 95 65
124 94 65
122 92 64
0 0 0
0 0 0
0 0 0
0 0 0
0 0 0
0 0 0
0 0 0
0 0 0
0 0 0
0 0 0
0 0 0
0 0 0
0 0 0
0 0 0
0 0 0
0 0 0
0 0 0
0 0 0
0 0 0
0 0 0
0 0 0
0 0 0
0 0 0
0 0 0
0 0 0
0 0 0
0 0 0
0 0 0
0 0 0
0 0 0
0 0 0
0 0 0
0 0 0
0 0 0
0 0 0
0 0 0
0 0 0
0 0 0
0 0 0
0 0 0
0 0 0
0 0 0
0 0 0
0 0 0
0 0 0
0 0 0
0 0 0
0 0 0
0 0 0
0 0 0
0 0 0
0 0 0
0 0 0
0 0 0
0 0 0
0 0 0
0 0 0
0 0 0
0 0 0
0 0 0
0 0 0
0 0 0
0 0 0
0 0 0
198 147 99
199 148 99
199 148 100
199 148 100
200 149 100
200 149 100
201 149 100
201 149 101
202 150 101
202 150 101
202 150 101
203 151 101
203 151 102
203 151 102
204 151 102
204 152 102
204 152 102
205 152 102
205 152 103
205 153 103
206 153 103
206 153 103
206 153 103
207 154 104
207 154 104
207 154 104
207 154 104
208 154 104
208 155 105
208 155 105
208 155 105
209 156 106
209 156 106
209 156 106
210 156 107
210 157 107
210 157 108
210 158 108
211 158 109
211 158 110
211 159 110
212 159 111
212 160 112
213 160 112
213 161 113
213 161 114
214 162 115
214 162 116
214 163 116
214 163 117
215 163 117
215 164 118
215 164 118
215 164 119
216 165 119
216 165 120
216 165 120
216 166 121
216 166 121
216 166 122
216 166 122
217 167 122
217 167 123
217 167 123
217 167 123
217 167 124
217 167 124
217 167 124
217 167 124
217 167 124
216 167 124
216 167 124
216 167 124
216 167 124
216 167 124
216 166 124
215 166 123
215 166 123
215 166 123
214 165 122
214 165 122
214 165 122
213 164 121
213 164 121
213 163 120
212 163 120
212 163 119
211 162 118
211 162 118
210 161 117
210 160 117
209 160 116
209 159 115
208 159 115
208 158 114
207 158 113
206 157 112
206 156 112
205 156 111
205 155 110
204 154 109
203 154 108
203 153 108
202 152 107
202 152 106
201 151 105
200 151 105
200 150 104
199 150 103
199 149 103
198 148 102
198 148 102
197 147 101
197 147 101
196 146 100
195 146 100
195 146 99
194 145 99
194 145 98
193 144 98
193 144 98
192 143 97
192 143 97
191 142 97
191 142 96
190 142 96
190 141 95
189 141 95
188 140 95
188 140 95
187 139 94
187 139 94
186 139 94
186 138 93
185 138 93
185 137 93
184 137 92
183 136 92
183 136 92
182 136 92
182 135 91
181 135 91
180 134 91
180 134 90
179 133 90
178 133 90
178 132 89
177 132 89
176 131 89
175 130 88
174 130 88
173 129 87
172 128 87
172 128 86
171 127 86
170 126 86
169 126 85
168 125 85
167 124 84
166 123 84
165 123 83
163 122 83
162 121 82
161 120 82
160 120 81
159 119 81
158 118 80
157 117 79
155 116 79
154 115 78
153 114 78
152 113 77
150 112 77
149 112 76
148 111 75
146 110 75
145 109 74
144 108 73
142 107 73
141 106 72
139 105 72
138 103 71
136 102 70
135 101 70
133 100 69
132 99 68
130 98 67
129 97 67
127 96 66
126 95 65
124 94 65
123 93 64
0 0 0
0 0 0
0 0 0
0 0 0
0 0 0
0 0 0
0 0 0
0 0 0
0 0 0
0 0 0
0 0 0
0 0 0
0 0 0
0 0 0
0 0 0
0 0 0
0 0 0
0 0 0
0 0 0
0 0 0
0 0 0
0 0 0
0 0 0
0 0 0
0 0 0
0 0 0
0 0 0
0 0 0
0 0 0
0 0 0
0 0 0
0 0 0
0 0 0
0 0 0
0 0 0
0 0 0
0 0 0
0 0 0
0 0 0
0 0 0
0 0 0
0 0 0
0 0 0
0 0 0
0 0 0
0 0 0
0 0 0
0 0 0
0 0 0
0 0 0
0 0 0
0 0 0
0 0 0
0 0 0
0 0 0
0 0 0
0 0 0
0 0 0
0 0 0
0 0 0
0 0 0
0 0 0
0 0 0
0 0 0
198 147 99
199 148 99
199 148 100
200 148 100
200 149 100
201 149 100
201 149 100
201 150 101
202 150 101
202 150 101
203 150 101
203 151 101
203 151 102
204 151 102
204 152 102
204 152 102
205 152 102
205 152 103
205 153 103
206 153 103
206 153 103
206 153 103
206 153 103
207 154 104
207 154 104
207 154 104
208 154 104
208 155 105
208 155 105
208 155 105
209 155 106
209 156 106
209 156 106
209 156 107
210 157 107
210 157 108
210 157 108
211 158 109
211 158 110
211 159 110
212 159 111
212 160 112
213 160 112
213 161 113
213 161 114
214 162 115
214 162 116
214 163 117
215 163 117
215 164 118
215 164 119
215 165 119
216 165 120
216 165 120
216 166 121
216 166 121
217 166 122
217 167 122
217 167 123
217 167 123
217 167 124
217 168 124
217 168 124
217 168 125
217 168 125
218 168 125
218 168 125
217 168 125
217 168 126
217 168 126
217 168 126
217 168 126
217 168 126
217 168 125
217 168 125
216 168 125
216 167 125
216 167 125
216 167 124
215 166 124
215 166 123
214 166 123
214 165 123
214 165 122
213 164 121
213 164 121
212 163 120
212 163 120
211 162 119
211 162 118
210 161 118
210 161 117
209 160 116
209 159 116
208 159 115
208 158 114
207 158 113
206 157 112
206 156 112
205 156 111
204 155 110
204 154 109
203 154 108
202 153 107
202 152 107
201 152 106
201 151 105
200 150 105
200 150 104
199 149 103
198 149 103
198 148 102
197 148 101
197 147 101
196 147 100
196 146 100
195 146 99
194 145 99
194 145 99
193 144 98
193 144 98
192 143 97
192 143 97
191 142 97
191 142 96
190 142 96
190 141 96
189 141 95
189 140 95
188 140 95
187 139 94
187 139 94
186 139 94
186 138 93
185 138 93
185 137 93
184 137 92
183 137 92
183 136 92
182 136 92
182 135 91
181 135 91
181 134 91
180 134 90
179 133 90
178 133 90
178 132 89
177 132 89
176 131 89
175 130 88
174 130 88
173 129 87
172 128 87
172 128 86
171 127 86
170 126 86
169 126 85
168 125 85
167 124 84
166 123 84
165 123 83
164 122 83
162 121 82
161 120 82
160 120 81
159 119 81
158 118 80
157 117 79
156 116 79
154 115 78
153 114 78
152 113 77
151 113 77
149 112 76
148 111 75
147 110 75
145 109 74
144 108 74
142 107 73
141 106 72
139 105 72
138 104 71
136 102 70
135 101 70
133 100 69
132 99 68
130 98 68
129 97 67
128 96 66
126 95 66
125 94 65
123 93 64
0 0 0
0 0 0
0 0 0
0 0 0
0 0 0
0 0 0
0 0 0
0 0 0
0 0 0
0 0 0
0 0 0
0 0 0
0 0 0
0 0 0
0 0 0
0 0 0
0 0 0
0 0 0
0 0 0
0 0 0
0 0 0
0 0 0
0 0 0
0 0 0
0 0 0
0 0 0
0 0 0
0 0 0
0 0 0
0 0 0
0 0 0
0 0 0
0 0 0
0 0 0
0 0 0
0 0 0
0 0 0
0 0 0
0 0 0
0 0 0
0 0 0
0 0 0
0 0 0
0 0 0
0 0 0
0 0 0
0 0 0
0 0 0
0 0 0
0 0 0
0 0 0
0 0 0
0 0 0
0 0 0
0 0 0
0 0 0
0 0 0
0 0 0
0 0 0
0 0 0
0 0 0
0 0 0
0 0 0
0 0 0
199 148 99
199 148 100
199 148 100
200 148 100
200 149 100
201 149 100
201 149 101
202 150 101
202 150 101
202 150 101
203 151 101
203 151 102
203 151 102
204 151 102
204 152 102
204 152 102
205 152 102
205 152 103
205 153 103
206 153 103
206 153 103
206 153 103
207 154 104
207 154 104
207 154 104
207 154 104
208 155 105
208 155 105
208 155 105
209 155 105
209 156 106
209 156 106
209 156 107
210 157 107
210 157 108
210 157 108
211 158 109
211 158 109
211 159 110
212 159 111
212 160 112
213 160 112
213 161 113
213 161 114
214 162 115
214 162 116
215 163 117
215 164 118
215 164 118
216 165 119
216 165 120
216 165 120
216 166 121
217 166 121
217 166 122
217 167 123
217 167 123
217 167 124
218 168 124
218 168 125
218 168 125
218 169 125
218 169 126
218 169 126
218 169 126
218 169 127
218 169 127
218 169 127
218 169 127
218 169 127
218 169 127
218 169 127
218 169 127
218 169 127
217 169 127
217 169 127
217 168 126
217 168 126
216 168 126
216 167 125
216 167 125
215 167 124
215 166 124
214 166 123
214 165 123
213 165 122
213 164 122
212 164 121
212 163 120
211 163 120
211 162 119
210 161 118
210 161 117
209 160 117
209 160 116
208 159 115
207 158 114
207 157 113
206 157 112
205 156 111
205 155 111
204 155 110
203 154 109
203 153 108
202 153 107
202 152 106
201 151 106
200 151 105
200 150 104
199 150 104
199 149 103
198 148 102
197 148 102
197 147 101
196 147 101
196 146 100
195 146 100
195 145 99
194 145 99
193 144 98
193 144 98
192 143 97
192 143 97
191 143 97
191 142 96
190 142 96
190 141 96
189 141 95
189 140 95
188 140 95
187 140 94
187 139 94
186 139 94
186 138 93
185 138 93
185 137 93
184 137 92
183 137 92
183 136 92
182 136 92
182 135 91
181 135 91
181 134 91
180 134 90
179 133 90
178 133 90
178 132 89
177 132 89
176 131 89
175 130 88
174 130 88
173 129 87
173 128 87
172 128 86
171 127 86
170 126 86
169 126 85
168 125 85
167 124 84
166 124 84
165 123 83
164 122 83
162 121 82
161 120 82
160 120 81
159 119 81
158 118 80
157 117 80
156 116 79
154 115 78
153 114 78
152 113 77
151 113 77
149 112 76
148 111 75
147 110 75
145 109 74
144 108 74
142 107 73
141 106 72
140 105 72
138 104 71
137 102 70
135 101 70
134 100 69
132 99 68
131 98 68
129 97 67
128 96 66
126 95 66
125 94 65
123 93 64
0 0 0
0 0 0
0 0 0
0 0 0
0 0 0
0 0 0
0 0 0
0 0 0
0 0 0
0 0 0
0 0 0
0 0 0
0 0 0
0 0 0
0 0 0
0 0 0
0 0 0
0 0 0
0 0 0
0 0 0
0 0 0
0 0 0
0 0 0
0 0 0
0 0 0
0 0 0
0 0 0
0 0 0
0 0 0
0 0 0
0 0 0
0 0 0
0 0 0
0 0 0
0 0 0
0 0 0
0 0 0
0 0 0
0 0 0
0 0 0
0 0 0
0 0 0
0 0 0
0 0 0
0 0 0
0 0 0
0 0 0
0 0 0
0 0 0
0 0 0
0 0 0
0 0 0
0 0 0
0 0 0
0 0 0
0 0 0
0 0 0
0 0 0
0 0 0
0 0 0
0 0 0
0 0 0
0 0 0
0 0 0
199 148 99
199 148 100
200 148 100
200 149 100
200 149 100
201 149 100
201 150 101
202 150 101
202 150 101
202 150 101
203 151 101
203 151 102
204 151 102
204 152 102
204 152 102
205 152 102
205 152 103
205 153 103
206 153 103
206 153 103
206 153 103
206 153 103
207 154 104
207 154 104
207 154 104
208 154 104
208 155 105
208 155 105
208 155 105
209 156 106
209 156 106
209 156 107
210 157 107
210 157 108
210 157 108
211 158 109
211 158 109
211 159 110
212 159 111
212 160 112
212 160 112
213 161 113
213 161 114
214 162 115
214 162 116
215 163 117
215 164 118
215 164 119
216 165 119
216 165 120
216 166 121
217 166 121
217 167 122
217 167 123
217 167 123
218 168 124
218 168 125
218 168 125
218 169 126
219 169 126
219 169 127
219 170 127
219 170 127
219 170 128
219 170 128
219 170 128
219 170 128
219 171 129
219 171 129
219 171 129
219 171 129
219 170 129
219 170 129
218 170 129
218 170 128
218 170 128
218 170 128
217 169 128
217 169 127
217 169 127
216 168 126
216 168 126
216 167 125
215 167 125
215 166 124
214 166 124
214 165 123
213 165 122
213 164 121
212 163 121
211 163 120
211 162 119
210 161 118
210 161 118
209 160 117
208 160 116
208 159 115
207 158 114
206 157 113
206 157 112
205 156 111
204 155 110
204 154 109
203 154 109
202 153 108
202 152 107
201 152 106
201 151 105
200 150 105
199 150 104
199 149 103
198 149 103
197 148 102
197 147 101
196 147 101
196 146 100
195 146 100
195 145 99
194 145 99
194 144 98
193 144 98
192 144 98
192 143 97
191 143 97
191 142 96
190 142 96
190 141 96
189 141 95
189 140 95
188 140 95
187 140 94
187 139 94
186 139 94
186 138 93
185 138 93
185 137 93
184 137 93
183 137 92
183 136 92
182 136 92
182 135 91
181 135 91
181 134 91
180 134 90
179 133 90
178 133 90
178 132 89
177 132 89
176 131 89
175 130 88
174 130 88
173 129 87
173 129 87
172 128 86
171 127 86
170 126 86
169 126 85
168 125 85
167 124 84
166 124 84
165 123 83
164 122 83
163 121 82
161 120 82
160 120 81
159 119 81
158 118 80
157 117 80
156 116 79
154 115 78
153 114 78
152 114 77
151 113 77
149 112 76
148 111 75
147 110 75
145 109 74
144 108 74
142 107 73
141 106 72
140 105 72
138 104 71
137 103 70
135 102 70
134 101 69
132 100 68
131 99 68
130 97 67
128 96 66
127 95 66
125 94 65
124 93 64
0 0 0
0 0 0
0 0 0
0 0 0
0 0 0
0 0 0
0 0 0
0 0 0
0 0 0
0 0 0
0 0 0
0 0 0
0 0 0
0 0 0
0 0 0
0 0 0
0 0 0
0 0 0
0 0 0
0 0 0
0 0 0
0 0 0
0 0 0
0 0 0
0 0 0
0 0 0
0 0 0
0 0 0
0 0 0
0 0 0
0 0 0
0 0 0
0 0 0
0 0 0
0 0 0
0 0 0
0 0 0
0 0 0
0 0 0
0 0 0
0 0 0
0 0 0
0 0 0
0 0 0
0 0 0
0 0 0
0 0 0
0 0 0
0 0 0
0 0 0
0 0 0
0 0 0
0 0 0
0 0 0
0 0 0
0 0 0
0 0 0
0 0 0
0 0 0
0 0 0
0 0 0
0 0 0
0 0 0
0 0 0
199 148 100
199 148 100
200 148 100
200 149 100
201 149 100
201 149 101
201 150 101
202 150 101
202 150 101
203 151 101
203 151 102
203 151 102
204 151 102
204 152 102
204 152 102
205 152 102
205 152 103
205 153 103
206 153 103
206 153 103
206 153 103
207 154 104
207 154 104
207 154 104
207 154 104
208 155 105
208 155 105
208 155 105
209 155 106
209 156 106
209 156 106
210 156 107
210 157 107
210 157 108
211 158 109
211 158 109
211 159 110
212 159 111
212 160 111
212 160 112
213 161 113
213 161 114
214 162 115
214 162 116
215 163 117
215 164 118
215 164 119
216 165 120
216 166 121
217 166 121
217 167 122
217 167 123
218 167 123
218 168 124
218 168 125
218 169 125
219 169 126
219 170 127
219 170 127
219 170 128
219 170 128
220 171 129
220 171 129
220 171 129
220 171 130
220 172 130
220 172 130
220 172 130
220 172 130
220 172 131
220 172 131
220 172 131
220 172 130
219 171 130
219 171 130
219 171 130
219 171 130
218 170 129
218 170 129
218 170 128
217 169 128
217 169 127
216 168 127
216 168 126
215 167 126
215 167 125
214 166 124
214 166 124
213 165 123
213 164 122
212 164 121
211 163 120
211 162 119
210 162 119
209 161 118
209 160 117
208 159 116
207 159 115
207 158 114
206 157 113
205 156 112
205 156 111
204 155 110
203 154 109
203 153 108
202 153 108
201 152 107
201 151 106
200 151 105
199 150 104
199 149 104
198 149 103
198 148 102
197 148 102
196 147 101
196 147 101
195 146 100
195 146 100
194 145 99
194 145 99
193 144 98
192 144 98
192 143 97
191 143 97
191 142 96
190 142 96
190 141 96
189 141 95
189 140 95
188 140 95
187 140 94
187 139 94
186 139 94
186 138 93
185 138 93
185 137 93
184 137 93
184 137 92
183 136 92
182 136 92
182 135 91
181 135 91
181 134 91
180 134 90
179 133 90
178 133 90
178 132 89
177 132 89
176 131 89
175 130 88
174 130 88
173 129 87
173 129 87
172 128 86
171 127 86
170 126 86
169 126 85
168 125 85
167 124 84
166 124 84
165 123 83
164 122 83
163 121 82
161 120 82
160 120 81
159 119 81
158 118 80
157 117 80
156 116 79
154 115 78
153 114 78
152 114 77
151 113 77
149 112 76
148 111 75
147 110 75
145 109 74
144 108 74
142 107 73
141 106 72
140 105 72
138 104 71
137 103 70
135 102 70
134 101 69
133 100 69
131 99 68
130 98 67
128 97 67
127 96 66
125 95 65
124 93 65
0 0 0
0 0 0
0 0 0
0 0 0
0 0 0
0 0 0
0 0 0
0 0 0
0 0 0
0 0 0
0 0 0
0 0 0
0 0 0
0 0 0
0 0 0
0 0 0
0 0 0
0 0 0
0 0 0
0 0 0
0 0 0
0 0 0
0 0 0
0 0 0
0 0 0
0 0 0
0 0 0
0 0 0
0 0 0
0 0 0
0 0 0
0 0 0
0 0 0
0 0 0
0 0 0
0 0 0
0 0 0
0 0 0
0 0 0
0 0 0
0 0 0
0 0 0
0 0 0
0 0 0
0 0 0
0 0 0
0 0 0
0 0 0
0 0 0
0 0 0
0 0 0
0 0 0
0 0 0
0 0 0
0 0 0
0 0 0
0 0 0
0 0 0
0 0 0
0 0 0
0 0 0
0 0 0
0 0 0
0 0 0
199 148 100
200 148 100
200 149 100
200 149 100
201 149 100
201 150 101
202 150 101
202 150 101
202 150 101
203 151 101
203 151 102
204 151 102
204 151 102
204 152 102
205 152 102
205 152 103
205 153 103
206 153 103
206 153 103
206 153 103
206 153 104
207 154 104
207 154 104
207 154 104
208 155 105
208 155 105
208 155 105
208 155 105
209 156 106
209 156 106
209 156 107
210 157 107
210 157 108
210 158 108
211 158 109
211 159 110
212 159 110
212 159 111
212 160 112
213 161 113
213 161 114
214 162 115
214 162 116
215 163 117
215 164 118
215 164 119
216 165 120
217 166 121
217 166 122
217 167 123
218 167 123
218 168 124
218 168 125
219 169 125
219 169 126
219 170 127
219 170 127
220 171 128
220 171 129
220 171 129
220 172 130
220 172 130
221 172 131
221 172 131
221 173 131
221 173 132
221 173 132
221 173 132
221 173 132
221 173 132
221 173 132
221 173 132
220 173 132
220 173 132
220 172 132
220 172 132
219 172 131
219 172 131
219 171 131
218 171 130
218 170 130
218 170 129
217 169 128
217 169 128
216 168 127
215 168 126
215 167 126
214 166 125
214 166 124
213 165 123
213 164 122
212 164 121
211 163 121
211 162 120
210 162 119
209 161 118
209 160 117
208 159 116
207 158 115
206 158 114
206 157 113
205 156 112
204 155 111
204 154 110
203 154 109
202 153 108
202 152 107
201 152 106
200 151 106
200 150 105
199 150 104
198 149 103
198 148 103
197 148 102
197 147 101
196 147 101
195 146 100
195 146 100
194 145 99
194 145 99
193 144 98
193 144 98
192 143 97
191 143 97
191 142 97
190 142 96
190 141 96
189 141 95
189 140 95
188 140 95
188 140 94
187 139 94
186 139 94
186 138 93
185 138 93
185 137 93
184 137 93
184 137 92
183 136 92
182 136 92
182 135 91
181 135 91
181 134 91
180 134 90
179 133 90
179 133 90
178 132 89
177 132 89
176 131 89
175 130 88
174 130 88
173 129 87
173 129 87
172 128 86
171 127 86
170 127 86
169 126 85
168 125 85
167 124 84
166 124 84
165 123 83
164 122 83
163 121 82
162 120 82
160 120 81
159 119 81
158 118 80
157 117 80
156 116 79
154 115 78
153 114 78
152 114 77
151 113 77
149 112 76
148 111 75
147 110 75
145 109 74
144 108 74
143 107 73
141 106 72
140 105 72
138 104 71
137 103 70
136 102 70
134 101 69
133 100 69
132 99 68
130 98 67
129 97 67
127 96 66
126 95 65
124 94 65
0 0 0
0 0 0
0 0 0
0 0 0
0 0 0
0 0 0
0 0 0
0 0 0
0 0 0
0 0 0
0 0 0
0 0 0
0 0 0
0 0 0
0 0 0
0 0 0
0 0 0
0 0 0
0 0 0
0 0 0
0 0 0
0 0 0
0 0 0
0 0 0
0 0 0
0 0 0
0 0 0
0 0 0
0 0 0
0 0 0
0 0 0
0 0 0
0 0 0
0 0 0
0 0 0
0 0 0
0 0 0
0 0 0
0 0 0
0 0 0
0 0 0
0 0 0
0 0 0
0 0 0
0 0 0
0 0 0
0 0 0
0 0 0
0 0 0
0 0 0
0 0 0
0 0 0
0 0 0
0 0 0
0 0 0
0 0 0
0 0 0
0 0 0
0 0 0
0 0 0
0 0 0
0 0 0
0 0 0
0 0 0
199 148 100
200 148 100
200 149 100
201 149 100
201 149 101
201 150 101
202 150 101
202 150 101
203 151 101
203 151 102
203 151 102
204 151 102
204 152 102
204 152 102
205 152 102
205 152 103
205 153 103
206 153 103
206 153 103
206 153 103
207 154 104
207 154 104
207 154 104
207 154 104
208 155 105
208 155 105
208 155 105
209 156 106
209 156 106
209 156 107
210 157 107
210 157 108
210 157 108
211 158 109
211 158 110
211 159 110
212 159 111
212 160 112
213 160 113
213 161 114
214 162 114
214 162 115
214 163 116
215 164 117
215 164 119
216 165 120
217 166 121
217 167 122
218 167 123
218 168 124
218 168 125
219 169 125
219 169 126
219 170 127
220 170 128
220 171 128
220 171 129
220 172 130
221 172 130
221 172 131
221 173 131
221 173 132
221 173 132
222 174 133
222 174 133
222 174 133
222 174 134
222 174 134
222 174 134
222 174 134
222 174 134
221 174 134
221 174 134
221 174 134
221 174 134
221 173 133
220 173 133
220 173 133
220 172 132
219 172 132
219 171 131
218 171 131
218 170 130
217 170 129
217 169 129
216 169 128
216 168 127
215 167 126
214 167 125
214 166 124
213 165 124
212 164 123
212 164 122
211 163 121
210 162 120
210 161 119
209 161 118
208 160 117
208 159 116
207 158 115
206 157 114
205 156 113
205 156 112
204 155 111
203 154 110
203 153 109
202 153 108
201 152 107
200 151 106
200 151 105
199 150 104
199 149 104
198 149 103
197 148 102
197 147 102
196 147 101
195 146 101
195 146 100
194 145 99
194 145 99
193 144 98
193 144 98
192 143 98
191 143 97
191 142 97
190 142 96
190 141 96
189 141 96
189 141 95
188 140 95
188 140 94
187 139 94
186 139 94
186 138 94
185 138 93
185 137 93
184 137 93
184 137 92
183 136 92
182 136 92
182 135 91
181 135 91
181 134 91
180 134 90
179 133 90
179 133 90
178 132 89
177 132 89
176 131 89
175 130 88
174 130 88
174 129 87
173 129 87
172 128 87
171 127 86
170 127 86
169 126 85
168 125 85
167 124 84
166 124 84
165 123 83
164 122 83
163 121 82
162 121 82
160 120 81
159 119 81
158 118 80
157 117 80
156 116 79
155 115 78
153 115 78
152 114 77
151 113 77
149 112 76
148 111 75
147 110 75
145 109 74
144 108 74
143 107 73
141 106 72
140 105 72
139 104 71
137 103 71
136 102 70
135 101 69
133 100 69
132 99 68
130 98 67
129 97 67
127 96 66
126 95 66
124 94 65
0 0 0
0 0 0
0 0 0
0 0 0
0 0 0
0 0 0
0 0 0
0 0 0
0 0 0
0 0 0
0 0 0
0 0 0
0 0 0
0 0 0
0 0 0
0 0 0
0 0 0
0 0 0
0 0 0
0 0 0
0 0 0
0 0 0
0 0 0
0 0 0
0 0 0
0 0 0
0 0 0
0 0 0
0 0 0
0 0 0
0 0 0
0 0 0
0 0 0
0 0 0
0 0 0
0 0 0
0 0 0
0 0 0
0 0 0
0 0 0
0 0 0
0 0 0
0 0 0
0 0 0
0 0 0
0 0 0
0 0 0
0 0 0
0 0 0
0 0 0
0 0 0
0 0 0
0 0 0
0 0 0
0 0 0
0 0 0
0 0 0
0 0 0
0 0 0
0 0 0
0 0 0
0 0 0
0 0 0
0 0 0
199 148 100
200 149 100
200 149 100
201 149 100
201 149 101
202 150 101
202 150 101
202 150 101
203 151 101
203 151 102
203 151 102
204 151 102
204 152 102
205 152 102
205 152 103
205 152 103
206 153 103
206 153 103
206 153 103
206 153 104
207 154 104
207 154 104
207 154 104
208 155 105
208 155 105
208 155 105
209 155 106
209 156 106
209 156 106
209 156 107
210 157 108
210 157 108
211 158 109
211 158 109
211 159 110
212 159 111
212 160 112
213 160 112
213 161 113
213 161 114
214 162 115
214 163 116
215 164 117
215 164 118
216 165 120
216 166 121
217 167 122
218 167 123
218 168 124
218 169 125
219 169 126
219 170 127
220 170 127
220 171 128
220 171 129
221 172 130
221 172 130
221 173 131
222 173 132
222 174 132
222 174 133
222 174 134
222 175 134
222 175 134
223 175 135
223 175 135
223 175 135
223 175 136
223 176 136
223 176 136
223 176 136
222 175 136
222 175 136
222 175 136
222 175 135
222 175 135
221 174 135
221 174 134
220 174 134
220 173 133
220 173 133
219 172 132
219 172 132
218 171 131
218 170 130
217 170 129
216 169 128
216 168 128
215 168 127
214 167 126
214 166 125
213 165 124
212 165 123
212 164 122
211 163 121
210 162 120
210 161 119
209 160 118
208 160 117
207 159 115
206 158 114
206 157 113
205 156 112
204 155 111
203 155 110
203 154 109
202 153 108
201 152 107
201 152 107
200 151 106
199 150 105
199 149 104
198 149 103
197 148 103
197 148 102
196 147 101
196 146 101
195 146 100
194 145 100
194 145 99
193 144 99
193 144 98
192 143 98
191 143 97
191 142 97
190 142 96
190 141 96
189 141 96
189 141 95
188 140 95
188 140 95
187 139 94
186 139 94
186 138 94
185 138 93
185 137 93
184 137 93
184 137 92
183 136 92
182 136 92
182 135 91
181 135 91
181 134 91
180 134 90
179 133 90
179 133 90
178 132 89
177 132 89
176 131 89
175 130 88
174 130 88
174 129 87
173 129 87
172 128 87
171 127 86
170 127 86
169 126 85
168 125 85
167 124 84
166 124 84
165 123 83
164 122 83
163 121 82
162 121 82
160 120 81
159 119 81
158 118 80
157 117 80
156 116 79
155 115 78
153 115 78
152 114 77
151 113 77
149 112 76
148 111 76
147 110 75
145 109 74
144 108 74
143 107 73
142 106 73
140 105 72
139 104 71
138 103 71
136 102 70
135 101 69
133 100 69
132 99 68
131 98 68
129 97 67
128 96 66
126 95 66
125 94 65
0 0 0
0 0 0
0 0 0
0 0 0
0 0 0
0 0 0
0 0 0
0 0 0
0 0 0
0 0 0
0 0 0
0 0 0
0 0 0
0 0 0
0 0 0
0 0 0
0 0 0
0 0 0
0 0 0
0 0 0
0 0 0
0 0 0
0 0 0
0 0 0
0 0 0
0 0 0
0 0 0
0 0 0
0 0 0
0 0 0
0 0 0
0 0 0
0 0 0
0 0 0
0 0 0
0 0 0
0 0 0
0 0 0
0 0 0
0 0 0
0 0 0
0 0 0
0 0 0
0 0 0
0 0 0
0 0 0
0 0 0
0 0 0
0 0 0
0 0 0
0 0 0
0 0 0
0 0 0
0 0 0
0 0 0
0 0 0
0 0 0
0 0 0
0 0 0
0 0 0
0 0 0
0 0 0
0 0 0
0 0 0
200 148 100
200 149 100
200 149 100
201 149 100
201 150 101
202 150 101
202 150 101
203 150 101
203 151 101
203 151 102
204 151 102
204 152 102
204 152 102
205 152 102
205 152 103
205 153 103
206 153 103
206 153 103
206 153 103
207 154 104
207 154 104
207 154 104
207 154 104
208 155 105
208 155 105
208 155 105
209 156 106
209 156 106
209 156 107
210 157 107
210 157 108
210 158 109
211 158 109
211 158 110
212 159 111
212 160 111
212 160 112
213 161 113
213 161 114
214 162 115
214 163 116
215 163 117
215 164 118
216 165 119
216 166 121
217 167 122
218 167 123
218 168 124
219 169 125
219 170 126
220 170 127
220 171 128
220 171 129
221 172 130
221 172 131
221 173 131
222 173 132
222 174 133
222 174 133
223 175 134
223 175 135
223 175 135
223 176 136
223 176 136
224 176 137
224 177 137
224 177 137
224 177 137
224 177 138
224 177 138
224 177 138
223 177 138
223 177 138
223 176 137
223 176 137
222 176 137
222 176 136
222 175 136
221 175 136
221 174 135
220 174 134
220 173 134
219 173 133
219 172 132
218 171 132
218 171 131
217 170 130
216 169 129
216 168 128
215 168 127
214 167 126
214 166 125
213 165 124
212 164 123
211 164 122
211 163 121
210 162 120
209 161 119
208 160 117
208 159 116
207 158 115
206 157 114
205 157 113
204 156 112
204 155 111
203 154 110
202 153 109
202 153 108
201 152 107
200 151 106
200 150 105
199 150 104
198 149 104
198 148 103
197 148 102
196 147 102
196 147 101
195 146 100
194 145 100
194 145 99
193 144 99
193 144 98
192 143 98
192 143 97
191 142 97
190 142 96
190 141 96
189 141 96
189 141 95
188 140 95
188 140 95
187 139 94
186 139 94
186 138 94
185 138 93
185 137 93
184 137 93
184 137 92
183 136 92
182 136 92
182 135 91
181 135 91
181 134 91
180 134 90
179 133 90
179 133 90
178 132 89
177 132 89
176 131 89
175 130 88
174 130 88
174 129 87
173 129 87
172 128 87
171 127 86
170 127 86
169 126 85
168 125 85
167 124 84
166 124 84
165 123 83
164 122 83
163 121 82
162 121 82
160 120 81
159 119 81
158 118 80
157 117 80
156 116 79
155 115 78
153 115 78
152 114 77
151 113 77
149 112 76
148 111 76
147 110 75
146 109 74
144 108 74
143 107 73
142 106 73
140 105 72
139 104 71
138 103 71
136 102 70
135 101 70
134 100 69
132 99 68
131 98 68
129 97 67
128 96 66
126 95 66
125 94 65
0 0 0
0 0 0
0 0 0
0 0 0
0 0 0
0 0 0
0 0 0
0 0 0
0 0 0
0 0 0
0 0 0
0 0 0
0 0 0
0 0 0
0 0 0
0 0 0
0 0 0
0 0 0
0 0 0
0 0 0
0 0 0
0 0 0
0 0 0
0 0 0
0 0 0
0 0 0
0 0 0
0 0 0
0 0 0
0 0 0
0 0 0
0 0 0
0 0 0
0 0 0
0 0 0
0 0 0
0 0 0
0 0 0
0 0 0
0 0 0
0 0 0
0 0 0
0 0 0
0 0 0
0 0 0
0 0 0
0 0 0
0 0 0
0 0 0
0 0 0
0 0 0
0 0 0
0 0 0
0 0 0
0 0 0
0 0 0
0 0 0
0 0 0
0 0 0
0 0 0
0 0 0
0 0 0
0 0 0
0 0 0
200 148 100
200 149 100
201 149 100
201 149 101
201 150 101
202 150 101
202 150 101
203 151 101
203 151 102
203 151 102
204 151 102
204 152 102
204 152 102
205 152 102
205 152 103
205 153 103
206 153 103
206 153 103
206 153 104
207 154 104
207 154 104
207 154 104
208 155 105
208 155 105
208 155 105
209 155 106
209 156 106
209 156 107
210 157 107
210 157 108
210 157 108
211 158 109
211 158 110
211 159 110
212 159 111
212 160 112
213 160 113
213 161 114
214 162 115
214 162 116
215 163 117
215 164 118
216 165 119
216 166 120
217 166 122
218 167 123
218 168 124
219 169 126
219 170 127
220 170 128
220 171 129
221 172 129
221 172 130
221 173 131
222 173 132
222 174 133
223 175 134
223 175 134
223 175 135
223 176 136
224 176 136
224 177 137
224 177 137
224 177 138
224 178 138
225 178 139
225 178 139
225 178 139
225 178 139
225 178 139
224 178 139
224 178 139
224 178 139
224 178 139
224 177 139
223 177 139
223 177 138
223 176 138
222 176 137
222 175 137
221 175 136
221 174 135
220 174 135
220 173 134
219 172 133
218 172 132
218 171 131
217 170 130
216 169 129
216 169 128
215 168 127
214 167 126
213 166 125
213 165 124
212 164 123
211 164 122
210 163 121
210 162 120
209 161 118
208 160 117
207 159 116
206 158 115
206 157 114
205 156 113
204 155 111
203 154 110
203 154 109
202 153 108
201 152 107
200 151 107
200 151 106
199 150 105
198 149 104
198 149 103
197 148 103
196 147 102
196 147 101
195 146 101
195 146 100
194 145 99
193 144 99
193 144 98
192 143 98
192 143 97
191 142 97
190 142 97
190 142 96
189 141 96
189 141 95
188 140 95
188 140 95
187 139 94
186 139 94
186 138 94
185 138 93
185 137 93
184 137 93
184 137 92
183 136 92
182 136 92
182 135 91
181 135 91
181 134 91
180 134 90
179 133 90
179 133 90
178 132 89
177 132 89
176 131 89
175 130 88
174 130 88
174 129 87
173 129 87
172 128 87
171 127 86
170 127 86
169 126 85
168 125 85
167 124 84
166 124 84
165 123 83
164 122 83
163 121 82
162 121 82
160 120 81
159 119 81
158 118 80
157 117 80
156 116 79
155 115 78
153 115 78
152 114 77
151 113 77
150 112 76
148 111 76
147 110 75
146 109 74
145 108 74
143 107 73
142 106 73
141 105 72
139 104 72
138 104 71
137 103 70
135 102 70
134 101 69
132 100 68
131 99 68
130 98 67
128 96 66
127 95 66
125 94 65
0 0 0
0 0 0
0 0 0
0 0 0
0 0 0
0 0 0
0 0 0
0 0 0
0 0 0
0 0 0
0 0 0
0 0 0
0 0 0
0 0 0
0 0 0
0 0 0
0 0 0
0 0 0
0 0 0
0 0 0
0 0 0
0 0 0
0 0 0
0 0 0
0 0 0
0 0 0
0 0 0
0 0 0
0 0 0
0 0 0
0 0 0
0 0 0
0 0 0
0 0 0
0 0 0
0 0 0
0 0 0
0 0 0
0 0 0
0 0 0
0 0 0
0 0 0
0 0 0
0 0 0
0 0 0
0 0 0
0 0 0
0 0 0
0 0 0
0 0 0
0 0 0
0 0 0
0 0 0
0 0 0
0 0 0
0 0 0
0 0 0
0 0 0
0 0 0
0 0 0
0 0 0
0 0 0
0 0 0
0 0 0
200 149 100
200 149 100
201 149 100
201 150 101
202 150 101
202 150 101
202 150 101
203 151 101
203 151 102
204 151 102
204 151 102
204 152 102
205 152 102
205 152 103
205 153 103
206 153 103
206 153 103
206 153 103
206 154 104
207 154 104
207 154 104
207 154 104
208 155 105
208 155 105
208 155 106
209 156 106
209 156 106
209 156 107
210 157 107
210 157 108
210 158 109
211 158 109
211 159 110
212 159 111
212 160 112
212 160 112
213 161 113
213 162 114
214 162 115
214 163 117
215 164 118
216 165 119
216 165 120
217 166 121
217 167 123
218 168 124
219 169 125
219 170 127
220 171 128
220 171 129
221 172 130
221 173 131
222 173 132
222 174 133
223 174 134
223 175 134
223 176 135
224 176 136
224 177 137
224 177 137
225 178 138
225 178 139
225 178 139
225 179 140
225 179 140
225 179 140
226 179 141
226 179 141
226 179 141
226 179 141
225 179 141
225 179 141
225 179 141
225 179 141
225 179 141
224 178 140
224 178 140
224 178 139
223 177 139
223 177 138
222 176 138
222 175 137
221 175 136
220 174 135
220 173 134
219 173 134
218 172 133
218 171 132
217 170 131
216 169 130
216 169 129
215 168 127
214 167 126
213 166 125
212 165 124
212 164 123
211 163 122
210 162 120
209 161 119
208 160 118
208 159 117
207 158 116
206 158 114
205 157 113
204 156 112
204 155 111
203 154 110
202 153 109
201 152 108
201 152 107
200 151 106
199 150 105
198 149 104
198 149 104
197 148 103
196 147 102
196 147 101
195 146 101
195 146 100
194 145 100
193 145 99
193 144 98
192 144 98
192 143 97
191 143 97
190 142 97
190 142 96
189 141 96
189 141 95
188 140 95
188 140 95
187 139 94
186 139 94
186 138 94
185 138 93
185 137 93
184 137 93
184 137 92
183 136 92
182 136 92
182 135 91
181 135 91
181 134 91
180 134 90
179 133 90
178 133 90
178 132 89
177 132 89
176 131 89
175 130 88
174 130 88
174 129 87
173 129 87
172 128 87
171 127 86
170 127 86
169 126 85
168 125 85
167 124 84
166 124 84
165 123 83
164 122 83
163 121 82
162 121 82
160 120 81
159 119 81
158 118 80
157 117 80
156 116 79
155 115 78
153 115 78
152 114 77
151 113 77
150 112 76
148 111 76
147 110 75
146 109 75
145 108 74
143 107 73
142 107 73
141 106 72
140 105 72
138 104 71
137 103 70
136 102 70
134 101 69
133 100 69
131 99 68
130 98 67
128 97 67
127 96 66
125 95 65
0 0 0
0 0 0
0 0 0
0 0 0
0 0 0
0 0 0
0 0 0
0 0 0
0 0 0
0 0 0
0 0 0
0 0 0
0 0 0
0 0 0
0 0 0
0 0 0
0 0 0
0 0 0
0 0 0
0 0 0
0 0 0
0 0 0
0 0 0
0 0 0
0 0 0
0 0 0
0 0 0
0 0 0
0 0 0
0 0 0
0 0 0
0 0 0
0 0 0
0 0 0
0 0 0
0 0 0
0 0 0
0 0 0
0 0 0
0 0 0
0 0 0
0 0 0
0 0 0
0 0 0
0 0 0
0 0 0
0 0 0
0 0 0
0 0 0
0 0 0
0 0 0
0 0 0
0 0 0
0 0 0
0 0 0
0 0 0
0 0 0
0 0 0
0 0 0
0 0 0
0 0 0
0 0 0
0 0 0
0 0 0
200 149 100
201 149 100
201 149 100
201 150 101
202 150 101
202 150 101
203 150 101
203 151 101
203 151 102
204 151 102
204 152 102
204 152 102
205 152 102
205 152 103
205 153 103
206 153 103
206 153 103
206 153 104
207 154 104
207 154 104
207 154 104
208 154 105
208 155 105
208 155 105
208 155 106
209 156 106
209 156 107
209 157 107
210 157 108
210 157 108
211 158 109
211 158 110
211 159 110
212 159 111
212 160 112
213 161 113
213 161 114
214 162 115
214 163 116
215 163 117
215 164 119
216 165 120
217 166 121
217 167 122
218 168 124
219 169 125
219 170 127
220 171 128
221 172 129
221 172 130
222 173 131
222 174 132
222 174 133
223 175 134
223 176 135
224 176 136
224 177 137
225 177 138
225 178 138
225 178 139
226 179 140
226 179 140
226 180 141
226 180 141
226 180 142
226 180 142
227 181 143
227 181 143
227 181 143
226 181 143
226 181 143
226 181 143
226 180 143
226 180 143
226 180 142
225 180 142
225 179 142
224 179 141
224 178 141
223 178 140
223 177 139
222 177 138
222 176 138
221 175 137
221 175 136
220 174 135
219 173 134
218 172 133
218 171 132
217 170 131
216 169 130
215 169 129
215 168 127
214 167 126
213 166 125
212 165 124
211 164 123
210 163 121
210 162 120
209 161 119
208 160 118
207 159 116
206 158 115
205 157 114
205 156 113
204 155 112
203 154 111
202 154 109
201 153 108
201 152 107
200 151 107
199 150 106
199 150 105
198 149 104
197 148 103
197 148 102
196 147 102
195 146 101
195 146 100
194 145 100
193 145 99
193 144 99
192 144 98
192 143 98
191 143 97
190 142 97
190 142 96
189 141 96
189 141 95
188 140 95
188 140 95
187 139 94
186 139 94
186 138 94
185 138 93
185 137 93
184 137 93
184 137 92
183 136 92
182 136 92
182 135 91
181 135 91
181 134 91
180 134 90
179 133 90
178 133 90
178 132 89
177 132 89
176 131 89
175 130 88
174 130 88
173 129 87
173 129 87
172 128 87
171 127 86
170 127 86
169 126 85
168 125 85
167 124 84
166 124 84
165 123 83
164 122 83
163 121 82
162 121 82
160 120 81
159 119 81
158 118 80
157 117 80
156 116 79
155 115 79
153 115 78
152 114 77
151 113 77
150 112 76
149 111 76
147 110 75
146 109 75
145 109 74
144 108 73
142 107 73
141 106 72
140 105 72
138 104 71
137 103 70
136 102 70
134 101 69
133 100 69
132 99 68
130 98 67
129 97 67
127 96 66
126 95 65
0 0 0
0 0 0
0 0 0
0 0 0
0 0 0
0 0 0
0 0 0
0 0 0
0 0 0
0 0 0
0 0 0
0 0 0
0 0 0
0 0 0
0 0 0
0 0 0
0 0 0
0 0 0
0 0 0
0 0 0
0 0 0
0 0 0
0 0 0
0 0 0
0 0 0
0 0 0
0 0 0
0 0 0
0 0 0
0 0 0
0 0 0
0 0 0
0 0 0
0 0 0
0 0 0
0 0 0
0 0 0
0 0 0
0 0 0
0 0 0
0 0 0
0 0 0
0 0 0
0 0 0
0 0 0
0 0 0
0 0 0
0 0 0
0 0 0
0 0 0
0 0 0
0 0 0
0 0 0
0 0 0
0 0 0
0 0 0
0 0 0
0 0 0
0 0 0
0 0 0
0 0 0
0 0 0
0 0 0
0 0 0
200 149 100
201 149 100
201 149 101
201 150 101
202 150 101
202 150 101
203 151 101
203 151 102
203 151 102
204 151 102
204 152 102
204 152 102
205 152 103
205 152 103
205 153 103
206 153 103
206 153 103
206 153 104
207 154 104
207 154 104
207 154 104
208 155 105
208 155 105
208 155 106
209 156 106
209 156 106
209 156 107
210 157 107
210 157 108
210 158 109
211 158 109
211 159 110
212 159 111
212 160 112
212 160 113
213 161 114
213 162 115
214 162 116
215 163 117
215 164 118
216 165 119
216 166 121
217 167 122
218 168 123
218 169 125
219 170 126
220 171 128
221 172 129
221 172 131
222 173 132
222 174 133
223 175 134
223 175 135
224 176 136
224 177 137
225 177 138
225 178 138
225 178 139
226 179 140
226 180 141
226 180 141
227 180 142
227 181 143
227 181 143
227 181 144
227 182 144
227 182 144
228 182 145
227 182 145
227 182 145
227 182 145
227 182 145
227 182 145
227 182 144
226 181 144
226 181 144
226 181 143
225 180 143
225 180 142
224 179 142
224 178 141
223 178 140
223 177 139
222 176 138
221 176 137
221 175 136
220 174 135
219 173 134
218 172 133
218 171 132
217 170 131
216 169 130
215 168 129
214 167 127
213 167 126
213 166 125
212 165 124
211 164 122
210 162 121
209 161 120
208 160 118
207 159 117
206 158 116
206 157 115
205 157 113
204 156 112
203 155 111
202 154 110
202 153 109
201 152 108
200 151 107
199 151 106
199 150 105
198 149 104
197 148 103
197 148 103
196 147 102
195 146 101
195 146 101
194 145 100
193 145 99
193 144 99
192 144 98
192 143 98
191 143 97
190 142 97
190 142 96
189 141 96
189 141 95
188 140 95
188 140 95
187 139 94
186 139 94
186 138 94
185 138 93
185 137 93
184 137 93
183 137 92
183 136 92
182 136 92
182 135 91
181 135 91
181 134 91
180 134 90
179 133 90
178 133 90
178 132 89
177 132 89
176 131 89
175 130 88
174 130 88
173 129 87
173 129 87
172 128 87
171 127 86
170 127 86
169 126 85
168 125 85
167 124 84
166 124 84
165 123 83
164 122 83
163 121 82
162 121 82
160 120 81
159 119 81
158 118 80
157 117 80
156 116 79
155 116 79
154 115 78
152 114 77
151 113 77
150 112 76
149 111 76
148 110 75
146 110 75
145 109 74
144 108 74
143 107 73
141 106 72
140 105 72
139 104 71
137 103 71
136 102 70
135 101 69
133 100 69
132 99 68
130 98 67
129 97 67
127 96 66
126 95 66
0 0 0
0 0 0
0 0 0
0 0 0
0 0 0
0 0 0
0 0 0
0 0 0
0 0 0
0 0 0
0 0 0
0 0 0
0 0 0
0 0 0
0 0 0
0 0 0
0 0 0
0 0 0
0 0 0
0 0 0
0 0 0
0 0 0
0 0 0
0 0 0
0 0 0
0 0 0
0 0 0
0 0 0
0 0 0
0 0 0
0 0 0
0 0 0
0 0 0
0 0 0
0 0 0
0 0 0
0 0 0
0 0 0
0 0 0
0 0 0
0 0 0
0 0 0
0 0 0
0 0 0
0 0 0
0 0 0
0 0 0
0 0 0
0 0 0
0 0 0
0 0 0
0 0 0
0 0 0
0 0 0
0 0 0
0 0 0
0 0 0
0 0 0
0 0 0
0 0 0
0 0 0
0 0 0
0 0 0
0 0 0
200 149 100
201 149 100
201 149 101
202 150 101
202 150 101
202 150 101
203 151 101
203 151 102
203 151 102
204 151 102
204 152 102
205 152 102
205 152 103
205 153 103
206 153 103
206 153 103
206 153 103
206 154 104
207 154 104
207 154 104
207 154 105
208 155 105
208 155 105
208 155 106
209 156 106
209 156 107
209 156 107
210 157 108
210 157 108
210 158 109
211 158 110
211 159 110
212 159 111
212 160 112
213 161 113
213 161 114
214 162 115
214 163 116
215 164 118
216 165 119
216 165 120
217 166 122
218 167 123
218 168 124
219 169 126
220 170 127
220 171 129
221 172 130
222 173 132
222 174 133
223 175 134
223 176 135
224 176 136
224 177 137
225 178 138
225 178 139
226 179 140
226 180 141
227 180 142
227 181 142
227 181 143
228 182 144
228 182 144
228 182 145
228 183 145
228 183 146
228 183 146
228 183 146
228 183 146
228 183 147
228 183 147
228 183 146
228 183 146
228 183 146
227 182 146
227 182 145
227 182 145
226 181 144
226 181 144
225 180 143
225 180 142
224 179 142
223 178 141
223 177 140
222 177 139
221 176 138
221 175 137
220 174 136
219 173 135
218 172 133
217 171 132
217 170 131
216 169 130
215 168 128
214 167 127
213 166 126
212 165 125
211 164 123
210 163 122
209 162 120
209 161 119
208 160 118
207 159 117
206 158 115
205 157 114
204 156 113
203 155 112
203 154 110
202 153 109
201 152 108
200 152 107
200 151 106
199 150 105
198 149 105
197 149 104
197 148 103
196 147 102
195 147 101
195 146 101
194 145 100
193 145 99
193 144 99
192 144 98
192 143 98
191 143 97
190 142 97
190 142 96
189 141 96
189 141 96
188 140 95
188 140 95
187 139 94
186 139 94
186 138 94
185 138 93
185 137 93
184 137 93
183 137 92
183 136 92
182 136 92
182 135 91
181 135 91
180 134 91
180 134 90
179 133 90
178 133 90
178 132 89
177 132 89
176 131 89
175 130 88
174 130 88
173 129 87
173 129 87
172 128 86
171 127 86
170 127 86
169 126 85
168 125 85
167 124 84
166 124 84
165 123 83
164 122 83
163 121 82
162 121 82
160 120 81
159 119 81
158 118 80
157 117 80
156 116 79
155 116 79
154 115 78
153 114 78
151 113 77
150 112 76
149 111 76
148 111 75
147 110 75
145 109 74
144 108 74
143 107 73
141 106 72
140 105 72
139 104 71
137 103 71
136 102 70
135 101 69
133 100 69
132 99 68
131 98 68
129 97 67
128 96 66
126 95 66
0 0 0
0 0 0
0 0 0
0 0 0
0 0 0
0 0 0
0 0 0
0 0 0
0 0 0
0 0 0
0 0 0
0 0 0
0 0 0
0 0 0
0 0 0
0 0 0
0 0 0
0 0 0
0 0 0
0 0 0
0 0 0
0 0 0
0 0 0
0 0 0
0 0 0
0 0 0
0 0 0
0 0 0
0 0 0
0 0 0
0 0 0
0 0 0
0 0 0
0 0 0
0 0 0
0 0 0
0 0 0
0 0 0
0 0 0
0 0 0
0 0 0
0 0 0
0 0 0
0 0 0
0 0 0
0 0 0
0 0 0
0 0 0
0 0 0
0 0 0
0 0 0
0 0 0
0 0 0
0 0 0
0 0 0
0 0 0
0 0 0
0 0 0
0 0 0
0 0 0
0 0 0
0 0 0
0 0 0
0 0 0
200 149 100
201 149 100
201 150 101
202 150 101
202 150 101
202 150 101
203 151 101
203 151 102
204 151 102
204 152 102
204 152 102
205 152 102
205 152 103
205 153 103
206 153 103
206 153 103
206 153 104
207 154 104
207 154 104
207 154 104
208 155 105
208 155 105
208 155 106
208 156 106
209 156 106
209 156 107
209 157 107
210 157 108
210 158 109
211 158 109
211 159 110
212 159 111
212 160 112
212 160 113
213 161 114
214 162 115
214 163 116
215 163 117
215 164 118
216 165 120
217 166 121
217 167 123
218 168 124
219 169 126
219 170 127
220 171 129
221 172 130
222 173 132
222 174 133
223 175 134
224 176 135
224 177 136
225 177 138
225 178 139
226 179 140
226 179 141
227 180 142
227 181 142
227 181 143
228 182 144
228 182 145
228 183 145
229 183 146
229 184 147
229 184 147
229 184 147
229 184 148
229 185 148
229 185 148
229 185 148
229 185 148
229 184 148
229 184 148
229 184 148
228 184 147
228 183 147
227 183 147
227 182 146
227 182 145
226 181 145
225 181 144
225 180 143
224 179 142
223 178 141
223 178 140
222 177 139
221 176 138
220 175 137
220 174 136
219 173 135
218 172 133
217 171 132
216 170 131
215 169 130
214 168 128
214 167 127
213 166 126
212 165 124
211 164 123
210 163 121
209 161 120
208 160 119
207 159 117
206 158 116
205 157 115
204 156 113
204 155 112
203 154 111
202 154 110
201 153 109
200 152 108
200 151 107
199 150 106
198 150 105
197 149 104
197 148 103
196 147 102
195 147 102
195 146 101
194 145 100
193 145 100
193 144 99
192 144 98
192 143 98
191 143 97
190 142 97
190 142 96
189 141 96
189 141 96
188 140 95
187 140 95
187 139 94
186 139 94
186 138 94
185 138 93
185 137 93
184 137 93
183 137 92
183 136 92
182 136 92
182 135 91
181 135 91
180 134 91
180 134 90
179 133 90
178 133 90
178 132 89
177 132 89
176 131 89
175 130 88
174 130 88
173 129 87
173 129 87
172 128 86
171 127 86
170 126 86
169 126 85
168 125 85
167 124 84
166 124 84
165 123 83
164 122 83
163 121 82
162 121 82
160 120 81
159 119 81
158 118 80
157 117 80
156 117 79
155 116 79
154 115 78
153 114 78
152 113 77
150 112 77
149 112 76
148 111 75
147 110 75
145 109 74
144 108 74
143 107 73
142 106 73
140 105 72
139 104 71
138 103 71
136 102 70
135 101 70
134 100 69
132 99 68
131 98 68
129 97 67
128 96 66
126 95 66
0 0 0
0 0 0
0 0 0
0 0 0
0 0 0
0 0 0
0 0 0
0 0 0
0 0 0
0 0 0
0 0 0
0 0 0
0 0 0
0 0 0
0 0 0
0 0 0
0 0 0
0 0 0
0 0 0
0 0 0
0 0 0
0 0 0
0 0 0
0 0 0
0 0 0
0 0 0
0 0 0
0 0 0
0 0 0
0 0 0
0 0 0
0 0 0
0 0 0
0 0 0
0 0 0
0 0 0
0 0 0
0 0 0
0 0 0
0 0 0
0 0 0
0 0 0
0 0 0
0 0 0
0 0 0
0 0 0
0 0 0
0 0 0
0 0 0
0 0 0
0 0 0
0 0 0
0 0 0
0 0 0
0 0 0
0 0 0
0 0 0
0 0 0
0 0 0
0 0 0
0 0 0
0 0 0
0 0 0
0 0 0
201 149 100
201 149 101
201 150 101
202 150 101
202 150 101
203 151 101
203 151 102
203 151 102
204 151 102
204 152 102
204 152 102
205 152 102
205 152 103
205 153 103
206 153 103
206 153 103
206 153 104
207 154 104
207 154 104
207 154 105
208 155 105
208 155 105
208 155 106
209 156 106
209 156 107
209 156 107
210 157 108
210 157 108
210 158 109
211 158 110
211 159 110
212 159 111
212 160 112
213 161 113
213 161 114
214 162 115
214 163 117
215 164 118
216 165 119
216 166 121
217 167 122
218 168 123
218 169 125
219 170 127
220 171 128
221 172 130
222 173 131
222 174 133
223 175 134
224 176 136
224 177 137
225 178 138
225 178 139
226 179 140
226 180 141
227 181 142
227 181 143
228 182 144
228 183 145
229 183 146
229 184 146
229 184 147
230 185 148
230 185 148
230 185 149
230 185 149
230 186 149
230 186 150
230 186 150
230 186 150
230 186 150
230 186 150
230 185 150
229 185 149
229 185 149
229 185 149
228 184 148
228 184 148
227 183 147
227 182 146
226 182 145
226 181 144
225 180 144
224 179 143
223 179 142
223 178 140
222 177 139
221 176 138
220 175 137
219 174 136
218 173 134
218 172 133
217 171 132
216 170 131
215 169 129
214 168 128
213 166 126
212 165 125
211 164 124
210 163 122
209 162 121
208 161 119
207 160 118
206 159 117
206 158 115
205 157 114
204 156 113
203 155 111
202 154 110
201 153 109
201 152 108
200 151 107
199 150 106
198 150 105
198 149 104
197 148 103
196 148 103
195 147 102
195 146 101
194 146 100
194 145 100
193 144 99
192 144 99
192 143 98
191 143 98
190 142 97
190 142 97
189 141 96
189 141 96
188 140 95
187 140 95
187 139 94
186 139 94
186 138 94
185 138 93
185 137 93
184 137 93
183 137 92
183 136 92
182 136 92
182 135 91
181 135 91
180 134 91
180 134 90
179 133 90
178 133 90
178 132 89
177 132 89
176 131 89
175 130 88
174 130 88
173 129 87
173 128 87
172 128 86
171 127 86
170 126 86
169 126 85
168 125 85
167 124 84
166 124 84
165 123 83
164 122 83
163 121 82
162 121 82
160 120 81
159 119 81
158 118 80
157 117 80
156 117 79
155 116 79
154 115 78
153 114 78
152 113 77
150 112 77
149 112 76
148 111 75
147 110 75
146 109 74
144 108 74
143 107 73
142 106 73
141 105 72
139 104 71
138 103 71
137 102 70
135 101 70
134 101 69
132 100 68
131 98 68
130 97 67
128 96 66
127 95 66
0 0 0
0 0 0
0 0 0
0 0 0
0 0 0
0 0 0
0 0 0
0 0 0
0 0 0
0 0 0
0 0 0
0 0 0
0 0 0
0 0 0
0 0 0
0 0 0
0 0 0
0 0 0
0 0 0
0 0 0
0 0 0
0 0 0
0 0 0
0 0 0
0 0 0
0 0 0
0 0 0
0 0 0
0 0 0
0 0 0
0 0 0
0 0 0
0 0 0
0 0 0
0 0 0
0 0 0
0 0 0
0 0 0
0 0 0
0 0 0
0 0 0
0 0 0
0 0 0
0 0 0
0 0 0
0 0 0
0 0 0
0 0 0
0 0 0
0 0 0
0 0 0
0 0 0
0 0 0
0 0 0
0 0 0
0 0 0
0 0 0
0 0 0
0 0 0
0 0 0
0 0 0
0 0 0
0 0 0
0 0 0
201 149 100
201 149 101
202 150 101
202 150 101
202 150 101
203 151 101
203 151 102
203 151 102
204 151 102
204 152 102
204 152 102
205 152 103
205 152 103
205 153 103
206 153 103
206 153 103
206 154 104
207 154 104
207 154 104
207 154 105
208 155 105
208 155 105
208 155 106
209 156 106
209 156 107
209 157 107
210 157 108
210 157 109
210 158 109
211 158 110
211 159 111
212 160 112
212 160 113
213 161 114
213 162 115
214 163 116
215 163 117
215 164 119
216 165 120
217 166 121
217 167 123
218 168 124
219 169 126
220 170 128
221 172 129
221 173 131
222 174 133
223 175 134
224 176 136
224 177 137
225 178 138
226 179 139
226 179 140
227 180 141
227 181 143
228 182 144
228 182 145
229 183 146
229 184 146
230 184 147
230 185 148
230 185 149
230 186 149
231 186 150
231 186 150
231 187 151
231 187 151
231 187 151
231 187 151
231 187 152
231 187 152
231 187 151
231 187 151
230 186 151
230 186 151
230 186 150
229 185 150
229 185 149
228 184 148
228 183 148
227 183 147
226 182 146
226 181 145
225 180 144
224 180 143
223 179 142
223 178 141
222 177 139
221 176 138
220 175 137
219 174 136
218 173 134
217 171 133
216 170 132
215 169 130
214 168 129
213 167 127
212 166 126
211 165 124
210 164 123
210 162 121
209 161 120
208 160 119
207 159 117
206 158 116
205 157 114
204 156 113
203 155 112
202 154 111
201 153 110
201 152 109
200 151 107
199 151 106
198 150 105
198 149 105
197 148 104
196 148 103
196 147 102
195 146 101
194 146 101
194 145 100
193 144 99
192 144 99
192 143 98
191 143 98
190 142 97
190 142 97
189 141 96
189 141 96
188 140 95
187 140 95
187 139 94
186 139 94
186 138 94
185 138 93
185 137 93
184 137 93
183 136 92
183 136 92
182 136 92
182 135 91
181 135 91
180 134 91
180 134 90
179 133 90
178 133 90
178 132 89
177 132 89
176 131 89
175 130 88
174 130 88
173 129 87
172 128 87
172 128 86
171 127 86
170 126 86
169 126 85
168 125 85
167 124 84
166 124 84
165 123 83
164 122 83
163 121 82
162 121 82
161 120 81
160 119 81
158 118 80
157 117 80
156 117 79
155 116 79
154 115 78
153 114 78
152 113 77
151 113 77
149 112 76
148 111 76
147 110 75
146 109 74
145 108 74
143 107 73
142 106 73
141 105 72
139 105 72
138 104 71
137 103 70
135 102 70
134 101 69
133 100 68
131 99 68
130 98 67
128 97 67
127 96 66
0 0 0
0 0 0
0 0 0
0 0 0
0 0 0
0 0 0
0 0 0
0 0 0
0 0 0
0 0 0
0 0 0
0 0 0
0 0 0
0 0 0
0 0 0
0 0 0
0 0 0
0 0 0
0 0 0
0 0 0
0 0 0
0 0 0
0 0 0
0 0 0
0 0 0
0 0 0
0 0 0
0 0 0
0 0 0
0 0 0
0 0 0
0 0 0
0 0 0
0 0 0
0 0 0
0 0 0
0 0 0
0 0 0
0 0 0
0 0 0
0 0 0
0 0 0
0 0 0
0 0 0
0 0 0
0 0 0
0 0 0
0 0 0
0 0 0
0 0 0
0 0 0
0 0 0
0 0 0
0 0 0
0 0 0
0 0 0
0 0 0
0 0 0
0 0 0
0 0 0
0 0 0
0 0 0
0 0 0
0 0 0
201 149 100
201 149 101
202 150 101
202 150 101
202 150 101
203 151 101
203 151 102
203 151 102
204 151 102
204 152 102
205 152 102
205 152 103
205 153 103
206 153 103
206 153 103
206 153 104
206 154 104
207 154 104
207 154 104
207 154 105
208 155 105
208 155 106
208 155 106
209 156 106
209 156 107
209 157 108
210 157 108
210 158 109
211 158 110
211 159 110
212 159 111
212 160 112
213 161 113
213 161 114
214 162 115
214 163 117
215 164 118
216 165 119
216 166 121
217 167 122
218 168 124
219 169 125
219 170 127
220 171 129
221 172 130
222 173 132
223 175 134
224 176 135
224 177 137
225 178 138
226 179 139
226 179 140
227 180 142
227 181 143
228 182 144
228 183 145
229 183 146
229 184 147
230 185 148
230 185 149
231 186 150
231 186 150
231 187 151
232 187 151
232 188 152
232 188 152
232 188 153
232 188 153
232 188 153
232 188 153
232 188 153
232 188 153
231 188 153
231 188 152
231 187 152
230 187 152
230 186 151
229 186 151
229 185 150
228 185 149
228 184 148
227 183 147
226 182 146
226 181 145
225 180 144
224 180 143
223 179 142
222 178 141
221 176 139
220 175 138
220 174 137
219 173 135
218 172 134
217 171 132
216 170 131
215 169 130
214 168 128
213 166 127
212 165 125
211 164 124
210 163 122
209 162 121
208 161 119
207 159 118
206 158 116
205 157 115
204 156 114
203 155 112
202 154 111
202 153 110
201 153 109
200 152 108
199 151 107
198 150 106
198 149 105
197 148 104
196 148 103
196 147 102
195 146 102
194 146 101
194 145 100
193 144 99
192 144 99
192 143 98
191 143 98
190 142 97
190 142 97
189 141 96
189 141 96
188 140 95
187 140 95
187 139 94
186 139 94
186 138 94
185 138 93
184 137 93
184 137 93
183 136 92
183 136 92
182 136 92
181 135 91
181 135 91
180 134 91
180 134 90
179 133 90
178 133 90
177 132 89
177 132 89
176 131 89
175 130 88
174 130 88
173 129 87
172 128 87
172 128 86
171 127 86
170 126 86
169 126 85
168 125 85
167 124 84
166 124 84
165 123 83
164 122 83
163 121 82
162 121 82
161 120 81
160 119 81
159 118 80
157 118 80
156 117 79
155 116 79
154 115 78
153 114 78
152 114 77
151 113 77
150 112 76
148 111 76
147 110 75
146 109 75
145 108 74
143 107 73
142 106 73
141 106 72
140 105 72
138 104 71
137 103 70
136 102 70
134 101 69
133 100 69
131 99 68
130 98 67
129 97 67
127 96 66
0 0 0
0 0 0
0 0 0
0 0 0
0 0 0
0 0 0
0 0 0
0 0 0
0 0 0
0 0 0
0 0 0
0 0 0
0 0 0
0 0 0
0 0 0
0 0 0
0 0 0
0 0 0
0 0 0
0 0 0
0 0 0
0 0 0
0 0 0
0 0 0
0 0 0
0 0 0
0 0 0
0 0 0
0 0 0
0 0 0
0 0 0
0 0 0
0 0 0
0 0 0
0 0 0
0 0 0
0 0 0
0 0 0
0 0 0
0 0 0
0 0 0
0 0 0
0 0 0
0 0 0
0 0 0
0 0 0
0 0 0
0 0 0
0 0 0
0 0 0
0 0 0
0 0 0
0 0 0
0 0 0
0 0 0
0 0 0
0 0 0
0 0 0
0 0 0
0 0 0
0 0 0
0 0 0
0 0 0
0 0 0
201 149 100
201 150 101
202 150 101
202 150 101
202 150 101
203 151 101
203 151 102
204 151 102
204 152 102
204 152 102
205 152 102
205 152 103
205 153 103
206 153 103
206 153 103
206 153 104
207 154 104
207 154 104
207 154 105
207 155 105
208 155 105
208 155 106
208 156 106
209 156 107
209 156 107
209 157 108
210 157 108
210 158 109
211 158 110
211 159 111
212 160 112
212 160 113
213 161 114
213 162 115
214 162 116
215 163 117
215 164 119
216 165 120
217 166 122
217 167 123
218 168 125
219 169 126
220 171 128
221 172 130
221 173 131
222 174 133
223 175 135
224 177 136
225 178 138
226 179 139
226 179 141
227 180 142
227 181 143
228 182 144
229 183 145
229 184 146
230 184 147
230 185 148
231 186 149
231 186 150
232 187 151
232 188 152
232 188 152
232 188 153
233 189 153
233 189 154
233 189 154
233 189 154
233 189 155
233 189 155
233 189 155
232 189 154
232 189 154
232 189 154
232 188 154
231 188 153
231 187 153
230 187 152
230 186 151
229 186 150
228 185 150
228 184 149
227 183 148
226 182 147
225 181 145
225 180 144
224 179 143
223 178 142
222 177 140
221 176 139
220 175 138
219 174 136
218 173 135
217 172 133
216 170 132
215 169 130
214 168 129
213 167 127
212 166 126
211 164 124
210 163 123
209 162 121
208 161 120
207 160 118
206 159 117
205 158 116
204 157 114
203 156 113
203 155 112
202 154 110
201 153 109
200 152 108
199 151 107
199 150 106
198 149 105
197 149 104
196 148 103
196 147 102
195 146 102
194 146 101
194 145 100
193 145 100
192 144 99
192 143 98
191 143 98
190 142 97
190 142 97
189 141 96
189 141 96
188 140 95
187 140 95
187 139 94
186 139 94
186 138 94
185 138 93
184 137 93
184 137 93
183 136 92
183 136 92
182 136 92
181 135 91
181 135 91
180 134 91
180 134 90
179 133 90
178 133 90
177 132 89
177 131 89
176 131 88
175 130 88
174 130 88
173 129 87
172 128 87
171 128 86
171 127 86
170 126 86
169 126 85
168 125 85
167 124 84
166 124 84
165 123 83
164 122 83
163 121 82
162 121 82
161 120 81
160 119 81
159 118 80
158 118 80
157 117 79
155 116 79
154 115 78
153 114 78
152 114 77
151 113 77
150 112 76
149 111 76
147 110 75
146 109 75
145 108 74
144 108 73
142 107 73
141 106 72
140 105 72
138 104 71
137 103 70
136 102 70
134 101 69
133 100 69
132 99 68
130 98 67
129 97 67
127 96 66
0 0 0
0 0 0
0 0 0
0 0 0
0 0 0
0 0 0
0 0 0
0 0 0
0 0 0
0 0 0
0 0 0
0 0 0
0 0 0
0 0 0
0 0 0
0 0 0
0 0 0
0 0 0
0 0 0
0 0 0
0 0 0
0 0 0
0 0 0
0 0 0
0 0 0
0 0 0
0 0 0
0 0 0
0 0 0
0 0 0
0 0 0
0 0 0
0 0 0
0 0 0
0 0 0
0 0 0
0 0 0
0 0 0
0 0 0
0 0 0
0 0 0
0 0 0
0 0 0
0 0 0
0 0 0
0 0 0
0 0 0
0 0 0
0 0 0
0 0 0
0 0 0
0 0 0
0 0 0
0 0 0
0 0 0
0 0 0
0 0 0
0 0 0
0 0 0
0 0 0
0 0 0
0 0 0
0 0 0
0 0 0
201 149 101
201 150 101
202 150 101
202 150 101
203 150 101
203 151 101
203 151 102
204 151 102
204 152 102
204 152 102
205 152 103
205 152 103
205 153 103
206 153 103
206 153 103
206 153 104
207 154 104
207 154 104
207 154 105
207 155 105
208 155 105
208 155 106
208 156 106
209 156 107
209 156 107
210 157 108
210 157 109
210 158 109
211 159 110
211 159 111
212 160 112
212 160 113
213 161 114
214 162 115
214 163 117
215 164 118
215 165 119
216 166 121
217 167 122
218 168 124
219 169 125
219 170 127
220 171 129
221 172 131
222 174 132
223 175 134
224 176 136
225 177 138
225 178 139
226 179 140
227 180 142
227 181 143
228 182 144
229 183 145
229 184 147
230 185 148
230 185 149
231 186 150
231 187 151
232 188 152
232 188 152
233 189 153
233 189 154
233 189 154
233 190 155
234 190 155
234 190 156
234 190 156
234 190 156
234 190 156
233 190 156
233 190 156
233 190 156
233 190 155
232 189 155
232 189 154
231 188 154
231 188 153
230 187 153
230 186 152
229 186 151
228 185 150
228 184 149
227 183 148
226 182 147
225 181 145
224 180 144
223 179 143
222 178 141
221 177 140
220 176 139
220 175 137
219 173 136
218 172 134
217 171 133
216 170 131
214 169 130
213 167 128
212 166 127
211 165 125
210 164 123
209 163 122
208 161 120
207 160 119
206 159 117
205 158 116
205 157 115
204 156 113
203 155 112
202 154 111
201 153 110
200 152 108
199 151 107
199 150 106
198 149 105
197 149 104
196 148 104
196 147 103
195 147 102
194 146 101
194 145 100
193 145 100
192 144 99
192 143 98
191 143 98
190 142 97
190 142 97
189 141 96
188 141 96
188 140 95
187 140 95
187 139 94
186 139 94
186 138 94
185 138 93
184 137 93
184 137 93
183 136 92
183 136 92
182 135 92
181 135 91
181 135 91
180 134 91
180 134 90
179 133 90
178 133 90
177 132 89
177 131 89
176 131 88
175 130 88
174 130 88
173 129 87
172 128 87
171 128 86
171 127 86
170 126 86
169 126 85
168 125 85
167 124 84
166 124 84
165 123 83
164 122 83
163 121 82
162 121 82
161 120 81
160 119 81
159 118 80
158 118 80
157 117 79
156 116 79
154 115 78
153 115 78
152 114 77
151 113 77
150 112 76
149 111 76
147 110 75
146 109 75
145 109 74
144 108 74
142 107 73
141 106 72
140 105 72
139 104 71
137 103 71
136 102 70
135 101 69
133 100 69
132 99 68
130 98 67
129 97 67
127 96 66
0 0 0
0 0 0
0 0 0
0 0 0
0 0 0
0 0 0
0 0 0
0 0 0
0 0 0
0 0 0
0 0 0
0 0 0
0 0 0
0 0 0
0 0 0
0 0 0
0 0 0
0 0 0
0 0 0
0 0 0
0 0 0
0 0 0
0 0 0
0 0 0
0 0 0
0 0 0
0 0 0
0 0 0
0 0 0
0 0 0
0 0 0
0 0 0
0 0 0
0 0 0
0 0 0
0 0 0
0 0 0
0 0 0
0 0 0
0 0 0
0 0 0
0 0 0
0 0 0
0 0 0
0 0 0
0 0 0
0 0 0
0 0 0
0 0 0
0 0 0
0 0 0
0 0 0
0 0 0
0 0 0
0 0 0
0 0 0
0 0 0
0 0 0
0 0 0
0 0 0
0 0 0
0 0 0
0 0 0
0 0 0
201 149 101
201 150 101
202 150 101
202 150 101
203 151 101
203 151 102
203 151 102
204 151 102
204 152 102
204 152 102
205 152 103
205 152 103
205 153 103
206 153 103
206 153 104
206 153 104
207 154 104
207 154 104
207 154 105
207 155 105
208 155 105
208 155 106
208 156 106
209 156 107
209 157 108
210 157 108
210 158 109
210 158 110
211 159 111
211 159 111
212 160 112
213 161 114
213 162 115
214 162 116
214 163 117
215 164 119
216 165 120
217 166 121
217 167 123
218 168 125
219 169 126
220 171 128
221 172 130
222 173 132
222 174 133
223 176 135
224 177 137
225 178 139
226 179 140
227 180 142
227 181 143
228 182 144
229 183 145
229 184 147
230 185 148
231 186 149
231 186 150
232 187 151
232 188 152
233 189 153
233 189 154
233 190 155
234 190 155
234 191 156
234 191 156
234 191 157
234 191 157
234 191 157
234 192 157
234 192 157
234 191 157
234 191 157
234 191 157
233 191 157
233 190 156
233 190 156
232 189 155
232 189 155
231 188 154
230 187 153
230 187 152
229 186 151
228 185 150
227 184 149
227 183 148
226 182 146
225 181 145
224 180 144
223 179 142
222 178 141
221 176 140
220 175 138
219 174 137
218 173 135
217 172 134
216 170 132
215 169 130
214 168 129
213 167 127
212 165 126
211 164 124
210 163 122
209 162 121
208 161 119
207 159 118
206 158 117
205 157 115
204 156 114
203 155 112
202 154 111
201 153 110
200 152 109
199 151 108
199 150 107
198 150 106
197 149 105
196 148 104
196 147 103
195 147 102
194 146 101
194 145 100
193 145 100
192 144 99
192 143 98
191 143 98
190 142 97
190 142 97
189 141 96
188 141 96
188 140 95
187 140 95
187 139 94
186 139 94
185 138 94
185 138 93
184 137 93
184 137 93
183 136 92
182 136 92
182 135 92
181 135 91
181 135 91
180 134 91
179 134 90
179 133 90
178 133 90
177 132 89
176 131 89
176 131 88
175 130 88
174 130 88
173 129 87
172 128 87
171 128 86
170 127 86
170 126 85
169 126 85
168 125 85
167 124 84
166 124 84
165 123 83
164 122 83
163 121 82
162 121 82
161 120 81
160 119 81
159 119 80
158 118 80
157 117 79
156 116 79
154 115 78
153 115 78
152 114 77
151 113 77
150 112 76
149 111 76
148 110 75
146 110 75
145 109 74
144 108 74
143 107 73
141 106 72
140 105 72
139 104 71
137 103 71
136 102 70
135 101 69
133 100 69
132 99 68
131 98 68
129 97 67
128 96 66
0 0 0
0 0 0
0 0 0
0 0 0
0 0 0
0 0 0
0 0 0
0 0 0
0 0 0
0 0 0
0 0 0
0 0 0
0 0 0
0 0 0
0 0 0
0 0 0
0 0 0
0 0 0
0 0 0
0 0 0
0 0 0
0 0 0
0 0 0
0 0 0
0 0 0
0 0 0
0 0 0
0 0 0
0 0 0
0 0 0
0 0 0
0 0 0
0 0 0
0 0 0
0 0 0
0 0 0
0 0 0
0 0 0
0 0 0
0 0 0
0 0 0
0 0 0
0 0 0
0 0 0
0 0 0
0 0 0
0 0 0
0 0 0
0 0 0
0 0 0
0 0 0
0 0 0
0 0 0
0 0 0
0 0 0
0 0 0
0 0 0
0 0 0
0 0 0
0 0 0
0 0 0
0 0 0
0 0 0
0 0 0
201 149 101
201 150 101
202 150 101
202 150 101
203 151 101
203 151 102
203 151 102
204 151 102
204 152 102
204 152 102
205 152 103
205 152 103
205 153 103
206 153 103
206 153 104
206 153 104
207 154 104
207 154 104
207 154 105
207 155 105
208 155 106
208 155 106
209 156 107
209 156 107
209 157 108
210 157 108
210 158 109
211 158 110
211 159 111
212 160 112
212 160 113
213 161 114
213 162 115
214 163 116
215 164 118
215 164 119
216 166 121
217 167 122
218 168 124
218 169 125
219 170 127
220 171 129
221 172 131
222 174 132
223 175 134
224 176 136
225 178 138
226 179 140
227 180 141
227 181 143
228 182 144
229 183 145
229 184 147
230 185 148
231 186 149
231 187 150
232 187 151
232 188 152
233 189 153
233 189 154
234 190 155
234 191 156
234 191 156
235 191 157
235 192 158
235 192 158
235 192 158
235 192 159
235 192 159
235 192 159
235 192 159
235 192 159
234 192 158
234 192 158
234 191 158
233 191 157
233 190 156
232 190 156
232 189 155
231 188 154
230 187 153
230 187 152
229 186 151
228 185 150
227 184 149
226 183 147
225 182 146
224 180 145
223 179 143
222 178 142
221 177 140
220 176 139
219 175 137
218 173 136
217 172 134
216 171 133
215 170 131
214 168 129
213 167 128
212 166 126
211 164 125
210 163 123
209 162 121
208 161 120
207 160 118
206 159 117
205 157 116
204 156 114
203 155 113
202 154 112
201 153 110
200 152 109
199 151 108
199 151 107
198 150 106
197 149 105
196 148 104
196 147 103
195 147 102
194 146 101
193 145 101
193 145 100
192 144 99
191 143 99
191 143 98
190 142 97
190 142 97
189 141 96
188 141 96
188 140 95
187 140 95
187 139 95
186 139 94
185 138 94
185 138 93
184 137 93
184 137 93
183 136 92
182 136 92
182 135 92
181 135 91
181 134 91
180 134 91
179 134 90
179 133 90
178 132 90
177 132 89
176 131 89
176 131 88
175 130 88
174 130 88
173 129 87
172 128 87
171 128 86
170 127 86
169 126 85
169 126 85
168 125 85
167 124 84
166 124 84
165 123 83
164 122 83
163 122 82
162 121 82
161 120 81
160 119 81
159 119 80
158 118 80
157 117 80
156 116 79
155 115 78
153 115 78
152 114 77
151 113 77
150 112 76
149 111 76
148 110 75
146 110 75
145 109 74
144 108 74
143 107 73
141 106 72
140 105 72
139 104 71
138 103 71
136 102 70
135 101 69
134 100 69
132 99 68
131 98 68
129 97 67
128 96 66
0 0 0
0 0 0
0 0 0
0 0 0
0 0 0
0 0 0
0 0 0
0 0 0
0 0 0
0 0 0
0 0 0
0 0 0
0 0 0
0 0 0
0 0 0
0 0 0
0 0 0
0 0 0
0 0 0
0 0 0
0 0 0
0 0 0
0 0 0
0 0 0
0 0 0
0 0 0
0 0 0
0 0 0
0 0 0
0 0 0
0 0 0
0 0 0
0 0 0
0 0 0
0 0 0
0 0 0
0 0 0
0 0 0
0 0 0
0 0 0
0 0 0
0 0 0
0 0 0
0 0 0
0 0 0
0 0 0
0 0 0
0 0 0
0 0 0
0 0 0
0 0 0
0 0 0
0 0 0
0 0 0
0 0 0
0 0 0
0 0 0
0 0 0
0 0 0
0 0 0
0 0 0
0 0 0
0 0 0
0 0 0
201 149 101
202 150 101
202 150 101
202 150 101
203 151 101
203 151 102
203 151 102
204 151 102
204 152 102
204 152 102
205 152 103
205 152 103
205 153 103
206 153 103
206 153 104
206 154 104
207 154 104
207 154 105
207 154 105
208 155 105
208 155 106
208 155 106
209 156 107
209 156 107
209 157 108
210 157 109
210 158 109
211 158 110
211 159 111
212 160 112
212 160 113
213 161 114
213 162 116
214 163 117
215 164 118
216 165 120
216 166 121
217 167 123
218 168 124
219 169 126
220 170 128
220 172 130
221 173 132
222 174 133
223 176 135
224 177 137
225 178 139
226 180 141
227 181 142
228 182 144
228 183 145
229 184 146
230 185 148
231 186 149
231 187 150
232 187 151
232 188 153
233 189 154
233 190 155
234 190 155
234 191 156
235 191 157
235 192 158
235 192 158
236 193 159
236 193 159
236 193 160
236 193 160
236 193 160
236 193 160
236 193 160
235 193 160
235 193 159
235 193 159
234 192 159
234 192 158
233 191 158
233 190 157
232 190 156
232 189 155
231 188 154
230 187 153
229 186 152
228 185 151
228 184 150
227 183 148
226 182 147
225 181 146
224 180 144
223 179 143
222 178 141
221 176 140
220 175 138
219 174 137
217 173 135
216 171 133
215 170 132
214 169 130
213 167 128
212 166 127
211 165 125
210 164 124
209 162 122
208 161 120
207 160 119
206 159 117
205 158 116
204 157 115
203 155 113
202 154 112
201 153 111
200 152 109
200 152 108
199 151 107
198 150 106
197 149 105
196 148 104
196 147 103
195 147 102
194 146 101
193 145 101
193 145 100
192 144 99
191 143 99
191 143 98
190 142 97
190 142 97
189 141 96
188 141 96
188 140 95
187 140 95
186 139 95
186 139 94
185 138 94
185 138 93
184 137 93
184 137 93
183 136 92
182 136 92
182 135 92
181 135 91
181 134 91
180 134 91
179 134 90
179 133 90
178 132 90
177 132 89
176 131 89
176 131 88
175 130 88
174 129 88
173 129 87
172 128 87
171 128 86
170 127 86
169 126 85
169 126 85
168 125 85
167 124 84
166 124 84
165 123 83
164 122 83
163 122 82
162 121 82
161 120 81
160 119 81
159 119 81
158 118 80
157 117 80
156 116 79
155 116 79
154 115 78
152 114 78
151 113 77
150 112 76
149 111 76
148 111 75
147 110 75
145 109 74
144 108 74
143 107 73
142 106 73
140 105 72
139 104 71
138 103 71
136 102 70
135 101 70
134 100 69
132 99 68
131 98 68
129 97 67
128 96 66
0 0 0
0 0 0
0 0 0
0 0 0
0 0 0
0 0 0
0 0 0
0 0 0
0 0 0
0 0 0
0 0 0
0 0 0
0 0 0
0 0 0
0 0 0
0 0 0
0 0 0
0 0 0
0 0 0
0 0 0
0 0 0
0 0 0
0 0 0
0 0 0
0 0 0
0 0 0
0 0 0
0 0 0
0 0 0
0 0 0
0 0 0
0 0 0
0 0 0
0 0 0
0 0 0
0 0 0
0 0 0
0 0 0
0 0 0
0 0 0
0 0 0
0 0 0
0 0 0
0 0 0
0 0 0
0 0 0
0 0 0
0 0 0
0 0 0
0 0 0
0 0 0
0 0 0
0 0 0
0 0 0
0 0 0
0 0 0
0 0 0
0 0 0
0 0 0
0 0 0
0 0 0
0 0 0
0 0 0
0 0 0
201 150 101
202 150 101
202 150 101
202 150 101
203 151 101
203 151 102
203 151 102
204 151 102
204 152 102
204 152 102
205 152 103
205 152 103
205 153 103
206 153 103
206 153 104
206 154 104
207 154 104
207 154 105
207 154 105
208 155 105
208 155 106
208 156 106
209 156 107
209 156 108
209 157 108
210 157 109
210 158 110
211 159 111
211 159 112
212 160 113
212 161 114
213 161 115
214 162 116
214 163 117
215 164 119
216 165 120
216 166 122
217 167 123
218 169 125
219 170 127
220 171 129
221 172 131
222 174 132
223 175 134
224 176 136
225 178 138
226 179 140
227 180 142
227 181 143
228 182 145
229 183 146
230 184 147
230 185 149
231 186 150
232 187 151
232 188 153
233 189 154
234 190 155
234 190 156
235 191 157
235 192 157
235 192 158
236 193 159
236 193 159
236 194 160
236 194 160
236 194 161
236 194 161
236 194 161
236 194 161
236 194 161
236 194 161
236 194 161
235 193 160
235 193 160
235 192 159
234 192 159
233 191 158
233 191 157
232 190 156
231 189 155
231 188 154
230 187 153
229 186 152
228 185 151
227 184 149
226 183 148
225 182 146
224 180 145
223 179 143
222 178 142
221 177 140
220 175 139
219 174 137
218 173 136
217 172 134
216 170 132
214 169 131
213 168 129
212 166 127
211 165 126
210 164 124
209 163 122
208 161 121
207 160 119
206 159 118
205 158 116
204 157 115
203 156 113
202 155 112
201 154 111
200 153 110
200 152 108
199 151 107
198 150 106
197 149 105
196 148 104
196 147 103
195 147 102
194 146 102
193 145 101
193 145 100
192 144 99
191 143 99
191 143 98
190 142 97
189 142 97
189 141 96
188 141 96
188 140 95
187 140 95
186 139 95
186 139 94
185 138 94
185 138 93
184 137 93
183 137 93
183 136 92
182 136 92
182 135 92
181 135 91
180 134 91
180 134 91
179 133 90
179 133 90
178 132 89
177 132 89
176 131 89
175 131 88
175 130 88
174 129 88
173 129 87
172 128 87
171 128 86
170 127 86
170 126 85
169 126 85
168 125 85
167 124 84
166 124 84
165 123 83
164 122 83
163 122 82
162 121 82
161 120 82
160 119 81
159 119 81
158 118 80
157 117 80
156 116 79
155 116 79
154 115 78
153 114 78
151 113 77
150 112 76
149 111 76
148 111 75
147 110 75
145 109 74
144 108 74
143 107 73
142 106 73
140 105 72
139 104 71
138 103 71
137 102 70
135 102 70
134 101 69
132 100 68
131 99 68
130 98 67
128 97 67
0 0 0
0 0 0
0 0 0
0 0 0
0 0 0
0 0 0
0 0 0
0 0 0
0 0 0
0 0 0
0 0 0
0 0 0
0 0 0
0 0 0
0 0 0
0 0 0
0 0 0
0 0 0
0 0 0
0 0 0
0 0 0
0 0 0
0 0 0
0 0 0
0 0 0
0 0 0
0 0 0
0 0 0
0 0 0
0 0 0
0 0 0
0 0 0
0 0 0
0 0 0
0 0 0
0 0 0
0 0 0
0 0 0
0 0 0
0 0 0
0 0 0
0 0 0
0 0 0
0 0 0
0 0 0
0 0 0
0 0 0
0 0 0
0 0 0
0 0 0
0 0 0
0 0 0
0 0 0
0 0 0
0 0 0
0 0 0
0 0 0
0 0 0
0 0 0
0 0 0
0 0 0
0 0 0
0 0 0
0 0 0
201 150 101
202 150 101
202 150 101
202 150 101
203 151 101
203 151 102
203 151 102
204 151 102
204 152 102
204 152 102
205 152 103
205 152 103
205 153 103
206 153 103
206 153 104
206 154 104
207 154 104
207 154 105
207 154 105
208 155 105
208 155 106
208 156 106
209 156 107
209 156 108
209 157 108
210 158 109
210 158 110
211 159 111
211 159 112
212 160 113
212 161 114
213 162 115
214 163 117
214 164 118
215 165 119
216 166 121
217 167 122
218 168 124
218 169 126
219 170 128
220 171 129
221 173 131
222 174 133
223 175 135
224 177 137
225 178 139
226 179 141
227 181 143
228 182 144
229 183 146
229 184 147
230 185 148
231 186 150
232 187 151
232 188 152
233 189 154
233 190 155
234 191 156
235 191 157
235 192 158
235 193 158
236 193 159
236 194 160
236 194 160
237 194 161
237 195 161
237 195 162
237 195 162
237 195 162
237 195 162
237 195 162
237 195 162
236 194 162
236 194 161
235 194 161
235 193 160
234 193 160
234 192 159
233 191 158
233 190 157
232 190 156
231 189 155
230 188 154
229 187 153
228 186 151
227 185 150
226 183 149
225 182 147
224 181 146
223 180 144
222 178 143
221 177 141
220 176 139
219 175 138
218 173 136
217 172 134
216 171 133
215 169 131
213 168 129
212 167 128
211 165 126
210 164 124
209 163 123
208 162 121
207 160 120
206 159 118
205 158 117
204 157 115
203 156 114
202 155 112
201 154 111
200 153 110
200 152 109
199 151 108
198 150 106
197 149 105
196 148 104
196 147 103
195 147 103
194 146 102
193 145 101
193 145 100
192 144 99
191 143 99
191 143 98
190 142 98
189 142 97
189 141 96
188 141 96
188 140 95
187 139 95
186 139 94
186 138 94
185 138 94
185 138 93
184 137 93
183 137 93
183 136 92
182 136 92
182 135 91
181 135 91
180 134 91
180 134 91
179 133 90
178 133 90
178 132 89
177 132 89
176 131 89
175 131 88
175 130 88
174 129 87
173 129 87
172 128 87
171 128 86
170 127 86
170 126 85
169 126 85
168 125 85
167 124 84
166 124 84
165 123 83
164 122 83
163 122 82
162 121 82
161 120 82
160 119 81
159 119 81
158 118 80
157 117 80
156 116 79
155 116 79
154 115 78
153 114 78
151 113 77
150 112 77
149 112 76
148 111 75
147 110 75
146 109 74
144 108 74
143 107 73
142 106 73
141 105 72
139 104 71
138 104 71
137 103 70
135 102 70
134 101 69
133 100 68
131 99 68
130 98 67
128 97 67
0 0 0
0 0 0
0 0 0
0 0 0
0 0 0
0 0 0
0 0 0
0 0 0
0 0 0
0 0 0
0 0 0
0 0 0
0 0 0
0 0 0
0 0 0
0 0 0
0 0 0
0 0 0
0 0 0
0 0 0
0 0 0
0 0 0
0 0 0
0 0 0
0 0 0
0 0 0
0 0 0
0 0 0
0 0 0
0 0 0
0 0 0
0 0 0
0 0 0
0 0 0
0 0 0
0 0 0
0 0 0
0 0 0
0 0 0
0 0 0
0 0 0
0 0 0
0 0 0
0 0 0
0 0 0
0 0 0
0 0 0
0 0 0
0 0 0
0 0 0
0 0 0
0 0 0
0 0 0
0 0 0
0 0 0
0 0 0
0 0 0
0 0 0
0 0 0
0 0 0
0 0 0
0 0 0
0 0 0
0 0 0
201 150 101
202 150 101
202 150 101
202 150 101
203 151 101
203 151 102
203 151 102
204 151 102
204 152 102
204 152 102
205 152 103
205 152 103
205 153 103
206 153 103
206 153 104
206 154 104
207 154 104
207 154 105
207 154 105
208 155 106
208 155 106
208 156 107
209 156 107
209 157 108
209 157 109
210 158 109
210 158 110
211 159 111
211 160 112
212 160 113
213 161 114
213 162 116
214 163 117
215 164 118
215 165 120
216 166 121
217 167 123
218 168 125
219 169 126
220 171 128
220 172 130
221 173 132
222 175 134
223 176 136
224 177 138
225 179 140
226 180 142
227 181 143
228 183 145
229 184 147
230 185 148
231 186 149
231 187 151
232 188 152
233 189 153
233 190 154
234 190 156
235 191 157
235 192 158
236 193 159
236 193 159
236 194 160
237 194 161
237 195 161
237 195 162
237 195 162
237 196 163
237 196 163
237 196 163
237 196 163
237 196 163
237 195 163
237 195 162
236 195 162
236 194 162
235 194 161
235 193 160
234 193 160
234 192 159
233 191 158
232 190 157
231 189 156
231 188 155
230 187 153
229 186 152
228 185 151
227 184 149
226 183 148
225 181 146
224 180 145
223 179 143
221 178 142
220 176 140
219 175 138
218 174 137
217 172 135
216 171 133
215 170 132
214 168 130
213 167 128
211 166 126
210 164 125
209 163 123
208 162 122
207 161 120
206 159 118
205 158 117
204 157 115
203 156 114
202 155 113
201 154 111
200 153 110
200 152 109
199 151 108
198 150 107
197 149 106
196 148 105
195 148 104
195 147 103
194 146 102
193 145 101
193 145 100
192 144 99
191 143 99
191 143 98
190 142 98
189 142 97
189 141 96
188 140 96
187 140 95
187 139 95
186 139 94
186 138 94
185 138 94
184 137 93
184 137 93
183 137 93
183 136 92
182 136 92
181 135 91
181 135 91
180 134 91
180 134 90
179 133 90
178 133 90
178 132 89
177 132 89
176 131 89
175 131 88
174 130 88
174 129 87
173 129 87
172 128 87
171 128 86
170 127 86
170 126 85
169 126 85
168 125 85
167 124 84
166 124 84
165 123 83
164 122 83
163 122 82
162 121 82
161 120 82
160 119 81
159 119 81
158 118 80
157 117 80
156 116 79
155 116 79
154 115 78
153 114 78
152 113 77
150 112 77
149 112 76
148 111 75
147 110 75
146 109 74
144 108 74
143 107 73
142 106 73
141 105 72
139 105 72
138 104 71
137 103 70
136 102 70
134 101 69
133 100 69
131 99 68
130 98 67
129 97 67
0 0 0
0 0 0
0 0 0
0 0 0
0 0 0
0 0 0
0 0 0
0 0 0
0 0 0
0 0 0
0 0 0
0 0 0
0 0 0
0 0 0
0 0 0
0 0 0
0 0 0
0 0 0
0 0 0
0 0 0
0 0 0
0 0 0
0 0 0
0 0 0
0 0 0
0 0 0
0 0 0
0 0 0
0 0 0
0 0 0
0 0 0
0 0 0
0 0 0
0 0 0
0 0 0
0 0 0
0 0 0
0 0 0
0 0 0
0 0 0
0 0 0
0 0 0
0 0 0
0 0 0
0 0 0
0 0 0
0 0 0
0 0 0
0 0 0
0 0 0
0 0 0
0 0 0
0 0 0
0 0 0
0 0 0
0 0 0
0 0 0
0 0 0
0 0 0
0 0 0
0 0 0
0 0 0
0 0 0
0 0 0
201 150 101
202 150 101
202 150 101
202 150 101
203 151 101
203 151 102
203 151 102
204 151 102
204 152 102
204 152 102
205 152 103
205 152 103
205 153 103
206 153 103
206 153 104
206 154 104
206 154 104
207 154 105
207 155 105
207 155 106
208 155 106
208 156 107
209 156 107
209 157 108
209 157 109
210 158 110
210 158 110
211 159 111
211 160 112
212 160 114
213 161 115
213 162 116
214 163 117
215 164 119
215 165 120
216 166 122
217 167 124
218 168 125
219 170 127
220 171 129
221 172 131
222 174 133
223 175 135
224 176 136
225 178 138
226 179 140
227 181 142
228 182 144
229 183 146
229 184 147
230 185 149
231 186 150
232 187 151
232 188 153
233 189 154
234 190 155
234 191 156
235 192 157
235 193 158
236 193 159
236 194 160
237 194 161
237 195 162
237 195 162
238 196 163
238 196 163
238 196 163
238 196 164
238 196 164
238 196 164
238 196 164
237 196 164
237 196 163
237 195 163
236 195 162
236 194 162
235 194 161
235 193 160
234 192 159
233 192 159
233 191 157
232 190 156
231 189 155
230 188 154
229 187 153
228 185 151
227 184 150
226 183 148
225 182 147
224 180 145
223 179 144
222 178 142
221 177 140
219 175 139
218 174 137
217 173 135
216 171 134
215 170 132
214 168 130
213 167 129
211 166 127
210 164 125
209 163 123
208 162 122
207 161 120
206 159 119
205 158 117
204 157 116
203 156 114
202 155 113
201 154 112
200 153 110
200 152 109
199 151 108
198 150 107
197 149 106
196 148 105
195 148 104
195 147 103
194 146 102
193 145 101
193 145 100
192 144 100
191 143 99
191 143 98
190 142 98
189 142 97
189 141 96
188 140 96
187 140 95
187 139 95
186 139 94
186 138 94
185 138 94
184 137 93
184 137 93
183 136 92
183 136 92
182 136 92
181 135 91
181 135 91
180 134 91
180 134 90
179 133 90
178 133 90
178 132 89
177 132 89
176 131 89
175 130 88
174 130 88
174 129 87
173 129 87
172 128 87
171 128 86
170 127 86
169 126 85
169 126 85
168 125 85
167 124 84
166 124 84
165 123 83
164 122 83
163 122 82
162 121 82
161 120 82
160 120 81
159 119 81
158 118 80
157 117 80
156 117 79
155 116 79
154 115 78
153 114 78
152 113 77
150 113 77
149 112 76
148 111 76
147 110 75
146 109 74
145 108 74
143 107 73
142 106 73
141 106 72
140 105 72
138 104 71
137 103 70
136 102 70
134 101 69
133 100 69
132 99 68
130 98 67
129 97 67
0 0 0
0 0 0
0 0 0
0 0 0
0 0 0
0 0 0
0 0 0
0 0 0
0 0 0
0 0 0
0 0 0
0 0 0
0 0 0
0 0 0
0 0 0
0 0 0
0 0 0
0 0 0
0 0 0
0 0 0
0 0 0
0 0 0
0 0 0
0 0 0
0 0 0
0 0 0
0 0 0
0 0 0
0 0 0
0 0 0
0 0 0
0 0 0
0 0 0
0 0 0
0 0 0
0 0 0
0 0 0
0 0 0
0 0 0
0 0 0
0 0 0
0 0 0
0 0 0
0 0 0
0 0 0
0 0 0
0 0 0
0 0 0
0 0 0
0 0 0
0 0 0
0 0 0
0 0 0
0 0 0
0 0 0
0 0 0
0 0 0
0 0 0
0 0 0
0 0 0
0 0 0
0 0 0
0 0 0
0 0 0
201 150 101
202 150 101
202 150 101
202 150 101
203 151 101
203 151 102
203 151 102
204 151 102
204 152 102
204 152 102
205 152 103
205 152 103
205 153 103
206 153 103
206 153 104
206 154 104
206 154 104
207 154 105
207 155 105
207 155 106
208 155 106
208 156 107
209 156 107
209 157 108
209 157 109
210 158 110
210 158 111
211 159 112
212 160 113
212 161 114
213 161 115
213 162 116
214 163 118
215 164 119
216 165 121
216 166 122
217 168 124
218 169 126
219 170 128
220 171 129
221 173 131
222 174 133
223 175 135
224 177 137
225 178 139
226 180 141
227 181 143
228 182 145
229 184 147
230 185 148
231 186 149
231 187 151
232 188 152
233 189 154
233 190 155
234 191 156
235 192 157
235 192 158
236 193 159
236 194 160
237 194 161
237 195 162
237 195 162
238 196 163
238 196 164
238 197 164
238 197 164
238 197 164
238 197 165
238 197 165
238 197 164
238 196 164
237 196 164
237 196 164
237 195 163
236 195 162
236 194 162
235 194 161
234 193 160
234 192 159
233 191 158
232 190 157
231 189 156
230 188 154
229 187 153
228 186 152
227 185 150
226 183 149
225 182 147
224 181 146
223 179 144
222 178 142
221 177 141
219 175 139
218 174 137
217 173 136
216 171 134
215 170 132
214 169 131
213 167 129
212 166 127
210 165 125
209 163 124
208 162 122
207 161 121
206 160 119
205 158 117
204 157 116
203 156 114
202 155 113
201 154 112
200 153 110
199 152 109
199 151 108
198 150 107
197 149 106
196 148 105
195 148 104
195 147 103
194 146 102
193 145 101
192 145 100
192 144 100
191 143 99
190 143 98
190 142 98
189 141 97
188 141 96
188 140 96
187 140 95
187 139 95
186 139 94
185 138 94
185 138 94
184 137 93
184 137 93
183 136 92
182 136 92
182 135 92
181 135 91
181 135 91
180 134 91
179 134 90
179 133 90
178 133 90
177 132 89
177 132 89
176 131 89
175 130 88
174 130 88
174 129 87
173 129 87
172 128 87
171 128 86
170 127 86
169 126 85
169 126 85
168 125 85
167 124 84
166 124 84
165 123 83
164 122 83
163 122 82
162 121 82
161 120 82
160 120 81
159 119 81
158 118 80
157 117 80
156 117 79
155 116 79
154 115 78
153 114 78
152 113 77
151 113 77
149 112 76
148 111 76
147 110 75
146 109 74
145 108 74
143 107 73
142 107 73
141 106 72
140 105 72
138 104 71
137 103 70
136 102 70
134 101 69
133 100 69
132 99 68
130 98 67
129 97 67
0 0 0
0 0 0
0 0 0
0 0 0
0 0 0
0 0 0
0 0 0
0 0 0
0 0 0
0 0 0
0 0 0
0 0 0
0 0 0
0 0 0
0 0 0
0 0 0
0 0 0
0 0 0
0 0 0
0 0 0
0 0 0
0 0 0
0 0 0
0 0 0
0 0 0
0 0 0
0 0 0
0 0 0
0 0 0
0 0 0
0 0 0
0 0 0
0 0 0
0 0 0
0 0 0
0 0 0
0 0 0
0 0 0
0 0 0
0 0 0
0 0 0
0 0 0
0 0 0
0 0 0
0 0 0
0 0 0
0 0 0
0 0 0
0 0 0
0 0 0
0 0 0
0 0 0
0 0 0
0 0 0
0 0 0
0 0 0
0 0 0
0 0 0
0 0 0
0 0 0
0 0 0
0 0 0
0 0 0
0 0 0
201 150 101
202 150 101
202 150 101
202 150 101
203 151 101
203 151 102
203 151 102
204 151 102
204 152 102
204 152 102
205 152 103
205 152 103
205 153 103
205 153 103
206 153 104
206 154 104
206 154 104
207 154 105
207 155 105
207 155 106
208 155 106
208 156 107
209 156 108
209 157 108
209 157 109
210 158 110
210 159 111
211 159 112
212 160 113
212 161 114
213 162 115
213 163 117
214 163 118
215 165 120
216 166 121
217 167 123
217 168 125
218 169 126
219 170 128
220 172 130
221 173 132
222 174 134
223 176 136
224 177 138
225 179 140
226 180 142
227 181 144
228 183 145
229 184 147
230 185 149
231 186 150
232 187 151
232 188 153
233 189 154
234 190 155
234 191 157
235 192 158
236 193 159
236 194 160
237 194 161
237 195 162
237 195 162
238 196 163
238 196 164
238 197 164
238 197 165
239 197 165
239 197 165
239 197 165
238 197 165
238 197 165
238 197 165
238 197 165
237 196 164
237 196 164
236 195 163
236 195 162
235 194 161
235 193 161
234 192 160
233 191 159
232 190 157
231 189 156
230 188 155
229 187 154
228 186 152
227 185 151
226 184 149
225 182 148
224 181 146
223 180 144
222 178 143
221 177 141
220 176 139
218 174 138
217 173 136
216 172 134
215 170 133
214 169 131
213 167 129
212 166 127
210 165 126
209 163 124
208 162 122
207 161 121
206 160 119
205 158 118
204 157 116
203 156 115
202 155 113
201 154 112
200 153 111
199 152 109
199 151 108
198 150 107
197 149 106
196 148 105
195 148 104
195 147 103
194 146 102
193 145 101
192 145 100
192 144 100
191 143 99
190 143 98
190 142 98
189 141 97
188 141 96
188 140 96
187 140 95
187 139 95
186 139 94
185 138 94
185 138 94
184 137 93
184 137 93
183 136 92
182 136 92
182 135 92
181 135 91
181 134 91
180 134 91
179 134 90
179 133 90
178 133 90
177 132 89
177 131 89
176 131 89
175 130 88
174 130 88
174 129 87
173 129 87
172 128 87
171 127 86
170 127 86
169 126 85
169 126 85
168 125 85
167 124 84
166 124 84
165 123 83
164 122 83
163 122 82
162 121 82
161 120 82
160 120 81
159 119 81
158 118 80
157 117 80
156 117 79
155 116 79
154 115 78
153 114 78
152 113 77
151 113 77
149 112 76
148 111 76
147 110 75
146 109 75
145 108 74
144 108 73
142 107 73
141 106 72
140 105 72
139 104 71
137 103 71
136 102 70
135 101 69
133 100 69
132 99 68
130 98 68
129 97 67
0 0 0
0 0 0
0 0 0
0 0 0
0 0 0
0 0 0
0 0 0
0 0 0
0 0 0
0 0 0
0 0 0
0 0 0
0 0 0
0 0 0
0 0 0
0 0 0
0 0 0
0 0 0
0 0 0
0 0 0
0 0 0
0 0 0
0 0 0
0 0 0
0 0 0
0 0 0
0 0 0
0 0 0
0 0 0
0 0 0
0 0 0
0 0 0
0 0 0
0 0 0
0 0 0
0 0 0
0 0 0
0 0 0
0 0 0
0 0 0
0 0 0
0 0 0
0 0 0
0 0 0
0 0 0
0 0 0
0 0 0
0 0 0
0 0 0
0 0 0
0 0 0
0 0 0
0 0 0
0 0 0
0 0 0
0 0 0
0 0 0
0 0 0
0 0 0
0 0 0
0 0 0
0 0 0
0 0 0
0 0 0
201 150 101
202 150 101
202 150 101
202 150 101
203 151 101
203 151 102
203 151 102
204 151 102
204 152 102
204 152 102
204 152 103
205 152 103
205 153 103
205 153 103
206 153 104
206 153 104
206 154 104
207 154 105
207 155 105
207 155 106
208 155 106
208 156 107
209 156 108
209 157 108
209 157 109
210 158 110
210 159 111
211 159 112
212 160 113
212 161 114
213 162 116
214 163 117
214 164 118
215 165 120
216 166 121
217 167 123
218 168 125
218 169 127
219 171 128
220 172 130
221 173 132
222 175 134
223 176 136
224 177 138
225 179 140
226 180 142
227 182 144
228 183 146
229 184 148
230 185 149
231 187 151
232 188 152
232 189 153
233 190 155
234 191 156
235 191 157
235 192 158
236 193 159
236 194 160
237 195 161
237 195 162
238 196 163
238 196 164
238 197 164
239 197 165
239 197 165
239 198 165
239 198 166
239 198 166
239 198 166
238 197 166
238 197 165
238 197 165
238 197 165
237 196 164
237 196 163
236 195 163
235 194 162
235 193 161
234 193 160
233 192 159
232 191 158
231 190 157
230 189 155
230 187 154
228 186 153
227 185 151
226 184 150
225 182 148
224 181 146
223 180 145
222 178 143
221 177 141
220 176 140
218 174 138
217 173 136
216 172 134
215 170 133
214 169 131
213 167 129
212 166 128
210 165 126
209 163 124
208 162 122
207 161 121
206 160 119
205 158 118
204 157 116
203 156 115
202 155 113
201 154 112
200 153 111
199 152 109
198 151 108
198 150 107
197 149 106
196 148 105
195 147 104
194 147 103
194 146 102
193 145 101
192 144 100
192 144 100
191 143 99
190 143 98
190 142 98
189 141 97
188 141 96
188 140 96
187 140 95
186 139 95
186 139 94
185 138 94
185 138 94
184 137 93
183 137 93
183 136 92
182 136 92
182 135 92
181 135 91
180 134 91
180 134 91
179 133 90
179 133 90
178 132 90
177 132 89
176 131 89
176 131 88
175 130 88
174 130 88
173 129 87
173 129 87
172 128 87
171 127 86
170 127 86
169 126 85
168 126 85
168 125 85
167 124 84
166 124 84
165 123 83
164 122 83
163 122 82
162 121 82
161 120 82
160 119 81
159 119 81
158 118 80
157 117 80
156 116 79
155 116 79
154 115 78
153 114 78
152 113 77
151 113 77
149 112 76
148 111 76
147 110 75
146 109 74
145 108 74
143 107 73
142 107 73
141 106 72
140 105 72
138 104 71
137 103 71
136 102 70
134 101 69
133 100 69
132 99 68
130 98 67
129 97 67
0 0 0
0 0 0
0 0 0
0 0 0
0 0 0
0 0 0
0 0 0
0 0 0
0 0 0
0 0 0
0 0 0
0 0 0
0 0 0
0 0 0
0 0 0
0 0 0
0 0 0
0 0 0
0 0 0
0 0 0
0 0 0
0 0 0
0 0 0
0 0 0
0 0 0
0 0 0
0 0 0
0 0 0
0 0 0
0 0 0
0 0 0
0 0 0
0 0 0
0 0 0
0 0 0
0 0 0
0 0 0
0 0 0
0 0 0
0 0 0
0 0 0
0 0 0
0 0 0
0 0 0
0 0 0
0 0 0
0 0 0
0 0 0
0 0 0
0 0 0
0 0 0
0 0 0
0 0 0
0 0 0
0 0 0
0 0 0
0 0 0
0 0 0
0 0 0
0 0 0
0 0 0
0 0 0
0 0 0
0 0 0
201 149 101
202 150 101
202 150 101
202 150 101
203 150 101
203 151 102
203 151 102
203 151 102
204 151 102
204 152 102
204 152 103
205 152 103
205 153 103
205 153 103
206 153 104
206 153 104
206 154 104
207 154 105
207 154 105
207 155 106
208 155 106
208 156 107
208 156 108
209 157 108
209 157 109
210 158 110
210 159 111
211 159 112
212 160 113
212 161 114
213 162 116
214 163 117
214 164 119
215 165 120
216 166 122
217 167 123
218 168 125
218 169 127
219 171 129
220 172 131
221 173 133
222 175 134
223 176 136
224 178 138
225 179 140
226 180 142
227 182 144
228 183 146
229 184 148
230 186 149
231 187 151
232 188 152
233 189 154
233 190 155
234 191 156
235 192 157
235 193 159
236 193 160
236 194 161
237 195 162
237 196 163
238 196 163
238 197 164
238 197 165
239 197 165
239 198 165
239 198 166
239 198 166
239 198 166
239 198 166
239 198 166
238 198 166
238 197 165
238 197 165
237 196 164
237 196 164
236 195 163
236 194 162
235 194 161
234 193 160
233 192 159
232 191 158
231 190 157
231 189 156
230 188 154
229 186 153
228 185 151
226 184 150
225 183 148
224 181 147
223 180 145
222 179 143
221 177 142
220 176 140
218 174 138
217 173 136
216 172 135
215 170 133
214 169 131
213 168 129
211 166 128
210 165 126
209 163 124
208 162 123
207 161 121
206 160 119
205 158 118
204 157 116
203 156 115
202 155 113
201 154 112
200 153 111
199 152 109
198 151 108
197 150 107
197 149 106
196 148 105
195 147 104
194 147 103
194 146 102
193 145 101
192 144 100
191 144 100
191 143 99
190 142 98
189 142 97
189 141 97
188 141 96
187 140 96
187 140 95
186 139 95
186 139 94
185 138 94
184 138 93
184 137 93
183 137 93
183 136 92
182 136 92
181 135 92
181 135 91
180 134 91
180 134 91
179 133 90
178 133 90
178 132 90
177 132 89
176 131 89
176 131 88
175 130 88
174 130 88
173 129 87
172 128 87
172 128 87
171 127 86
170 127 86
169 126 85
168 125 85
167 125 84
167 124 84
166 123 84
165 123 83
164 122 83
163 121 82
162 121 82
161 120 81
160 119 81
159 119 80
158 118 80
157 117 80
156 116 79
155 116 79
154 115 78
153 114 78
151 113 77
150 112 77
149 112 76
148 111 75
147 110 75
146 109 74
144 108 74
143 107 73
142 106 73
141 105 72
139 105 72
138 104 71
137 103 70
136 102 70
134 101 69
133 100 69
131 99 68
130 98 67
129 97 67
0 0 0
0 0 0
0 0 0
0 0 0
0 0 0
0 0 0
0 0 0
0 0 0
0 0 0
0 0 0
0 0 0
0 0 0
0 0 0
0 0 0
0 0 0
0 0 0
0 0 0
0 0 0
0 0 0
0 0 0
0 0 0
0 0 0
0 0 0
0 0 0
0 0 0
0 0 0
0 0 0
0 0 0
0 0 0
0 0 0
0 0 0
0 0 0
0 0 0
0 0 0
0 0 0
0 0 0
0 0 0
0 0 0
0 0 0
0 0 0
0 0 0
0 0 0
0 0 0
0 0 0
0 0 0
0 0 0
0 0 0
0 0 0
0 0 0
0 0 0
0 0 0
0 0 0
0 0 0
0 0 0
0 0 0
0 0 0
0 0 0
0 0 0
0 0 0
0 0 0
0 0 0
0 0 0
0 0 0
0 0 0
201 149 101
201 150 101
202 150 101
202 150 101
202 150 101
203 151 102
203 151 102
203 151 102
204 151 102
204 152 102
204 152 103
205 152 103
205 152 103
205 153 103
206 153 104
206 153 104
206 154 104
206 154 105
207 154 105
207 155 106
208 155 106
208 156 107
208 156 108
209 157 108
209 157 109
210 158 110
210 159 111
211 159 112
211 160 113
212 161 115
213 162 116
213 163 117
214 164 119
215 165 120
216 166 122
217 167 124
218 168 125
218 169 127
219 171 129
220 172 131
221 173 133
222 175 135
223 176 137
224 178 139
225 179 141
226 181 143
228 182 144
229 183 146
229 185 148
230 186 150
231 187 151
232 188 152
233 189 154
233 190 155
234 191 156
235 192 158
235 193 159
236 194 160
237 194 161
237 195 162
238 196 163
238 196 164
238 197 164
239 197 165
239 198 165
239 198 166
239 198 166
239 198 166
239 198 166
239 198 166
239 198 166
238 198 166
238 197 166
238 197 165
237 197 165
237 196 164
236 195 163
236 195 163
235 194 162
234 193 161
233 192 160
232 191 158
232 190 157
231 189 156
230 188 154
229 187 153
227 185 151
226 184 150
225 183 148
224 181 147
223 180 145
222 179 143
221 177 142
220 176 140
218 174 138
217 173 136
216 172 135
215 170 133
214 169 131
213 167 129
211 166 128
210 165 126
209 163 124
208 162 123
207 161 121
206 160 119
205 158 118
204 157 116
203 156 115
202 155 113
201 154 112
200 153 111
199 152 109
198 151 108
197 150 107
197 149 106
196 148 105
195 147 104
194 146 103
193 146 102
193 145 101
192 144 100
191 144 99
191 143 99
190 142 98
189 142 97
189 141 97
188 141 96
187 140 96
187 139 95
186 139 95
185 138 94
185 138 94
184 137 93
184 137 93
183 136 93
182 136 92
182 135 92
181 135 91
181 135 91
180 134 91
179 134 90
179 133 90
178 133 90
178 132 89
177 132 89
176 131 89
175 131 88
175 130 88
174 129 88
173 129 87
172 128 87
171 128 86
171 127 86
170 127 86
169 126 85
168 125 85
167 125 84
166 124 84
165 123 84
164 123 83
164 122 83
163 121 82
162 121 82
161 120 81
160 119 81
159 118 80
158 118 80
157 117 79
156 116 79
154 115 78
153 115 78
152 114 77
151 113 77
150 112 76
149 111 76
148 111 75
147 110 75
145 109 74
144 108 74
143 107 73
142 106 73
140 105 72
139 104 71
138 103 71
137 102 70
135 102 70
134 101 69
133 100 68
131 99 68
130 98 67
128 97 67
0 0 0
0 0 0
0 0 0
0 0 0
0 0 0
0 0 0
0 0 0
0 0 0
0 0 0
0 0 0
0 0 0
0 0 0
0 0 0
0 0 0
0 0 0
0 0 0
0 0 0
0 0 0
0 0 0
0 0 0
0 0 0
0 0 0
0 0 0
0 0 0
0 0 0
0 0 0
0 0 0
0 0 0
0 0 0
0 0 0
0 0 0
0 0 0
0 0 0
0 0 0
0 0 0
0 0 0
0 0 0
0 0 0
0 0 0
0 0 0
0 0 0
0 0 0
0 0 0
0 0 0
0 0 0
0 0 0
0 0 0
0 0 0
0 0 0
0 0 0
0 0 0
0 0 0
0 0 0
0 0 0
0 0 0
0 0 0
0 0 0
0 0 0
0 0 0
0 0 0
0 0 0
0 0 0
0 0 0
0 0 0
201 149 101
201 150 101
202 150 101
202 150 101
202 150 101
203 151 101
203 151 102
203 151 102
204 151 102
204 152 102
204 152 103
204 152 103
205 152 103
205 153 103
205 153 104
206 153 104
206 154 104
206 154 105
207 154 105
207 155 106
207 155 106
208 156 107
208 156 108
209 157 108
209 157 109
210 158 110
210 159 111
211 159 112
211 160 113
212 161 115
213 162 116
213 163 117
214 164 119
215 165 120
216 166 122
217 167 124
217 168 125
218 170 127
219 171 129
220 172 131
221 174 133
222 175 135
223 176 137
224 178 139
225 179 141
226 181 143
227 182 145
228 183 146
229 185 148
230 186 150
231 187 151
232 188 153
233 189 154
233 190 155
234 191 157
235 192 158
235 193 159
236 194 160
237 194 161
237 195 162
238 196 163
238 196 164
238 197 164
239 197 165
239 198 166
239 198 166
239 198 166
239 198 166
239 198 167
239 198 167
239 198 166
238 198 166
238 197 166
238 197 165
237 197 165
237 196 164
236 195 163
236 195 163
235 194 162
234 193 161
233 192 160
232 191 158
231 190 157
231 189 156
230 188 154
229 187 153
227 185 152
226 184 150
225 183 148
224 181 147
223 180 145
222 179 143
221 177 142
219 176 140
218 174 138
217 173 136
216 172 135
215 170 133
214 169 131
212 167 129
211 166 128
210 165 126
209 163 124
208 162 123
207 161 121
206 160 119
205 158 118
204 157 116
203 156 115
202 155 113
201 154 112
200 153 111
199 152 109
198 151 108
197 150 107
196 149 106
196 148 105
195 147 104
194 146 103
193 146 102
192 145 101
192 144 100
191 143 99
190 143 99
190 142 98
189 142 97
188 141 97
188 140 96
187 140 96
187 139 95
186 139 95
185 138 94
185 138 94
184 137 93
183 137 93
183 136 92
182 136 92
182 135 92
181 135 91
180 134 91
180 134 91
179 133 90
179 133 90
178 133 90
177 132 89
177 132 89
176 131 89
175 130 88
174 130 88
174 129 87
173 129 87
172 128 87
171 128 86
170 127 86
170 126 86
169 126 85
168 125 85
167 124 84
166 124 84
165 123 83
164 122 83
163 122 83
162 121 82
161 120 82
160 120 81
159 119 81
158 118 80
157 118 80
156 117 79
155 116 79
154 115 78
153 114 78
152 114 77
151 113 77
150 112 76
149 111 76
147 110 75
146 109 75
145 109 74
144 108 74
143 107 73
141 106 72
140 105 72
139 104 71
138 103 71
136 102 70
135 101 70
134 100 69
132 99 68
131 98 68
130 97 67
128 97 67
0 0 0
0 0 0
0 0 0
0 0 0
0 0 0
0 0 0
0 0 0
0 0 0
0 0 0
0 0 0
0 0 0
0 0 0
0 0 0
0 0 0
0 0 0
0 0 0
0 0 0
0 0 0
0 0 0
0 0 0
0 0 0
0 0 0
0 0 0
0 0 0
0 0 0
0 0 0
0 0 0
0 0 0
0 0 0
0 0 0
0 0 0
0 0 0
0 0 0
0 0 0
0 0 0
0 0 0
0 0 0
0 0 0
0 0 0
0 0 0
0 0 0
0 0 0
0 0 0
0 0 0
0 0 0
0 0 0
0 0 0
0 0 0
0 0 0
0 0 0
0 0 0
0 0 0
0 0 0
0 0 0
0 0 0
0 0 0
0 0 0
0 0 0
0 0 0
0 0 0
0 0 0
0 0 0
0 0 0
0 0 0
201 149 101
201 150 101
202 150 101
202 150 101
202 150 101
202 151 101
203 151 102
203 151 102
203 151 102
204 152 102
204 152 103
204 152 103
205 152 103
205 153 103
205 153 104
206 153 104
206 154 104
206 154 105
207 154 105
207 155 106
207 155 106
208 156 107
208 156 108
209 157 108
209 157 109
210 158 110
210 159 111
211 159 112
211 160 113
212 161 115
213 162 116
213 163 117
214 164 119
215 165 120
216 166 122
217 167 124
217 168 125
218 170 127
219 171 129
220 172 131
221 174 133
222 175 135
223 176 137
224 178 139
225 179 141
226 181 143
227 182 145
228 183 147
229 185 148
230 186 150
231 187 151
232 188 153
233 189 154
233 190 155
234 191 157
235 192 158
235 193 159
236 194 160
237 194 161
237 195 162
238 196 163
238 196 164
238 197 165
239 197 165
239 198 166
239 198 166
239 198 166
239 198 167
239 198 167
239 198 167
239 198 166
238 198 166
238 197 166
238 197 165
237 197 165
237 196 164
236 195 164
235 195 163
235 194 162
234 193 161
233 192 160
232 191 158
231 190 157
230 189 156
229 188 155
228 186 153
227 185 152
226 184 150
225 183 148
224 181 147
223 180 145
222 179 143
220 177 142
219 176 140
218 174 138
217 173 136
216 171 135
215 170 133
213 169 131
212 167 129
211 166 128
210 165 126
209 163 124
208 162 123
207 161 121
206 159 119
205 158 118
204 157 116
203 156 115
202 155 113
201 154 112
200 153 111
199 152 109
198 151 108
197 150 107
196 149 106
195 148 105
195 147 104
194 146 103
193 145 102
192 145 101
192 144 100
191 143 99
190 143 99
190 142 98
189 141 97
188 141 97
188 140 96
187 140 96
186 139 95
186 139 95
185 138 94
184 138 94
184 137 93
183 137 93
183 136 92
182 136 92
181 135 92
181 135 91
180 134 91
180 134 91
179 133 90
178 133 90
178 132 90
177 132 89
176 131 89
176 131 89
175 130 88
174 130 88
173 129 87
173 129 87
172 128 87
171 127 86
170 127 86
169 126 85
169 126 85
168 125 85
167 124 84
166 124 84
165 123 83
164 122 83
163 122 82
162 121 82
161 120 82
160 120 81
159 119 81
158 118 80
157 117 80
156 117 79
155 116 79
154 115 78
153 114 78
152 113 77
151 113 77
150 112 76
148 111 76
147 110 75
146 109 75
145 108 74
144 108 73
142 107 73
141 106 72
140 105 72
139 104 71
137 103 71
136 102 70
135 101 69
133 100 69
132 99 68
131 98 68
129 97 67
128 96 66
0 0 0
0 0 0
0 0 0
0 0 0
0 0 0
0 0 0
0 0 0
0 0 0
0 0 0
0 0 0
0 0 0
0 0 0
0 0 0
0 0 0
0 0 0
0 0 0
0 0 0
0 0 0
0 0 0
0 0 0
0 0 0
0 0 0
0 0 0
0 0 0
0 0 0
0 0 0
0 0 0
0 0 0
0 0 0
0 0 0
0 0 0
0 0 0
0 0 0
0 0 0
0 0 0
0 0 0
0 0 0
0 0 0
0 0 0
0 0 0
0 0 0
0 0 0
0 0 0
0 0 0
0 0 0
0 0 0
0 0 0
0 0 0
0 0 0
0 0 0
0 0 0
0 0 0
0 0 0
0 0 0
0 0 0
0 0 0
0 0 0
0 0 0
0 0 0
0 0 0
0 0 0
0 0 0
0 0 0
0 0 0
201 149 100
201 149 101
201 150 101
202 150 101
202 150 101
202 150 101
203 151 102
203 151 102
203 151 102
204 151 102
204 152 102
204 152 103
205 152 103
205 153 103
205 153 104
205 153 104
206 153 104
206 154 105
207 154 105
207 155 106
207 155 106
208 155 107
208 156 108
209 157 108
209 157 109
210 158 110
210 158 111
211 159 112
211 160 113
212 161 115
213 162 116
213 163 117
214 164 119
215 165 120
216 166 122
216 167 124
217 168 126
218 170 127
219 171 129
220 172 131
221 174 133
222 175 135
223 176 137
224 178 139
225 179 141
226 181 143
227 182 145
228 183 147
229 185 148
230 186 150
231 187 151
232 188 153
232 189 154
233 190 155
234 191 157
235 192 158
235 193 159
236 194 160
236 194 161
237 195 162
237 196 163
238 196 164
238 197 165
238 197 165
239 198 166
239 198 166
239 198 166
239 198 166
239 198 167
239 198 167
239 198 166
238 198 166
238 197 166
238 197 165
237 197 165
237 196 164
236 195 163
235 195 163
235 194 162
234 193 161
233 192 160
232 191 158
231 190 157
230 189 156
229 188 154
228 186 153
227 185 151
226 184 150
225 182 148
224 181 147
223 180 145
221 178 143
220 177 142
219 176 140
218 174 138
217 173 136
216 171 134
214 170 133
213 169 131
212 167 129
211 166 128
210 164 126
209 163 124
208 162 122
207 161 121
205 159 119
204 158 118
203 157 116
202 156 115
201 155 113
200 154 112
200 152 110
199 151 109
198 150 108
197 150 107
196 149 106
195 148 105
194 147 104
194 146 103
193 145 102
192 145 101
191 144 100
191 143 99
190 143 98
189 142 98
189 141 97
188 141 97
187 140 96
187 140 95
186 139 95
186 139 94
185 138 94
184 137 94
184 137 93
183 136 93
182 136 92
182 136 92
181 135 92
181 135 91
180 134 91
179 134 90
179 133 90
178 133 90
178 132 90
177 132 89
176 131 89
175 131 88
175 130 88
174 130 88
173 129 87
172 128 87
172 128 87
171 127 86
170 127 86
169 126 85
168 125 85
167 125 84
167 124 84
166 123 84
165 123 83
164 122 83
163 121 82
162 121 82
161 120 81
160 119 81
159 119 81
158 118 80
157 117 80
156 116 79
155 116 79
154 115 78
153 114 78
152 113 77
150 112 77
149 112 76
148 111 76
147 110 75
146 109 74
145 108 74
143 107 73
142 106 73
141 106 72
140 105 72
138 104 71
137 103 70
136 102 70
134 101 69
133 100 69
132 99 68
130 98 67
129 97 67
128 96 66
0 0 0
0 0 0
0 0 0
0 0 0
0 0 0
0 0 0
0 0 0
0 0 0
0 0 0
0 0 0
0 0 0
0 0 0
0 0 0
0 0 0
0 0 0
0 0 0
0 0 0
0 0 0
0 0 0
0 0 0
0 0 0
0 0 0
0 0 0
0 0 0
0 0 0
0 0 0
0 0 0
0 0 0
0 0 0
0 0 0
0 0 0
0 0 0
0 0 0
0 0 0
0 0 0
0 0 0
0 0 0
0 0 0
0 0 0
0 0 0
0 0 0
0 0 0
0 0 0
0 0 0
0 0 0
0 0 0
0 0 0
0 0 0
0 0 0
0 0 0
0 0 0
0 0 0
0 0 0
0 0 0
0 0 0
0 0 0
0 0 0
0 0 0
0 0 0
0 0 0
0 0 0
0 0 0
0 0 0
0 0 0
201 149 100
201 149 101
201 150 101
202 150 101
202 150 101
202 150 101
203 151 102
203 151 102
203 151 102
203 151 102
204 152 102
204 152 103
204 152 103
205 152 103
205 153 104
205 153 104
206 153 104
206 154 105
206 154 105
207 155 106
207 155 106
208 155 107
208 156 108
208 156 108
209 157 109
209 158 110
210 158 111
211 159 112
211 160 113
212 161 115
212 162 116
213 163 117
214 164 119
215 165 120
215 166 122
216 167 124
217 168 126
218 169 127
219 171 129
220 172 131
221 173 133
222 175 135
223 176 137
224 178 139
225 179 141
226 180 143
227 182 145
228 183 146
229 184 148
230 186 150
231 187 151
232 188 153
232 189 154
233 190 155
234 191 157
234 192 158
235 193 159
236 193 160
236 194 161
237 195 162
237 196 163
238 196 164
238 197 164
238 197 165
238 197 166
239 198 166
239 198 166
239 198 166
239 198 166
239 198 166
238 198 166
238 198 166
238 197 166
237 197 165
237 196 165
236 196 164
236 195 163
235 194 163
234 194 162
234 193 161
233 192 159
232 191 158
231 190 157
230 189 156
229 187 154
228 186 153
227 185 151
226 184 150
225 182 148
224 181 146
222 180 145
221 178 143
220 177 141
219 175 140
218 174 138
217 173 136
215 171 134
214 170 133
213 168 131
212 167 129
211 166 127
210 164 126
208 163 124
207 162 122
206 160 121
205 159 119
204 158 117
203 157 116
202 156 114
201 154 113
200 153 112
199 152 110
198 151 109
198 150 108
197 149 107
196 148 106
195 148 104
194 147 103
193 146 102
193 145 102
192 144 101
191 144 100
191 143 99
190 142 98
189 142 98
188 141 97
188 141 96
187 140 96
187 139 95
186 139 95
185 138 94
185 138 94
184 137 93
183 137 93
183 136 93
182 136 92
182 135 92
181 135 91
180 134 91
180 134 91
179 134 90
179 133 90
178 133 90
177 132 89
177 132 89
176 131 89
175 131 88
175 130 88
174 129 88
173 129 87
172 128 87
171 128 86
171 127 86
170 126 86
169 126 85
168 125 85
167 125 84
166 124 84
165 123 84
165 123 83
164 122 83
163 121 82
162 121 82
161 120 81
160 119 81
159 118 80
158 118 80
157 117 79
156 116 79
155 115 78
153 115 78
152 114 77
151 113 77
150 112 76
149 111 76
148 111 75
147 110 75
145 109 74
144 108 74
143 107 73
142 106 73
141 105 72
139 104 71
138 104 71
137 103 70
135 102 70
134 101 69
133 100 69
131 99 68
130 98 67
129 97 67
127 96 66
0 0 0
0 0 0
0 0 0
0 0 0
0 0 0
0 0 0
0 0 0
0 0 0
0 0 0
0 0 0
0 0 0
0 0 0
0 0 0
0 0 0
0 0 0
0 0 0
0 0 0
0 0 0
0 0 0
0 0 0
0 0 0
0 0 0
0 0 0
0 0 0
0 0 0
0 0 0
0 0 0
0 0 0
0 0 0
0 0 0
0 0 0
0 0 0
0 0 0
0 0 0
0 0 0
0 0 0
0 0 0
0 0 0
0 0 0
0 0 0
0 0 0
0 0 0
0 0 0
0 0 0
0 0 0
0 0 0
0 0 0
0 0 0
0 0 0
0 0 0
0 0 0
0 0 0
0 0 0
0 0 0
0 0 0
0 0 0
0 0 0
0 0 0
0 0 0
0 0 0
0 0 0
0 0 0
0 0 0
0 0 0
200 149 100
201 149 101
201 149 101
201 150 101
202 150 101
202 150 101
202 150 101
203 151 102
203 151 102
203 151 102
204 151 102
204 152 103
204 152 103
205 152 103
205 153 103
205 153 104
206 153 104
206 154 105
206 154 105
207 154 106
207 155 106
207 155 107
208 156 108
208 156 108
209 157 109
209 158 110
210 158 111
210 159 112
211 160 113
212 161 115
212 162 116
213 163 117
214 164 119
215 165 120
215 166 122
216 167 124
217 168 125
218 169 127
219 171 129
220 172 131
221 173 133
222 175 135
223 176 137
224 177 139
225 179 141
226 180 143
227 182 144
228 183 146
229 184 148
230 185 149
231 187 151
231 188 152
232 189 154
233 190 155
234 191 156
234 192 158
235 192 159
235 193 160
236 194 161
237 195 162
237 195 163
237 196 164
238 196 164
238 197 165
238 197 165
238 198 166
238 198 166
238 198 166
238 198 166
238 198 166
238 198 166
238 197 166
238 197 165
237 197 165
237 196 165
236 196 164
236 195 163
235 194 162
234 193 161
233 192 160
233 192 159
232 191 158
231 189 157
230 188 155
229 187 154
228 186 153
227 185 151
226 183 149
224 182 148
223 181 146
222 179 145
221 178 143
220 177 141
219 175 139
217 174 138
216 172 136
215 171 134
214 170 132
213 168 131
212 167 129
211 165 127
209 164 125
208 163 124
207 161 122
206 160 120
205 159 119
204 158 117
203 157 116
202 155 114
201 154 113
200 153 111
199 152 110
198 151 109
197 150 108
196 149 106
196 148 105
195 147 104
194 147 103
193 146 102
192 145 101
192 144 101
191 144 100
190 143 99
190 142 98
189 142 98
188 141 97
188 140 96
187 140 96
186 139 95
186 139 95
185 138 94
184 138 94
184 137 93
183 137 93
183 136 92
182 136 92
181 135 92
181 135 91
180 134 91
180 134 91
179 133 90
178 133 90
178 132 90
177 132 89
177 131 89
176 131 89
175 130 88
174 130 88
174 129 87
173 129 87
172 128 87
171 128 86
170 127 86
170 126 86
169 126 85
168 125 85
167 124 84
166 124 84
165 123 83
164 122 83
163 122 83
162 121 82
161 120 82
160 120 81
159 119 81
158 118 80
157 118 80
156 117 79
155 116 79
154 115 78
153 114 78
152 114 77
151 113 77
150 112 76
149 111 76
148 110 75
146 110 75
145 109 74
144 108 74
143 107 73
141 106 72
140 105 72
139 104 71
138 103 71
136 102 70
135 101 70
134 101 69
133 100 68
131 99 68
130 98 67
128 97 67
127 96 66
0 0 0
0 0 0
0 0 0
0 0 0
0 0 0
0 0 0
0 0 0
0 0 0
0 0 0
0 0 0
0 0 0
0 0 0
0 0 0
0 0 0
0 0 0
0 0 0
0 0 0
0 0 0
0 0 0
0 0 0
0 0 0
0 0 0
0 0 0
0 0 0
0 0 0
0 0 0
0 0 0
0 0 0
0 0 0
0 0 0
0 0 0
0 0 0
0 0 0
0 0 0
0 0 0
0 0 0
0 0 0
0 0 0
0 0 0
0 0 0
0 0 0
0 0 0
0 0 0
0 0 0
0 0 0
0 0 0
0 0 0
0 0 0
0 0 0
0 0 0
0 0 0
0 0 0
0 0 0
0 0 0
0 0 0
0 0 0
0 0 0
0 0 0
0 0 0
0 0 0
0 0 0
0 0 0
0 0 0
0 0 0
200 149 100
201 149 100
201 149 101
201 150 101
202 150 101
202 150 101
202 150 101
203 151 102
203 151 102
203 151 102
204 151 102
204 152 103
204 152 103
204 152 103
205 153 103
205 153 104
205 153 104
206 154 105
206 154 105
206 154 106
207 155 106
207 155 107
208 156 108
208 156 108
209 157 109
209 158 110
210 158 111
210 159 112
211 160 113
211 161 115
212 161 116
213 162 117
214 163 119
214 164 120
215 166 122
216 167 124
217 168 125
218 169 127
219 171 129
220 172 131
221 173 133
222 175 135
223 176 137
224 177 139
225 179 140
226 180 142
227 181 144
228 183 146
229 184 148
229 185 149
230 186 151
231 187 152
232 188 154
233 189 155
233 190 156
234 191 157
235 192 159
235 193 160
236 194 161
236 194 162
237 195 162
237 196 163
237 196 164
238 197 165
238 197 165
238 197 165
238 197 166
238 197 166
238 198 166
238 197 166
238 197 166
238 197 166
237 197 165
237 196 165
236 196 164
236 195 164
235 195 163
235 194 162
234 193 161
233 192 160
232 191 159
231 190 158
230 189 156
229 188 155
228 187 154
227 186 152
226 184 151
225 183 149
224 182 148
223 180 146
222 179 144
221 178 143
220 176 141
218 175 139
217 173 137
216 172 136
215 171 134
214 169 132
213 168 130
211 167 129
210 165 127
209 164 125
208 163 124
207 161 122
206 160 120
205 159 119
204 158 117
203 156 116
202 155 114
201 154 113
200 153 111
199 152 110
198 151 109
197 150 107
196 149 106
195 148 105
195 147 104
194 146 103
193 146 102
192 145 101
192 144 100
191 143 100
190 143 99
189 142 98
189 141 97
188 141 97
187 140 96
187 140 96
186 139 95
186 139 95
185 138 94
184 138 94
184 137 93
183 137 93
182 136 92
182 136 92
181 135 92
181 135 91
180 134 91
179 134 91
179 133 90
178 133 90
178 132 90
177 132 89
176 131 89
176 131 88
175 130 88
174 130 88
173 129 87
173 129 87
172 128 87
171 127 86
170 127 86
169 126 85
168 126 85
168 125 85
167 124 84
166 124 84
165 123 83
164 122 83
163 122 82
162 121 82
161 120 82
160 120 81
159 119 81
158 118 80
157 117 80
156 117 79
155 116 79
154 115 78
153 114 78
152 113 77
151 113 77
150 112 76
148 111 76
147 110 75
146 109 75
145 108 74
144 108 73
142 107 73
141 106 72
140 105 72
139 104 71
137 103 71
136 102 70
135 101 69
134 100 69
132 99 68
131 98 68
130 97 67
128 96 66
127 95 66
0 0 0
0 0 0
0 0 0
0 0 0
0 0 0
0 0 0
0 0 0
0 0 0
0 0 0
0 0 0
0 0 0
0 0 0
0 0 0
0 0 0
0 0 0
0 0 0
0 0 0
0 0 0
0 0 0
0 0 0
0 0 0
0 0 0
0 0 0
0 0 0
0 0 0
0 0 0
0 0 0
0 0 0
0 0 0
0 0 0
0 0 0
0 0 0
0 0 0
0 0 0
0 0 0
0 0 0
0 0 0
0 0 0
0 0 0
0 0 0
0 0 0
0 0 0
0 0 0
0 0 0
0 0 0
0 0 0
0 0 0
0 0 0
0 0 0
0 0 0
0 0 0
0 0 0
0 0 0
0 0 0
0 0 0
0 0 0
0 0 0
0 0 0
0 0 0
0 0 0
0 0 0
0 0 0
0 0 0
0 0 0
200 149 100
201 149 100
201 149 101
201 150 101
202 150 101
202 150 101
202 150 101
202 151 102
203 151 102
203 151 102
203 151 102
204 152 102
204 152 103
204 152 103
205 152 103
205 153 104
205 153 104
206 153 105
206 154 105
206 154 106
207 155 106
207 155 107
208 156 107
208 156 108
208 157 109
209 157 110
210 158 111
210 159 112
211 160 113
211 160 114
212 161 116
213 162 117
213 163 119
214 164 120
215 165 122
216 167 123
217 168 125
218 169 127
219 170 129
219 172 131
220 173 133
221 174 134
222 176 136
223 177 138
224 178 140
225 180 142
226 181 144
227 183 146
228 184 147
229 185 149
230 186 150
231 187 152
232 188 153
232 189 155
233 190 156
234 191 157
234 192 158
235 193 159
235 193 160
236 194 161
236 195 162
237 195 163
237 196 164
237 196 164
238 197 165
238 197 165
238 197 165
238 197 165
238 197 165
238 197 165
237 197 165
237 197 165
237 196 165
236 196 164
236 195 164
235 195 163
235 194 162
234 193 161
233 193 161
233 192 160
232 191 158
231 190 157
230 189 156
229 188 155
228 186 153
227 185 152
226 184 150
225 183 149
224 181 147
223 180 145
222 179 144
220 177 142
219 176 140
218 174 139
217 173 137
216 172 135
214 170 133
213 169 132
212 168 130
211 166 128
210 165 127
209 164 125
208 162 123
207 161 122
206 160 120
204 158 118
203 157 117
202 156 115
201 155 114
200 154 112
200 153 111
199 152 110
198 151 109
197 150 107
196 149 106
195 148 105
194 147 104
194 146 103
193 145 102
192 145 101
191 144 100
191 143 99
190 143 99
189 142 98
189 141 97
188 141 97
187 140 96
187 140 96
186 139 95
185 138 94
185 138 94
184 137 94
183 137 93
183 136 93
182 136 92
182 135 92
181 135 91
180 134 91
180 134 91
179 134 90
179 133 90
178 133 90
177 132 89
177 132 89
176 131 89
175 131 88
175 130 88
174 130 88
173 129 87
172 128 87
172 128 86
171 127 86
170 127 86
169 126 85
168 125 85
167 125 84
166 124 84
166 123 84
165 123 83
164 122 83
163 121 82
162 121 82
161 120 81
160 119 81
159 119 81
158 118 80
157 117 80
156 116 79
155 116 79
154 115 78
153 114 78
152 113 77
150 112 77
149 112 76
148 111 76
147 110 75
146 109 74
145 108 74
143 107 73
142 107 73
141 106 72
140 105 72
138 104 71
137 103 71
136 102 70
135 101 69
133 100 69
132 99 68
131 98 68
129 97 67
128 96 66
126 95 66
0 0 0
0 0 0
0 0 0
0 0 0
0 0 0
0 0 0
0 0 0
0 0 0
0 0 0
0 0 0
0 0 0
0 0 0
0 0 0
0 0 0
0 0 0
0 0 0
0 0 0
0 0 0
0 0 0
0 0 0
0 0 0
0 0 0
0 0 0
0 0 0
0 0 0
0 0 0
0 0 0
0 0 0
0 0 0
0 0 0
0 0 0
0 0 0
0 0 0
0 0 0
0 0 0
0 0 0
0 0 0
0 0 0
0 0 0
0 0 0
0 0 0
0 0 0
0 0 0
0 0 0
0 0 0
0 0 0
0 0 0
0 0 0
0 0 0
0 0 0
0 0 0
0 0 0
0 0 0
0 0 0
0 0 0
0 0 0
0 0 0
0 0 0
0 0 0
0 0 0
0 0 0
0 0 0
0 0 0
0 0 0
200 149 100
200 149 100
201 149 100
201 149 101
201 150 101
202 150 101
202 150 101
202 150 101
203 151 102
203 151 102
203 151 102
204 151 102
204 152 103
204 152 103
204 152 103
205 153 104
205 153 104
205 153 104
206 154 105
206 154 105
207 155 106
207 155 107
207 155 107
208 156 108
208 157 109
209 157 110
209 158 111
210 159 112
210 159 113
211 160 114
212 161 116
212 162 117
213 163 119
214 164 120
215 165 122
216 166 123
216 168 125
217 169 127
218 170 129
219 171 130
220 173 132
221 174 134
222 175 136
223 177 138
224 178 140
225 180 142
226 181 144
227 182 145
228 183 147
229 185 149
230 186 150
230 187 151
231 188 153
232 189 154
233 190 155
233 191 157
234 191 158
234 192 159
235 193 160
235 194 161
236 194 162
236 195 162
237 195 163
237 196 164
237 196 164
237 196 164
237 197 165
237 197 165
237 197 165
237 197 165
237 196 165
237 196 165
236 196 164
236 195 164
235 195 163
235 194 163
234 194 162
234 193 161
233 192 160
232 191 159
231 190 158
231 189 157
230 188 155
229 187 154
228 186 153
227 185 151
226 184 150
225 182 148
223 181 147
222 180 145
221 178 143
220 177 142
219 175 140
218 174 138
216 173 136
215 171 135
214 170 133
213 169 131
212 167 130
211 166 128
210 165 126
208 163 125
207 162 123
206 161 121
205 159 120
204 158 118
203 157 117
202 156 115
201 155 114
200 154 112
199 153 111
198 152 110
197 151 108
197 150 107
196 149 106
195 148 105
194 147 104
193 146 103
193 145 102
192 144 101
191 144 100
190 143 99
190 142 99
189 142 98
188 141 97
188 140 97
187 140 96
186 139 95
186 139 95
185 138 94
184 138 94
184 137 93
183 137 93
183 136 93
182 136 92
181 135 92
181 135 91
180 134 91
180 134 91
179 133 90
178 133 90
178 132 90
177 132 89
177 131 89
176 131 89
175 130 88
174 130 88
174 129 87
173 129 87
172 128 87
171 128 86
170 127 86
170 126 86
169 126 85
168 125 85
167 125 84
166 124 84
165 123 84
164 123 83
164 122 83
163 121 82
162 121 82
161 120 81
160 119 81
159 118 80
158 118 80
157 117 79
156 116 79
155 115 78
153 115 78
152 114 77
151 113 77
150 112 76
149 111 76
148 111 75
147 110 75
145 109 74
144 108 74
143 107 73
142 106 73
141 105 72
139 105 72
138 104 71
137 103 70
136 102 70
134 101 69
133 100 69
132 99 68
130 98 67
129 97 67
128 96 66
126 95 66
0 0 0
0 0 0
0 0 0
0 0 0
0 0 0
0 0 0
0 0 0
0 0 0
0 0 0
0 0 0
0 0 0
0 0 0
0 0 0
0 0 0
0 0 0
0 0 0
0 0 0
0 0 0
0 0 0
0 0 0
0 0 0
0 0 0
0 0 0
0 0 0
0 0 0
0 0 0
0 0 0
0 0 0
0 0 0
0 0 0
0 0 0
0 0 0
0 0 0
0 0 0
0 0 0
0 0 0
0 0 0
0 0 0
0 0 0
0 0 0
0 0 0
0 0 0
0 0 0
0 0 0
0 0 0
0 0 0
0 0 0
0 0 0
0 0 0
0 0 0
0 0 0
0 0 0
0 0 0
0 0 0
0 0 0
0 0 0
0 0 0
0 0 0
0 0 0
0 0 0
0 0 0
0 0 0
0 0 0
0 0 0
200 149 100
200 149 100
201 149 100
201 149 101
201 150 101
202 150 101
202 150 101
202 150 101
202 151 102
203 151 102
203 151 102
203 151 102
204 152 103
204 152 103
204 152 103
205 152 104
205 153 104
205 153 104
206 154 105
206 154 105
206 154 106
207 155 107
207 155 107
208 156 108
208 156 109
209 157 110
209 158 111
210 159 112
210 159 113
211 160 114
212 161 116
212 162 117
213 163 118
214 164 120
215 165 121
215 166 123
216 167 125
217 169 126
218 170 128
219 171 130
220 172 132
221 174 134
222 175 136
223 176 138
224 178 139
225 179 141
226 180 143
227 182 145
228 183 147
228 184 148
229 185 150
230 186 151
231 187 152
231 188 154
232 189 155
233 190 156
233 191 157
234 192 158
235 192 159
235 193 160
235 194 161
236 194 162
236 195 162
236 195 163
237 196 163
237 196 164
237 196 164
237 196 164
237 196 164
237 196 164
236 196 164
236 196 164
236 195 164
235 195 163
235 194 163
234 194 162
234 193 161
233 192 160
232 192 159
232 191 158
231 190 157
230 189 156
229 188 155
228 187 154
227 185 152
226 184 151
225 183 149
224 182 148
223 180 146
222 179 144
221 178 143
220 176 141
218 175 139
217 174 138
216 172 136
215 171 134
214 170 133
213 168 131
211 167 129
210 166 127
209 164 126
208 163 124
207 162 123
206 160 121
205 159 119
204 158 118
203 157 116
202 156 115
201 154 113
200 153 112
199 152 111
198 151 109
197 150 108
196 149 107
195 148 106
195 148 105
194 147 104
193 146 103
192 145 102
192 144 101
191 144 100
190 143 99
189 142 98
189 142 98
188 141 97
187 140 96
187 140 96
186 139 95
185 139 95
185 138 94
184 138 94
184 137 93
183 137 93
182 136 92
182 136 92
181 135 92
181 135 91
180 134 91
179 134 91
179 133 90
178 133 90
178 132 90
177 132 89
176 131 89
176 131 89
175 130 88
174 130 88
173 129 87
173 129 87
172 128 87
171 127 86
170 127 86
169 126 85
169 126 85
168 125 85
167 124 84
166 124 84
165 123 83
164 122 83
163 122 83
162 121 82
161 120 82
160 120 81
159 119 81
158 118 80
157 118 80
156 117 79
155 116 79
154 115 78
153 114 78
152 114 77
151 113 77
150 112 76
149 111 76
148 110 75
146 110 75
145 109 74
144 108 74
143 107 73
142 106 73
140 105 72
139 104 71
138 103 71
137 103 70
135 102 70
134 101 69
133 100 69
131 99 68
130 98 67
129 97 67
127 96 66
126 95 65
0 0 0
0 0 0
0 0 0
0 0 0
0 0 0
0 0 0
0 0 0
0 0 0
0 0 0
0 0 0
0 0 0
0 0 0
0 0 0
0 0 0
0 0 0
0 0 0
0 0 0
0 0 0
0 0 0
0 0 0
0 0 0
0 0 0
0 0 0
0 0 0
0 0 0
0 0 0
0 0 0
0 0 0
0 0 0
0 0 0
0 0 0
0 0 0
0 0 0
0 0 0
0 0 0
0 0 0
0 0 0
0 0 0
0 0 0
0 0 0
0 0 0
0 0 0
0 0 0
0 0 0
0 0 0
0 0 0
0 0 0
0 0 0
0 0 0
0 0 0
0 0 0
0 0 0
0 0 0
0 0 0
0 0 0
0 0 0
0 0 0
0 0 0
0 0 0
0 0 0
0 0 0
0 0 0
0 0 0
0 0 0
200 148 100
200 149 100
200 149 100
201 149 101
201 149 101
201 150 101
202 150 101
202 150 101
202 150 101
203 151 102
203 151 102
203 151 102
203 151 102
204 152 103
204 152 103
204 152 103
205 153 104
205 153 104
205 153 105
206 154 105
206 154 106
207 155 107
207 155 107
207 156 108
208 156 109
208 157 110
209 158 111
210 158 112
210 159 113
211 160 114
211 161 115
212 162 117
213 163 118
213 164 120
214 165 121
215 166 123
216 167 124
217 168 126
218 170 128
219 171 130
220 172 132
221 173 133
221 175 135
222 176 137
223 177 139
224 179 141
225 180 143
226 181 144
227 183 146
228 184 148
229 185 149
230 186 150
230 187 152
231 188 153
232 189 154
232 190 155
233 190 157
233 191 158
234 192 159
234 193 160
235 193 160
235 194 161
236 194 162
236 195 162
236 195 163
236 195 163
236 195 163
236 195 164
236 195 164
236 195 164
236 195 163
236 195 163
235 195 163
235 194 162
234 194 162
234 193 161
233 192 160
233 192 160
232 191 159
231 190 158
230 189 157
229 188 155
229 187 154
228 186 153
227 185 151
226 184 150
225 182 149
224 181 147
222 180 145
221 179 144
220 177 142
219 176 141
218 175 139
217 173 137
216 172 135
214 170 134
213 169 132
212 168 130
211 166 129
210 165 127
209 164 125
208 163 124
207 161 122
206 160 120
205 159 119
204 158 117
203 156 116
202 155 114
201 154 113
200 153 112
199 152 110
198 151 109
197 150 108
196 149 107
195 148 105
194 147 104
194 146 103
193 146 102
192 145 101
191 144 101
191 143 100
190 143 99
189 142 98
188 141 98
188 141 97
187 140 96
186 140 96
186 139 95
185 138 95
185 138 94
184 137 94
183 137 93
183 136 93
182 136 92
182 135 92
181 135 92
180 134 91
180 134 91
179 133 90
179 133 90
178 133 90
177 132 89
177 132 89
176 131 89
175 131 88
175 130 88
174 130 88
173 129 87
172 128 87
172 128 87
171 127 86
170 127 86
169 126 85
168 125 85
167 125 85
167 124 84
166 124 84
165 123 83
164 122 83
163 122 82
162 121 82
161 120 82
160 119 81
159 119 81
158 118 80
157 117 80
156 117 79
155 116 79
154 115 78
153 114 78
152 113 77
151 113 77
150 112 76
148 111 76
147 110 75
146 109 75
145 109 74
144 108 74
143 107 73
141 106 72
140 105 72
139 104 71
138 103 71
136 102 70
135 101 70
134 100 69
132 99 68
131 99 68
130 98 67
128 97 67
127 96 66
125 95 65
0 0 0
0 0 0
0 0 0
0 0 0
0 0 0
0 0 0
0 0 0
0 0 0
0 0 0
0 0 0
0 0 0
0 0 0
0 0 0
0 0 0
0 0 0
0 0 0
0 0 0
0 0 0
0 0 0
0 0 0
0 0 0
0 0 0
0 0 0
0 0 0
0 0 0
0 0 0
0 0 0
0 0 0
0 0 0
0 0 0
0 0 0
0 0 0
0 0 0
0 0 0
0 0 0
0 0 0
0 0 0
0 0 0
0 0 0
0 0 0
0 0 0
0 0 0
0 0 0
0 0 0
0 0 0
0 0 0
0 0 0
0 0 0
0 0 0
0 0 0
0 0 0
0 0 0
0 0 0
0 0 0
0 0 0
0 0 0
0 0 0
0 0 0
0 0 0
0 0 0
0 0 0
0 0 0
0 0 0
0 0 0
200 148 100
200 149 100
200 149 100
201 149 100
201 149 101
201 150 101
201 150 101
202 150 101
202 150 101
202 151 102
203 151 102
203 151 102
203 151 102
204 152 103
204 152 103
204 152 103
205 153 104
205 153 104
205 153 105
206 154 105
206 154 106
206 155 106
207 155 107
207 156 108
208 156 109
208 157 110
209 157 111
209 158 112
210 159 113
210 160 114
211 161 115
212 162 116
212 162 118
213 163 119
214 165 121
215 166 122
216 167 124
216 168 126
217 169 128
218 170 129
219 172 131
220 173 133
221 174 135
222 176 137
223 177 139
224 178 140
225 180 142
226 181 144
227 182 145
227 183 147
228 184 148
229 185 150
230 186 151
230 187 152
231 188 154
232 189 155
232 190 156
233 191 157
233 191 158
234 192 159
234 193 160
235 193 160
235 194 161
235 194 161
235 194 162
236 194 162
236 195 163
236 195 163
236 195 163
235 195 163
235 194 163
235 194 162
235 194 162
234 193 162
234 193 161
233 192 160
233 192 160
232 191 159
231 190 158
231 189 157
230 188 156
229 187 155
228 186 153
227 185 152
226 184 151
225 183 149
224 182 148
223 181 146
222 179 145
221 178 143
220 177 142
219 175 140
217 174 138
216 173 137
215 171 135
214 170 133
213 169 131
212 167 130
211 166 128
210 165 127
208 163 125
207 162 123
206 161 122
205 160 120
204 158 118
203 157 117
202 156 115
201 155 114
200 154 113
199 153 111
198 152 110
197 151 109
197 150 107
196 149 106
195 148 105
194 147 104
193 146 103
193 145 102
192 145 101
191 144 100
190 143 100
190 142 99
189 142 98
188 141 97
188 141 97
187 140 96
186 139 96
186 139 95
185 138 94
184 138 94
184 137 93
183 137 93
183 136 93
182 136 92
181 135 92
181 135 91
180 134 91
179 134 91
179 133 90
178 133 90
178 132 90
177 132 89
176 131 89
176 131 89
175 130 88
174 130 88
174 129 88
173 129 87
172 128 87
171 128 86
171 127 86
170 126 86
169 126 85
168 125 85
167 125 84
166 124 84
165 123 84
165 123 83
164 122 83
163 121 82
162 121 82
161 120 81
160 119 81
159 119 80
158 118 80
157 117 80
156 116 79
155 116 79
154 115 78
153 114 78
151 113 77
150 112 77
149 112 76
148 111 76
147 110 75
146 109 74
145 108 74
143 107 73
142 107 73
141 106 72
140 105 72
139 104 71
137 103 71
136 102 70
135 101 69
133 100 69
132 99 68
131 98 68
129 97 67
128 96 66
127 95 66
125 94 65
0 0 0
0 0 0
0 0 0
0 0 0
0 0 0
0 0 0
0 0 0
0 0 0
0 0 0
0 0 0
0 0 0
0 0 0
0 0 0
0 0 0
0 0 0
0 0 0
0 0 0
0 0 0
0 0 0
0 0 0
0 0 0
0 0 0
0 0 0
0 0 0
0 0 0
0 0 0
0 0 0
0 0 0
0 0 0
0 0 0
0 0 0
0 0 0
0 0 0
0 0 0
0 0 0
0 0 0
0 0 0
0 0 0
0 0 0
0 0 0
0 0 0
0 0 0
0 0 0
0 0 0
0 0 0
0 0 0
0 0 0
0 0 0
0 0 0
0 0 0
0 0 0
0 0 0
0 0 0
0 0 0
0 0 0
0 0 0
0 0 0
0 0 0
0 0 0
0 0 0
0 0 0
0 0 0
0 0 0
0 0 0
199 148 100
200 148 100
200 149 100
200 149 100
201 149 101
201 149 101
201 150 101
202 150 101
202 150 101
202 150 102
203 151 102
203 151 102
203 151 102
203 151 103
204 152 103
204 152 103
204 152 104
205 153 104
205 153 105
205 154 105
206 154 106
206 154 106
207 155 107
207 155 108
208 156 109
208 157 109
209 157 110
209 158 111
210 159 112
210 160 114
211 160 115
212 161 116
212 162 118
213 163 119
214 164 121
214 165 122
215 166 124
216 168 125
217 169 127
218 170 129
219 171 131
220 173 133
221 174 134
222 175 136
223 176 138
224 178 140
224 179 142
225 180 143
226 181 145
227 183 146
228 184 148
228 185 149
229 186 150
230 186 152
231 187 153
231 188 154
232 189 155
232 190 156
233 191 157
233 191 158
234 192 159
234 192 159
234 193 160
235 193 161
235 193 161
235 194 161
235 194 162
235 194 162
235 194 162
235 194 162
235 194 162
234 193 161
234 193 161
234 193 161
233 192 160
233 192 159
232 191 159
231 190 158
231 189 157
230 189 156
229 188 155
228 187 154
227 186 153
226 185 151
225 183 150
224 182 148
223 181 147
222 180 146
221 179 144
220 177 142
219 176 141
218 175 139
217 173 138
216 172 136
215 171 134
213 169 132
212 168 131
211 167 129
210 165 128
209 164 126
208 163 124
207 162 123
206 160 121
205 159 120
204 158 118
203 157 117
202 156 115
201 155 114
200 153 112
199 152 111
198 151 110
197 150 108
196 149 107
195 148 106
195 148 105
194 147 104
193 146 103
192 145 102
191 144 101
191 144 100
190 143 99
189 142 99
189 142 98
188 141 97
187 140 97
187 140 96
186 139 95
185 139 95
185 138 94
184 137 94
183 137 93
183 136 93
182 136 92
182 135 92
181 135 92
180 135 91
180 134 91
179 134 91
179 133 90
178 133 90
177 132 89
177 132 89
176 131 89
176 131 89
175 130 88
174 130 88
173 129 87
173 129 87
172 128 87
171 127 86
170 127 86
169 126 85
169 126 85
168 125 85
167 124 84
166 124 84
165 123 83
164 123 83
163 122 83
162 121 82
162 120 82
161 120 81
160 119 81
159 118 80
158 118 80
157 117 79
156 116 79
154 115 78
153 115 78
152 114 77
151 113 77
150 112 76
149 111 76
148 111 75
147 110 75
146 109 74
144 108 74
143 107 73
142 106 73
141 106 72
140 105 72
138 104 71
137 103 70
136 102 70
134 101 69
133 100 69
132 99 68
130 98 67
129 97 67
128 96 66
126 95 66
125 94 65
0 0 0
0 0 0
0 0 0
0 0 0
0 0 0
0 0 0
0 0 0
0 0 0
0 0 0
0 0 0
0 0 0
0 0 0
0 0 0
0 0 0
0 0 0
0 0 0
0 0 0
0 0 0
0 0 0
0 0 0
0 0 0
0 0 0
0 0 0
0 0 0
0 0 0
0 0 0
0 0 0
0 0 0
0 0 0
0 0 0
0 0 0
0 0 0
0 0 0
0 0 0
0 0 0
0 0 0
0 0 0
0 0 0
0 0 0
0 0 0
0 0 0
0 0 0
0 0 0
0 0 0
0 0 0
0 0 0
0 0 0
0 0 0
0 0 0
0 0 0
0 0 0
0 0 0
0 0 0
0 0 0
0 0 0
0 0 0
0 0 0
0 0 0
0 0 0
0 0 0
0 0 0
0 0 0
0 0 0
0 0 0
199 148 100
200 148 100
200 149 100
200 149 100
201 149 100
201 149 101
201 150 101
201 150 101
202 150 101
202 150 101
202 151 102
203 151 102
203 151 102
203 151 103
204 152 103
204 152 103
204 152 104
205 153 104
205 153 104
205 153 105
206 154 106
206 154 106
206 155 107
207 155 108
207 156 108
208 156 109
208 157 110
209 158 111
209 158 112
210 159 113
211 160 115
211 161 116
212 162 117
213 163 119
213 164 120
214 165 122
215 166 123
216 167 125
217 168 127
218 170 128
218 171 130
219 172 132
220 173 134
221 175 136
222 176 137
223 177 139
224 178 141
225 180 143
226 181 144
226 182 145
227 183 147
228 184 148
229 185 149
229 186 151
230 187 152
231 188 153
231 188 154
232 189 155
232 190 156
233 190 157
233 191 158
233 192 158
234 192 159
234 192 160
234 193 160
234 193 160
234 193 161
234 193 161
234 193 161
234 193 161
234 193 161
233 193 160
233 192 160
233 192 160
232 191 159
232 191 158
231 190 158
231 189 157
230 189 156
229 188 155
228 187 154
228 186 153
227 185 152
226 184 150
225 183 149
224 182 148
223 180 146
222 179 145
221 178 143
220 177 142
218 175 140
217 174 138
216 173 137
215 171 135
214 170 133
213 169 132
212 167 130
211 166 129
210 165 127
209 164 125
208 162 124
206 161 122
205 160 121
204 159 119
203 158 118
202 156 116
201 155 115
200 154 113
200 153 112
199 152 111
198 151 109
197 150 108
196 149 107
195 148 106
194 147 105
193 146 104
193 146 103
192 145 102
191 144 101
190 143 100
190 143 99
189 142 98
188 141 98
188 141 97
187 140 96
186 139 96
186 139 95
185 138 95
184 138 94
184 137 94
183 137 93
183 136 93
182 136 92
181 135 92
181 135 92
180 134 91
180 134 91
179 133 90
178 133 90
178 132 90
177 132 89
177 132 89
176 131 89
175 131 88
175 130 88
174 130 88
173 129 87
172 128 87
172 128 87
171 127 86
170 127 86
169 126 85
168 125 85
168 125 85
167 124 84
166 124 84
165 123 83
164 122 83
163 122 82
162 121 82
161 120 82
160 120 81
159 119 81
158 118 80
157 117 80
156 117 79
155 116 79
154 115 78
153 114 78
152 114 77
151 113 77
150 112 76
149 111 76
148 110 75
146 110 75
145 109 74
144 108 74
143 107 73
142 106 73
140 105 72
139 104 71
138 104 71
137 103 70
135 102 70
134 101 69
133 100 69
131 99 68
130 98 67
129 97 67
127 96 66
126 95 66
125 94 65
0 0 0
0 0 0
0 0 0
0 0 0
0 0 0
0 0 0
0 0 0
0 0 0
0 0 0
0 0 0
0 0 0
0 0 0
0 0 0
0 0 0
0 0 0
0 0 0
0 0 0
0 0 0
0 0 0
0 0 0
0 0 0
0 0 0
0 0 0
0 0 0
0 0 0
0 0 0
0 0 0
0 0 0
0 0 0
0 0 0
0 0 0
0 0 0
0 0 0
0 0 0
0 0 0
0 0 0
0 0 0
0 0 0
0 0 0
0 0 0
0 0 0
0 0 0
0 0 0
0 0 0
0 0 0
0 0 0
0 0 0
0 0 0
0 0 0
0 0 0
0 0 0
0 0 0
0 0 0
0 0 0
0 0 0
0 0 0
0 0 0
0 0 0
0 0 0
0 0 0
0 0 0
0 0 0
0 0 0
0 0 0
199 148 100
199 148 100
200 148 100
200 149 100
200 149 100
201 149 101
201 149 101
201 150 101
202 150 101
202 150 101
202 150 102
202 151 102
203 151 102
203 151 102
203 151 103
204 152 103
204 152 103
204 152 104
205 153 104
205 153 105
205 154 105
206 154 106
206 155 107
207 155 107
207 156 108
208 156 109
208 157 110
209 158 111
209 158 112
210 159 113
210 160 114
211 161 116
212 162 117
212 163 118
213 164 120
214 165 121
215 166 123
215 167 125
216 168 126
217 169 128
218 170 130
219 172 131
220 173 133
221 174 135
222 175 137
222 177 138
223 178 140
224 179 142
225 180 143
226 181 145
227 182 146
227 183 147
228 184 149
229 185 150
229 186 151
230 187 152
230 188 153
231 188 154
231 189 155
232 190 156
232 190 157
233 191 157
233 191 158
233 191 159
233 192 159
233 192 159
233 192 160
233 192 160
233 192 160
233 192 160
233 192 160
233 192 159
232 191 159
232 191 159
231 190 158
231 190 157
230 189 157
230 188 156
229 188 155
228 187 154
228 186 153
227 185 152
226 184 151
225 183 149
224 182 148
223 181 147
222 180 145
221 178 144
220 177 142
219 176 141
218 175 139
217 173 138
216 172 136
215 171 134
213 169 133
212 168 131
211 167 129
210 166 128
209 164 126
208 163 125
207 162 123
206 161 122
205 159 120
204 158 118
203 157 117
202 156 116
201 155 114
200 154 113
199 153 111
198 152 110
197 151 109
196 150 108
196 149 106
195 148 105
194 147 104
193 146 103
192 145 102
192 145 101
191 144 101
190 143 100
189 142 99
189 142 98
188 141 97
187 140 97
187 140 96
186 139 96
185 139 95
185 138 94
184 138 94
184 137 93
183 137 93
182 136 93
182 136 92
181 135 92
181 135 91
180 134 91
179 134 91
179 133 90
178 133 90
178 132 90
177 132 89
176 131 89
176 131 89
175 130 88
174 130 88
174 129 88
173 129 87
172 128 87
171 128 86
171 127 86
170 126 86
169 126 85
168 125 85
167 125 84
166 124 84
166 123 84
165 123 83
164 122 83
163 121 82
162 121 82
161 120 81
160 119 81
159 119 81
158 118 80
157 117 80
156 116 79
155 116 79
154 115 78
153 114 78
152 113 77
151 113 77
150 112 76
148 111 76
147 110 75
146 109 75
145 109 74
144 108 74
143 107 73
141 106 72
140 105 72
139 104 71
138 103 71
136 102 70
135 101 70
134 101 69
132 100 68
131 99 68
130 98 67
128 97 67
127 96 66
126 95 65
124 94 65
0 0 0
0 0 0
0 0 0
0 0 0
0 0 0
0 0 0
0 0 0
0 0 0
0 0 0
0 0 0
0 0 0
0 0 0
0 0 0
0 0 0
0 0 0
0 0 0
0 0 0
0 0 0
0 0 0
0 0 0
0 0 0
0 0 0
0 0 0
0 0 0
0 0 0
0 0 0
0 0 0
0 0 0
0 0 0
0 0 0
0 0 0
0 0 0
0 0 0
0 0 0
0 0 0
0 0 0
0 0 0
0 0 0
0 0 0
0 0 0
0 0 0
0 0 0
0 0 0
0 0 0
0 0 0
0 0 0
0 0 0
0 0 0
0 0 0
0 0 0
0 0 0
0 0 0
0 0 0
0 0 0
0 0 0
0 0 0
0 0 0
0 0 0
0 0 0
0 0 0
0 0 0
0 0 0
0 0 0
0 0 0
199 148 100
199 148 100
199 148 100
200 149 100
200 149 100
200 149 100
201 149 101
201 149 101
201 150 101
202 150 101
202 150 101
202 150 102
203 151 102
203 151 102
203 151 103
203 152 103
204 152 103
204 152 104
204 153 104
205 153 105
205 153 105
206 154 106
206 154 106
206 155 107
207 155 108
207 156 109
208 157 110
208 157 111
209 158 112
209 159 113
210 160 114
211 160 115
211 161 117
212 162 118
213 163 119
213 164 121
214 165 122
215 166 124
216 168 126
217 169 127
218 170 129
218 171 131
219 172 132
220 174 134
221 175 136
222 176 138
223 177 139
224 178 141
224 179 142
225 180 144
226 181 145
227 182 146
227 183 148
228 184 149
228 185 150
229 186 151
230 187 152
230 187 153
231 188 154
231 189 155
231 189 156
232 190 156
232 190 157
232 190 157
232 191 158
232 191 158
233 191 158
233 191 159
232 191 159
232 191 159
232 191 158
232 191 158
231 190 158
231 190 157
231 189 157
230 189 156
230 188 155
229 188 155
228 187 154
228 186 153
227 185 152
226 184 151
225 183 150
224 182 148
223 181 147
222 180 146
221 179 144
220 178 143
219 176 141
218 175 140
217 174 138
216 173 137
215 171 135
214 170 133
213 169 132
212 167 130
211 166 129
210 165 127
209 164 126
208 163 124
207 161 122
205 160 121
204 159 119
203 158 118
202 157 116
202 155 115
201 154 114
200 153 112
199 152 111
198 151 110
197 150 108
196 149 107
195 148 106
194 148 105
194 147 104
193 146 103
192 145 102
191 144 101
191 144 100
190 143 99
189 142 99
188 141 98
188 141 97
187 140 97
186 140 96
186 139 95
185 138 95
185 138 94
184 137 94
183 137 93
183 136 93
182 136 92
181 135 92
181 135 92
180 134 91
180 134 91
179 133 90
178 133 90
178 133 90
177 132 89
177 132 89
176 131 89
175 131 88
175 130 88
174 130 88
173 129 87
173 129 87
172 128 87
171 127 86
170 127 86
169 126 85
169 126 85
168 125 85
167 124 84
166 124 84
165 123 83
164 123 83
163 122 83
163 121 82
162 121 82
161 120 81
160 119 81
159 118 80
158 118 80
157 117 79
156 116 79
155 115 79
154 115 78
153 114 78
151 113 77
150 112 77
149 112 76
148 111 76
147 110 75
146 109 74
145 108 74
144 107 73
142 107 73
141 106 72
140 105 72
139 104 71
137 103 71
136 102 70
135 101 69
133 100 69
132 99 68
131 98 68
129 97 67
128 96 66
127 95 66
125 94 65
124 93 65
0 0 0
0 0 0
0 0 0
0 0 0
0 0 0
0 0 0
0 0 0
0 0 0
0 0 0
0 0 0
0 0 0
0 0 0
0 0 0
0 0 0
0 0 0
0 0 0
0 0 0
0 0 0
0 0 0
0 0 0
0 0 0
0 0 0
0 0 0
0 0 0
0 0 0
0 0 0
0 0 0
0 0 0
0 0 0
0 0 0
0 0 0
0 0 0
0 0 0
0 0 0
0 0 0
0 0 0
0 0 0
0 0 0
0 0 0
0 0 0
0 0 0
0 0 0
0 0 0
0 0 0
0 0 0
0 0 0
0 0 0
0 0 0
0 0 0
0 0 0
0 0 0
0 0 0
0 0 0
0 0 0
0 0 0
0 0 0
0 0 0
0 0 0
0 0 0
0 0 0
0 0 0
0 0 0
0 0 0
0 0 0
199 148 99
199 148 100
199 148 100
200 148 100
200 149 100
200 149 100
201 149 101
201 149 101
201 150 101
201 150 101
202 150 101
202 150 102
202 151 102
203 151 102
203 151 102
203 151 103
204 152 103
204 152 104
204 152 104
205 153 105
205 153 105
205 154 106
206 154 106
206 155 107
207 155 108
207 156 109
207 156 109
208 157 110
208 158 111
209 158 112
210 159 114
210 160 115
211 161 116
212 162 117
212 163 119
213 164 120
214 165 122
215 166 123
215 167 125
216 168 127
217 169 128
218 171 130
219 172 132
220 173 133
220 174 135
221 175 137
222 176 138
223 178 140
224 179 142
224 180 143
225 181 144
226 182 145
227 182 147
227 183 148
228 184 149
228 185 150
229 186 151
229 186 152
230 187 153
230 188 154
231 188 155
231 189 155
231 189 156
231 189 156
231 190 157
232 190 157
232 190 157
232 190 157
232 190 157
231 190 157
231 190 157
231 190 157
231 189 157
230 189 156
230 188 156
229 188 155
229 187 154
228 187 153
227 186 153
227 185 152
226 184 151
225 183 150
224 182 148
223 181 147
222 180 146
222 179 145
221 178 143
220 177 142
219 175 140
217 174 139
216 173 137
215 172 136
214 171 134
213 169 133
212 168 131
211 167 129
210 166 128
209 164 126
208 163 125
207 162 123
206 161 122
205 160 120
204 158 119
203 157 117
202 156 116
201 155 114
200 154 113
199 153 112
198 152 110
197 151 109
197 150 108
196 149 107
195 148 106
194 147 105
193 146 104
192 146 103
192 145 102
191 144 101
190 143 100
190 143 99
189 142 98
188 141 98
187 141 97
187 140 96
186 139 96
186 139 95
185 138 95
184 138 94
184 137 94
183 137 93
182 136 93
182 136 92
181 135 92
181 135 91
180 134 91
179 134 91
179 133 90
178 133 90
178 132 90
177 132 89
176 131 89
176 131 89
175 130 88
175 130 88
174 130 88
173 129 87
172 128 87
172 128 87
171 127 86
170 127 86
169 126 85
168 125 85
168 125 85
167 124 84
166 124 84
165 123 83
164 122 83
163 122 82
162 121 82
161 120 82
160 120 81
159 119 81
158 118 80
157 117 80
156 117 79
155 116 79
154 115 78
153 115 78
152 114 77
151 113 77
150 112 76
149 111 76
148 111 75
147 110 75
146 109 74
144 108 74
143 107 73
142 106 73
141 106 72
140 105 72
138 104 71
137 103 70
136 102 70
134 101 69
133 100 69
132 99 68
130 98 68
129 97 67
128 96 66
126 95 66
125 94 65
123 93 64
0 0 0
0 0 0
0 0 0
0 0 0
0 0 0
0 0 0
0 0 0
0 0 0
0 0 0
0 0 0
0 0 0
0 0 0
0 0 0
0 0 0
0 0 0
0 0 0
0 0 0
0 0 0
0 0 0
0 0 0
0 0 0
0 0 0
0 0 0
0 0 0
0 0 0
0 0 0
0 0 0
0 0 0
0 0 0
0 0 0
0 0 0
0 0 0
0 0 0
0 0 0
0 0 0
0 0 0
0 0 0
0 0 0
0 0 0
0 0 0
0 0 0
0 0 0
0 0 0
0 0 0
0 0 0
0 0 0
0 0 0
0 0 0
0 0 0
0 0 0
0 0 0
0 0 0
0 0 0
0 0 0
0 0 0
0 0 0
0 0 0
0 0 0
0 0 0
0 0 0
0 0 0
0 0 0
0 0 0
0 0 0
198 147 99
199 148 100
199 148 100
199 148 100
200 148 100
200 149 100
200 149 100
201 149 101
201 149 101
201 150 101
202 150 101
202 150 102
202 150 102
202 151 102
203 151 102
203 151 103
203 152 103
204 152 103
204 152 104
204 153 104
205 153 105
205 153 105
205 154 106
206 154 107
206 155 107
207 155 108
207 156 109
208 157 110
208 157 111
209 158 112
209 159 113
210 160 114
211 161 116
211 161 117
212 162 118
213 163 120
213 164 121
214 165 123
215 167 124
216 168 126
217 169 128
217 170 129
218 171 131
219 172 133
220 173 134
221 175 136
222 176 138
222 177 139
223 178 141
224 179 142
224 180 143
225 181 144
226 182 146
226 182 147
227 183 148
227 184 149
228 185 150
228 185 151
229 186 152
229 187 153
230 187 153
230 188 154
230 188 154
230 188 155
231 189 155
231 189 156
231 189 156
231 189 156
231 189 156
230 189 156
230 189 156
230 188 156
230 188 155
229 188 155
229 187 154
228 187 154
228 186 153
227 185 152
226 185 151
226 184 150
225 183 149
224 182 148
223 181 147
223 180 146
222 179 145
221 178 143
220 177 142
219 176 141
218 175 139
217 173 138
216 172 136
215 171 135
214 170 133
213 169 132
212 167 130
210 166 129
209 165 127
208 164 126
207 162 124
206 161 123
205 160 121
204 159 120
203 158 118
202 157 117
202 156 115
201 154 114
200 153 113
199 152 111
198 151 110
197 150 109
196 149 108
195 149 106
194 148 105
194 147 104
193 146 103
192 145 102
191 144 101
191 144 101
190 143 100
189 142 99
189 142 98
188 141 97
187 140 97
187 140 96
186 139 96
185 139 95
185 138 94
184 137 94
183 137 93
183 136 93
182 136 93
182 135 92
181 135 92
180 134 91
180 134 91
179 134 91
179 133 90
178 133 90
177 132 89
177 132 89
176 131 89
175 131 89
175 130 88
174 130 88
174 129 88
173 129 87
172 128 87
171 128 86
171 127 86
170 126 86
169 126 85
168 125 85
167 125 84
166 124 84
166 123 84
165 123 83
164 122 83
163 121 82
162 121 82
161 120 81
160 119 81
159 119 81
158 118 80
157 117 80
156 117 79
155 116 79
154 115 78
153 114 78
152 114 77
151 113 77
150 112 76
149 111 76
148 110 75
146 110 75
145 109 74
144 108 74
143 107 73
142 106 73
140 105 72
139 104 71
138 104 71
137 103 70
135 102 70
134 101 69
133 100 69
132 99 68
130 98 67
129 97 67
127 96 66
126 95 66
125 94 65
123 93 64
0 0 0
0 0 0
0 0 0
0 0 0
0 0 0
0 0 0
0 0 0
0 0 0
0 0 0
0 0 0
0 0 0
0 0 0
0 0 0
0 0 0
0 0 0
0 0 0
0 0 0
0 0 0
0 0 0
0 0 0
0 0 0
0 0 0
0 0 0
0 0 0
0 0 0
0 0 0
0 0 0
0 0 0
0 0 0
0 0 0
0 0 0
0 0 0
0 0 0
0 0 0
0 0 0
0 0 0
0 0 0
0 0 0
0 0 0
0 0 0
0 0 0
0 0 0
0 0 0
0 0 0
0 0 0
0 0 0
0 0 0
0 0 0
0 0 0
0 0 0
0 0 0
0 0 0
0 0 0
0 0 0
0 0 0
0 0 0
0 0 0
0 0 0
0 0 0
0 0 0
0 0 0
0 0 0
0 0 0
0 0 0
198 147 99
199 148 99
199 148 100
199 148 100
200 148 100
200 149 100
200 149 100
200 149 101
201 149 101
201 150 101
201 150 101
202 150 101
202 150 102
202 151 102
202 151 102
203 151 103
203 151 103
203 152 103
204 152 104
204 152 104
204 153 105
205 153 105
205 154 106
206 154 107
206 155 107
206 155 108
207 156 109
207 156 110
208 157 111
208 158 112
209 159 113
210 159 114
210 160 115
211 161 117
211 162 118
212 163 119
213 164 121
214 165 122
214 166 124
215 167 125
216 168 127
217 169 129
218 170 130
218 172 132
219 173 133
220 174 135
221 175 137
222 176 138
222 177 140
223 178 141
224 179 142
224 180 143
225 181 144
226 182 146
226 182 147
227 183 148
227 184 149
228 184 150
228 185 150
228 186 151
229 186 152
229 187 153
229 187 153
229 187 154
230 188 154
230 188 154
230 188 154
230 188 155
230 188 155
229 188 155
229 188 154
229 187 154
229 187 154
228 187 153
228 186 153
227 186 152
227 185 152
226 184 151
226 184 150
225 183 149
224 182 148
223 181 147
222 180 146
222 179 145
221 178 143
220 177 142
219 176 141
218 175 139
217 174 138
216 173 137
215 171 135
214 170 134
213 169 132
212 168 131
211 167 129
210 165 128
209 164 126
208 163 125
207 162 123
206 161 122
205 159 120
204 158 119
203 157 117
202 156 116
201 155 115
200 154 113
199 153 112
198 152 111
197 151 109
197 150 108
196 149 107
195 148 106
194 147 105
193 146 104
193 146 103
192 145 102
191 144 101
190 143 100
190 143 99
189 142 99
188 141 98
188 141 97
187 140 97
186 139 96
186 139 95
185 138 95
184 138 94
184 137 94
183 137 93
182 136 93
182 136 92
181 135 92
181 135 92
180 134 91
179 134 91
179 133 90
178 133 90
178 132 90
177 132 89
176 131 89
176 131 89
175 131 88
175 130 88
174 130 88
173 129 87
173 129 87
172 128 87
171 127 86
170 127 86
169 126 85
169 126 85
168 125 85
167 124 84
166 124 84
165 123 83
164 123 83
163 122 83
163 121 82
162 121 82
161 120 81
160 119 81
159 118 80
158 118 80
157 117 80
156 116 79
155 116 79
154 115 78
153 114 78
152 113 77
151 113 77
149 112 76
148 111 76
147 110 75
146 109 75
145 109 74
144 108 74
143 107 73
141 106 72
140 105 72
139 104 71
138 103 71
136 102 70
135 101 70
134 101 69
133 100 68
131 99 68
130 98 67
128 97 67
127 96 66
126 95 65
124 94 65
123 93 64
0 0 0
0 0 0
0 0 0
0 0 0
0 0 0
0 0 0
0 0 0
0 0 0
0 0 0
0 0 0
0 0 0
0 0 0
0 0 0
0 0 0
0 0 0
0 0 0
0 0 0
0 0 0
0 0 0
0 0 0
0 0 0
0 0 0
0 0 0
0 0 0
0 0 0
0 0 0
0 0 0
0 0 0
0 0 0
0 0 0
0 0 0
0 0 0
0 0 0
0 0 0
0 0 0
0 0 0
0 0 0
0 0 0
0 0 0
0 0 0
0 0 0
0 0 0
0 0 0
0 0 0
0 0 0
0 0 0
0 0 0
0 0 0
0 0 0
0 0 0
0 0 0
0 0 0
0 0 0
0 0 0
0 0 0
0 0 0
0 0 0
0 0 0
0 0 0
0 0 0
0 0 0
0 0 0
0 0 0
0 0 0
198 147 99
198 147 99
199 148 99
199 148 100
199 148 100
200 148 100
200 149 100
200 149 100
201 149 101
201 149 101
201 150 101
201 150 101
202 150 102
202 150 102
202 151 102
203 151 102
203 151 103
203 152 103
203 152 104
204 152 104
204 153 105
205 153 105
205 153 106
205 154 106
206 154 107
206 155 108
207 155 109
207 156 109
208 157 110
208 157 111
209 158 112
209 159 114
210 160 115
210 161 116
211 161 117
212 162 119
212 163 120
213 164 122
214 165 123
215 166 125
215 168 126
216 169 128
217 170 129
218 171 131
219 172 133
219 173 134
220 174 136
221 175 137
222 176 139
222 177 140
223 178 141
224 179 142
224 180 143
225 181 144
225 181 145
226 182 146
226 183 147
227 183 148
227 184 149
227 184 150
228 185 151
228 185 151
228 186 152
228 186 152
229 186 153
229 187 153
229 187 153
229 187 153
229 187 153
228 187 153
228 186 153
228 186 153
228 186 152
227 185 152
227 185 151
226 184 151
226 184 150
225 183 149
225 182 149
224 182 148
223 181 147
222 180 146
222 179 145
221 178 143
220 177 142
219 176 141
218 175 140
217 174 138
216 173 137
215 172 135
214 170 134
213 169 133
212 168 131
211 167 130
210 166 128
209 165 127
208 163 125
207 162 124
206 161 122
205 160 121
204 159 119
203 158 118
202 157 117
201 156 115
201 154 114
200 153 113
199 152 111
198 151 110
197 150 109
196 150 108
195 149 107
194 148 106
194 147 104
193 146 103
192 145 103
191 145 102
191 144 101
190 143 100
189 142 99
189 142 98
188 141 98
187 140 97
187 140 96
186 139 96
185 139 95
185 138 95
184 138 94
183 137 94
183 136 93
182 136 93
182 135 92
181 135 92
180 135 91
180 134 91
179 134 91
179 133 90
178 133 90
177 132 90
177 132 89
176 131 89
176 131 89
175 130 88
174 130 88
174 129 88
173 129 87
172 128 87
172 128 86
171 127 86
170 127 86
169 126 85
168 125 85
168 125 85
167 124 84
166 124 84
165 123 83
164 122 83
163 122 83
162 121 82
161 120 82
160 120 81
159 119 81
158 118 80
158 118 80
157 117 79
156 116 79
154 115 78
153 115 78
152 114 77
151 113 77
150 112 76
149 112 76
148 111 75
147 110 75
146 109 74
145 108 74
143 107 73
142 107 73
141 106 72
140 105 72
139 104 71
137 103 71
136 102 70
135 101 69
134 100 69
132 99 68
131 98 68
129 97 67
128 96 66
127 95 66
125 94 65
124 93 65
122 92 64
0 0 0
0 0 0
0 0 0
0 0 0
0 0 0
0 0 0
0 0 0
0 0 0
0 0 0
0 0 0
0 0 0
0 0 0
0 0 0
0 0 0
0 0 0
0 0 0
0 0 0
0 0 0
0 0 0
0 0 0
0 0 0
0 0 0
0 0 0
0 0 0
0 0 0
0 0 0
0 0 0
0 0 0
0 0 0
0 0 0
0 0 0
0 0 0
0 0 0
0 0 0
0 0 0
0 0 0
0 0 0
0 0 0
0 0 0
0 0 0
0 0 0
0 0 0
0 0 0
0 0 0
0 0 0
0 0 0
0 0 0
0 0 0
0 0 0
0 0 0
0 0 0
0 0 0
0 0 0
0 0 0
0 0 0
0 0 0
0 0 0
0 0 0
0 0 0
0 0 0
0 0 0
0 0 0
0 0 0
0 0 0
198 147 99
198 147 99
198 148 99
199 148 100
199 148 100
199 148 100
200 148 100
200 149 100
200 149 100
201 149 101
201 149 101
201 150 101
201 150 101
202 150 102
202 150 102
202 151 102
203 151 103
203 151 103
203 152 103
204 152 104
204 152 104
204 153 105
205 153 105
205 154 106
205 154 107
206 155 107
206 155 108
207 156 109
207 156 110
208 157 111
208 158 112
209 159 113
209 159 114
210 160 116
211 161 117
211 162 118
212 163 120
213 164 121
213 165 122
214 166 124
215 167 125
216 168 127
216 169 129
217 170 130
218 171 132
219 172 133
219 173 135
220 174 136
221 175 137
221 176 139
222 177 140
223 178 141
223 179 142
224 179 143
224 180 144
225 181 145
225 182 146
226 182 147
226 183 148
226 183 149
227 184 149
227 184 150
227 185 150
227 185 151
228 185 151
228 185 151
228 185 152
228 185 152
227 185 152
227 185 152
227 185 151
227 185 151
227 185 151
226 184 150
226 184 150
225 183 149
225 183 149
224 182 148
224 181 147
223 180 146
222 180 145
221 179 144
221 178 143
220 177 142
219 176 141
218 175 140
217 174 138
216 173 137
215 172 136
214 171 134
213 169 133
212 168 131
211 167 130
210 166 129
209 165 127
208 164 126
207 163 124
207 161 123
206 160 121
205 159 120
204 158 119
203 157 117
202 156 116
201 155 115
200 154 113
199 153 112
198 152 111
197 151 110
196 150 108
196 149 107
195 148 106
194 147 105
193 147 104
192 146 103
192 145 102
191 144 101
190 143 100
190 143 100
189 142 99
188 141 98
188 141 97
187 140 97
186 140 96
186 139 95
185 138 95
184 138 94
184 137 94
183 137 93
182 136 93
182 136 92
181 135 92
181 135 92
180 134 91
179 134 91
179 133 90
178 133 90
178 132 90
177 132 89
176 131 89
176 131 89
175 131 88
175 130 88
174 130 88
173 129 87
173 129 87
172 128 87
171 128 86
170 127 86
170 126 86
169 126 85
168 125 85
167 125 84
166 124 84
166 123 84
165 123 83
164 122 83
163 121 82
162 121 82
161 120 81
160 119 81
159 119 81
158 118 80
157 117 80
156 117 79
155 116 79
154 115 78
153 114 78
152 114 77
151 113 77
150 112 76
149 111 76
148 111 75
147 110 75
145 109 74
144 108 74
143 107 73
142 106 73
141 105 72
140 105 72
138 104 71
137 103 70
136 102 70
134 101 69
133 100 69
132 99 68
131 98 68
129 97 67
128 96 66
126 95 66
125 94 65
124 93 64
122 92 64
0 0 0
0 0 0
0 0 0
0 0 0
0 0 0
0 0 0
0 0 0
0 0 0
0 0 0
0 0 0
0 0 0
0 0 0
0 0 0
0 0 0
0 0 0
0 0 0
0 0 0
0 0 0
0 0 0
0 0 0
0 0 0
0 0 0
0 0 0
0 0 0
0 0 0
0 0 0
0 0 0
0 0 0
0 0 0
0 0 0
0 0 0
0 0 0
0 0 0
0 0 0
0 0 0
0 0 0
0 0 0
0 0 0
0 0 0
0 0 0
0 0 0
0 0 0
0 0 0
0 0 0
0 0 0
0 0 0
0 0 0
0 0 0
0 0 0
0 0 0
0 0 0
0 0 0
0 0 0
0 0 0
0 0 0
0 0 0
0 0 0
0 0 0
0 0 0
0 0 0
0 0 0
0 0 0
0 0 0
0 0 0
198 147 99
198 147 99
198 147 99
199 148 99
199 148 100
199 148 100
199 148 100
200 149 100
200 149 100
200 149 101
201 149 101
201 149 101
201 150 101
201 150 102
202 150 102
202 151 102
202 151 102
203 151 103
203 151 103
203 152 104
204 152 104
204 153 105
204 153 105
205 153 106
205 154 106
205 154 107
206 155 108
206 155 109
207 156 110
207 157 111
208 157 112
208 158 113
209 159 114
210 160 115
210 161 116
211 161 118
211 162 119
212 163 120
213 164 122
214 165 123
214 166 125
215 167 126
216 168 128
216 169 129
217 170 131
218 171 132
219 173 134
219 174 135
220 174 136
221 175 137
221 176 139
222 177 140
222 178 141
223 178 142
223 179 143
224 180 144
224 180 145
225 181 146
225 182 146
225 182 147
226 183 148
226 183 148
226 183 149
226 184 149
226 184 150
227 184 150
227 184 150
226 184 150
226 184 150
226 184 150
226 184 150
226 184 150
225 183 149
225 183 149
225 182 148
224 182 148
224 181 147
223 181 146
222 180 146
222 179 145
221 178 144
220 178 143
220 177 142
219 176 141
218 175 140
217 174 138
216 173 137
215 172 136
214 171 134
213 170 133
213 169 132
212 167 130
211 166 129
210 165 128
209 164 126
208 163 125
207 162 123
206 161 122
205 160 121
204 159 119
203 157 118
202 156 116
201 155 115
200 154 114
199 153 113
199 152 111
198 151 110
197 150 109
196 150 108
195 149 107
194 148 106
194 147 105
193 146 104
192 145 103
191 145 102
191 144 101
190 143 100
189 142 99
189 142 98
188 141 98
187 140 97
187 140 96
186 139 96
185 139 95
185 138 95
184 138 94
183 137 94
183 137 93
182 136 93
182 135 92
181 135 92
180 135 91
180 134 91
179 134 91
179 133 90
178 133 90
177 132 90
177 132 89
176 131 89
176 131 89
175 130 88
174 130 88
174 129 88
173 129 87
172 128 87
172 128 87
171 127 86
170 127 86
169 126 85
169 126 85
168 125 85
167 124 84
166 124 84
165 123 83
164 123 83
163 122 83
163 121 82
162 121 82
161 120 81
160 119 81
159 119 80
158 118 80
157 117 80
156 116 79
155 116 79
154 115 78
153 114 78
152 113 77
151 113 77
150 112 76
149 111 76
147 110 75
146 109 75
145 109 74
144 108 74
143 107 73
142 106 73
140 105 72
139 104 71
138 103 71
137 103 70
135 102 70
134 101 69
133 100 69
132 99 68
130 98 67
129 97 67
127 96 66
126 95 66
125 94 65
123 93 64
122 92 64
0 0 0
0 0 0
0 0 0
0 0 0
0 0 0
0 0 0
0 0 0
0 0 0
0 0 0
0 0 0
0 0 0
0 0 0
0 0 0
0 0 0
0 0 0
0 0 0
0 0 0
0 0 0
0 0 0
0 0 0
0 0 0
0 0 0
0 0 0
0 0 0
0 0 0
0 0 0
0 0 0
0 0 0
0 0 0
0 0 0
0 0 0
0 0 0
0 0 0
0 0 0
0 0 0
0 0 0
0 0 0
0 0 0
0 0 0
0 0 0
0 0 0
0 0 0
0 0 0
0 0 0
0 0 0
0 0 0
0 0 0
0 0 0
0 0 0
0 0 0
0 0 0
0 0 0
0 0 0
0 0 0
0 0 0
0 0 0
0 0 0
0 0 0
0 0 0
0 0 0
0 0 0
0 0 0
0 0 0
0 0 0
197 147 99
198 147 99
198 147 99
198 147 99
199 148 100
199 148 100
199 148 100
200 148 100
200 149 100
200 149 100
200 149 101
201 149 101
201 150 101
201 150 101
202 150 102
202 150 102
202 151 102
202 151 103
203 151 103
203 152 103
203 152 104
204 152 104
204 153 105
204 153 106
205 154 106
205 154 107
206 155 108
206 155 108
206 156 109
207 156 110
207 157 111
208 158 112
208 158 113
209 159 114
210 160 116
210 161 117
211 162 118
212 163 120
212 164 121
213 165 122
214 166 124
214 167 125
215 168 127
216 169 128
217 170 130
217 171 131
218 172 132
219 173 134
219 173 135
220 174 136
220 175 137
221 176 138
221 177 140
222 177 141
222 178 142
223 179 142
223 179 143
224 180 144
224 180 145
224 181 146
225 181 146
225 182 147
225 182 147
225 182 148
225 183 148
225 183 148
225 183 148
225 183 148
225 183 149
225 183 148
225 182 148
225 182 148
224 182 148
224 182 147
224 181 147
223 181 146
223 180 146
222 179 145
221 179 144
221 178 143
220 177 142
219 176 141
219 176 140
218 175 139
217 174 138
216 173 137
215 172 136
214 171 134
214 170 133
213 169 132
212 168 131
211 166 129
210 165 128
209 164 126
208 163 125
207 162 124
206 161 122
205 160 121
204 159 120
203 158 118
202 157 117
202 156 116
201 155 114
200 154 113
199 153 112
198 152 111
197 151 109
196 150 108
196 149 107
195 148 106
194 147 105
193 146 104
192 146 103
192 145 102
191 144 101
190 143 100
190 143 100
189 142 99
188 141 98
187 141 97
187 140 97
186 140 96
186 139 96
185 138 95
184 138 94
184 137 94
183 137 93
182 136 93
182 136 93
181 135 92
181 135 92
180 134 91
179 134 91
179 133 90
178 133 90
178 132 90
177 132 89
176 131 89
176 131 89
175 131 88
175 130 88
174 130 88
173 129 87
173 129 87
172 128 87
171 128 86
171 127 86
170 127 86
169 126 85
168 125 85
167 125 85
167 124 84
166 124 84
165 123 83
164 122 83
163 122 82
162 121 82
161 120 82
160 120 81
159 119 81
159 118 80
158 118 80
157 117 79
156 116 79
155 115 79
154 115 78
153 114 78
151 113 77
150 112 77
149 112 76
148 111 76
147 110 75
146 109 75
145 108 74
144 108 73
143 107 73
141 106 72
140 105 72
139 104 71
138 103 71
136 102 70
135 101 70
134 101 69
132 100 68
131 99 68
130 98 67
128 97 67
127 96 66
126 95 65
124 94 65
123 93 64
121 92 63
0 0 0
0 0 0
0 0 0
0 0 0
0 0 0
0 0 0
0 0 0
0 0 0
0 0 0
0 0 0
0 0 0
0 0 0
0 0 0
0 0 0
0 0 0
0 0 0
0 0 0
0 0 0
0 0 0
0 0 0
0 0 0
0 0 0
0 0 0
0 0 0
0 0 0
0 0 0
0 0 0
0 0 0
0 0 0
0 0 0
0 0 0
0 0 0
0 0 0
0 0 0
0 0 0
0 0 0
0 0 0
0 0 0
0 0 0
0 0 0
0 0 0
0 0 0
0 0 0
0 0 0
0 0 0
0 0 0
0 0 0
0 0 0
0 0 0
0 0 0
0 0 0
0 0 0
0 0 0
0 0 0
0 0 0
0 0 0
0 0 0
0 0 0
0 0 0
0 0 0
0 0 0
0 0 0
0 0 0
0 0 0
197 147 99
197 147 99
198 147 99
198 147 99
198 147 99
199 148 100
199 148 100
199 148 100
200 148 100
200 149 100
200 149 101
200 149 101
201 149 101
201 150 101
201 150 101
202 150 102
202 150 102
202 151 102
202 151 103
203 151 103
203 152 104
203 152 104
204 152 105
204 153 105
204 153 106
205 154 107
205 154 107
206 155 108
206 155 109
207 156 110
207 157 111
208 157 112
208 158 113
209 159 114
209 160 115
210 160 116
210 161 118
211 162 119
212 163 120
212 164 122
213 165 123
214 166 124
214 167 126
215 168 127
216 169 129
216 170 130
217 171 131
218 172 133
218 173 134
219 173 135
220 174 136
220 175 137
221 176 138
221 176 139
222 177 140
222 178 141
222 178 142
223 179 143
223 179 143
223 180 144
224 180 145
224 180 145
224 181 146
224 181 146
224 181 146
224 181 147
224 181 147
224 181 147
224 181 147
224 181 147
224 181 147
223 181 146
223 181 146
223 180 146
222 180 145
222 179 145
221 179 144
221 178 143
220 177 143
220 177 142
219 176 141
218 175 140
218 174 139
217 173 138
216 173 137
215 172 136
214 171 134
213 170 133
213 169 132
212 168 131
211 167 129
210 165 128
209 164 127
208 163 125
207 162 124
206 161 123
205 160 121
204 159 120
204 158 119
203 157 117
202 156 116
201 155 115
200 154 114
199 153 112
198 152 111
197 151 110
197 150 109
196 149 108
195 149 107
194 148 106
193 147 105
193 146 104
192 145 103
191 145 102
191 144 101
190 143 100
189 142 99
188 142 99
188 141 98
187 140 97
186 140 96
186 139 96
185 139 95
185 138 95
184 138 94
183 137 94
183 137 93
182 136 93
182 135 92
181 135 92
180 135 91
180 134 91
179 134 91
179 133 90
178 133 90
177 132 90
177 132 89
176 131 89
176 131 89
175 130 88
174 130 88
174 129 88
173 129 87
172 129 87
172 128 87
171 127 86
170 127 86
170 126 86
169 126 85
168 125 85
167 125 84
166 124 84
165 123 84
165 123 83
164 122 83
163 121 82
162 121 82
161 120 82
160 119 81
159 119 81
158 118 80
157 117 80
156 117 79
155 116 79
154 115 78
153 115 78
152 114 77
151 113 77
150 112 76
149 111 76
148 111 75
147 110 75
146 109 74
145 108 74
143 107 73
142 107 73
141 106 72
140 105 72
139 104 71
137 103 71
136 102 70
135 101 69
133 100 69
132 99 68
131 98 68
129 97 67
128 96 66
127 95 66
125 94 65
124 93 65
122 92 64
121 91 63
0 0 0
0 0 0
0 0 0
0 0 0
0 0 0
0 0 0
0 0 0
0 0 0
0 0 0
0 0 0
0 0 0
0 0 0
0 0 0
0 0 0
0 0 0
0 0 0
0 0 0
0 0 0
0 0 0
0 0 0
0 0 0
0 0 0
0 0 0
0 0 0
0 0 0
0 0 0
0 0 0
0 0 0
0 0 0
0 0 0
0 0 0
0 0 0
0 0 0
0 0 0
0 0 0
0 0 0
0 0 0
0 0 0
0 0 0
0 0 0
0 0 0
0 0 0
0 0 0
0 0 0
0 0 0
0 0 0
0 0 0
0 0 0
0 0 0
0 0 0
0 0 0
0 0 0
0 0 0
0 0 0
0 0 0
0 0 0
0 0 0
0 0 0
0 0 0
0 0 0
0 0 0
0 0 0
0 0 0
0 0 0
197 146 99
197 147 99
198 147 99
198 147 99
198 147 99
198 148 99
199 148 100
199 148 100
199 148 100
200 148 100
200 149 100
200 149 101
200 149 101
201 149 101
201 150 101
201 150 102
202 150 102
202 150 102
202 151 103
202 151 103
203 151 103
203 152 104
203 152 104
204 153 105
204 153 106
204 153 106
205 154 107
205 154 108
206 155 108
206 156 109
207 156 110
207 157 111
208 158 112
208 158 113
209 159 114
209 160 116
210 161 117
210 162 118
211 162 119
212 163 121
212 164 122
213 165 123
214 166 125
214 167 126
215 168 128
216 169 129
216 170 130
217 171 132
218 172 133
218 172 134
219 173 135
219 174 136
220 174 137
220 175 138
221 176 139
221 176 140
221 177 140
222 177 141
222 178 142
222 178 142
223 179 143
223 179 144
223 179 144
223 180 144
223 180 145
223 180 145
223 180 145
223 180 145
223 180 145
223 180 145
223 180 145
222 179 145
222 179 144
222 179 144
221 178 144
221 178 143
220 177 142
220 177 142
219 176 141
219 175 140
218 175 139
217 174 138
217 173 137
216 172 136
215 171 135
214 170 134
213 170 133
213 169 132
212 168 131
211 167 129
210 166 128
209 165 127
208 163 125
207 162 124
206 161 123
206 160 122
205 159 120
204 158 119
203 157 118
202 156 116
201 155 115
200 154 114
199 153 113
199 152 112
198 152 110
197 151 109
196 150 108
195 149 107
195 148 106
194 147 105
193 146 104
192 146 103
192 145 102
191 144 101
190 143 100
189 143 100
189 142 99
188 141 98
187 141 97
187 140 97
186 140 96
185 139 96
185 138 95
184 138 94
184 137 94
183 137 93
182 136 93
182 136 93
181 135 92
181 135 92
180 134 91
179 134 91
179 133 91
178 133 90
178 132 90
177 132 89
176 131 89
176 131 89
175 131 88
175 130 88
174 130 88
173 129 87
173 129 87
172 128 87
172 128 87
171 127 86
170 127 86
169 126 85
168 126 85
168 125 85
167 124 84
166 124 84
165 123 83
164 122 83
163 122 83
163 121 82
162 121 82
161 120 81
160 119 81
159 119 80
158 118 80
157 117 80
156 116 79
155 116 79
154 115 78
153 114 78
152 114 77
151 113 77
150 112 76
149 111 76
148 110 75
146 110 75
145 109 74
144 108 74
143 107 73
142 106 73
141 105 72
139 105 72
138 104 71
137 103 70
136 102 70
134 101 69
133 100 69
132 99 68
130 98 68
129 97 67
128 96 66
126 95 66
125 94 65
124 93 64
122 92 64
121 91 63
0 0 0
0 0 0
0 0 0
0 0 0
0 0 0
0 0 0
0 0 0
0 0 0
0 0 0
0 0 0
0 0 0
0 0 0
0 0 0
0 0 0
0 0 0
0 0 0
0 0 0
0 0 0
0 0 0
0 0 0
0 0 0
0 0 0
0 0 0
0 0 0
0 0 0
0 0 0
0 0 0
0 0 0
0 0 0
0 0 0
0 0 0
0 0 0
0 0 0
0 0 0
0 0 0
0 0 0
0 0 0
0 0 0
0 0 0
0 0 0
0 0 0
0 0 0
0 0 0
0 0 0
0 0 0
0 0 0
0 0 0
0 0 0
0 0 0
0 0 0
0 0 0
0 0 0
0 0 0
0 0 0
0 0 0
0 0 0
0 0 0
0 0 0
0 0 0
0 0 0
0 0 0
0 0 0
0 0 0
0 0 0
197 146 98
197 146 99
197 147 99
198 147 99
198 147 99
198 147 99
198 148 99
199 148 100
199 148 100
199 148 100
200 148 100
200 149 100
200 149 101
200 149 101
201 149 101
201 150 101
201 150 102
202 150 102
202 151 102
202 151 103
202 151 103
203 151 104
203 152 104
203 152 105
204 153 105
204 153 106
204 154 107
205 154 107
205 155 108
206 155 109
206 156 110
207 156 111
207 157 112
208 158 113
208 159 114
209 159 115
209 160 116
210 161 117
211 162 119
211 163 120
212 163 121
212 164 122
213 165 124
214 166 125
214 167 126
215 168 128
216 169 129
216 170 130
217 171 131
217 171 132
218 172 133
218 173 134
219 173 135
219 174 136
220 175 137
220 175 138
220 176 139
221 176 140
221 177 140
221 177 141
221 178 141
222 178 142
222 178 142
222 178 143
222 179 143
222 179 143
222 179 143
222 179 143
222 179 143
222 178 143
221 178 143
221 178 143
221 178 143
220 177 142
220 177 142
220 177 141
219 176 141
219 175 140
218 175 139
217 174 139
217 173 138
216 173 137
215 172 136
215 171 135
214 170 134
213 169 133
212 168 132
212 167 130
211 166 129
210 166 128
209 165 127
208 164 125
207 163 124
206 162 123
206 161 122
205 160 120
204 159 119
203 158 118
202 157 117
201 156 116
200 155 114
200 154 113
199 153 112
198 152 111
197 151 110
196 150 109
196 149 107
195 148 106
194 147 105
193 147 104
193 146 103
192 145 103
191 144 102
190 144 101
190 143 100
189 142 99
188 142 99
188 141 98
187 140 97
186 140 96
186 139 96
185 139 95
184 138 95
184 138 94
183 137 94
183 136 93
182 136 93
181 135 92
181 135 92
180 134 91
180 134 91
179 134 91
178 133 90
178 133 90
177 132 90
177 132 89
176 131 89
176 131 89
175 130 88
174 130 88
174 129 88
173 129 87
172 129 87
172 128 87
171 128 86
170 127 86
170 126 86
169 126 85
168 125 85
167 125 84
166 124 84
166 123 84
165 123 83
164 122 83
163 122 82
162 121 82
161 120 82
160 120 81
159 119 81
159 118 80
158 118 80
157 117 79
156 116 79
155 116 79
154 115 78
153 114 78
152 113 77
151 113 77
149 112 76
148 111 76
147 110 75
146 109 75
145 109 74
144 108 74
143 107 73
142 106 72
140 105 72
139 104 71
138 103 71
137 103 70
135 102 70
134 101 69
133 100 69
131 99 68
130 98 67
129 97 67
127 96 66
126 95 66
125 94 65
123 93 64
122 92 64
120 91 63
0 0 0
0 0 0
0 0 0
0 0 0
0 0 0
0 0 0
0 0 0
0 0 0
0 0 0
0 0 0
0 0 0
0 0 0
0 0 0
0 0 0
0 0 0
0 0 0
0 0 0
0 0 0
0 0 0
0 0 0
0 0 0
0 0 0
0 0 0
0 0 0
0 0 0
0 0 0
0 0 0
0 0 0
0 0 0
0 0 0
0 0 0
0 0 0
0 0 0
0 0 0
0 0 0
0 0 0
0 0 0
0 0 0
0 0 0
0 0 0
0 0 0
0 0 0
0 0 0
0 0 0
0 0 0
0 0 0
0 0 0
0 0 0
0 0 0
0 0 0
0 0 0
0 0 0
0 0 0
0 0 0
0 0 0
0 0 0
0 0 0
0 0 0
0 0 0
0 0 0
0 0 0
0 0 0
0 0 0
0 0 0
196 146 98
197 146 99
197 146 99
197 147 99
198 147 99
198 147 99
198 147 99
199 148 100
199 148 100
199 148 100
199 148 100
200 148 100
200 149 101
200 149 101
200 149 101
201 149 101
201 150 102
201 150 102
202 150 102
202 151 103
202 151 103
202 151 103
203 152 104
203 152 104
203 152 105
204 153 106
204 153 106
204 154 107
205 154 108
205 155 108
206 155 109
206 156 110
207 157 111
207 157 112
208 158 113
208 159 114
209 159 115
209 160 117
210 161 118
211 162 119
211 163 120
212 164 122
212 164 123
213 165 124
214 166 125
214 167 127
215 168 128
215 169 129
216 170 130
216 170 131
217 171 132
217 172 133
218 172 134
218 173 135
219 173 136
219 174 137
219 174 137
220 175 138
220 175 139
220 176 139
220 176 140
220 176 140
221 177 141
221 177 141
221 177 141
221 177 142
221 177 142
221 177 142
221 177 142
220 177 142
220 177 141
220 177 141
220 176 141
219 176 141
219 176 140
218 175 140
218 175 139
217 174 138
217 173 138
216 173 137
216 172 136
215 171 135
214 171 134
214 170 133
213 169 132
212 168 131
211 167 130
211 166 129
210 165 128
209 164 127
208 163 125
207 163 124
207 162 123
206 161 122
205 160 121
204 159 119
203 158 118
202 157 117
201 156 116
201 155 115
200 154 113
199 153 112
198 152 111
197 151 110
197 150 109
196 149 108
195 149 107
194 148 106
194 147 105
193 146 104
192 145 103
191 145 102
191 144 101
190 143 100
189 143 100
189 142 99
188 141 98
187 141 97
187 140 97
186 139 96
185 139 96
185 138 95
184 138 94
184 137 94
183 137 93
182 136 93
182 136 93
181 135 92
181 135 92
180 134 91
179 134 91
179 133 91
178 133 90
178 132 90
177 132 89
176 131 89
176 131 89
175 131 88
175 130 88
174 130 88
173 129 87
173 129 87
172 128 87
172 128 87
171 127 86
170 127 86
169 126 85
169 126 85
168 125 85
167 124 84
166 124 84
165 123 84
164 123 83
164 122 83
163 121 82
162 121 82
161 120 81
160 119 81
159 119 81
158 118 80
157 117 80
156 117 79
155 116 79
154 115 78
153 115 78
152 114 77
151 113 77
150 112 76
149 112 76
148 111 75
147 110 75
146 109 74
145 108 74
144 107 73
142 107 73
141 106 72
140 105 72
139 104 71
138 103 71
136 102 70
135 101 70
134 100 69
132 100 68
131 99 68
130 98 67
128 97 67
127 96 66
126 95 65
124 94 65
123 93 64
121 92 63
120 91 63
0 0 0
0 0 0
0 0 0
0 0 0
0 0 0
0 0 0
0 0 0
0 0 0
0 0 0
0 0 0
0 0 0
0 0 0
0 0 0
0 0 0
0 0 0
0 0 0
0 0 0
0 0 0
0 0 0
0 0 0
0 0 0
0 0 0
0 0 0
0 0 0
0 0 0
0 0 0
0 0 0
0 0 0
0 0 0
0 0 0
0 0 0
0 0 0
0 0 0
0 0 0
0 0 0
0 0 0
0 0 0
0 0 0
0 0 0
0 0 0
0 0 0
0 0 0
0 0 0
0 0 0
0 0 0
0 0 0
0 0 0
0 0 0
0 0 0
0 0 0
0 0 0
0 0 0
0 0 0
0 0 0
0 0 0
0 0 0
0 0 0
0 0 0
0 0 0
0 0 0
0 0 0
0 0 0
0 0 0
0 0 0
196 146 98
196 146 98
197 146 99
197 147 99
197 147 99
198 147 99
198 147 99
198 147 99
199 148 100
199 148 100
199 148 100
199 148 100
200 148 100
200 149 101
200 149 101
200 149 101
201 149 101
201 150 102
201 150 102
201 150 102
202 151 103
202 151 103
202 151 104
203 152 104
203 152 105
203 152 105
204 153 106
204 153 107
204 154 107
205 154 108
205 155 109
206 156 110
206 156 111
207 157 112
207 157 113
208 158 114
208 159 115
209 160 116
209 160 117
210 161 118
210 162 119
211 163 121
212 164 122
212 165 123
213 165 124
213 166 125
214 167 127
215 168 128
215 169 129
215 169 130
216 170 131
216 170 132
217 171 133
217 172 133
218 172 134
218 173 135
218 173 136
218 174 136
219 174 137
219 175 138
219 175 138
219 175 139
219 175 139
220 176 139
220 176 140
220 176 140
220 176 140
220 176 140
219 176 140
219 176 140
219 175 140
219 175 139
218 175 139
218 175 139
218 174 138
217 174 138
217 173 137
216 173 137
216 172 136
215 172 135
215 171 134
214 170 134
213 169 133
213 169 132
212 168 131
211 167 130
210 166 129
210 165 128
209 164 126
208 163 125
207 162 124
206 162 123
206 161 122
205 160 121
204 159 119
203 158 118
202 157 117
202 156 116
201 155 115
200 154 114
199 153 113
198 152 111
198 151 110
197 151 109
196 150 108
195 149 107
195 148 106
194 147 105
193 146 104
192 146 103
192 145 102
191 144 102
190 144 101
189 143 100
189 142 99
188 142 98
188 141 98
187 140 97
186 140 96
186 139 96
185 139 95
184 138 95
184 137 94
183 137 94
183 136 93
182 136 93
181 135 92
181 135 92
180 134 91
180 134 91
179 134 91
178 133 90
178 133 90
177 132 90
177 132 89
176 131 89
175 131 89
175 130 88
174 130 88
174 129 88
173 129 87
172 129 87
172 128 87
171 128 86
171 127 86
170 127 86
169 126 85
168 125 85
167 125 85
167 124 84
166 124 84
165 123 83
164 122 83
163 122 83
162 121 82
162 121 82
161 120 81
160 119 81
159 119 80
158 118 80
157 117 80
156 116 79
155 116 79
154 115 78
153 114 78
152 114 77
151 113 77
150 112 76
149 111 76
148 110 75
147 110 75
145 109 74
144 108 74
143 107 73
142 106 73
141 106 72
140 105 72
138 104 71
137 103 71
136 102 70
135 101 69
133 100 69
132 99 68
131 98 68
129 97 67
128 96 66
127 95 66
125 94 65
124 93 65
122 92 64
121 91 63
119 90 63
0 0 0
0 0 0
0 0 0
0 0 0
0 0 0
0 0 0
0 0 0
0 0 0
0 0 0
0 0 0
0 0 0
0 0 0
0 0 0
0 0 0
0 0 0
0 0 0
0 0 0
0 0 0
0 0 0
0 0 0
0 0 0
0 0 0
0 0 0
0 0 0
0 0 0
0 0 0
0 0 0
0 0 0
0 0 0
0 0 0
0 0 0
0 0 0
0 0 0
0 0 0
0 0 0
0 0 0
0 0 0
0 0 0
0 0 0
0 0 0
0 0 0
0 0 0
0 0 0
0 0 0
0 0 0
0 0 0
0 0 0
0 0 0
0 0 0
0 0 0
0 0 0
0 0 0
0 0 0
0 0 0
0 0 0
0 0 0
0 0 0
0 0 0
0 0 0
0 0 0
0 0 0
0 0 0
0 0 0
0 0 0
196 146 98
196 146 98
197 146 98
197 146 99
197 147 99
197 147 99
198 147 99
198 147 99
198 147 99
198 148 100
199 148 100
199 148 100
199 148 100
200 149 100
200 149 101
200 149 101
200 149 101
201 149 101
201 150 102
201 150 102
201 150 102
202 151 103
202 151 103
202 151 104
203 152 104
203 152 105
203 153 105
204 153 106
204 153 107
204 154 108
205 155 108
205 155 109
206 156 110
206 156 111
207 157 112
207 158 113
208 158 114
208 159 115
209 160 116
209 161 117
210 161 118
210 162 120
211 163 121
211 164 122
212 164 123
213 165 124
213 166 125
214 167 127
214 168 128
215 168 129
215 169 129
215 169 130
216 170 131
216 170 132
217 171 133
217 172 133
217 172 134
217 172 135
218 173 135
218 173 136
218 174 136
218 174 137
218 174 137
218 174 138
218 174 138
218 174 138
218 174 138
218 174 138
218 174 138
218 174 138
218 174 138
218 174 138
217 174 137
217 173 137
217 173 137
216 172 136
216 172 136
215 171 135
215 171 134
214 170 134
214 170 133
213 169 132
212 168 131
212 167 130
211 167 129
210 166 128
209 165 127
209 164 126
208 163 125
207 162 124
206 161 123
206 161 122
205 160 121
204 159 119
203 158 118
202 157 117
202 156 116
201 155 115
200 154 114
199 153 113
199 152 112
198 152 111
197 151 110
196 150 108
195 149 107
195 148 106
194 147 105
193 147 105
193 146 104
192 145 103
191 144 102
190 144 101
190 143 100
189 142 99
188 142 99
188 141 98
187 141 97
186 140 97
186 139 96
185 139 96
185 138 95
184 138 94
183 137 94
183 137 93
182 136 93
182 136 93
181 135 92
180 135 92
180 134 91
179 134 91
179 133 90
178 133 90
178 132 90
177 132 89
176 131 89
176 131 89
175 131 88
175 130 88
174 130 88
173 129 87
173 129 87
172 128 87
172 128 87
171 127 86
170 127 86
169 126 86
169 126 85
168 125 85
167 125 84
166 124 84
166 123 84
165 123 83
164 122 83
163 122 82
162 121 82
161 120 82
160 120 81
159 119 81
159 118 80
158 118 80
157 117 79
156 116 79
155 116 79
154 115 78
153 114 78
152 113 77
151 113 77
150 112 76
148 111 76
147 110 75
146 109 75
145 109 74
144 108 74
143 107 73
142 106 73
140 105 72
139 104 71
138 104 71
137 103 70
136 102 70
134 101 69
133 100 69
132 99 68
130 98 67
129 97 67
128 96 66
126 95 66
125 94 65
123 93 64
122 92 64
121 91 63
119 90 63
0 0 0
0 0 0
0 0 0
0 0 0
0 0 0
0 0 0
0 0 0
0 0 0
0 0 0
0 0 0
0 0 0
0 0 0
0 0 0
0 0 0
0 0 0
0 0 0
0 0 0
0 0 0
0 0 0
0 0 0
0 0 0
0 0 0
0 0 0
0 0 0
0 0 0
0 0 0
0 0 0
0 0 0
0 0 0
0 0 0
0 0 0
0 0 0
0 0 0
0 0 0
0 0 0
0 0 0
0 0 0
0 0 0
0 0 0
0 0 0
0 0 0
0 0 0
0 0 0
0 0 0
0 0 0
0 0 0
0 0 0
0 0 0
0 0 0
0 0 0
0 0 0
0 0 0
0 0 0
0 0 0
0 0 0
0 0 0
0 0 0
0 0 0
0 0 0
0 0 0
0 0 0
0 0 0
0 0 0
0 0 0
196 145 98
196 146 98
196 146 98
197 146 98
197 146 99
197 147 99
197 147 99
198 147 99
198 147 99
198 147 99
198 148 100
199 148 100
199 148 100
199 148 100
200 149 100
200 149 101
200 149 101
200 149 101
201 150 102
201 150 102
201 150 102
201 150 103
202 151 103
202 151 104
202 151 104
203 152 105
203 152 105
203 153 106
204 153 106
204 154 107
204 154 108
205 155 109
205 155 109
206 156 110
206 156 111
207 157 112
207 158 113
208 158 114
208 159 115
209 160 116
209 161 118
210 161 119
210 162 120
211 163 121
211 164 122
212 164 123
212 165 124
213 166 125
213 167 126
214 167 127
214 168 128
214 168 129
215 169 130
215 169 130
215 170 131
216 170 132
216 171 133
216 171 133
217 172 134
217 172 134
217 172 135
217 172 135
217 173 136
217 173 136
217 173 136
217 173 136
217 173 136
217 173 136
217 173 136
217 173 136
217 173 136
216 172 136
216 172 136
216 172 135
215 171 135
215 171 134
215 171 134
214 170 133
214 169 133
213 169 132
212 168 131
212 168 130
211 167 130
211 166 129
210 165 128
209 165 127
208 164 126
208 163 125
207 162 124
206 161 123
206 160 122
205 160 120
204 159 119
203 158 118
202 157 117
202 156 116
201 155 115
200 154 114
199 153 113
199 153 112
198 152 111
197 151 110
196 150 109
196 149 108
195 148 107
194 148 106
193 147 105
193 146 104
192 145 103
191 145 102
191 144 101
190 143 101
189 143 100
189 142 99
188 141 98
187 141 98
187 140 97
186 140 96
185 139 96
185 138 95
184 138 95
184 137 94
183 137 94
182 136 93
182 136 93
181 135 92
181 135 92
180 134 91
179 134 91
179 133 91
178 133 90
178 133 90
177 132 90
177 132 89
176 131 89
175 131 89
175 130 88
174 130 88
174 129 88
173 129 87
172 128 87
172 128 87
171 128 86
171 127 86
170 127 86
169 126 85
168 125 85
168 125 85
167 124 84
166 124 84
165 123 83
164 123 83
164 122 83
163 121 82
162 121 82
161 120 81
160 119 81
159 119 81
158 118 80
157 117 80
156 117 79
155 116 79
154 115 78
153 115 78
152 114 77
151 113 77
150 112 76
149 112 76
148 111 76
147 110 75
146 109 74
145 108 74
144 108 73
142 107 73
141 106 72
140 105 72
139 104 71
138 103 71
136 102 70
135 101 70
134 101 69
133 100 68
131 99 68
130 98 67
129 97 67
127 96 66
126 95 65
124 94 65
123 93 64
122 92 64
120 91 63
119 90 62
0 0 0
0 0 0
0 0 0
0 0 0
0 0 0
0 0 0
0 0 0
0 0 0
0 0 0
0 0 0
0 0 0
0 0 0
0 0 0
0 0 0
0 0 0
0 0 0
0 0 0
0 0 0
0 0 0
0 0 0
0 0 0
0 0 0
0 0 0
0 0 0
0 0 0
0 0 0
0 0 0
0 0 0
0 0 0
0 0 0
0 0 0
0 0 0
0 0 0
0 0 0
0 0 0
0 0 0
0 0 0
0 0 0
0 0 0
0 0 0
0 0 0
0 0 0
0 0 0
0 0 0
0 0 0
0 0 0
0 0 0
0 0 0
0 0 0
0 0 0
0 0 0
0 0 0
0 0 0
0 0 0
0 0 0
0 0 0
0 0 0
0 0 0
0 0 0
0 0 0
0 0 0
0 0 0
0 0 0
0 0 0
195 145 98
196 145 98
196 146 98
196 146 98
197 146 98
197 146 99
197 147 99
197 147 99
198 147 99
198 147 99
198 147 99
198 148 100
199 148 100
199 148 100
199 148 100
199 148 101
200 149 101
200 149 101
200 149 101
200 149 102
201 150 102
201 150 102
201 150 103
202 151 103
202 151 104
202 151 104
203 152 105
203 152 105
203 153 106
204 153 107
204 154 107
204 154 108
205 155 109
205 155 110
206 156 111
206 156 112
207 157 112
207 158 113
207 158 114
208 159 116
208 160 117
209 160 118
209 161 119
210 162 120
210 163 121
211 163 122
211 164 123
212 165 124
212 165 125
213 166 126
213 167 127
213 167 127
214 168 128
214 168 129
214 169 130
215 169 130
215 169 131
215 170 132
215 170 132
216 171 133
216 171 133
216 171 133
216 171 134
216 171 134
216 172 134
216 172 135
216 172 135
216 172 135
216 172 135
216 171 135
215 171 134
215 171 134
215 171 134
215 170 134
214 170 133
214 170 133
213 169 132
213 169 132
212 168 131
212 168 130
211 167 130
211 166 129
210 166 128
210 165 127
209 164 126
208 163 125
208 163 124
207 162 123
206 161 122
205 160 121
205 159 120
204 159 119
203 158 118
202 157 117
202 156 116
201 155 115
200 154 114
199 153 113
199 153 112
198 152 111
197 151 110
196 150 109
196 149 108
195 149 107
194 148 106
194 147 105
193 146 104
192 146 103
191 145 102
191 144 102
190 144 101
189 143 100
189 142 99
188 142 99
187 141 98
187 140 97
186 140 97
186 139 96
185 139 95
184 138 95
184 138 94
183 137 94
183 137 93
182 136 93
181 136 92
181 135 92
180 135 92
180 134 91
179 134 91
179 133 90
178 133 90
177 132 90
177 132 89
176 131 89
176 131 89
175 130 88
174 130 88
174 130 88
173 129 87
173 129 87
172 128 87
171 128 86
171 127 86
170 127 86
170 126 86
169 126 85
168 125 85
167 125 84
166 124 84
166 123 84
165 123 83
164 122 83
163 122 82
162 121 82
161 120 82
161 120 81
160 119 81
159 118 80
158 118 80
157 117 80
156 116 79
155 116 79
154 115 78
153 114 78
152 114 77
151 113 77
150 112 76
149 111 76
148 110 75
147 110 75
145 109 74
144 108 74
143 107 73
142 106 73
141 106 72
140 105 72
138 104 71
137 103 71
136 102 70
135 101 69
133 100 69
132 99 68
131 98 68
129 97 67
128 96 66
127 95 66
125 95 65
124 94 65
123 92 64
121 91 63
120 90 63
118 89 62
0 0 0
0 0 0
0 0 0
0 0 0
0 0 0
0 0 0
0 0 0
0 0 0
0 0 0
0 0 0
0 0 0
0 0 0
0 0 0
0 0 0
0 0 0
0 0 0
0 0 0
0 0 0
0 0 0
0 0 0
0 0 0
0 0 0
0 0 0
0 0 0
0 0 0
0 0 0
0 0 0
0 0 0
0 0 0
0 0 0
0 0 0
0 0 0
0 0 0
0 0 0
0 0 0
0 0 0
0 0 0
0 0 0
0 0 0
0 0 0
0 0 0
0 0 0
0 0 0
0 0 0
0 0 0
0 0 0
0 0 0
0 0 0
0 0 0
0 0 0
0 0 0
0 0 0
0 0 0
0 0 0
0 0 0
0 0 0
0 0 0
0 0 0
0 0 0
0 0 0
0 0 0
0 0 0
0 0 0
0 0 0
195 145 98
195 145 98
196 145 98
196 146 98
196 146 98
196 146 98
197 146 99
197 146 99
197 147 99
198 147 99
198 147 99
198 147 99
198 148 100
199 148 100
199 148 100
199 148 100
199 148 101
200 149 101
200 149 101
200 149 101
200 149 102
201 150 102
201 150 102
201 150 103
201 151 103
202 151 104
202 151 104
202 152 105
203 152 105
203 153 106
203 153 107
204 154 107
204 154 108
205 155 109
205 155 110
205 156 111
206 156 112
206 157 113
207 158 114
207 158 115
208 159 116
208 160 117
209 160 118
209 161 119
210 162 120
210 162 121
211 163 122
211 164 123
211 164 124
212 165 124
212 165 125
213 166 126
213 166 127
213 167 127
213 167 128
214 168 129
214 168 129
214 169 130
214 169 130
215 169 131
215 169 131
215 170 132
215 170 132
215 170 132
215 170 133
215 170 133
215 170 133
215 170 133
215 170 133
214 170 133
214 170 133
214 170 132
214 169 132
213 169 132
213 169 131
213 168 131
212 168 130
212 167 130
211 167 129
211 166 129
210 166 128
210 165 127
209 164 126
208 164 126
208 163 125
207 162 124
207 162 123
206 161 122
205 160 121
204 159 120
204 158 119
203 158 118
202 157 117
202 156 116
201 155 115
200 154 114
199 153 113
199 153 112
198 152 111
197 151 110
197 150 109
196 149 108
195 149 107
194 148 106
194 147 105
193 146 104
192 146 103
192 145 103
191 144 102
190 144 101
190 143 100
189 142 99
188 142 99
188 141 98
187 141 97
186 140 97
186 139 96
185 139 96
185 138 95
184 138 95
183 137 94
183 137 94
182 136 93
182 136 93
181 135 92
180 135 92
180 134 91
179 134 91
179 133 91
178 133 90
178 132 90
177 132 90
176 131 89
176 131 89
175 131 88
175 130 88
174 130 88
173 129 88
173 129 87
172 128 87
172 128 87
171 127 86
170 127 86
170 127 86
169 126 85
168 125 85
168 125 85
167 124 84
166 124 84
165 123 83
164 123 83
164 122 83
163 121 82
162 121 82
161 120 81
160 119 81
159 119 81
158 118 80
157 117 80
156 117 79
155 116 79
154 115 78
153 115 78
152 114 77
151 113 77
150 112 77
149 112 76
148 111 76
147 110 75
146 109 75
145 108 74
144 108 74
143 107 73
141 106 72
140 105 72
139 104 71
138 103 71
137 103 70
135 102 70
134 101 69
133 100 69
132 99 68
130 98 67
129 97 67
127 96 66
126 95 66
125 94 65
123 93 64
122 92 64
120 91 63
119 90 62
117 89 62
0 0 0
0 0 0
0 0 0
0 0 0
0 0 0
0 0 0
0 0 0
0 0 0
0 0 0
0 0 0
0 0 0
0 0 0
0 0 0
0 0 0
0 0 0
0 0 0
0 0 0
0 0 0
0 0 0
0 0 0
0 0 0
0 0 0
0 0 0
0 0 0
0 0 0
0 0 0
0 0 0
0 0 0
0 0 0
0 0 0
0 0 0
0 0 0
0 0 0
0 0 0
0 0 0
0 0 0
0 0 0
0 0 0
0 0 0
0 0 0
0 0 0
0 0 0
0 0 0
0 0 0
0 0 0
0 0 0
0 0 0
0 0 0
0 0 0
0 0 0
0 0 0
0 0 0
0 0 0
0 0 0
0 0 0
0 0 0
0 0 0
0 0 0
0 0 0
0 0 0
0 0 0
0 0 0
0 0 0
0 0 0
195 145 97
195 145 98
195 145 98
196 145 98
196 146 98
196 146 98
196 146 98
197 146 99
197 146 99
197 147 99
197 147 99
198 147 99
198 147 99
198 147 100
198 148 100
199 148 100
199 148 100
199 148 101
199 149 101
200 149 101
200 149 101
200 149 102
201 150 102
201 150 102
201 150 103
201 151 103
202 151 104
202 151 104
202 152 105
203 152 106
203 153 106
203 153 107
204 154 108
204 154 108
204 155 109
205 155 110
205 156 111
206 156 112
206 157 113
207 158 114
207 158 114
207 159 115
208 159 116
208 160 117
209 161 118
209 161 119
210 162 120
210 163 121
211 163 122
211 164 123
211 164 124
212 165 125
212 165 125
212 166 126
212 166 127
213 167 127
213 167 128
213 167 128
213 168 129
213 168 129
214 168 130
214 168 130
214 169 130
214 169 131
214 169 131
214 169 131
214 169 131
214 169 131
213 169 131
213 169 131
213 168 131
213 168 131
213 168 130
212 168 130
212 167 130
212 167 129
211 166 129
211 166 128
210 165 128
210 165 127
209 164 126
209 164 126
208 163 125
207 162 124
207 162 123
206 161 122
206 160 121
205 160 121
204 159 120
204 158 119
203 157 118
202 157 117
201 156 116
201 155 115
200 154 114
199 153 113
199 153 112
198 152 111
197 151 110
197 150 109
196 150 108
195 149 107
194 148 106
194 147 105
193 147 104
192 146 104
192 145 103
191 144 102
190 144 101
190 143 100
189 143 100
188 142 99
188 141 98
187 141 98
187 140 97
186 140 96
185 139 96
185 138 95
184 138 95
184 137 94
183 137 94
182 136 93
182 136 93
181 135 92
181 135 92
180 134 91
179 134 91
179 133 91
178 133 90
178 133 90
177 132 90
177 132 89
176 131 89
175 131 89
175 130 88
174 130 88
174 129 88
173 129 87
172 129 87
172 128 87
171 128 86
171 127 86
170 127 86
169 126 85
169 126 85
168 125 85
167 125 84
166 124 84
166 123 84
165 123 83
164 122 83
163 122 82
162 121 82
161 120 82
161 120 81
160 119 81
159 118 80
158 118 80
157 117 80
156 116 79
155 116 79
154 115 78
153 114 78
152 114 77
151 113 77
150 112 76
149 111 76
148 110 75
147 110 75
146 109 74
144 108 74
143 107 73
142 106 73
141 106 72
140 105 72
138 104 71
137 103 71
136 102 70
135 101 69
133 100 69
132 99 68
131 98 68
130 97 67
128 97 67
127 96 66
125 95 65
124 94 65
123 93 64
121 92 63
120 90 63
118 89 62
117 88 61
0 0 0
0 0 0
0 0 0
0 0 0
0 0 0
0 0 0
0 0 0
0 0 0
0 0 0
0 0 0
0 0 0
0 0 0
0 0 0
0 0 0
0 0 0
0 0 0
0 0 0
0 0 0
0 0 0
0 0 0
0 0 0
0 0 0
0 0 0
0 0 0
0 0 0
0 0 0
0 0 0
0 0 0
0 0 0
0 0 0
0 0 0
0 0 0
0 0 0
0 0 0
0 0 0
0 0 0
0 0 0
0 0 0
0 0 0
0 0 0
0 0 0
0 0 0
0 0 0
0 0 0
0 0 0
0 0 0
0 0 0
0 0 0
0 0 0
0 0 0
0 0 0
0 0 0
0 0 0
0 0 0
0 0 0
0 0 0
0 0 0
0 0 0
0 0 0
0 0 0
0 0 0
0 0 0
0 0 0
0 0 0
194 144 97
195 145 97
195 145 98
195 145 98
195 145 98
196 146 98
196 146 98
196 146 98
197 146 99
197 146 99
197 147 99
197 147 99
198 147 99
198 147 99
198 147 100
198 148 100
199 148 100
199 148 100
199 148 101
199 149 101
200 149 101
200 149 101
200 149 102
200 150 102
201 150 103
201 150 103
201 151 103
202 151 104
202 151 104
202 152 105
202 152 106
203 153 106
203 153 107
203 153 108
204 154 108
204 154 109
205 155 110
205 156 111
205 156 112
206 157 113
206 157 113
207 158 114
207 159 115
208 159 116
208 160 117
208 160 118
209 161 119
209 162 120
210 162 121
210 163 122
210 163 122
211 164 123
211 164 124
211 165 124
211 165 125
212 165 126
212 166 126
212 166 127
212 166 127
212 167 128
212 167 128
213 167 128
213 167 129
213 167 129
213 167 129
213 167 129
213 167 129
212 167 129
212 167 129
212 167 129
212 167 129
212 167 129
211 167 129
211 166 128
211 166 128
210 166 128
210 165 127
210 165 127
209 164 126
209 164 125
208 163 125
208 163 124
207 162 123
206 161 123
206 161 122
205 160 121
205 159 120
204 159 119
203 158 118
203 157 117
202 156 116
201 156 116
201 155 115
200 154 114
199 153 113
199 153 112
198 152 111
197 151 110
197 150 109
196 150 108
195 149 107
194 148 106
194 147 105
193 147 105
192 146 104
192 145 103
191 145 102
190 144 101
190 143 101
189 143 100
189 142 99
188 141 98
187 141 98
187 140 97
186 140 97
185 139 96
185 139 95
184 138 95
184 137 94
183 137 94
183 136 93
182 136 93
181 135 92
181 135 92
180 135 92
180 134 91
179 134 91
178 133 90
178 133 90
177 132 90
177 132 89
176 131 89
176 131 89
175 130 88
174 130 88
174 130 88
173 129 87
173 129 87
172 128 87
171 128 87
171 127 86
170 127 86
170 126 86
169 126 85
168 125 85
168 125 85
167 124 84
166 124 84
165 123 83
164 123 83
164 122 83
163 121 82
162 121 82
161 120 81
160 119 81
159 119 81
158 118 80
157 117 80
156 117 79
155 116 79
154 115 78
153 115 78
152 114 77
151 113 77
150 112 77
149 112 76
148 111 76
147 110 75
146 109 75
145 109 74
144 108 74
143 107 73
142 106 72
140 105 72
139 104 71
138 103 71
137 103 70
135 102 70
134 101 69
133 100 69
132 99 68
130 98 67
129 97 67
128 96 66
126 95 66
125 94 65
123 93 64
122 92 64
120 91 63
119 90 62
117 89 62
116 88 61
0 0 0
0 0 0
0 0 0
0 0 0
0 0 0
0 0 0
0 0 0
0 0 0
0 0 0
0 0 0
0 0 0
0 0 0
0 0 0
0 0 0
0 0 0
0 0 0
0 0 0
0 0 0
0 0 0
0 0 0
0 0 0
0 0 0
0 0 0
0 0 0
0 0 0
0 0 0
0 0 0
0 0 0
0 0 0
0 0 0
0 0 0
0 0 0
0 0 0
0 0 0
0 0 0
0 0 0
0 0 0
0 0 0
0 0 0
0 0 0
0 0 0
0 0 0
0 0 0
0 0 0
0 0 0
0 0 0
0 0 0
0 0 0
0 0 0
0 0 0
0 0 0
0 0 0
0 0 0
0 0 0
0 0 0
0 0 0
0 0 0
0 0 0
0 0 0
0 0 0
0 0 0
0 0 0
0 0 0
0 0 0
194 144 97
194 144 97
194 145 97
195 145 98
195 145 98
195 145 98
196 145 98
196 146 98
196 146 98
196 146 99
197 146 99
197 146 99
197 147 99
197 147 99
198 147 99
198 147 100
198 148 100
198 148 100
199 148 100
199 148 101
199 148 101
199 149 101
200 149 101
200 149 102
200 150 102
200 150 103
201 150 103
201 150 103
201 151 104
202 151 104
202 152 105
202 152 106
203 152 106
203 153 107
203 153 108
204 154 108
204 154 109
204 155 110
205 155 111
205 156 112
206 157 112
206 157 113
206 158 114
207 158 115
207 159 116
208 160 117
208 160 118
208 161 119
209 161 120
209 162 120
209 162 121
210 163 122
210 163 122
210 163 123
210 164 123
211 164 124
211 164 125
211 165 125
211 165 126
211 165 126
211 165 126
211 166 127
211 166 127
211 166 127
211 166 127
211 166 127
211 166 128
211 166 128
211 166 128
211 166 127
211 166 127
211 165 127
210 165 127
210 165 127
210 165 126
209 164 126
209 164 125
208 163 125
208 163 124
208 162 124
207 162 123
207 161 122
206 161 122
205 160 121
205 159 120
204 159 119
204 158 119
203 157 118
202 157 117
202 156 116
201 155 115
200 155 114
200 154 113
199 153 113
199 152 112
198 152 111
197 151 110
197 150 109
196 150 108
195 149 107
195 148 106
194 147 105
193 147 105
193 146 104
192 145 103
191 145 102
191 144 101
190 143 101
189 143 100
189 142 99
188 142 99
187 141 98
187 140 97
186 140 97
186 139 96
185 139 96
184 138 95
184 138 94
183 137 94
183 137 94
182 136 93
182 136 93
181 135 92
180 135 92
180 134 91
179 134 91
179 133 91
178 133 90
177 132 90
177 132 90
176 131 89
176 131 89
175 131 89
175 130 88
174 130 88
173 129 88
173 129 87
172 128 87
172 128 87
171 127 86
170 127 86
170 127 86
169 126 85
169 126 85
168 125 85
167 125 84
166 124 84
166 123 84
165 123 83
164 122 83
163 122 82
162 121 82
161 120 82
160 120 81
160 119 81
159 118 80
158 118 80
157 117 80
156 116 79
155 116 79
154 115 78
153 114 78
152 114 77
151 113 77
150 112 76
149 111 76
148 111 75
147 110 75
146 109 74
144 108 74
143 107 73
142 106 73
141 106 72
140 105 72
139 104 71
137 103 71
136 102 70
135 101 69
134 100 69
132 99 68
131 98 68
130 98 67
128 97 67
127 96 66
125 95 65
124 94 65
123 93 64
121 92 63
120 90 63
118 89 62
117 88 61
115 87 61
0 0 0
0 0 0
0 0 0
0 0 0
0 0 0
0 0 0
0 0 0
0 0 0
0 0 0
0 0 0
0 0 0
0 0 0
0 0 0
0 0 0
0 0 0
0 0 0
0 0 0
0 0 0
0 0 0
0 0 0
0 0 0
0 0 0
0 0 0
0 0 0
0 0 0
0 0 0
0 0 0
0 0 0
0 0 0
0 0 0
0 0 0
0 0 0
0 0 0
0 0 0
0 0 0
0 0 0
0 0 0
0 0 0
0 0 0
0 0 0
0 0 0
0 0 0
0 0 0
0 0 0
0 0 0
0 0 0
0 0 0
0 0 0
0 0 0
0 0 0
0 0 0
0 0 0
0 0 0
0 0 0
0 0 0
0 0 0
0 0 0
0 0 0
0 0 0
0 0 0
0 0 0
0 0 0
0 0 0
0 0 0
194 144 97
194 144 97
194 144 97
194 145 97
195 145 98
195 145 98
195 145 98
196 145 98
196 146 98
196 146 98
196 146 98
197 146 99
197 146 99
197 147 99
197 147 99
198 147 99
198 147 100
198 147 100
198 148 100
199 148 100
199 148 101
199 148 101
199 149 101
200 149 101
200 149 102
200 149 102
200 150 103
201 150 103
201 150 103
201 151 104
201 151 104
202 152 105
202 152 106
202 152 106
203 153 107
203 153 108
203 154 108
204 154 109
204 155 110
205 155 111
205 156 112
205 156 112
206 157 113
206 157 114
206 158 115
207 159 116
207 159 117
208 160 118
208 160 118
208 161 119
208 161 120
209 161 120
209 162 121
209 162 121
209 163 122
210 163 123
210 163 123
210 164 123
210 164 124
210 164 124
210 164 125
210 164 125
210 165 125
210 165 125
210 165 126
210 165 126
210 165 126
210 165 126
210 165 126
210 164 126
210 164 126
209 164 125
209 164 125
209 164 125
209 163 125
208 163 124
208 163 124
207 162 123
207 162 123
206 161 122
206 161 122
206 160 121
205 160 120
204 159 120
204 158 119
203 158 118
203 157 117
202 156 116
202 156 116
201 155 115
200 154 114
200 154 113
199 153 112
198 152 111
198 152 111
197 151 110
196 150 109
196 150 108
195 149 107
194 148 106
194 147 105
193 147 105
193 146 104
192 145 103
191 145 102
191 144 102
190 143 101
189 143 100
189 142 99
188 142 99
188 141 98
187 140 97
186 140 97
186 139 96
185 139 96
185 138 95
184 138 95
183 137 94
183 137 94
182 136 93
182 136 93
181 135 92
180 135 92
180 134 91
179 134 91
179 133 91
178 133 90
178 132 90
177 132 90
177 132 89
176 131 89
175 131 89
175 130 88
174 130 88
174 129 88
173 129 87
172 128 87
172 128 87
171 128 86
171 127 86
170 127 86
169 126 85
169 126 85
168 125 85
167 125 85
167 124 84
166 124 84
165 123 83
164 122 83
163 122 83
163 121 82
162 121 82
161 120 81
160 119 81
159 119 81
158 118 80
157 117 80
156 117 79
155 116 79
154 115 78
153 115 78
152 114 77
151 113 77
150 112 77
149 112 76
148 111 76
147 110 75
146 109 75
145 109 74
144 108 74
143 107 73
142 106 72
140 105 72
139 104 71
138 103 71
137 103 70
135 102 70
134 101 69
133 100 69
132 99 68
130 98 67
129 97 67
128 96 66
126 95 66
125 94 65
123 93 64
122 92 64
120 91 63
119 90 62
117 89 62
116 88 61
114 87 60
0 0 0
0 0 0
0 0 0
0 0 0
0 0 0
0 0 0
0 0 0
0 0 0
0 0 0
0 0 0
0 0 0
0 0 0
0 0 0
0 0 0
0 0 0
0 0 0
0 0 0
0 0 0
0 0 0
0 0 0
0 0 0
0 0 0
0 0 0
0 0 0
0 0 0
0 0 0
0 0 0
0 0 0
0 0 0
0 0 0
0 0 0
0 0 0
0 0 0
0 0 0
0 0 0
0 0 0
0 0 0
0 0 0
0 0 0
0 0 0
0 0 0
0 0 0
0 0 0
0 0 0
0 0 0
0 0 0
0 0 0
0 0 0
0 0 0
0 0 0
0 0 0
0 0 0
0 0 0
0 0 0
0 0 0
0 0 0
0 0 0
0 0 0
0 0 0
0 0 0
0 0 0
0 0 0
0 0 0
0 0 0
193 144 97
193 144 97
194 144 97
194 144 97
194 144 97
195 145 98
195 145 98
195 145 98
195 145 98
196 146 98
196 146 98
196 146 98
196 146 99
197 146 99
197 147 99
197 147 99
197 147 99
198 147 100
198 147 100
198 148 100
198 148 100
199 148 100
199 148 101
199 149 101
199 149 101
200 149 102
200 149 102
200 150 103
200 150 103
201 150 103
201 151 104
201 151 104
202 151 105
202 152 106
202 152 106
202 153 107
203 153 108
203 154 108
203 154 109
204 155 110
204 155 111
205 156 111
205 156 112
205 157 113
206 157 114
206 158 115
206 158 116
207 159 116
207 159 117
207 160 118
208 160 118
208 160 119
208 161 119
208 161 120
208 161 120
209 162 121
209 162 121
209 162 122
209 163 122
209 163 123
209 163 123
209 163 123
209 163 124
209 163 124
209 163 124
209 163 124
209 163 124
209 163 124
209 163 124
209 163 124
208 163 124
208 163 124
208 163 123
208 162 123
207 162 123
207 162 122
207 161 122
206 161 122
206 160 121
205 160 121
205 159 120
204 159 119
204 158 119
203 158 118
203 157 117
202 157 117
202 156 116
201 155 115
201 155 114
200 154 114
199 153 113
199 153 112
198 152 111
198 151 110
197 151 110
196 150 109
196 149 108
195 149 107
194 148 106
194 147 105
193 147 105
193 146 104
192 145 103
191 145 102
191 144 102
190 144 101
189 143 100
189 142 99
188 142 99
188 141 98
187 141 98
186 140 97
186 139 96
185 139 96
185 138 95
184 138 95
183 137 94
183 137 94
182 136 93
182 136 93
181 135 92
181 135 92
180 134 92
179 134 91
179 133 91
178 133 90
178 133 90
177 132 90
177 132 89
176 131 89
176 131 89
175 130 88
174 130 88
174 129 88
173 129 87
173 129 87
172 128 87
171 128 86
171 127 86
170 127 86
170 126 86
169 126 85
168 125 85
168 125 85
167 124 84
166 124 84
165 123 84
165 123 83
164 122 83
163 122 82
162 121 82
161 120 82
160 120 81
160 119 81
159 118 80
158 118 80
157 117 80
156 116 79
155 116 79
154 115 78
153 114 78
152 114 77
151 113 77
150 112 76
149 111 76
148 111 75
147 110 75
146 109 74
144 108 74
143 107 73
142 106 73
141 106 72
140 105 72
139 104 71
137 103 71
136 102 70
135 101 69
134 100 69
132 99 68
131 98 68
130 98 67
128 97 67
127 96 66
125 95 65
124 94 65
123 93 64
121 91 63
120 90 63
118 89 62
117 88 61
115 87 61
113 86 60
0 0 0
0 0 0
0 0 0
0 0 0
0 0 0
0 0 0
0 0 0
0 0 0
0 0 0
0 0 0
0 0 0
0 0 0
0 0 0
0 0 0
0 0 0
0 0 0
0 0 0
0 0 0
0 0 0
0 0 0
0 0 0
0 0 0
0 0 0
0 0 0
0 0 0
0 0 0
0 0 0
0 0 0
0 0 0
0 0 0
0 0 0
0 0 0
0 0 0
0 0 0
0 0 0
0 0 0
0 0 0
0 0 0
0 0 0
0 0 0
0 0 0
0 0 0
0 0 0
0 0 0
0 0 0
0 0 0
0 0 0
0 0 0
0 0 0
0 0 0
0 0 0
0 0 0
0 0 0
0 0 0
0 0 0
0 0 0
0 0 0
0 0 0
0 0 0
0 0 0
0 0 0
0 0 0
0 0 0
0 0 0
193 143 97
193 144 97
193 144 97
194 144 97
194 144 97
194 144 97
195 145 97
195 145 98
195 145 98
195 145 98
196 145 98
196 146 98
196 146 98
196 146 99
197 146 99
197 146 99
197 147 99
197 147 99
198 147 99
198 147 100
198 147 100
198 148 100
198 148 100
199 148 101
199 148 101
199 149 101
199 149 102
200 149 102
200 150 103
200 150 103
200 150 103
201 151 104
201 151 104
201 151 105
202 152 106
202 152 106
202 152 107
203 153 108
203 153 108
203 154 109
204 154 110
204 155 110
204 155 111
205 156 112
205 156 113
205 157 114
206 157 114
206 158 115
206 158 116
206 159 116
207 159 117
207 159 117
207 160 118
207 160 119
207 160 119
208 161 120
208 161 120
208 161 120
208 161 121
208 162 121
208 162 121
208 162 122
208 162 122
208 162 122
208 162 122
208 162 122
208 162 122
208 162 122
208 162 122
208 162 122
207 162 122
207 161 122
207 161 122
207 161 122
206 161 121
206 160 121
206 160 120
205 160 120
205 159 120
204 159 119
204 158 118
203 158 118
203 157 117
202 157 117
202 156 116
201 156 115
201 155 115
200 154 114
200 154 113
199 153 112
199 152 112
198 152 111
197 151 110
197 151 109
196 150 108
196 149 108
195 149 107
194 148 106
194 147 105
193 147 105
193 146 104
192 145 103
191 145 102
191 144 102
190 144 101
189 143 100
189 142 100
188 142 99
188 141 98
187 141 98
186 140 97
186 140 96
185 139 96
185 138 95
184 138 95
184 137 94
183 137 94
182 136 93
182 136 93
181 135 93
181 135 92
180 135 92
180 134 91
179 134 91
178 133 91
178 133 90
177 132 90
177 132 89
176 131 89
176 131 89
175 130 88
174 130 88
174 130 88
173 129 88
173 129 87
172 128 87
172 128 87
171 127 86
170 127 86
170 126 86
169 126 85
169 126 85
168 125 85
167 125 84
167 124 84
166 124 84
165 123 83
164 122 83
163 122 83
163 121 82
162 121 82
161 120 81
160 119 81
159 119 81
158 118 80
157 117 80
156 117 79
155 116 79
154 115 78
153 115 78
152 114 77
151 113 77
150 112 77
149 112 76
148 111 76
147 110 75
146 109 75
145 109 74
144 108 74
143 107 73
142 106 73
140 105 72
139 104 71
138 103 71
137 103 70
135 102 70
134 101 69
133 100 69
132 99 68
130 98 67
129 97 67
128 96 66
126 95 66
125 94 65
123 93 64
122 92 64
120 91 63
119 90 62
117 89 62
116 88 61
114 87 60
112 85 60
0 0 0
0 0 0
0 0 0
0 0 0
0 0 0
0 0 0
0 0 0
0 0 0
0 0 0
0 0 0
0 0 0
0 0 0
0 0 0
0 0 0
0 0 0
0 0 0
0 0 0
0 0 0
0 0 0
0 0 0
0 0 0
0 0 0
0 0 0
0 0 0
0 0 0
0 0 0
0 0 0
0 0 0
0 0 0
0 0 0
0 0 0
0 0 0
0 0 0
0 0 0
0 0 0
0 0 0
0 0 0
0 0 0
0 0 0
0 0 0
0 0 0
0 0 0
0 0 0
0 0 0
0 0 0
0 0 0
0 0 0
0 0 0
0 0 0
0 0 0
0 0 0
0 0 0
0 0 0
0 0 0
0 0 0
0 0 0
0 0 0
0 0 0
0 0 0
0 0 0
0 0 0
0 0 0
0 0 0
0 0 0
192 143 96
193 143 97
193 143 97
193 144 97
194 144 97
194 144 97
194 144 97
194 145 97
195 145 98
195 145 98
195 145 98
195 145 98
196 146 98
196 146 98
196 146 98
196 146 99
197 146 99
197 147 99
197 147 99
197 147 99
198 147 100
198 147 100
198 148 100
198 148 100
198 148 101
199 148 101
199 149 101
199 149 102
199 149 102
200 149 103
200 150 103
200 150 103
200 150 104
201 151 104
201 151 105
201 151 106
202 152 106
202 152 107
202 153 107
203 153 108
203 154 109
203 154 110
204 155 110
204 155 111
204 155 112
204 156 112
205 156 113
205 157 114
205 157 115
206 158 115
206 158 116
206 158 116
206 159 117
206 159 117
206 159 118
207 159 118
207 160 118
207 160 119
207 160 119
207 160 120
207 160 120
207 161 120
207 161 120
207 161 120
207 161 121
207 161 121
207 161 121
207 161 121
207 161 121
206 161 121
206 160 121
206 160 120
206 160 120
206 160 120
205 159 120
205 159 119
205 159 119
204 158 118
204 158 118
203 158 118
203 157 117
202 157 116
202 156 116
202 156 115
201 155 115
201 154 114
200 154 113
199 153 113
199 153 112
198 152 111
198 152 110
197 151 110
197 150 109
196 150 108
195 149 107
195 148 107
194 148 106
194 147 105
193 147 104
192 146 104
192 145 103
191 145 102
191 144 102
190 144 101
189 143 100
189 142 100
188 142 99
188 141 98
187 141 98
187 140 97
186 140 97
185 139 96
185 139 95
184 138 95
184 138 94
183 137 94
183 137 93
182 136 93
181 136 93
181 135 92
180 135 92
180 134 91
179 134 91
179 133 91
178 133 90
177 132 90
177 132 90
176 131 89
176 131 89
175 131 89
175 130 88
174 130 88
173 129 88
173 129 87
172 128 87
172 128 87
171 128 86
171 127 86
170 127 86
169 126 85
169 126 85
168 125 85
167 125 85
167 124 84
166 124 84
165 123 84
165 123 83
164 122 83
163 121 82
162 121 82
161 120 82
160 120 81
159 119 81
159 118 80
158 118 80
157 117 79
156 116 79
155 116 79
154 115 78
153 114 78
152 113 77
151 113 77
150 112 76
149 111 76
148 110 75
147 110 75
146 109 74
144 108 74
143 107 73
142 106 73
141 106 72
140 105 72
139 104 71
137 103 71
136 102 70
135 101 69
134 100 69
132 99 68
131 99 68
130 98 67
128 97 67
127 96 66
125 95 65
124 94 65
123 93 64
121 91 63
120 90 63
118 89 62
116 88 61
115 87 61
113 86 60
112 85 59
0 0 0
0 0 0
0 0 0
0 0 0
0 0 0
0 0 0
0 0 0
0 0 0
0 0 0
0 0 0
0 0 0
0 0 0
0 0 0
0 0 0
0 0 0
0 0 0
0 0 0
0 0 0
0 0 0
0 0 0
0 0 0
0 0 0
0 0 0
0 0 0
0 0 0
0 0 0
0 0 0
0 0 0
0 0 0
0 0 0
0 0 0
0 0 0
0 0 0
0 0 0
0 0 0
0 0 0
0 0 0
0 0 0
0 0 0
0 0 0
0 0 0
0 0 0
0 0 0
0 0 0
0 0 0
0 0 0
0 0 0
0 0 0
0 0 0
0 0 0
0 0 0
0 0 0
0 0 0
0 0 0
0 0 0
0 0 0
0 0 0
0 0 0
0 0 0
0 0 0
0 0 0
0 0 0
0 0 0
0 0 0
192 143 96
192 143 96
193 143 96
193 143 97
193 144 97
193 144 97
194 144 97
194 144 97
194 144 97
195 145 98
195 145 98
195 145 98
195 145 98
196 145 98
196 146 98
196 146 98
196 146 99
196 146 99
197 146 99
197 147 99
197 147 99
197 147 100
198 147 100
198 147 100
198 148 100
198 148 101
198 148 101
199 148 101
199 149 102
199 149 102
199 149 102
200 150 103
200 150 103
200 150 104
200 151 104
201 151 105
201 151 105
201 152 106
202 152 107
202 152 107
202 153 108
202 153 109
203 154 109
203 154 110
203 155 111
204 155 111
204 156 112
204 156 113
205 156 113
205 157 114
205 157 114
205 157 115
205 158 115
205 158 116
206 158 116
206 158 117
206 159 117
206 159 117
206 159 118
206 159 118
206 159 118
206 159 119
206 159 119
206 160 119
206 160 119
206 160 119
206 160 119
206 159 119
206 159 119
205 159 119
205 159 119
205 159 119
205 159 119
204 158 118
204 158 118
204 158 118
204 158 117
203 157 117
203 157 117
202 156 116
202 156 116
202 155 115
201 155 114
201 154 114
200 154 113
200 153 113
199 153 112
199 152 111
198 152 111
197 151 110
197 151 109
196 150 109
196 149 108
195 149 107
195 148 106
194 148 106
194 147 105
193 147 104
192 146 104
192 145 103
191 145 102
191 144 102
190 144 101
189 143 100
189 142 100
188 142 99
188 141 98
187 141 98
187 140 97
186 140 97
185 139 96
185 139 96
184 138 95
184 138 95
183 137 94
183 137 94
182 136 93
182 136 93
181 135 92
180 135 92
180 134 91
179 134 91
179 133 91
178 133 90
178 132 90
177 132 90
176 132 89
176 131 89
175 131 89
175 130 88
174 130 88
174 129 88
173 129 87
172 129 87
172 128 87
171 128 86
171 127 86
170 127 86
169 126 86
169 126 85
168 125 85
168 125 85
167 124 84
166 124 84
166 123 84
165 123 83
164 122 83
163 122 83
162 121 82
162 121 82
161 120 81
160 119 81
159 119 81
158 118 80
157 117 80
156 117 79
155 116 79
154 115 78
153 115 78
152 114 77
151 113 77
150 112 77
149 112 76
148 111 76
147 110 75
146 109 75
145 109 74
144 108 74
143 107 73
142 106 72
140 105 72
139 104 71
138 103 71
137 103 70
135 102 70
134 101 69
133 100 69
132 99 68
130 98 67
129 97 67
128 96 66
126 95 66
125 94 65
123 93 64
122 92 64
120 91 63
119 90 62
117 89 62
116 88 61
114 87 60
112 85 60
111 84 59
0 0 0
0 0 0
0 0 0
0 0 0
0 0 0
0 0 0
0 0 0
0 0 0
0 0 0
0 0 0
0 0 0
0 0 0
0 0 0
0 0 0
0 0 0
0 0 0
0 0 0
0 0 0
0 0 0
0 0 0
0 0 0
0 0 0
0 0 0
0 0 0
0 0 0
0 0 0
0 0 0
0 0 0
0 0 0
0 0 0
0 0 0
0 0 0
0 0 0
0 0 0
0 0 0
0 0 0
0 0 0
0 0 0
0 0 0
0 0 0
0 0 0
0 0 0
0 0 0
0 0 0
0 0 0
0 0 0
0 0 0
0 0 0
0 0 0
0 0 0
0 0 0
0 0 0
0 0 0
0 0 0
0 0 0
0 0 0
0 0 0
0 0 0
0 0 0
0 0 0
0 0 0
0 0 0
0 0 0
0 0 0
192 142 96
192 143 96
192 143 96
192 143 96
193 143 97
193 144 97
193 144 97
194 144 97
194 144 97
194 144 97
194 145 97
195 145 98
195 145 98
195 145 98
195 145 98
196 145 98
196 146 98
196 146 99
196 146 99
196 146 99
197 146 99
197 147 99
197 147 100
197 147 100
198 147 100
198 148 100
198 148 101
198 148 101
198 148 101
199 148 102
199 149 102
199 149 102
199 149 103
200 150 103
200 150 104
200 150 104
200 151 105
201 151 105
201 151 106
201 152 107
202 152 107
202 153 108
202 153 108
202 153 109
203 154 110
203 154 110
203 155 111
203 155 112
204 155 112
204 156 113
204 156 113
204 156 114
204 157 114
204 157 114
205 157 115
205 157 115
205 157 116
205 158 116
205 158 116
205 158 117
205 158 117
205 158 117
205 158 117
205 158 117
205 158 117
205 158 118
205 158 118
205 158 118
205 158 118
204 158 117
204 158 117
204 158 117
204 157 117
203 157 117
203 157 116
203 157 116
203 156 116
202 156 115
202 156 115
201 155 115
201 155 114
201 154 114
200 154 113
200 153 113
199 153 112
199 152 111
198 152 111
198 151 110
197 151 109
197 150 109
196 150 108
196 149 108
195 149 107
195 148 106
194 148 106
193 147 105
193 146 104
192 146 103
192 145 103
191 145 102
191 144 101
190 143 101
189 143 100
189 142 100
188 142 99
188 141 98
187 141 98
187 140 97
186 140 97
185 139 96
185 139 96
184 138 95
184 138 95
183 137 94
183 137 94
182 136 93
182 136 93
181 135 92
180 135 92
180 134 92
179 134 91
179 133 91
178 133 90
178 133 90
177 132 90
177 132 89
176 131 89
175 131 89
175 130 88
174 130 88
174 129 88
173 129 87
173 129 87
172 128 87
171 128 87
171 127 86
170 127 86
170 126 86
169 126 85
168 126 85
168 125 85
167 125 84
167 124 84
166 124 84
165 123 83
164 123 83
164 122 83
163 121 82
162 121 82
161 120 82
160 120 81
159 119 81
158 118 80
158 118 80
157 117 79
156 116 79
155 116 79
154 115 78
153 114 78
152 113 77
151 113 77
150 112 76
149 111 76
148 110 75
147 110 75
145 109 74
144 108 74
143 107 73
142 106 73
141 106 72
140 105 72
139 104 71
137 103 71
136 102 70
135 101 69
134 100 69
132 99 68
131 98 68
130 98 67
128 97 67
127 96 66
125 95 65
124 94 65
122 92 64
121 91 63
119 90 63
118 89 62
116 88 61
115 87 61
113 86 60
112 85 59
110 84 59
0 0 0
0 0 0
0 0 0
0 0 0
0 0 0
0 0 0
0 0 0
0 0 0
0 0 0
0 0 0
0 0 0
0 0 0
0 0 0
0 0 0
0 0 0
0 0 0
0 0 0
0 0 0
0 0 0
0 0 0
0 0 0
0 0 0
0 0 0
0 0 0
0 0 0
0 0 0
0 0 0
0 0 0
0 0 0
0 0 0
0 0 0
0 0 0
0 0 0
0 0 0
0 0 0
0 0 0
0 0 0
0 0 0
0 0 0
0 0 0
0 0 0
0 0 0
0 0 0
0 0 0
0 0 0
0 0 0
0 0 0
0 0 0
0 0 0
0 0 0
0 0 0
0 0 0
0 0 0
0 0 0
0 0 0
0 0 0
0 0 0
0 0 0
0 0 0
0 0 0
0 0 0
0 0 0
0 0 0
0 0 0
191 142 96
191 142 96
192 143 96
192 143 96
192 143 96
193 143 97
193 143 97
193 144 97
193 144 97
194 144 97
194 144 97
194 144 97
194 145 98
195 145 98
195 145 98
195 145 98
195 145 98
196 146 98
196 146 98
196 146 99
196 146 99
197 146 99
197 146 99
197 147 99
197 147 100
197 147 100
198 147 100
198 148 101
198 148 101
198 148 101
198 148 102
199 149 102
199 149 102
199 149 103
199 149 103
200 150 104
200 150 104
200 150 105
200 151 105
201 151 106
201 152 106
201 152 107
201 152 108
202 153 108
202 153 109
202 153 109
202 154 110
203 154 111
203 155 111
203 155 112
203 155 112
203 155 112
203 156 113
204 156 113
204 156 114
204 156 114
204 156 114
204 157 115
204 157 115
204 157 115
204 157 115
204 157 116
204 157 116
204 157 116
204 157 116
204 157 116
204 157 116
204 157 116
203 157 116
203 157 116
203 157 116
203 156 116
203 156 115
202 156 115
202 156 115
202 156 115
202 155 114
201 155 114
201 155 114
200 154 113
200 154 113
200 153 112
199 153 112
199 152 111
198 152 111
198 151 110
197 151 110
197 150 109
196 150 108
196 149 108
195 149 107
195 148 106
194 148 106
194 147 105
193 147 105
193 146 104
192 146 103
192 145 103
191 145 102
191 144 101
190 143 101
189 143 100
189 142 100
188 142 99
188 141 98
187 141 98
187 140 97
186 140 97
185 139 96
185 139 96
184 138 95
184 138 95
183 137 94
183 137 94
182 136 93
182 136 93
181 135 92
181 135 92
180 134 92
179 134 91
179 134 91
178 133 90
178 133 90
177 132 90
177 132 89
176 131 89
176 131 89
175 130 88
174 130 88
174 130 88
173 129 88
173 129 87
172 128 87
172 128 87
171 127 86
170 127 86
170 127 86
169 126 85
169 126 85
168 125 85
167 125 84
167 124 84
166 124 84
165 123 84
165 123 83
164 122 83
163 122 82
162 121 82
161 120 82
161 120 81
160 119 81
159 119 80
158 118 80
157 117 80
156 117 79
155 116 79
154 115 78
153 114 78
152 114 77
151 113 77
150 112 76
149 112 76
148 111 76
147 110 75
146 109 75
145 108 74
144 108 74
143 107 73
141 106 72
140 105 72
139 104 71
138 103 71
137 103 70
135 102 70
134 101 69
133 100 69
132 99 68
130 98 67
129 97 67
127 96 66
126 95 66
125 94 65
123 93 64
122 92 64
120 91 63
119 90 62
117 89 62
116 88 61
114 86 60
112 85 60
111 84 59
109 83 58
0 0 0
0 0 0
0 0 0
0 0 0
0 0 0
0 0 0
0 0 0
0 0 0
0 0 0
0 0 0
0 0 0
0 0 0
0 0 0
0 0 0
0 0 0
0 0 0
0 0 0
0 0 0
0 0 0
0 0 0
0 0 0
0 0 0
0 0 0
0 0 0
0 0 0
0 0 0
0 0 0
0 0 0
0 0 0
0 0 0
0 0 0
0 0 0
0 0 0
0 0 0
0 0 0
0 0 0
0 0 0
0 0 0
0 0 0
0 0 0
0 0 0
0 0 0
0 0 0
0 0 0
0 0 0
0 0 0
0 0 0
0 0 0
0 0 0
0 0 0
0 0 0
0 0 0
0 0 0
0 0 0
0 0 0
0 0 0
0 0 0
0 0 0
0 0 0
0 0 0
0 0 0
0 0 0
0 0 0
0 0 0
191 142 96
191 142 96
191 142 96
192 142 96
192 143 96
192 143 96
192 143 96
193 143 97
193 144 97
193 144 97
194 144 97
194 144 97
194 144 97
194 144 97
195 145 98
195 145 98
195 145 98
195 145 98
195 145 98
196 146 98
196 146 99
196 146 99
196 146 99
196 146 99
197 147 99
197 147 100
197 147 100
197 147 100
198 147 100
198 148 101
198 148 101
198 148 101
198 148 102
199 149 102
199 149 103
199 149 103
199 150 104
200 150 104
200 150 105
200 151 105
200 151 106
201 151 106
201 152 107
201 152 107
201 152 108
201 153 108
202 153 109
202 153 110
202 154 110
202 154 110
202 154 111
203 154 111
203 155 112
203 155 112
203 155 112
203 155 113
203 155 113
203 156 113
203 156 114
203 156 114
203 156 114
203 156 114
203 156 114
203 156 114
203 156 115
203 156 115
203 156 115
203 156 115
202 156 115
202 156 114
202 156 114
202 155 114
202 155 114
201 155 114
201 155 114
201 154 113
201 154 113
200 154 113
200 153 112
199 153 112
199 153 111
199 152 111
198 152 110
198 151 110
197 151 109
197 150 109
197 150 108
196 150 108
196 149 107
195 149 107
195 148 106
194 148 105
194 147 105
193 147 104
193 146 104
192 145 103
192 145 102
191 144 102
190 144 101
190 143 101
189 143 100
189 142 99
188 142 99
188 141 98
187 141 98
187 140 97
186 140 97
186 139 96
185 139 96
184 138 95
184 138 95
183 137 94
183 137 94
182 136 93
182 136 93
181 135 92
181 135 92
180 134 92
180 134 91
179 134 91
178 133 91
178 133 90
177 132 90
177 132 90
176 131 89
176 131 89
175 131 89
175 130 88
174 130 88
173 129 88
173 129 87
172 128 87
172 128 87
171 128 86
171 127 86
170 127 86
169 126 85
169 126 85
168 125 85
167 125 85
167 124 84
166 124 84
166 123 84
165 123 83
164 122 83
163 122 83
163 121 82
162 121 82
161 120 81
160 119 81
159 119 81
158 118 80
157 118 80
157 117 79
156 116 79
155 116 79
154 115 78
153 114 78
152 113 77
151 113 77
150 112 76
149 111 76
148 110 75
147 110 75
145 109 74
144 108 74
143 107 73
142 106 73
141 106 72
140 105 72
139 104 71
137 103 71
136 102 70
135 101 69
134 100 69
132 99 68
131 98 68
130 97 67
128 96 66
127 95 66
125 94 65
124 93 65
122 92 64
121 91 63
119 90 63
118 89 62
116 88 61
115 87 61
113 86 60
112 85 59
110 84 59
108 82 58
0 0 0
0 0 0
0 0 0
0 0 0
0 0 0
0 0 0
0 0 0
0 0 0
0 0 0
0 0 0
0 0 0
0 0 0
0 0 0
0 0 0
0 0 0
0 0 0
0 0 0
0 0 0
0 0 0
0 0 0
0 0 0
0 0 0
0 0 0
0 0 0
0 0 0
0 0 0
0 0 0
0 0 0
0 0 0
0 0 0
0 0 0
0 0 0
0 0 0
0 0 0
0 0 0
0 0 0
0 0 0
0 0 0
0 0 0
0 0 0
0 0 0
0 0 0
0 0 0
0 0 0
0 0 0
0 0 0
0 0 0
0 0 0
0 0 0
0 0 0
0 0 0
0 0 0
0 0 0
0 0 0
0 0 0
0 0 0
0 0 0
0 0 0
0 0 0
0 0 0
0 0 0
0 0 0
0 0 0
0 0 0
190 141 95
191 142 96
191 142 96
191 142 96
191 142 96
192 143 96
192 143 96
192 143 96
193 143 97
193 143 97
193 144 97
193 144 97
194 144 97
194 144 97
194 144 97
194 145 98
195 145 98
195 145 98
195 145 98
195 145 98
195 145 98
196 146 98
196 146 99
196 146 99
196 146 99
196 146 99
197 147 100
197 147 100
197 147 100
197 147 100
197 147 101
198 148 101
198 148 101
198 148 102
198 148 102
199 149 103
199 149 103
199 149 103
199 150 104
199 150 104
200 150 105
200 151 105
200 151 106
200 151 106
201 152 107
201 152 107
201 152 108
201 153 108
201 153 109
201 153 109
202 153 110
202 153 110
202 154 110
202 154 111
202 154 111
202 154 111
202 154 112
202 155 112
202 155 112
202 155 112
202 155 113
202 155 113
202 155 113
202 155 113
202 155 113
202 155 113
202 155 113
202 155 113
202 155 113
201 155 113
201 154 113
201 154 113
201 154 113
200 154 112
200 154 112
200 153 112
200 153 112
199 153 111
199 152 111
199 152 111
198 152 110
198 151 110
197 151 109
197 150 109
197 150 108
196 150 108
196 149 107
195 149 107
195 148 106
194 148 106
194 147 105
193 147 104
193 146 104
192 146 103
192 145 103
191 145 102
191 144 102
190 144 101
190 143 100
189 143 100
189 142 99
188 142 99
188 141 98
187 141 98
187 140 97
186 140 97
185 139 96
185 139 96
184 138 95
184 138 95
183 137 94
183 137 94
182 136 93
182 136 93
181 135 93
181 135 92
180 135 92
180 134 91
179 134 91
179 133 91
178 133 90
177 132 90
177 132 90
176 131 89
176 131 89
175 131 89
175 130 88
174 130 88
174 129 88
173 129 87
172 128 87
172 128 87
171 128 86
171 127 86
170 127 86
169 126 86
169 126 85
168 125 85
168 125 85
167 124 84
166 124 84
166 124 84
165 123 83
164 123 83
164 122 83
163 122 82
162 121 82
161 120 82
160 120 81
160 119 81
159 118 80
158 118 80
157 117 80
156 116 79
155 116 79
154 115 78
153 114 78
152 114 77
151 113 77
150 112 76
149 112 76
148 111 75
147 110 75
146 109 75
145 108 74
144 108 73
143 107 73
141 106 72
140 105 72
139 104 71
138 103 71
137 103 70
135 102 70
134 101 69
133 100 69
132 99 68
130 98 67
129 97 67
127 96 66
126 95 66
125 94 65
123 93 64
122 92 64
120 91 63
119 90 62
117 89 62
116 88 61
114 86 60
112 85 60
111 84 59
109 83 58
107 82 57
0 0 0
0 0 0
0 0 0
0 0 0
0 0 0
0 0 0
0 0 0
0 0 0
0 0 0
0 0 0
0 0 0
0 0 0
0 0 0
0 0 0
0 0 0
0 0 0
0 0 0
0 0 0
0 0 0
0 0 0
0 0 0
0 0 0
0 0 0
0 0 0
0 0 0
0 0 0
0 0 0
0 0 0
0 0 0
0 0 0
0 0 0
0 0 0
0 0 0
0 0 0
0 0 0
0 0 0
0 0 0
0 0 0
0 0 0
0 0 0
0 0 0
0 0 0
0 0 0
0 0 0
0 0 0
0 0 0
0 0 0
0 0 0
0 0 0
0 0 0
0 0 0
0 0 0
0 0 0
0 0 0
0 0 0
0 0 0
0 0 0
0 0 0
0 0 0
0 0 0
0 0 0
0 0 0
0 0 0
0 0 0
190 141 95
190 141 95
190 142 95
191 142 96
191 142 96
191 142 96
192 142 96
192 143 96
192 143 96
192 143 96
193 143 97
193 143 97
193 144 97
193 144 97
194 144 97
194 144 97
194 144 97
194 145 98
195 145 98
195 145 98
195 145 98
195 145 98
195 145 98
196 146 99
196 146 99
196 146 99
196 146 99
196 146 99
197 147 100
197 147 100
197 147 100
197 147 101
197 147 101
198 148 101
198 148 102
198 148 102
198 149 102
198 149 103
199 149 103
199 149 104
199 150 104
199 150 105
199 150 105
200 151 106
200 151 106
200 151 107
200 151 107
200 152 108
201 152 108
201 152 108
201 152 109
201 153 109
201 153 109
201 153 110
201 153 110
201 153 110
201 153 110
201 154 111
201 154 111
201 154 111
201 154 111
201 154 111
201 154 112
201 154 112
201 154 112
201 154 112
201 154 112
201 154 112
201 154 112
200 153 112
200 153 112
200 153 111
200 153 111
200 153 111
199 152 111
199 152 111
199 152 110
198 152 110
198 151 110
198 151 109
197 151 109
197 150 108
197 150 108
196 150 108
196 149 107
195 149 107
195 148 106
194 148 106
194 147 105
194 147 105
193 146 104
193 146 104
192 145 103
192 145 102
191 145 102
191 144 101
190 144 101
190 143 100
189 143 100
189 142 99
188 142 99
188 141 98
187 141 98
187 140 97
186 140 97
185 139 96
185 139 96
184 138 95
184 138 95
183 137 94
183 137 94
182 136 93
182 136 93
181 135 93
181 135 92
180 135 92
180 134 91
179 134 91
179 133 91
178 133 90
177 132 90
177 132 90
176 132 89
176 131 89
175 131 89
175 130 88
174 130 88
174 129 88
173 129 87
172 129 87
172 128 87
171 128 86
171 127 86
170 127 86
170 126 86
169 126 85
168 125 85
168 125 85
167 125 84
167 124 84
166 124 84
165 123 84
165 123 83
164 122 83
163 122 83
162 121 82
162 121 82
161 120 81
160 119 81
159 119 81
158 118 80
157 117 80
156 117 79
155 116 79
155 115 78
154 115 78
153 114 78
152 113 77
151 113 77
150 112 76
149 111 76
148 110 75
146 110 75
145 109 74
144 108 74
143 107 73
142 106 73
141 106 72
140 105 72
138 104 71
137 103 71
136 102 70
135 101 69
133 100 69
132 99 68
131 98 68
129 97 67
128 96 66
127 95 66
125 94 65
124 93 65
122 92 64
121 91 63
119 90 63
118 89 62
116 88 61
115 87 61
113 86 60
111 85 59
110 83 59
108 82 58
106 81 57
0 0 0
0 0 0
0 0 0
0 0 0
0 0 0
0 0 0
0 0 0
0 0 0
0 0 0
0 0 0
0 0 0
0 0 0
0 0 0
0 0 0
0 0 0
0 0 0
0 0 0
0 0 0
0 0 0
0 0 0
0 0 0
0 0 0
0 0 0
0 0 0
0 0 0
0 0 0
0 0 0
0 0 0
0 0 0
0 0 0
0 0 0
0 0 0
0 0 0
0 0 0
0 0 0
0 0 0
0 0 0
0 0 0
0 0 0
0 0 0
0 0 0
0 0 0
0 0 0
0 0 0
0 0 0
0 0 0
0 0 0
0 0 0
0 0 0
0 0 0
0 0 0
0 0 0
0 0 0
0 0 0
0 0 0
0 0 0
0 0 0
0 0 0
0 0 0
0 0 0
0 0 0
0 0 0
0 0 0
0 0 0
189 141 95
190 141 95
190 141 95
190 142 95
191 142 96
191 142 96
191 142 96
191 142 96
192 143 96
192 143 96
192 143 96
193 143 97
193 143 97
193 144 97
193 144 97
193 144 97
194 144 97
194 144 97
194 144 97
194 145 98
195 145 98
195 145 98
195 145 98
195 145 98
195 145 98
196 146 99
196 146 99
196 146 99
196 146 99
196 146 100
196 147 100
197 147 100
197 147 100
197 147 101
197 148 101
197 148 101
198 148 102
198 148 102
198 149 103
198 149 103
198 149 103
199 149 104
199 150 104
199 150 105
199 150 105
199 150 106
200 151 106
200 151 107
200 151 107
200 151 107
200 152 108
200 152 108
200 152 108
200 152 108
200 152 109
200 152 109
200 152 109
200 153 109
200 153 110
200 153 110
200 153 110
200 153 110
200 153 110
200 153 110
200 153 110
200 153 110
200 153 110
200 153 110
200 153 110
199 152 110
199 152 110
199 152 110
199 152 110
199 152 110
198 151 110
198 151 109
198 151 109
197 151 109
197 150 108
197 150 108
196 150 108
196 149 107
196 149 107
195 149 106
195 148 106
194 148 106
194 147 105
194 147 105
193 147 104
193 146 104
192 146 103
192 145 103
191 145 102
191 144 102
190 144 101
190 143 101
190 143 100
189 142 100
189 142 99
188 141 99
187 141 98
187 141 98
186 140 97
186 140 97
185 139 96
185 139 96
184 138 95
184 138 95
183 137 94
183 137 94
182 136 93
182 136 93
181 135 93
181 135 92
180 135 92
180 134 91
179 134 91
179 133 91
178 133 90
178 132 90
177 132 90
176 132 89
176 131 89
175 131 89
175 130 88
174 130 88
174 129 88
173 129 87
173 129 87
172 128 87
171 128 87
171 127 86
170 127 86
170 126 86
169 126 85
168 126 85
168 125 85
167 125 84
167 124 84
166 124 84
165 123 84
165 123 83
164 122 83
164 122 83
163 121 82
162 121 82
161 120 82
160 120 81
159 119 81
159 118 80
158 118 80
157 117 80
156 116 79
155 116 79
154 115 78
153 114 78
152 114 77
151 113 77
150 112 76
149 111 76
148 111 75
147 110 75
146 109 74
145 108 74
144 108 73
143 107 73
141 106 72
140 105 72
139 104 71
138 103 71
137 102 70
135 102 70
134 101 69
133 100 69
131 99 68
130 98 67
129 97 67
127 96 66
126 95 65
124 94 65
123 93 64
122 92 64
120 91 63
119 90 62
117 89 62
115 87 61
114 86 60
112 85 60
111 84 59
109 83 58
107 82 57
105 80 57
0 0 0
0 0 0
0 0 0
0 0 0
0 0 0
0 0 0
0 0 0
0 0 0
0 0 0
0 0 0
0 0 0
0 0 0
0 0 0
0 0 0
0 0 0
0 0 0
0 0 0
0 0 0
0 0 0
0 0 0
0 0 0
0 0 0
0 0 0
0 0 0
0 0 0
0 0 0
0 0 0
0 0 0
0 0 0
0 0 0
0 0 0
0 0 0
0 0 0
0 0 0
0 0 0
0 0 0
0 0 0
0 0 0
0 0 0
0 0 0
0 0 0
0 0 0
0 0 0
0 0 0
0 0 0
0 0 0
0 0 0
0 0 0
0 0 0
0 0 0
0 0 0
0 0 0
0 0 0
0 0 0
0 0 0
0 0 0
0 0 0
0 0 0
0 0 0
0 0 0
0 0 0
0 0 0
0 0 0
0 0 0
189 140 95
189 141 95
190 141 95
190 141 95
190 141 95
190 142 95
191 142 96
191 142 96
191 142 96
192 142 96
192 143 96
192 143 96
192 143 96
193 143 97
193 143 97
193 144 97
193 144 97
193 144 97
194 144 97
194 144 97
194 144 98
194 145 98
194 145 98
195 145 98
195 145 98
195 145 98
195 145 99
195 146 99
196 146 99
196 146 99
196 146 99
196 146 100
196 147 100
197 147 100
197 147 101
197 147 101
197 147 101
197 148 102
197 148 102
198 148 102
198 148 103
198 149 103
198 149 104
198 149 104
199 149 104
199 150 105
199 150 105
199 150 106
199 150 106
199 151 106
199 151 107
199 151 107
199 151 107
199 151 107
200 151 108
200 151 108
200 152 108
200 152 108
200 152 109
200 152 109
200 152 109
199 152 109
199 152 109
199 152 109
199 152 109
199 152 109
199 152 109
199 152 109
199 152 109
199 151 109
198 151 109
198 151 109
198 151 109
198 151 108
197 150 108
197 150 108
197 150 108
197 150 107
196 149 107
196 149 107
196 149 106
195 148 106
195 148 106
194 148 105
194 147 105
194 147 105
193 147 104
193 146 104
192 146 103
192 145 103
192 145 102
191 144 102
191 144 101
190 144 101
190 143 100
189 143 100
189 142 99
188 142 99
188 141 98
187 141 98
187 140 97
186 140 97
186 139 96
185 139 96
185 139 96
184 138 95
184 138 95
183 137 94
183 137 94
182 136 93
182 136 93
181 135 93
181 135 92
180 135 92
180 134 91
179 134 91
179 133 91
178 133 90
178 132 90
177 132 90
177 132 89
176 131 89
175 131 89
175 130 88
174 130 88
174 130 88
173 129 88
173 129 87
172 128 87
172 128 87
171 127 86
170 127 86
170 127 86
169 126 85
169 126 85
168 125 85
167 125 85
167 124 84
166 124 84
166 123 84
165 123 83
164 123 83
164 122 83
163 122 82
162 121 82
161 120 82
161 120 81
160 119 81
159 119 81
158 118 80
157 117 80
156 117 79
155 116 79
154 115 78
153 115 78
152 114 78
151 113 77
150 113 77
149 112 76
148 111 76
147 110 75
146 110 75
145 109 74
144 108 74
143 107 73
142 106 73
141 105 72
140 105 72
138 104 71
137 103 71
136 102 70
135 101 69
133 100 69
132 99 68
131 98 68
129 97 67
128 96 66
127 95 66
125 94 65
124 93 65
122 92 64
121 91 63
119 90 63
118 89 62
116 88 61
115 87 61
113 86 60
111 85 59
110 83 58
108 82 58
106 81 57
104 80 56
0 0 0
0 0 0
0 0 0
0 0 0
0 0 0
0 0 0
0 0 0
0 0 0
0 0 0
0 0 0
0 0 0
0 0 0
0 0 0
0 0 0
0 0 0
0 0 0
0 0 0
0 0 0
0 0 0
0 0 0
0 0 0
0 0 0
0 0 0
0 0 0
0 0 0
0 0 0
0 0 0
0 0 0
0 0 0
0 0 0
0 0 0
0 0 0
0 0 0
0 0 0
0 0 0
0 0 0
0 0 0
0 0 0
0 0 0
0 0 0
0 0 0
0 0 0
0 0 0
0 0 0
0 0 0
0 0 0
0 0 0
0 0 0
0 0 0
0 0 0
0 0 0
0 0 0
0 0 0
0 0 0
0 0 0
0 0 0
0 0 0
0 0 0
0 0 0
0 0 0
0 0 0
0 0 0
0 0 0
0 0 0
188 140 95
189 140 95
189 141 95
189 141 95
190 141 95
190 141 95
190 141 95
191 142 96
191 142 96
191 142 96
191 142 96
192 142 96
192 143 96
192 143 96
192 143 96
193 143 97
193 143 97
193 144 97
193 144 97
193 144 97
194 144 97
194 144 97
194 144 98
194 145 98
194 145 98
195 145 98
195 145 98
195 145 98
195 145 99
195 146 99
195 146 99
196 146 99
196 146 100
196 146 100
196 147 100
196 147 100
197 147 101
197 147 101
197 147 101
197 148 102
197 148 102
197 148 103
198 148 103
198 149 103
198 149 104
198 149 104
198 149 104
198 150 105
198 150 105
198 150 105
199 150 106
199 150 106
199 150 106
199 150 106
199 151 107
199 151 107
199 151 107
199 151 107
199 151 107
199 151 108
199 151 108
199 151 108
199 151 108
198 151 108
198 151 108
198 151 108
198 151 108
198 151 108
198 151 108
198 150 108
197 150 108
197 150 108
197 150 107
197 150 107
197 150 107
196 149 107
196 149 107
196 149 106
195 148 106
195 148 106
195 148 105
194 148 105
194 147 105
194 147 104
193 146 104
193 146 104
193 146 103
192 145 103
192 145 102
191 145 102
191 144 101
190 144 101
190 143 100
190 143 100
189 143 100
189 142 99
188 142 99
188 141 98
187 141 98
187 140 97
186 140 97
186 139 96
185 139 96
185 139 95
184 138 95
184 138 95
183 137 94
183 137 94
182 136 93
182 136 93
181 135 93
181 135 92
180 135 92
180 134 91
179 134 91
179 133 91
178 133 90
178 133 90
177 132 90
177 132 89
176 131 89
176 131 89
175 130 88
174 130 88
174 130 88
173 129 88
173 129 87
172 128 87
172 128 87
171 127 86
170 127 86
170 127 86
169 126 85
169 126 85
168 125 85
168 125 85
167 124 84
166 124 84
166 124 84
165 123 83
164 123 83
164 122 83
163 122 83
163 121 82
162 121 82
161 120 81
160 119 81
159 119 81
158 118 80
158 118 80
157 117 79
156 116 79
155 116 79
154 115 78
153 114 78
152 114 77
151 113 77
150 112 76
149 111 76
148 111 75
147 110 75
146 109 74
145 108 74
144 107 73
142 107 73
141 106 72
140 105 72
139 104 71
138 103 71
136 102 70
135 102 70
134 101 69
133 100 68
131 99 68
130 98 67
129 97 67
127 96 66
126 95 65
124 94 65
123 93 64
121 92 64
120 91 63
118 90 62
117 88 62
115 87 61
114 86 60
112 85 59
110 84 59
109 83 58
107 82 57
105 80 57
103 79 56
0 0 0
0 0 0
0 0 0
0 0 0
0 0 0
0 0 0
0 0 0
0 0 0
0 0 0
0 0 0
0 0 0
0 0 0
0 0 0
0 0 0
0 0 0
0 0 0
0 0 0
0 0 0
0 0 0
0 0 0
0 0 0
0 0 0
0 0 0
0 0 0
0 0 0
0 0 0
0 0 0
0 0 0
0 0 0
0 0 0
0 0 0
0 0 0
0 0 0
0 0 0
0 0 0
0 0 0
0 0 0
0 0 0
0 0 0
0 0 0
0 0 0
0 0 0
0 0 0
0 0 0
0 0 0
0 0 0
0 0 0
0 0 0
0 0 0
0 0 0
0 0 0
0 0 0
0 0 0
0 0 0
0 0 0
0 0 0
0 0 0
0 0 0
0 0 0
0 0 0
0 0 0
0 0 0
0 0 0
0 0 0
188 140 94
188 140 94
189 140 95
189 141 95
189 141 95
190 141 95
190 141 95
190 141 95
190 142 95
191 142 96
191 142 96
191 142 96
191 142 96
192 143 96
192 143 96
192 143 96
192 143 96
193 143 97
193 143 97
193 144 97
193 144 97
193 144 97
194 144 97
194 144 97
194 144 98
194 145 98
194 145 98
194 145 98
195 145 98
195 145 99
195 145 99
195 146 99
195 146 99
195 146 99
196 146 100
196 146 100
196 146 100
196 147 101
196 147 101
196 147 101
197 147 102
197 148 102
197 148 102
197 148 103
197 148 103
197 148 103
198 149 104
198 149 104
198 149 104
198 149 105
198 149 105
198 149 105
198 150 105
198 150 105
198 150 106
198 150 106
198 150 106
198 150 106
198 150 106
198 150 106
198 150 107
198 150 107
198 150 107
198 150 107
198 150 107
197 150 107
197 150 107
197 150 107
197 150 107
197 149 107
197 149 107
196 149 106
196 149 106
196 149 106
196 149 106
195 148 106
195 148 105
195 148 105
195 148 105
194 147 105
194 147 104
194 147 104
193 146 104
193 146 103
193 146 103
192 145 103
192 145 102
191 145 102
191 144 101
191 144 101
190 143 101
190 143 100
189 143 100
189 142 99
188 142 99
188 141 98
188 141 98
187 141 98
187 140 97
186 140 97
186 139 96
185 139 96
185 138 95
184 138 95
184 138 95
183 137 94
183 137 94
182 136 93
182 136 93
181 135 93
181 135 92
180 135 92
180 134 91
179 134 91
179 133 91
178 133 90
178 133 90
177 132 90
177 132 89
176 131 89
176 131 89
175 130 88
174 130 88
174 130 88
173 129 88
173 129 87
172 128 87
172 128 87
171 128 86
171 127 86
170 127 86
169 126 86
169 126 85
168 125 85
168 125 85
167 125 84
166 124 84
166 124 84
165 123 83
165 123 83
164 122 83
163 122 83
163 121 82
162 121 82
161 120 82
160 120 81
160 119 81
159 118 80
158 118 80
157 117 80
156 117 79
155 116 79
154 115 78
153 115 78
152 114 77
151 113 77
150 112 77
149 112 76
148 111 76
147 110 75
146 109 75
145 109 74
144 108 74
143 107 73
142 106 73
141 105 72
139 105 72
138 104 71
137 103 70
136 102 70
134 101 69
133 100 69
132 99 68
131 98 68
129 97 67
128 96 66
126 95 66
125 94 65
124 93 64
122 92 64
121 91 63
119 90 63
118 89 62
116 88 61
114 87 61
113 86 60
111 85 59
110 83 58
108 82 58
106 81 57
104 80 56
103 78 55
0 0 0
0 0 0
0 0 0
0 0 0
0 0 0
0 0 0
0 0 0
0 0 0
0 0 0
0 0 0
0 0 0
0 0 0
0 0 0
0 0 0
0 0 0
0 0 0
0 0 0
0 0 0
0 0 0
0 0 0
0 0 0
0 0 0
0 0 0
0 0 0
0 0 0
0 0 0
0 0 0
0 0 0
0 0 0
0 0 0
0 0 0
0 0 0
0 0 0
0 0 0
0 0 0
0 0 0
0 0 0
0 0 0
0 0 0
0 0 0
0 0 0
0 0 0
0 0 0
0 0 0
0 0 0
0 0 0
0 0 0
0 0 0
0 0 0
0 0 0
0 0 0
0 0 0
0 0 0
0 0 0
0 0 0
0 0 0
0 0 0
0 0 0
0 0 0
0 0 0
0 0 0
0 0 0
0 0 0
0 0 0
188 139 94
188 140 94
188 140 94
188 140 95
189 140 95
189 141 95
189 141 95
190 141 95
190 141 95
190 141 95
190 142 95
191 142 96
191 142 96
191 142 96
191 142 96
192 143 96
192 143 96
192 143 96
192 143 96
192 143 97
193 143 97
193 144 97
193 144 97
193 144 97
193 144 97
194 144 97
194 144 98
194 144 98
194 145 98
194 145 98
195 145 98
195 145 99
195 145 99
195 145 99
195 146 99
195 146 100
195 146 100
196 146 100
196 146 100
196 147 101
196 147 101
196 147 101
196 147 102
196 147 102
197 148 102
197 148 103
197 148 103
197 148 103
197 148 104
197 148 104
197 149 104
197 149 104
197 149 104
197 149 105
197 149 105
197 149 105
197 149 105
197 149 105
197 149 105
197 149 105
197 149 106
197 149 106
197 149 106
197 149 106
197 149 106
197 149 106
196 149 106
196 149 106
196 149 106
196 149 106
196 148 105
196 148 105
195 148 105
195 148 105
195 148 105
195 147 105
194 147 104
194 147 104
194 147 104
193 146 104
193 146 103
193 146 103
193 146 103
192 145 102
192 145 102
191 145 102
191 144 101
191 144 101
190 144 101
190 143 100
189 143 100
189 142 99
189 142 99
188 142 99
188 141 98
187 141 98
187 140 97
187 140 97
186 140 96
186 139 96
185 139 96
185 138 95
184 138 95
184 137 94
183 137 94
183 137 94
182 136 93
182 136 93
181 135 93
181 135 92
180 135 92
180 134 91
179 134 91
179 133 91
178 133 90
178 133 90
177 132 90
177 132 89
176 131 89
176 131 89
175 131 89
175 130 88
174 130 88
173 129 88
173 129 87
172 128 87
172 128 87
171 128 86
171 127 86
170 127 86
169 126 86
169 126 85
168 125 85
168 125 85
167 125 84
167 124 84
166 124 84
165 123 84
165 123 83
164 122 83
163 122 83
163 121 82
162 121 82
161 120 82
161 120 81
160 119 81
159 119 81
158 118 80
157 117 80
156 117 79
156 116 79
155 115 79
154 115 78
153 114 78
152 113 77
151 113 77
150 112 76
149 111 76
148 111 75
147 110 75
146 109 74
145 108 74
143 107 73
142 107 73
141 106 72
140 105 72
139 104 71
138 103 71
136 102 70
135 101 70
134 100 69
132 100 68
131 99 68
130 98 67
128 97 67
127 96 66
126 95 65
124 94 65
123 93 64
121 92 63
120 91 63
118 90 62
117 88 61
115 87 61
114 86 60
112 85 59
110 84 59
109 83 58
107 82 57
105 80 57
103 79 56
102 78 55
0 0 0
0 0 0
0 0 0
0 0 0
0 0 0
0 0 0
0 0 0
0 0 0
0 0 0
0 0 0
0 0 0
0 0 0
0 0 0
0 0 0
0 0 0
0 0 0
0 0 0
0 0 0
0 0 0
0 0 0
0 0 0
0 0 0
0 0 0
0 0 0
0 0 0
0 0 0
0 0 0
0 0 0
0 0 0
0 0 0
0 0 0
0 0 0
0 0 0
0 0 0
0 0 0
0 0 0
0 0 0
0 0 0
0 0 0
0 0 0
0 0 0
0 0 0
0 0 0
0 0 0
0 0 0
0 0 0
0 0 0
0 0 0
0 0 0
0 0 0
0 0 0
0 0 0
0 0 0
0 0 0
0 0 0
0 0 0
0 0 0
0 0 0
0 0 0
0 0 0
0 0 0
0 0 0
0 0 0
0 0 0
187 139 94
187 139 94
188 140 94
188 140 94
188 140 94
189 140 95
189 140 95
189 141 95
189 141 95
190 141 95
190 141 95
190 141 95
190 142 95
191 142 96
191 142 96
191 142 96
191 142 96
192 142 96
192 143 96
192 143 96
192 143 97
192 143 97
193 143 97
193 143 97
193 144 97
193 144 97
193 144 97
194 144 98
194 144 98
194 144 98
194 145 98
194 145 98
194 145 98
194 145 99
195 145 99
195 145 99
195 146 99
195 146 100
195 146 100
195 146 100
195 146 100
196 146 101
196 147 101
196 147 101
196 147 102
196 147 102
196 147 102
196 148 102
196 148 103
196 148 103
196 148 103
196 148 103
196 148 103
196 148 104
196 148 104
196 148 104
196 148 104
196 148 104
196 148 104
196 148 104
196 148 105
196 148 105
196 148 105
196 148 105
196 148 105
196 148 105
196 148 105
195 148 105
195 148 105
195 148 104
195 148 104
195 147 104
195 147 104
194 147 104
194 147 104
194 147 104
194 146 103
193 146 103
193 146 103
193 146 103
192 145 102
192 145 102
192 145 102
191 144 101
191 144 101
191 144 101
190 144 100
190 143 100
190 143 100
189 142 99
189 142 99
188 142 99
188 141 98
188 141 98
187 141 98
187 140 97
186 140 97
186 139 96
185 139 96
185 139 96
185 138 95
184 138 95
184 137 94
183 137 94
183 137 94
182 136 93
182 136 93
181 135 92
181 135 92
180 135 92
180 134 91
179 134 91
179 133 91
178 133 90
178 133 90
177 132 90
177 132 89
176 131 89
176 131 89
175 131 89
175 130 88
174 130 88
173 129 88
173 129 87
172 128 87
172 128 87
171 128 86
171 127 86
170 127 86
170 126 86
169 126 85
168 126 85
168 125 85
167 125 84
167 124 84
166 124 84
165 123 84
165 123 83
164 122 83
164 122 83
163 121 82
162 121 82
162 121 82
161 120 81
160 120 81
159 119 81
159 118 80
158 118 80
157 117 80
156 116 79
155 116 79
154 115 78
153 114 78
152 114 77
151 113 77
150 112 76
149 112 76
148 111 76
147 110 75
146 109 75
145 109 74
144 108 74
143 107 73
142 106 73
140 105 72
139 104 71
138 104 71
137 103 70
136 102 70
134 101 69
133 100 69
132 99 68
130 98 67
129 97 67
128 96 66
126 95 66
125 94 65
123 93 64
122 92 64
121 91 63
119 90 62
117 89 62
116 88 61
114 87 60
113 86 60
111 84 59
109 83 58
108 82 58
106 81 57
104 80 56
102 78 55
101 77 55
0 0 0
0 0 0
0 0 0
0 0 0
0 0 0
0 0 0
0 0 0
0 0 0
0 0 0
0 0 0
0 0 0
0 0 0
0 0 0
0 0 0
0 0 0
0 0 0
0 0 0
0 0 0
0 0 0
0 0 0
0 0 0
0 0 0
0 0 0
0 0 0
0 0 0
0 0 0
0 0 0
0 0 0
0 0 0
0 0 0
0 0 0
0 0 0
0 0 0
0 0 0
0 0 0
0 0 0
0 0 0
0 0 0
0 0 0
0 0 0
0 0 0
0 0 0
0 0 0
0 0 0
0 0 0
0 0 0
0 0 0
0 0 0
0 0 0
0 0 0
0 0 0
0 0 0
0 0 0
0 0 0
0 0 0
0 0 0
0 0 0
0 0 0
0 0 0
0 0 0
0 0 0
0 0 0
0 0 0
0 0 0
187 139 94
187 139 94
187 139 94
188 139 94
188 140 94
188 140 94
188 140 94
189 140 95
189 141 95
189 141 95
189 141 95
190 141 95
190 141 95
190 141 95
190 142 96
191 142 96
191 142 96
191 142 96
191 142 96
192 142 96
192 143 96
192 143 96
192 143 97
192 143 97
193 143 97
193 143 97
193 144 97
193 144 97
193 144 97
193 144 98
194 144 98
194 144 98
194 144 98
194 145 98
194 145 98
194 145 99
194 145 99
195 145 99
195 145 99
195 146 100
195 146 100
195 146 100
195 146 100
195 146 101
195 146 101
195 147 101
196 147 101
196 147 102
196 147 102
196 147 102
196 147 102
196 147 103
196 147 103
196 147 103
196 147 103
196 147 103
196 148 103
196 148 103
196 148 103
196 148 104
196 148 104
195 148 104
195 147 104
195 147 104
195 147 104
195 147 104
195 147 104
195 147 104
195 147 104
194 147 103
194 147 103
194 147 103
194 146 103
194 146 103
193 146 103
193 146 103
193 146 102
193 145 102
192 145 102
192 145 102
192 145 101
191 144 101
191 144 101
191 144 101
190 143 100
190 143 100
190 143 100
189 142 99
189 142 99
189 142 99
188 141 98
188 141 98
187 141 98
187 140 97
187 140 97
186 140 97
186 139 96
185 139 96
185 139 95
184 138 95
184 138 95
183 137 94
183 137 94
183 137 93
182 136 93
182 136 93
181 135 92
181 135 92
180 135 92
180 134 91
179 134 91
179 133 91
178 133 90
178 133 90
177 132 90
177 132 89
176 131 89
176 131 89
175 131 89
175 130 88
174 130 88
174 129 88
173 129 87
172 129 87
172 128 87
171 128 87
171 127 86
170 127 86
170 126 86
169 126 85
168 126 85
168 125 85
167 125 84
167 124 84
166 124 84
165 123 84
165 123 83
164 122 83
164 122 83
163 122 82
162 121 82
162 121 82
161 120 82
160 120 81
160 119 81
159 119 80
158 118 80
157 117 80
156 117 79
155 116 79
154 115 78
153 115 78
153 114 78
152 113 77
151 113 77
150 112 76
149 111 76
148 110 75
147 110 75
145 109 74
144 108 74
143 107 73
142 106 73
141 106 72
140 105 72
139 104 71
137 103 71
136 102 70
135 101 69
134 100 69
132 99 68
131 99 68
130 98 67
128 97 67
127 96 66
126 95 65
124 94 65
123 93 64
121 92 63
120 90 63
118 89 62
117 88 61
115 87 61
113 86 60
112 85 59
110 84 59
108 83 58
107 81 57
105 80 57
103 79 56
101 78 55
100 76 54
0 0 0
0 0 0
0 0 0
0 0 0
0 0 0
0 0 0
0 0 0
0 0 0
0 0 0
0 0 0
0 0 0
0 0 0
0 0 0
0 0 0
0 0 0
0 0 0
0 0 0
0 0 0
0 0 0
0 0 0
0 0 0
0 0 0
0 0 0
0 0 0
0 0 0
0 0 0
0 0 0
0 0 0
0 0 0
0 0 0
0 0 0
0 0 0
0 0 0
0 0 0
0 0 0
0 0 0
0 0 0
0 0 0
0 0 0
0 0 0
0 0 0
0 0 0
0 0 0
0 0 0
0 0 0
0 0 0
0 0 0
0 0 0
0 0 0
0 0 0
0 0 0
0 0 0
0 0 0
0 0 0
0 0 0
0 0 0
0 0 0
0 0 0
0 0 0
0 0 0
0 0 0
0 0 0
0 0 0
0 0 0
186 138 93
186 139 94
187 139 94
187 139 94
187 139 94
188 140 94
188 140 94
188 140 94
188 140 95
189 140 95
189 141 95
189 141 95
190 141 95
190 141 95
190 141 95
190 141 95
190 142 96
191 142 96
191 142 96
191 142 96
191 142 96
191 142 96
192 143 96
192 143 96
192 143 97
192 143 97
192 143 97
193 143 97
193 143 97
193 144 97
193 144 97
193 144 98
193 144 98
193 144 98
194 144 98
194 144 98
194 145 98
194 145 99
194 145 99
194 145 99
194 145 99
194 145 100
195 146 100
195 146 100
195 146 100
195 146 101
195 146 101
195 146 101
195 146 101
195 146 101
195 147 102
195 147 102
195 147 102
195 147 102
195 147 102
195 147 102
195 147 102
195 147 102
195 147 103
195 147 103
195 147 103
195 147 103
195 147 103
194 147 103
194 147 103
194 147 103
194 146 103
194 146 103
194 146 103
194 146 103
193 146 102
193 146 102
193 146 102
193 145 102
193 145 102
192 145 102
192 145 102
192 145 101
192 144 101
191 144 101
191 144 101
191 144 100
190 143 100
190 143 100
190 143 99
189 142 99
189 142 99
189 142 99
188 141 98
188 141 98
188 141 98
187 140 97
187 140 97
186 140 97
186 139 96
186 139 96
185 139 96
185 138 95
184 138 95
184 138 94
183 137 94
183 137 94
182 136 93
182 136 93
182 136 93
181 135 92
181 135 92
180 134 92
180 134 91
179 134 91
179 133 91
178 133 90
178 133 90
177 132 90
177 132 89
176 131 89
176 131 89
175 131 89
175 130 88
174 130 88
174 129 88
173 129 87
172 129 87
172 128 87
171 128 87
171 127 86
170 127 86
170 126 86
169 126 85
169 126 85
168 125 85
167 125 85
167 124 84
166 124 84
166 123 84
165 123 83
164 123 83
164 122 83
163 122 82
162 121 82
162 121 82
161 120 82
161 120 81
160 119 81
159 119 81
158 118 80
157 118 80
157 117 79
156 116 79
155 116 79
154 115 78
153 114 78
152 114 77
151 113 77
150 112 76
149 111 76
148 111 75
147 110 75
146 109 75
145 108 74
144 108 73
143 107 73
141 106 72
140 105 72
139 104 71
138 103 71
137 103 70
135 102 70
134 101 69
133 100 69
132 99 68
130 98 67
129 97 67
128 96 66
126 95 66
125 94 65
123 93 64
122 92 64
120 91 63
119 90 62
117 89 62
116 88 61
114 87 60
113 85 60
111 84 59
109 83 58
108 82 58
106 81 57
104 80 56
102 78 55
100 77 55
98 76 54
0 0 0
0 0 0
0 0 0
0 0 0
0 0 0
0 0 0
0 0 0
0 0 0
0 0 0
0 0 0
0 0 0
0 0 0
0 0 0
0 0 0
0 0 0
0 0 0
0 0 0
0 0 0
0 0 0
0 0 0
0 0 0
0 0 0
0 0 0
0 0 0
0 0 0
0 0 0
0 0 0
0 0 0
0 0 0
0 0 0
0 0 0
0 0 0
0 0 0
0 0 0
0 0 0
0 0 0
0 0 0
0 0 0
0 0 0
0 0 0
0 0 0
0 0 0
0 0 0
0 0 0
0 0 0
0 0 0
0 0 0
0 0 0
0 0 0
0 0 0
0 0 0
0 0 0
0 0 0
0 0 0
0 0 0
0 0 0
0 0 0
0 0 0
0 0 0
0 0 0
0 0 0
0 0 0
0 0 0
0 0 0
186 138 93
186 138 93
186 139 93
187 139 94
187 139 94
187 139 94
187 139 94
188 140 94
188 140 94
188 140 94
189 140 95
189 140 95
189 141 95
189 141 95
190 141 95
190 141 95
190 141 95
190 141 95
190 142 96
191 142 96
191 142 96
191 142 96
191 142 96
191 142 96
192 143 96
192 143 96
192 143 97
192 143 97
192 143 97
192 143 97
193 143 97
193 143 97
193 144 97
193 144 98
193 144 98
193 144 98
193 144 98
193 144 98
194 144 98
194 145 99
194 145 99
194 145 99
194 145 99
194 145 100
194 145 100
194 145 100
194 146 100
194 146 100
194 146 101
194 146 101
194 146 101
194 146 101
194 146 101
194 146 101
194 146 101
194 146 101
194 146 102
194 146 102
194 146 102
194 146 102
194 146 102
194 146 102
194 146 102
194 146 102
194 146 102
193 146 102
193 146 102
193 146 102
193 145 102
193 145 102
193 145 102
192 145 101
192 145 101
192 145 101
192 145 101
192 144 101
191 144 101
191 144 100
191 144 100
190 143 100
190 143 100
190 143 100
190 143 99
189 142 99
189 142 99
189 142 98
188 141 98
188 141 98
188 141 98
187 141 97
187 140 97
186 140 97
186 140 96
186 139 96
185 139 96
185 139 95
185 138 95
184 138 95
184 137 94
183 137 94
183 137 94
182 136 93
182 136 93
181 136 93
181 135 92
181 135 92
180 134 92
180 134 91
179 134 91
179 133 91
178 133 90
178 133 90
177 132 90
177 132 89
176 131 89
176 131 89
175 131 89
175 130 88
174 130 88
174 129 88
173 129 87
172 129 87
172 128 87
171 128 87
171 127 86
170 127 86
170 127 86
169 126 85
169 126 85
168 125 85
167 125 85
167 124 84
166 124 84
166 124 84
165 123 83
164 123 83
164 122 83
163 122 83
163 121 82
162 121 82
161 120 82
161 120 81
160 119 81
159 119 81
159 118 80
158 118 80
157 117 80
156 117 79
155 116 79
154 115 78
153 115 78
152 114 77
151 113 77
150 112 77
149 112 76
148 111 76
147 110 75
146 110 75
145 109 74
144 108 74
143 107 73
142 106 73
141 106 72
140 105 72
138 104 71
137 103 71
136 102 70
135 101 69
133 100 69
132 99 68
131 98 68
130 97 67
128 96 66
127 96 66
125 95 65
124 93 65
122 92 64
121 91 63
120 90 63
118 89 62
116 88 61
115 87 61
113 86 60
112 85 59
110 84 59
108 82 58
107 81 57
105 80 56
103 79 56
101 78 55
99 76 54
97 75 53
0 0 0
0 0 0
0 0 0
0 0 0
0 0 0
0 0 0
0 0 0
0 0 0
0 0 0
0 0 0
0 0 0
0 0 0
0 0 0
0 0 0
0 0 0
0 0 0
0 0 0
0 0 0
0 0 0
0 0 0
0 0 0
0 0 0
0 0 0
0 0 0
0 0 0
0 0 0
0 0 0
0 0 0
0 0 0
0 0 0
0 0 0
0 0 0
0 0 0
0 0 0
0 0 0
0 0 0
0 0 0
0 0 0
0 0 0
0 0 0
0 0 0
0 0 0
0 0 0
0 0 0
0 0 0
0 0 0
0 0 0
0 0 0
0 0 0
0 0 0
0 0 0
0 0 0
0 0 0
0 0 0
0 0 0
0 0 0
0 0 0
0 0 0
0 0 0
0 0 0
0 0 0
0 0 0
0 0 0
0 0 0
185 138 93
185 138 93
186 138 93
186 138 93
186 139 93
187 139 94
187 139 94
187 139 94
188 139 94
188 140 94
188 140 94
188 140 94
189 140 95
189 140 95
189 141 95
189 141 95
190 141 95
190 141 95
190 141 95
190 141 95
190 142 96
191 142 96
191 142 96
191 142 96
191 142 96
191 142 96
191 142 96
192 143 96
192 143 96
192 143 97
192 143 97
192 143 97
192 143 97
192 143 97
193 143 97
193 144 98
193 144 98
193 144 98
193 144 98
193 144 98
193 144 98
193 144 99
193 145 99
194 145 99
194 145 99
194 145 99
194 145 100
194 145 100
194 145 100
194 145 100
194 145 100
194 145 100
194 145 100
194 145 101
194 145 101
194 145 101
194 145 101
194 145 101
194 145 101
193 145 101
193 145 101
193 145 101
193 145 101
193 145 101
193 145 101
193 145 101
193 145 101
192 145 101
192 145 101
192 145 101
192 144 101
192 144 101
192 144 100
191 144 100
191 144 100
191 144 100
191 143 100
190 143 100
190 143 99
190 143 99
190 142 99
189 142 99
189 142 99
189 142 98
188 141 98
188 141 98
188 141 97
187 141 97
187 140 97
187 140 97
186 140 96
186 139 96
186 139 96
185 139 95
185 138 95
184 138 95
184 138 95
184 137 94
183 137 94
183 137 94
182 136 93
182 136 93
181 135 93
181 135 92
180 135 92
180 134 92
180 134 91
179 134 91
179 133 91
178 133 90
178 132 90
177 132 90
177 132 89
176 131 89
176 131 89
175 131 89
175 130 88
174 130 88
174 129 88
173 129 87
173 129 87
172 128 87
171 128 87
171 127 86
170 127 86
170 127 86
169 126 85
169 126 85
168 125 85
168 125 85
167 124 84
166 124 84
166 124 84
165 123 83
165 123 83
164 122 83
163 122 83
163 121 82
162 121 82
161 120 82
161 120 81
160 119 81
159 119 81
159 119 80
158 118 80
157 117 80
156 117 79
155 116 79
155 115 78
154 115 78
153 114 78
152 113 77
151 113 77
150 112 76
149 111 76
148 111 75
147 110 75
146 109 74
145 108 74
144 107 73
142 107 73
141 106 72
140 105 72
139 104 71
138 103 71
136 102 70
135 102 70
134 101 69
133 100 69
131 99 68
130 98 67
129 97 67
127 96 66
126 95 66
125 94 65
123 93 64
122 92 64
120 91 63
119 90 62
117 89 62
116 88 61
114 86 60
112 85 60
111 84 59
109 83 58
107 82 58
106 81 57
104 79 56
102 78 55
100 77 55
98 76 54
96 74 53
0 0 0
0 0 0
0 0 0
0 0 0
0 0 0
0 0 0
0 0 0
0 0 0
0 0 0
0 0 0
0 0 0
0 0 0
0 0 0
0 0 0
0 0 0
0 0 0
0 0 0
0 0 0
0 0 0
0 0 0
0 0 0
0 0 0
0 0 0
0 0 0
0 0 0
0 0 0
0 0 0
0 0 0
0 0 0
0 0 0
0 0 0
0 0 0
0 0 0
0 0 0
0 0 0
0 0 0
0 0 0
0 0 0
0 0 0
0 0 0
0 0 0
0 0 0
0 0 0
0 0 0
0 0 0
0 0 0
0 0 0
0 0 0
0 0 0
0 0 0
0 0 0
0 0 0
0 0 0
0 0 0
0 0 0
0 0 0
0 0 0
0 0 0
0 0 0
0 0 0
0 0 0
0 0 0
0 0 0
0 0 0
185 137 93
185 138 93
185 138 93
186 138 93
186 138 93
186 138 93
186 139 94
187 139 94
187 139 94
187 139 94
188 139 94
188 140 94
188 140 94
188 140 94
189 140 95
189 140 95
189 141 95
189 141 95
189 141 95
190 141 95
190 141 95
190 141 95
190 142 95
190 142 96
191 142 96
191 142 96
191 142 96
191 142 96
191 142 96
191 142 96
192 143 96
192 143 97
192 143 97
192 143 97
192 143 97
192 143 97
192 143 97
192 143 97
192 144 98
193 144 98
193 144 98
193 144 98
193 144 98
193 144 99
193 144 99
193 144 99
193 144 99
193 145 99
193 145 99
193 145 100
193 145 100
193 145 100
193 145 100
193 145 100
193 145 100
193 145 100
193 145 100
193 145 100
193 145 100
193 145 100
193 145 100
193 145 100
192 145 100
192 145 100
192 144 100
192 144 100
192 144 100
192 144 100
192 144 100
191 144 100
191 144 100
191 144 100
191 143 100
191 143 100
190 143 99
190 143 99
190 143 99
190 142 99
189 142 99
189 142 98
189 142 98
189 142 98
188 141 98
188 141 98
188 141 97
187 141 97
187 140 97
187 140 97
186 140 96
186 139 96
186 139 96
185 139 95
185 138 95
185 138 95
184 138 95
184 138 94
183 137 94
183 137 94
183 136 93
182 136 93
182 136 93
181 135 92
181 135 92
180 135 92
180 134 91
179 134 91
179 134 91
179 133 91
178 133 90
178 132 90
177 132 90
177 132 89
176 131 89
176 131 89
175 131 89
175 130 88
174 130 88
174 129 88
173 129 87
173 129 87
172 128 87
171 128 87
171 127 86
170 127 86
170 127 86
169 126 85
169 126 85
168 125 85
168 125 85
167 124 84
166 124 84
166 124 84
165 123 83
165 123 83
164 122 83
163 122 83
163 121 82
162 121 82
162 120 82
161 120 81
160 120 81
160 119 81
159 119 81
158 118 80
158 118 80
157 117 79
156 116 79
155 116 79
154 115 78
153 114 78
152 114 77
151 113 77
150 112 76
149 112 76
148 111 76
147 110 75
146 109 75
145 109 74
144 108 74
143 107 73
142 106 73
141 105 72
139 105 72
138 104 71
137 103 70
136 102 70
135 101 69
133 100 69
132 99 68
131 98 68
129 97 67
128 96 66
127 95 66
125 94 65
124 93 65
122 92 64
121 91 63
119 90 63
118 89 62
116 88 61
115 87 61
113 86 60
111 85 59
110 84 59
108 82 58
106 81 57
105 80 56
103 79 56
101 77 55
99 76 54
97 75 53
95 74 53
0 0 0
0 0 0
0 0 0
0 0 0
0 0 0
0 0 0
0 0 0
0 0 0
0 0 0
0 0 0
0 0 0
0 0 0
0 0 0
0 0 0
0 0 0
0 0 0
0 0 0
0 0 0
0 0 0
0 0 0
0 0 0
0 0 0
0 0 0
0 0 0
0 0 0
0 0 0
0 0 0
0 0 0
0 0 0
0 0 0
0 0 0
0 0 0
0 0 0
0 0 0
0 0 0
0 0 0
0 0 0
0 0 0
0 0 0
0 0 0
0 0 0
0 0 0
0 0 0
0 0 0
0 0 0
0 0 0
0 0 0
0 0 0
0 0 0
0 0 0
0 0 0
0 0 0
0 0 0
0 0 0
0 0 0
0 0 0
0 0 0
0 0 0
0 0 0
0 0 0
0 0 0
0 0 0
0 0 0
0 0 0
184 137 92
184 137 93
185 137 93
185 138 93
185 138 93
186 138 93
186 138 93
186 139 93
187 139 94
187 139 94
187 139 94
187 139 94
188 139 94
188 140 94
188 140 94
188 140 94
189 140 95
189 140 95
189 141 95
189 141 95
189 141 95
190 141 95
190 141 95
190 141 95
190 141 95
190 142 96
190 142 96
191 142 96
191 142 96
191 142 96
191 142 96
191 142 96
191 142 96
191 143 97
192 143 97
192 143 97
192 143 97
192 143 97
192 143 97
192 143 97
192 143 98
192 143 98
192 144 98
192 144 98
192 144 98
193 144 98
193 144 99
193 144 99
193 144 99
193 144 99
193 144 99
193 144 99
193 144 99
192 144 99
192 144 99
192 144 99
192 144 99
192 144 99
192 144 100
192 144 100
192 144 100
192 144 100
192 144 100
192 144 100
192 144 100
191 144 99
191 144 99
191 143 99
191 143 99
191 143 99
191 143 99
190 143 99
190 143 99
190 143 99
190 142 99
189 142 98
189 142 98
189 142 98
189 142 98
188 141 98
188 141 98
188 141 97
188 141 97
187 140 97
187 140 97
187 140 96
186 140 96
186 139 96
186 139 96
185 139 95
185 139 95
185 138 95
184 138 95
184 138 94
184 137 94
183 137 94
183 137 94
182 136 93
182 136 93
182 136 93
181 135 92
181 135 92
180 135 92
180 134 91
179 134 91
179 133 91
178 133 91
178 133 90
177 132 90
177 132 90
177 132 89
176 131 89
176 131 89
175 131 89
175 130 88
174 130 88
174 129 88
173 129 87
173 129 87
172 128 87
171 128 87
171 127 86
170 127 86
170 127 86
169 126 85
169 126 85
168 125 85
168 125 85
167 125 84
166 124 84
166 124 84
165 123 84
165 123 83
164 122 83
163 122 83
163 121 82
162 121 82
162 121 82
161 120 81
160 120 81
160 119 81
159 119 81
158 118 80
158 118 80
157 117 80
156 117 79
155 116 79
154 115 78
153 115 78
152 114 78
152 113 77
151 113 77
150 112 76
149 111 76
148 110 75
147 110 75
145 109 74
144 108 74
143 107 73
142 107 73
141 106 72
140 105 72
139 104 71
138 103 71
136 102 70
135 101 70
134 101 69
133 100 68
131 99 68
130 98 67
129 97 67
127 96 66
126 95 65
124 94 65
123 93 64
122 92 64
120 91 63
119 90 62
117 89 62
115 87 61
114 86 60
112 85 60
111 84 59
109 83 58
107 82 57
105 81 57
104 79 56
102 78 55
100 77 54
98 75 54
96 74 53
94 73 52
0 0 0
0 0 0
0 0 0
0 0 0
0 0 0
0 0 0
0 0 0
0 0 0
0 0 0
0 0 0
0 0 0
0 0 0
0 0 0
0 0 0
0 0 0
0 0 0
0 0 0
0 0 0
0 0 0
0 0 0
0 0 0
0 0 0
0 0 0
0 0 0
0 0 0
0 0 0
0 0 0
0 0 0
0 0 0
0 0 0
0 0 0
0 0 0
0 0 0
0 0 0
0 0 0
0 0 0
0 0 0
0 0 0
0 0 0
0 0 0
0 0 0
0 0 0
0 0 0
0 0 0
0 0 0
0 0 0
0 0 0
0 0 0
0 0 0
0 0 0
0 0 0
0 0 0
0 0 0
0 0 0
0 0 0
0 0 0
0 0 0
0 0 0
0 0 0
0 0 0
0 0 0
0 0 0
0 0 0
0 0 0
184 137 92
184 137 92
184 137 92
185 137 93
185 138 93
185 138 93
185 138 93
186 138 93
186 138 93
186 139 93
187 139 94
187 139 94
187 139 94
187 139 94
188 139 94
188 140 94
188 140 94
188 140 94
188 140 95
189 140 95
189 140 95
189 141 95
189 141 95
189 141 95
190 141 95
190 141 95
190 141 95
190 141 96
190 142 96
190 142 96
191 142 96
191 142 96
191 142 96
191 142 96
191 142 96
191 142 96
191 142 97
191 143 97
191 143 97
191 143 97
192 143 97
192 143 97
192 143 97
192 143 98
192 143 98
192 143 98
192 143 98
192 144 98
192 144 98
192 144 98
192 144 98
192 144 99
192 144 99
192 144 99
192 144 99
192 144 99
192 144 99
192 144 99
192 143 99
191 143 99
191 143 99
191 143 99
191 143 99
191 143 99
191 143 99
191 143 99
191 143 99
190 143 99
190 143 99
190 143 99
190 142 98
190 142 98
189 142 98
189 142 98
189 142 98
189 142 98
189 141 98
188 141 97
188 141 97
188 141 97
187 141 97
187 140 97
187 140 96
187 140 96
186 140 96
186 139 96
186 139 96
185 139 95
185 139 95
185 138 95
184 138 95
184 138 94
184 137 94
183 137 94
183 137 94
183 137 93
182 136 93
182 136 93
181 136 92
181 135 92
181 135 92
180 134 92
180 134 91
179 134 91
179 133 91
178 133 90
178 133 90
177 132 90
177 132 90
176 132 89
176 131 89
176 131 89
175 130 88
175 130 88
174 130 88
174 129 88
173 129 87
173 129 87
172 128 87
171 128 87
171 127 86
170 127 86
170 127 86
169 126 85
169 126 85
168 125 85
168 125 85
167 125 84
166 124 84
166 124 84
165 123 84
165 123 83
164 122 83
164 122 83
163 122 82
162 121 82
162 121 82
161 120 82
160 120 81
160 119 81
159 119 81
158 118 80
158 118 80
157 117 80
156 117 79
156 116 79
155 116 79
154 115 78
153 114 78
152 114 77
151 113 77
150 112 76
149 111 76
148 111 75
147 110 75
146 109 74
145 108 74
144 108 73
143 107 73
141 106 72
140 105 72
139 104 71
138 104 71
137 103 70
136 102 70
134 101 69
133 100 69
132 99 68
130 98 68
129 97 67
128 96 66
126 95 66
125 94 65
124 93 64
122 92 64
121 91 63
119 90 63
118 89 62
116 88 61
115 87 61
113 86 60
111 85 59
110 83 58
108 82 58
106 81 57
104 80 56
103 79 56
101 77 55
99 76 54
97 75 53
95 73 52
93 72 52
0 0 0
0 0 0
0 0 0
0 0 0
0 0 0
0 0 0
0 0 0
0 0 0
0 0 0
0 0 0
0 0 0
0 0 0
0 0 0
0 0 0
0 0 0
0 0 0
0 0 0
0 0 0
0 0 0
0 0 0
0 0 0
0 0 0
0 0 0
0 0 0
0 0 0
0 0 0
0 0 0
0 0 0
0 0 0
0 0 0
0 0 0
0 0 0
0 0 0
0 0 0
0 0 0
0 0 0
0 0 0
0 0 0
0 0 0
0 0 0
0 0 0
0 0 0
0 0 0
0 0 0
0 0 0
0 0 0
0 0 0
0 0 0
0 0 0
0 0 0
0 0 0
0 0 0
0 0 0
0 0 0
0 0 0
0 0 0
0 0 0
0 0 0
0 0 0
0 0 0
0 0 0
0 0 0
0 0 0
0 0 0
183 136 92
183 136 92
184 137 92
184 137 92
184 137 93
185 137 93
185 138 93
185 138 93
186 138 93
186 138 93
186 138 93
186 139 93
187 139 94
187 139 94
187 139 94
187 139 94
188 139 94
188 140 94
188 140 94
188 140 94
188 140 95
189 140 95
189 140 95
189 141 95
189 141 95
189 141 95
189 141 95
190 141 95
190 141 95
190 141 95
190 141 96
190 142 96
190 142 96
190 142 96
190 142 96
191 142 96
191 142 96
191 142 96
191 142 96
191 142 97
191 142 97
191 143 97
191 143 97
191 143 97
191 143 97
191 143 97
191 143 98
191 143 98
191 143 98
191 143 98
191 143 98
191 143 98
191 143 98
191 143 98
191 143 98
191 143 98
191 143 98
191 143 98
191 143 98
191 143 98
191 143 98
191 143 98
190 143 98
190 143 98
190 142 98
190 142 98
190 142 98
190 142 98
190 142 98
189 142 98
189 142 98
189 142 98
189 141 98
189 141 97
188 141 97
188 141 97
188 141 97
188 141 97
187 140 97
187 140 96
187 140 96
187 140 96
186 139 96
186 139 96
186 139 95
185 139 95
185 139 95
185 138 95
184 138 95
184 138 94
184 137 94
183 137 94
183 137 94
183 137 93
182 136 93
182 136 93
182 136 93
181 135 92
181 135 92
180 135 92
180 134 92
180 134 91
179 134 91
179 133 91
178 133 90
178 133 90
177 132 90
177 132 90
176 132 89
176 131 89
175 131 89
175 130 88
174 130 88
174 130 88
174 129 88
173 129 87
172 129 87
172 128 87
171 128 87
171 127 86
170 127 86
170 127 86
169 126 85
169 126 85
168 125 85
168 125 85
167 125 84
167 124 84
166 124 84
165 123 84
165 123 83
164 122 83
164 122 83
163 122 82
162 121 82
162 121 82
161 120 82
160 120 81
160 119 81
159 119 81
159 118 80
158 118 80
157 117 80
157 117 79
156 116 79
155 116 79
154 115 78
153 114 78
152 114 77
151 113 77
150 112 77
149 112 76
148 111 76
147 110 75
146 109 75
145 109 74
144 108 74
143 107 73
142 106 73
141 106 72
140 105 72
138 104 71
137 103 71
136 102 70
135 101 69
134 100 69
132 99 68
131 99 68
130 98 67
128 97 67
127 96 66
126 95 65
124 94 65
123 93 64
121 92 63
120 91 63
118 90 62
117 88 62
115 87 61
114 86 60
112 85 59
110 84 59
109 83 58
107 82 57
105 80 57
103 79 56
102 78 55
100 77 54
98 75 54
96 74 53
94 73 52
92 71 51
0 0 0
0 0 0
0 0 0
0 0 0
0 0 0
0 0 0
0 0 0
0 0 0
0 0 0
0 0 0
0 0 0
0 0 0
0 0 0
0 0 0
0 0 0
0 0 0
0 0 0
0 0 0
0 0 0
0 0 0
0 0 0
0 0 0
0 0 0
0 0 0
0 0 0
0 0 0
0 0 0
0 0 0
0 0 0
0 0 0
0 0 0
0 0 0
0 0 0
0 0 0
0 0 0
0 0 0
0 0 0
0 0 0
0 0 0
0 0 0
0 0 0
0 0 0
0 0 0
0 0 0
0 0 0
0 0 0
0 0 0
0 0 0
0 0 0
0 0 0
0 0 0
0 0 0
0 0 0
0 0 0
0 0 0
0 0 0
0 0 0
0 0 0
0 0 0
0 0 0
0 0 0
0 0 0
0 0 0
0 0 0
183 136 92
183 136 92
183 136 92
184 137 92
184 137 92
184 137 92
184 137 93
185 137 93
185 138 93
185 138 93
186 138 93
186 138 93
186 138 93
186 139 93
187 139 94
187 139 94
187 139 94
187 139 94
187 139 94
188 140 94
188 140 94
188 140 94
188 140 94
188 140 95
189 140 95
189 140 95
189 141 95
189 141 95
189 141 95
189 141 95
189 141 95
190 141 95
190 141 95
190 141 96
190 141 96
190 142 96
190 142 96
190 142 96
190 142 96
190 142 96
190 142 96
191 142 96
191 142 97
191 142 97
191 142 97
191 142 97
191 142 97
191 143 97
191 143 97
191 143 97
191 143 97
191 143 97
191 143 97
191 143 98
191 142 98
190 142 98
190 142 98
190 142 98
190 142 98
190 142 98
190 142 98
190 142 98
190 142 98
190 142 98
190 142 98
189 142 97
189 142 97
189 142 97
189 141 97
189 141 97
189 141 97
188 141 97
188 141 97
188 141 97
188 141 97
187 140 97
187 140 96
187 140 96
187 140 96
186 140 96
186 139 96
186 139 96
186 139 95
185 139 95
185 138 95
185 138 95
184 138 95
184 138 94
184 137 94
184 137 94
183 137 94
183 137 93
183 136 93
182 136 93
182 136 93
181 136 92
181 135 92
181 135 92
180 135 92
180 134 91
179 134 91
179 134 91
179 133 91
178 133 90
178 133 90
177 132 90
177 132 89
176 131 89
176 131 89
175 131 89
175 130 88
174 130 88
174 130 88
173 129 88
173 129 87
172 129 87
172 128 87
171 128 87
171 127 86
170 127 86
170 127 86
169 126 85
169 126 85
168 125 85
168 125 85
167 125 84
167 124 84
166 124 84
165 123 84
165 123 83
164 122 83
164 122 83
163 122 82
162 121 82
162 121 82
161 120 82
161 120 81
160 119 81
159 119 81
159 118 80
158 118 80
157 117 80
157 117 79
156 117 79
155 116 79
154 115 78
153 115 78
153 114 78
152 113 77
151 113 77
150 112 76
149 111 76
148 110 75
147 110 75
146 109 74
145 108 74
143 107 73
142 107 73
141 106 72
140 105 72
139 104 71
138 103 71
137 102 70
135 102 70
134 101 69
133 100 69
132 99 68
130 98 67
129 97 67
128 96 66
126 95 66
125 94 65
123 93 64
122 92 64
120 91 63
119 90 62
117 89 62
116 88 61
114 87 60
113 86 60
111 84 59
109 83 58
108 82 58
106 81 57
104 80 56
102 78 55
101 77 55
99 76 54
97 75 53
95 73 52
93 72 52
91 71 51
0 0 0
0 0 0
0 0 0
0 0 0
0 0 0
0 0 0
0 0 0
0 0 0
0 0 0
0 0 0
0 0 0
0 0 0
0 0 0
0 0 0
0 0 0
0 0 0
0 0 0
0 0 0
0 0 0
0 0 0
0 0 0
0 0 0
0 0 0
0 0 0
0 0 0
0 0 0
0 0 0
0 0 0
0 0 0
0 0 0
0 0 0
0 0 0
0 0 0
0 0 0
0 0 0
0 0 0
0 0 0
0 0 0
0 0 0
0 0 0
0 0 0
0 0 0
0 0 0
0 0 0
0 0 0
0 0 0
0 0 0
0 0 0
0 0 0
0 0 0
0 0 0
0 0 0
0 0 0
0 0 0
0 0 0
0 0 0
0 0 0
0 0 0
0 0 0
0 0 0
0 0 0
0 0 0
0 0 0
0 0 0
182 135 91
182 136 92
183 136 92
183 136 92
183 136 92
184 137 92
184 137 92
184 137 92
184 137 93
185 137 93
185 138 93
185 138 93
186 138 93
186 138 93
186 138 93
186 139 93
187 139 94
187 139 94
187 139 94
187 139 94
187 139 94
188 139 94
188 140 94
188 140 94
188 140 94
188 140 95
188 140 95
189 140 95
189 140 95
189 140 95
189 141 95
189 141 95
189 141 95
189 141 95
189 141 95
190 141 95
190 141 96
190 141 96
190 141 96
190 141 96
190 142 96
190 142 96
190 142 96
190 142 96
190 142 96
190 142 97
190 142 97
190 142 97
190 142 97
190 142 97
190 142 97
190 142 97
190 142 97
190 142 97
190 142 97
190 142 97
190 142 97
190 142 97
190 142 97
190 142 97
189 142 97
189 142 97
189 141 97
189 141 97
189 141 97
189 141 97
189 141 97
188 141 97
188 141 97
188 141 97
188 141 97
188 140 96
187 140 96
187 140 96
187 140 96
187 140 96
187 140 96
186 139 96
186 139 95
186 139 95
186 139 95
185 139 95
185 138 95
185 138 95
184 138 94
184 138 94
184 137 94
184 137 94
183 137 94
183 137 93
183 136 93
182 136 93
182 136 93
182 136 92
181 135 92
181 135 92
181 135 92
180 134 92
180 134 91
179 134 91
179 133 91
178 133 90
178 133 90
178 132 90
177 132 90
177 132 89
176 131 89
176 131 89
175 131 89
175 130 88
174 130 88
174 130 88
173 129 88
173 129 87
172 129 87
172 128 87
171 128 87
171 127 86
170 127 86
170 127 86
169 126 85
169 126 85
168 125 85
168 125 85
167 125 84
167 124 84
166 124 84
165 123 84
165 123 83
164 122 83
164 122 83
163 122 82
162 121 82
162 121 82
161 120 82
161 120 81
160 119 81
159 119 81
159 118 80
158 118 80
157 118 80
157 117 80
156 117 79
155 116 79
155 116 79
154 115 78
153 114 78
152 114 77
151 113 77
150 112 76
149 111 76
148 111 75
147 110 75
146 109 75
145 109 74
144 108 74
143 107 73
142 106 73
141 105 72
139 105 72
138 104 71
137 103 70
136 102 70
135 101 69
133 100 69
132 99 68
131 98 68
129 97 67
128 96 66
127 96 66
125 95 65
124 94 65
123 93 64
121 91 63
120 90 63
118 89 62
117 88 61
115 87 61
113 86 60
112 85 59
110 84 59
108 83 58
107 81 57
105 80 57
103 79 56
101 78 55
100 76 54
98 75 54
96 74 53
94 73 52
92 71 51
90 70 50
0 0 0
0 0 0
0 0 0
0 0 0
0 0 0
0 0 0
0 0 0
0 0 0
0 0 0
0 0 0
0 0 0
0 0 0
0 0 0
0 0 0
0 0 0
0 0 0
0 0 0
0 0 0
0 0 0
0 0 0
0 0 0
0 0 0
0 0 0
0 0 0
0 0 0
0 0 0
0 0 0
0 0 0
0 0 0
0 0 0
0 0 0
0 0 0
0 0 0
0 0 0
0 0 0
0 0 0
0 0 0
0 0 0
0 0 0
0 0 0
0 0 0
0 0 0
0 0 0
0 0 0
0 0 0
0 0 0
0 0 0
0 0 0
0 0 0
0 0 0
0 0 0
0 0 0
0 0 0
0 0 0
0 0 0
0 0 0
0 0 0
0 0 0
0 0 0
0 0 0
0 0 0
0 0 0
0 0 0
0 0 0
182 135 91
182 135 91
182 136 91
182 136 92
183 136 92
183 136 92
183 136 92
184 137 92
184 137 92
184 137 92
185 137 93
185 137 93
185 138 93
185 138 93
186 138 93
186 138 93
186 138 93
186 139 93
186 139 94
187 139 94
187 139 94
187 139 94
187 139 94
187 139 94
188 140 94
188 140 94
188 140 94
188 140 94
188 140 95
188 140 95
188 140 95
189 140 95
189 140 95
189 141 95
189 141 95
189 141 95
189 141 95
189 141 95
189 141 95
189 141 96
189 141 96
189 141 96
190 141 96
190 141 96
190 141 96
190 141 96
190 142 96
190 142 96
190 142 96
190 142 96
190 142 96
190 142 96
190 141 97
189 141 97
189 141 97
189 141 97
189 141 97
189 141 97
189 141 97
189 141 97
189 141 97
189 141 96
189 141 96
188 141 96
188 141 96
188 141 96
188 141 96
188 140 96
188 140 96
187 140 96
187 140 96
187 140 96
187 140 96
187 140 96
186 139 95
186 139 95
186 139 95
186 139 95
185 139 95
185 138 95
185 138 95
185 138 94
184 138 94
184 138 94
184 137 94
184 137 94
183 137 94
183 137 93
183 136 93
182 136 93
182 136 93
182 136 92
181 135 92
181 135 92
181 135 92
180 135 92
180 134 91
180 134 91
179 134 91
179 133 91
178 133 90
178 133 90
177 132 90
177 132 90
177 132 89
176 131 89
176 131 89
175 131 89
175 130 88
174 130 88
174 130 88
173 129 88
173 129 87
172 128 87
172 128 87
171 128 87
171 127 86
170 127 86
170 127 86
169 126 85
169 126 85
168 125 85
168 125 85
167 125 84
167 124 84
166 124 84
165 123 84
165 123 83
164 123 83
164 122 83
163 122 82
163 121 82
162 121 82
161 120 82
161 120 81
160 119 81
159 119 81
159 119 80
158 118 80
158 118 80
157 117 80
156 117 79
156 116 79
155 116 79
154 115 78
153 114 78
152 114 77
151 113 77
150 112 77
149 112 76
148 111 76
147 110 75
146 110 75
145 109 74
144 108 74
143 107 73
142 106 73
141 106 72
140 105 72
139 104 71
138 103 71
136 102 70
135 101 70
134 101 69
133 100 68
131 99 68
130 98 67
129 97 67
127 96 66
126 95 66
125 94 65
123 93 64
122 92 64
120 91 63
119 90 62
117 89 62
116 88 61
114 87 60
113 85 60
111 84 59
109 83 58
108 82 58
106 81 57
104 80 56
102 78 55
100 77 55
99 76 54
97 74 53
95 73 52
93 72 52
91 70 51
89 69 50
0 0 0
0 0 0
0 0 0
0 0 0
0 0 0
0 0 0
0 0 0
0 0 0
0 0 0
0 0 0
0 0 0
0 0 0
0 0 0
0 0 0
0 0 0
0 0 0
0 0 0
0 0 0
0 0 0
0 0 0
0 0 0
0 0 0
0 0 0
0 0 0
0 0 0
0 0 0
0 0 0
0 0 0
0 0 0
0 0 0
0 0 0
0 0 0
0 0 0
0 0 0
0 0 0
0 0 0
0 0 0
0 0 0
0 0 0
0 0 0
0 0 0
0 0 0
0 0 0
0 0 0
0 0 0
0 0 0
0 0 0
0 0 0
0 0 0
0 0 0
0 0 0
0 0 0
0 0 0
0 0 0
0 0 0
0 0 0
0 0 0
0 0 0
0 0 0
0 0 0
0 0 0
0 0 0
0 0 0
0 0 0
181 135 91
181 135 91
182 135 91
182 135 91
182 136 91
182 136 92
183 136 92
183 136 92
183 136 92
184 137 92
184 137 92
184 137 92
184 137 93
185 137 93
185 138 93
185 138 93
185 138 93
186 138 93
186 138 93
186 138 93
186 139 93
186 139 94
187 139 94
187 139 94
187 139 94
187 139 94
187 139 94
187 139 94
188 140 94
188 140 94
188 140 94
188 140 94
188 140 95
188 140 95
188 140 95
188 140 95
189 140 95
189 140 95
189 140 95
189 141 95
189 141 95
189 141 95
189 141 95
189 141 96
189 141 96
189 141 96
189 141 96
189 141 96
189 141 96
189 141 96
189 141 96
189 141 96
189 141 96
189 141 96
189 141 96
189 141 96
189 141 96
188 141 96
188 141 96
188 141 96
188 141 96
188 140 96
188 140 96
188 140 96
188 140 96
187 140 96
187 140 96
187 140 96
187 140 96
187 140 95
187 139 95
186 139 95
186 139 95
186 139 95
186 139 95
186 139 95
185 138 95
185 138 95
185 138 94
185 138 94
184 138 94
184 138 94
184 137 94
184 137 94
183 137 93
183 137 93
183 136 93
182 136 93
182 136 93
182 136 92
181 135 92
181 135 92
181 135 92
180 135 92
180 134 91
180 134 91
179 134 91
179 134 91
179 133 91
178 133 90
178 133 90
177 132 90
177 132 90
176 132 89
176 131 89
176 131 89
175 131 89
175 130 88
174 130 88
174 129 88
173 129 88
173 129 87
172 128 87
172 128 87
171 128 86
171 127 86
170 127 86
170 127 86
169 126 85
169 126 85
168 125 85
168 125 85
167 125 84
167 124 84
166 124 84
165 123 84
165 123 83
164 122 83
164 122 83
163 122 82
162 121 82
162 121 82
161 120 82
161 120 81
160 119 81
159 119 81
159 119 80
158 118 80
158 118 80
157 117 80
156 117 79
156 116 79
155 116 79
154 115 78
153 115 78
153 114 78
152 113 77
151 113 77
150 112 76
149 111 76
148 110 75
147 110 75
146 109 74
145 108 74
144 107 73
142 107 73
141 106 72
140 105 72
139 104 71
138 103 71
137 103 70
135 102 70
134 101 69
133 100 69
132 99 68
130 98 68
129 97 67
128 96 66
126 95 66
125 94 65
124 93 65
122 92 64
121 91 63
119 90 63
118 89 62
116 88 61
115 87 61
113 86 60
111 85 59
110 84 59
108 82 58
106 81 57
105 80 56
103 79 56
101 77 55
99 76 54
97 75 53
95 74 53
93 72 52
91 71 51
89 69 50
87 68 49
0 0 0
0 0 0
0 0 0
0 0 0
0 0 0
0 0 0
0 0 0
0 0 0
0 0 0
0 0 0
0 0 0
0 0 0
0 0 0
0 0 0
0 0 0
0 0 0
0 0 0
0 0 0
0 0 0
0 0 0
0 0 0
0 0 0
0 0 0
0 0 0
0 0 0
0 0 0
0 0 0
0 0 0
0 0 0
0 0 0
0 0 0
0 0 0
0 0 0
0 0 0
0 0 0
0 0 0
0 0 0
0 0 0
0 0 0
0 0 0
0 0 0
0 0 0
0 0 0
0 0 0
0 0 0
0 0 0
0 0 0
0 0 0
0 0 0
0 0 0
0 0 0
0 0 0
0 0 0
0 0 0
0 0 0
0 0 0
0 0 0
0 0 0
0 0 0
0 0 0
0 0 0
0 0 0
0 0 0
0 0 0
180 134 91
180 134 91
181 135 91
181 135 91
181 135 91
182 135 91
182 135 91
182 136 92
183 136 92
183 136 92
183 136 92
183 137 92
184 137 92
184 137 92
184 137 92
185 137 93
185 137 93
185 138 93
185 138 93
185 138 93
186 138 93
186 138 93
186 138 93
186 138 93
186 139 94
187 139 94
187 139 94
187 139 94
187 139 94
187 139 94
187 139 94
187 139 94
187 140 94
188 140 94
188 140 94
188 140 94
188 140 95
188 140 95
188 140 95
188 140 95
188 140 95
188 140 95
188 140 95
188 140 95
188 140 95
188 140 95
189 141 95
189 141 95
189 141 96
188 141 96
188 141 96
188 141 96
188 140 96
188 140 96
188 140 96
188 140 96
188 140 96
188 140 96
188 140 96
188 140 95
188 140 95
187 140 95
187 140 95
187 140 95
187 140 95
187 140 95
187 139 95
186 139 95
186 139 95
186 139 95
186 139 95
186 139 95
186 139 95
185 138 95
185 138 94
185 138 94
185 138 94
184 138 94
184 138 94
184 137 94
184 137 94
183 137 93
183 137 93
183 137 93
183 136 93
182 136 93
182 136 93
182 136 92
181 135 92
181 135 92
181 135 92
180 135 92
180 134 91
180 134 91
180 134 91
179 134 91
179 133 91
178 133 90
178 133 90
178 132 90
177 132 90
177 132 89
176 131 89
176 131 89
175 131 89
175 130 88
175 130 88
174 130 88
174 129 88
173 129 87
173 129 87
172 128 87
172 128 87
171 128 86
171 127 86
170 127 86
170 126 86
169 126 85
169 126 85
168 125 85
168 125 85
167 125 84
166 124 84
166 124 84
165 123 84
165 123 83
164 122 83
164 122 83
163 122 82
162 121 82
162 121 82
161 120 82
161 120 81
160 119 81
159 119 81
159 118 80
158 118 80
157 118 80
157 117 80
156 117 79
156 116 79
155 116 79
154 115 78
154 115 78
153 114 78
152 113 77
151 113 77
150 112 76
149 111 76
148 111 75
147 110 75
146 109 74
145 108 74
144 108 74
143 107 73
142 106 73
140 105 72
139 104 72
138 104 71
137 103 70
136 102 70
135 101 69
133 100 69
132 99 68
131 98 68
129 97 67
128 96 66
127 96 66
125 95 65
124 94 65
123 93 64
121 92 63
120 90 63
118 89 62
117 88 61
115 87 61
114 86 60
112 85 59
110 84 59
109 83 58
107 82 57
105 80 57
103 79 56
102 78 55
100 77 54
98 75 54
96 74 53
94 73 52
92 71 51
90 70 50
88 68 49
85 67 49
0 0 0
0 0 0
0 0 0
0 0 0
0 0 0
0 0 0
0 0 0
0 0 0
0 0 0
0 0 0
0 0 0
0 0 0
0 0 0
0 0 0
0 0 0
0 0 0
0 0 0
0 0 0
0 0 0
0 0 0
0 0 0
0 0 0
0 0 0
0 0 0
0 0 0
0 0 0
0 0 0
0 0 0
0 0 0
0 0 0
0 0 0
0 0 0
0 0 0
0 0 0
0 0 0
0 0 0
0 0 0
0 0 0
0 0 0
0 0 0
0 0 0
0 0 0
0 0 0
0 0 0
0 0 0
0 0 0
0 0 0
0 0 0
0 0 0
0 0 0
0 0 0
0 0 0
0 0 0
0 0 0
0 0 0
0 0 0
0 0 0
0 0 0
0 0 0
0 0 0
0 0 0
0 0 0
0 0 0
0 0 0
179 134 90
180 134 90
180 134 90
180 134 91
181 134 91
181 135 91
181 135 91
182 135 91
182 135 91
182 136 92
183 136 92
183 136 92
183 136 92
183 136 92
184 137 92
184 137 92
184 137 92
184 137 92
185 137 93
185 137 93
185 138 93
185 138 93
185 138 93
186 138 93
186 138 93
186 138 93
186 138 93
186 138 93
186 139 94
186 139 94
187 139 94
187 139 94
187 139 94
187 139 94
187 139 94
187 139 94
187 139 94
187 139 94
187 140 94
188 140 94
188 140 94
188 140 95
188 140 95
188 140 95
188 140 95
188 140 95
188 140 95
188 140 95
188 140 95
188 140 95
188 140 95
188 140 95
188 140 95
188 140 95
188 140 95
187 140 95
187 140 95
187 140 95
187 140 95
187 140 95
187 139 95
187 139 95
187 139 95
186 139 95
186 139 95
186 139 95
186 139 95
186 139 95
186 139 94
185 138 94
185 138 94
185 138 94
185 138 94
185 138 94
184 138 94
184 138 94
184 137 94
184 137 94
184 137 93
183 137 93
183 137 93
183 136 93
183 136 93
182 136 93
182 136 92
182 136 92
181 135 92
181 135 92
181 135 92
180 135 92
180 134 91
180 134 91
180 134 91
179 134 91
179 133 91
179 133 90
178 133 90
178 133 90
177 132 90
177 132 90
177 132 89
176 131 89
176 131 89
175 131 89
175 130 88
174 130 88
174 130 88
173 129 88
173 129 87
173 129 87
172 128 87
172 128 87
171 127 86
171 127 86
170 127 86
170 126 86
169 126 85
169 126 85
168 125 85
167 125 85
167 124 84
166 124 84
166 124 84
165 123 84
165 123 83
164 122 83
164 122 83
163 122 82
162 121 82
162 121 82
161 120 82
161 120 81
160 119 81
159 119 81
159 118 80
158 118 80
157 118 80
157 117 80
156 117 79
155 116 79
155 116 79
154 115 78
153 115 78
153 114 78
152 114 77
151 113 77
150 112 76
149 112 76
148 111 76
147 110 75
146 109 75
145 109 74
144 108 74
143 107 73
142 106 73
141 105 72
140 105 72
138 104 71
137 103 71
136 102 70
135 101 69
134 100 69
132 100 68
131 99 68
130 98 67
128 97 67
127 96 66
126 95 65
124 94 65
123 93 64
122 92 64
120 91 63
119 90 62
117 89 62
116 88 61
114 86 60
112 85 60
111 84 59
109 83 58
107 82 58
106 81 57
104 79 56
102 78 55
100 77 55
98 76 54
96 74 53
94 73 52
92 72 51
90 70 51
88 69 50
85 67 49
83 65 48
0 0 0
0 0 0
0 0 0
0 0 0
0 0 0
0 0 0
0 0 0
0 0 0
0 0 0
0 0 0
0 0 0
0 0 0
0 0 0
0 0 0
0 0 0
0 0 0
0 0 0
0 0 0
0 0 0
0 0 0
0 0 0
0 0 0
0 0 0
0 0 0
0 0 0
0 0 0
0 0 0
0 0 0
0 0 0
0 0 0
0 0 0
0 0 0
0 0 0
0 0 0
0 0 0
0 0 0
0 0 0
0 0 0
0 0 0
0 0 0
0 0 0
0 0 0
0 0 0
0 0 0
0 0 0
0 0 0
0 0 0
0 0 0
0 0 0
0 0 0
0 0 0
0 0 0
0 0 0
0 0 0
0 0 0
0 0 0
0 0 0
0 0 0
0 0 0
0 0 0
0 0 0
0 0 0
0 0 0
0 0 0
179 133 90
179 133 90
179 133 90
180 134 90
180 134 90
180 134 91
181 134 91
181 135 91
181 135 91
182 135 91
182 135 91
182 135 91
182 136 92
183 136 92
183 136 92
183 136 92
183 136 92
184 137 92
184 137 92
184 137 92
184 137 92
184 137 93
185 137 93
185 138 93
185 138 93
185 138 93
185 138 93
186 138 93
186 138 93
186 138 93
186 138 93
186 138 93
186 139 94
186 139 94
186 139 94
187 139 94
187 139 94
187 139 94
187 139 94
187 139 94
187 139 94
187 139 94
187 139 94
187 139 94
187 139 94
187 139 94
187 140 95
187 140 95
187 140 95
187 140 95
187 140 95
187 139 95
187 139 95
187 139 95
187 139 95
187 139 95
187 139 95
187 139 95
186 139 95
186 139 95
186 139 94
186 139 94
186 139 94
186 139 94
186 139 94
186 138 94
185 138 94
185 138 94
185 138 94
185 138 94
185 138 94
184 138 94
184 137 94
184 137 94
184 137 93
184 137 93
183 137 93
183 137 93
183 136 93
183 136 93
182 136 93
182 136 92
182 136 92
182 135 92
181 135 92
181 135 92
181 135 92
180 135 92
180 134 91
180 134 91
180 134 91
179 134 91
179 133 91
179 133 90
178 133 90
178 133 90
178 132 90
177 132 90
177 132 89
176 131 89
176 131 89
176 131 89
175 131 88
175 130 88
174 130 88
174 130 88
173 129 88
173 129 87
172 128 87
172 128 87
171 128 87
171 127 86
170 127 86
170 127 86
169 126 86
169 126 85
168 126 85
168 125 85
167 125 85
167 124 84
166 124 84
166 124 84
165 123 83
165 123 83
164 122 83
163 122 83
163 121 82
162 121 82
162 121 82
161 120 82
160 120 81
160 119 81
159 119 81
159 118 80
158 118 80
157 117 80
157 117 79
156 117 79
155 116 79
155 116 79
154 115 78
153 115 78
153 114 78
152 114 77
151 113 77
150 112 77
149 112 76
148 111 76
147 110 75
146 110 75
145 109 74
144 108 74
143 107 73
142 106 73
141 106 72
140 105 72
139 104 71
138 103 71
136 102 70
135 101 70
134 101 69
133 100 69
131 99 68
130 98 67
129 97 67
127 96 66
126 95 66
125 94 65
123 93 64
122 92 64
120 91 63
119 90 62
117 89 62
116 88 61
114 87 60
113 86 60
111 84 59
109 83 58
108 82 58
106 81 57
104 80 56
103 78 55
101 77 55
99 76 54
97 75 53
95 73 52
93 72 52
91 70 51
88 69 50
86 67 49
83 65 48
81 64 47
0 0 0
0 0 0
0 0 0
0 0 0
0 0 0
0 0 0
0 0 0
0 0 0
0 0 0
0 0 0
0 0 0
0 0 0
0 0 0
0 0 0
0 0 0
0 0 0
0 0 0
0 0 0
0 0 0
0 0 0
0 0 0
0 0 0
0 0 0
0 0 0
0 0 0
0 0 0
0 0 0
0 0 0
0 0 0
0 0 0
0 0 0
0 0 0
0 0 0
0 0 0
0 0 0
0 0 0
0 0 0
0 0 0
0 0 0
0 0 0
0 0 0
0 0 0
0 0 0
0 0 0
0 0 0
0 0 0
0 0 0
0 0 0
0 0 0
0 0 0
0 0 0
0 0 0
0 0 0
0 0 0
0 0 0
0 0 0
0 0 0
0 0 0
0 0 0
0 0 0
0 0 0
0 0 0
0 0 0
0 0 0
178 132 89
178 133 90
179 133 90
179 133 90
179 133 90
180 134 90
180 134 90
180 134 91
181 134 91
181 135 91
181 135 91
181 135 91
182 135 91
182 135 91
182 136 91
182 136 92
183 136 92
183 136 92
183 136 92
183 136 92
184 137 92
184 137 92
184 137 92
184 137 92
184 137 93
185 137 93
185 137 93
185 138 93
185 138 93
185 138 93
185 138 93
185 138 93
186 138 93
186 138 93
186 138 93
186 138 93
186 138 93
186 138 94
186 139 94
186 139 94
186 139 94
186 139 94
186 139 94
187 139 94
187 139 94
187 139 94
187 139 94
187 139 94
187 139 94
187 139 94
187 139 94
187 139 94
186 139 94
186 139 94
186 139 94
186 139 94
186 139 94
186 139 94
186 139 94
186 138 94
186 138 94
185 138 94
185 138 94
185 138 94
185 138 94
185 138 94
185 138 94
185 138 94
184 138 94
184 137 93
184 137 93
184 137 93
184 137 93
183 137 93
183 137 93
183 136 93
183 136 93
182 136 93
182 136 92
182 136 92
182 136 92
181 135 92
181 135 92
181 135 92
181 135 92
180 135 91
180 134 91
180 134 91
180 134 91
179 134 91
179 133 91
179 133 90
178 133 90
178 133 90
178 132 90
177 132 90
177 132 89
177 132 89
176 131 89
176 131 89
175 131 89
175 130 88
174 130 88
174 130 88
174 129 88
173 129 87
173 129 87
172 128 87
172 128 87
171 128 86
171 127 86
170 127 86
170 127 86
169 126 85
169 126 85
168 125 85
168 125 85
167 125 84
167 124 84
166 124 84
166 123 84
165 123 83
165 123 83
164 122 83
163 122 83
163 121 82
162 121 82
162 121 82
161 120 82
160 120 81
160 119 81
159 119 81
159 118 80
158 118 80
157 117 80
157 117 79
156 117 79
155 116 79
155 116 79
154 115 78
153 115 78
153 114 78
152 114 77
151 113 77
150 112 77
150 112 76
149 111 76
148 110 75
147 110 75
146 109 74
144 108 74
143 107 73
142 107 73
141 106 72
140 105 72
139 104 71
138 103 71
137 103 70
135 102 70
134 101 69
133 100 69
132 99 68
130 98 68
129 97 67
128 96 66
126 95 66
125 94 65
124 93 65
122 92 64
121 91 63
119 90 63
118 89 62
116 88 61
115 87 61
113 86 60
112 85 59
110 84 59
108 82 58
107 81 57
105 80 56
103 79 56
101 78 55
99 76 54
97 75 53
95 74 53
93 72 52
91 71 51
89 69 50
86 67 49
84 66 48
81 64 47
78 62 46
0 0 0
0 0 0
0 0 0
0 0 0
0 0 0
0 0 0
0 0 0
0 0 0
0 0 0
0 0 0
0 0 0
0 0 0
0 0 0
0 0 0
0 0 0
0 0 0
0 0 0
0 0 0
0 0 0
0 0 0
0 0 0
0 0 0
0 0 0
0 0 0
0 0 0
0 0 0
0 0 0
0 0 0
0 0 0
0 0 0
0 0 0
0 0 0
0 0 0
0 0 0
0 0 0
0 0 0
0 0 0
0 0 0
0 0 0
0 0 0
0 0 0
0 0 0
0 0 0
0 0 0
0 0 0
0 0 0
0 0 0
0 0 0
0 0 0
0 0 0
0 0 0
0 0 0
0 0 0
0 0 0
0 0 0
0 0 0
0 0 0
0 0 0
0 0 0
0 0 0
0 0 0
0 0 0
0 0 0
0 0 0
177 132 89
178 132 89
178 132 89
178 133 90
179 133 90
179 133 90
179 133 90
179 134 90
180 134 90
180 134 90
180 134 91
181 134 91
181 135 91
181 135 91
181 135 91
182 135 91
182 135 91
182 136 91
182 136 92
183 136 92
183 136 92
183 136 92
183 136 92
183 136 92
184 137 92
184 137 92
184 137 92
184 137 92
184 137 93
184 137 93
185 137 93
185 137 93
185 138 93
185 138 93
185 138 93
185 138 93
185 138 93
185 138 93
185 138 93
186 138 93
186 138 93
186 138 93
186 138 94
186 138 94
186 138 94
186 139 94
186 139 94
186 139 94
186 139 94
186 139 94
186 139 94
186 139 94
186 138 94
186 138 94
186 138 94
186 138 94
185 138 94
185 138 94
185 138 94
185 138 94
185 138 94
185 138 94
185 138 93
185 138 93
184 137 93
184 137 93
184 137 93
184 137 93
184 137 93
184 137 93
183 137 93
183 137 93
183 136 93
183 136 93
183 136 92
182 136 92
182 136 92
182 136 92
182 135 92
181 135 92
181 135 92
181 135 92
181 135 91
180 134 91
180 134 91
180 134 91
179 134 91
179 134 91
179 133 91
179 133 90
178 133 90
178 133 90
178 132 90
177 132 90
177 132 90
177 132 89
176 131 89
176 131 89
176 131 89
175 131 88
175 130 88
174 130 88
174 130 88
173 129 88
173 129 87
173 129 87
172 128 87
172 128 87
171 128 86
171 127 86
170 127 86
170 126 86
169 126 85
169 126 85
168 125 85
168 125 85
167 125 84
167 124 84
166 124 84
166 123 84
165 123 83
164 123 83
164 122 83
163 122 83
163 121 82
162 121 82
162 121 82
161 120 81
160 120 81
160 119 81
159 119 81
158 118 80
158 118 80
157 117 80
157 117 79
156 116 79
155 116 79
155 116 79
154 115 78
153 115 78
153 114 78
152 114 77
151 113 77
151 113 77
150 112 76
149 111 76
148 111 75
147 110 75
146 109 74
145 108 74
144 108 73
143 107 73
141 106 72
140 105 72
139 104 71
138 104 71
137 103 70
136 102 70
135 101 69
133 100 69
132 99 68
131 98 68
129 97 67
128 96 66
127 96 66
125 95 65
124 94 65
123 93 64
121 92 63
120 91 63
118 89 62
117 88 61
115 87 61
114 86 60
112 85 59
110 84 59
109 83 58
107 82 57
105 80 57
103 79 56
102 78 55
100 77 54
98 75 54
96 74 53
94 73 52
92 71 51
89 69 50
87 68 49
84 66 48
82 64 47
79 63 46
76 61 45
0 0 0
0 0 0
0 0 0
0 0 0
0 0 0
0 0 0
0 0 0
0 0 0
0 0 0
0 0 0
0 0 0
0 0 0
0 0 0
0 0 0
0 0 0
0 0 0
0 0 0
0 0 0
0 0 0
0 0 0
0 0 0
0 0 0
0 0 0
0 0 0
0 0 0
0 0 0
0 0 0
0 0 0
0 0 0
0 0 0
0 0 0
0 0 0
0 0 0
0 0 0
0 0 0
0 0 0
0 0 0
0 0 0
0 0 0
0 0 0
0 0 0
0 0 0
0 0 0
0 0 0
0 0 0
0 0 0
0 0 0
0 0 0
0 0 0
0 0 0
0 0 0
0 0 0
0 0 0
0 0 0
0 0 0
0 0 0
0 0 0
0 0 0
0 0 0
0 0 0
0 0 0
0 0 0
0 0 0
0 0 0
176 131 89
177 132 89
177 132 89
177 132 89
178 132 89
178 133 90
178 133 90
179 133 90
179 133 90
179 133 90
180 134 90
180 134 90
180 134 91
180 134 91
181 134 91
181 135 91
181 135 91
181 135 91
182 135 91
182 135 91
182 136 91
182 136 92
183 136 92
183 136 92
183 136 92
183 136 92
183 136 92
183 137 92
184 137 92
184 137 92
184 137 92
184 137 92
184 137 93
184 137 93
184 137 93
185 137 93
185 137 93
185 137 93
185 138 93
185 138 93
185 138 93
185 138 93
185 138 93
185 138 93
185 138 93
185 138 93
185 138 93
186 138 94
186 138 94
185 138 94
185 138 94
185 138 93
185 138 93
185 138 93
185 138 93
185 138 93
185 138 93
185 138 93
185 138 93
184 137 93
184 137 93
184 137 93
184 137 93
184 137 93
184 137 93
184 137 93
183 137 93
183 137 93
183 136 93
183 136 93
183 136 92
183 136 92
182 136 92
182 136 92
182 136 92
182 135 92
181 135 92
181 135 92
181 135 92
181 135 91
180 135 91
180 134 91
180 134 91
180 134 91
179 134 91
179 134 91
179 133 90
179 133 90
178 133 90
178 133 90
178 132 90
177 132 90
177 132 89
177 132 89
176 132 89
176 131 89
176 131 89
175 131 89
175 130 88
175 130 88
174 130 88
174 129 88
173 129 87
173 129 87
172 128 87
172 128 87
171 128 87
171 127 86
170 127 86
170 127 86
170 126 86
169 126 85
169 126 85
168 125 85
167 125 85
167 124 84
166 124 84
166 124 84
165 123 84
165 123 83
164 123 83
164 122 83
163 122 83
163 121 82
162 121 82
161 120 82
161 120 81
160 120 81
160 119 81
159 119 81
158 118 80
158 118 80
157 117 80
157 117 79
156 116 79
155 116 79
155 115 78
154 115 78
153 114 78
153 114 78
152 113 77
151 113 77
150 112 77
150 112 76
149 111 76
148 111 75
147 110 75
146 109 75
145 108 74
144 108 74
143 107 73
142 106 73
141 105 72
140 105 72
138 104 71
137 103 71
136 102 70
135 101 69
134 100 69
132 99 68
131 99 68
130 98 67
128 97 67
127 96 66
126 95 65
124 94 65
123 93 64
122 92 64
120 91 63
119 90 62
117 89 62
116 88 61
114 86 60
112 85 60
111 84 59
109 83 58
107 82 58
106 81 57
104 79 56
102 78 55
100 77 55
98 76 54
96 74 53
94 73 52
92 71 51
90 70 50
87 68 49
85 66 48
82 65 47
79 63 46
77 61 45
74 59 44
0 0 0
0 0 0
0 0 0
0 0 0
0 0 0
0 0 0
0 0 0
0 0 0
0 0 0
0 0 0
0 0 0
0 0 0
0 0 0
0 0 0
0 0 0
0 0 0
0 0 0
0 0 0
0 0 0
0 0 0
0 0 0
0 0 0
0 0 0
0 0 0
0 0 0
0 0 0
0 0 0
0 0 0
0 0 0
0 0 0
0 0 0
0 0 0
0 0 0
0 0 0
0 0 0
0 0 0
0 0 0
0 0 0
0 0 0
0 0 0
0 0 0
0 0 0
0 0 0
0 0 0
0 0 0
0 0 0
0 0 0
0 0 0
0 0 0
0 0 0
0 0 0
0 0 0
0 0 0
0 0 0
0 0 0
0 0 0
0 0 0
0 0 0
0 0 0
0 0 0
0 0 0
0 0 0
0 0 0
0 0 0
176 131 88
176 131 89
176 131 89
177 131 89
177 132 89
177 132 89
178 132 89
178 132 89
178 133 90
179 133 90
179 133 90
179 133 90
179 134 90
180 134 90
180 134 90
180 134 91
180 134 91
181 134 91
181 135 91
181 135 91
181 135 91
182 135 91
182 135 91
182 135 91
182 136 92
182 136 92
183 136 92
183 136 92
183 136 92
183 136 92
183 136 92
183 136 92
184 137 92
184 137 92
184 137 92
184 137 92
184 137 92
184 137 93
184 137 93
184 137 93
184 137 93
185 137 93
185 137 93
185 137 93
185 138 93
185 138 93
185 138 93
185 138 93
185 138 93
185 138 93
185 138 93
185 138 93
185 137 93
185 137 93
184 137 93
184 137 93
184 137 93
184 137 93
184 137 93
184 137 93
184 137 93
184 137 93
183 137 93
183 137 93
183 136 93
183 136 92
183 136 92
183 136 92
182 136 92
182 136 92
182 136 92
182 136 92
182 135 92
181 135 92
181 135 92
181 135 92
181 135 91
181 135 91
180 134 91
180 134 91
180 134 91
180 134 91
179 134 91
179 133 90
179 133 90
178 133 90
178 133 90
178 133 90
178 132 90
177 132 90
177 132 89
177 132 89
176 131 89
176 131 89
176 131 89
175 131 89
175 131 88
175 130 88
174 130 88
174 130 88
173 129 88
173 129 87
173 129 87
172 128 87
172 128 87
171 128 86
171 127 86
170 127 86
170 127 86
169 126 85
169 126 85
168 125 85
168 125 85
167 125 85
167 124 84
166 124 84
166 124 84
165 123 84
165 123 83
164 122 83
164 122 83
163 122 82
162 121 82
162 121 82
161 120 82
161 120 81
160 119 81
160 119 81
159 119 81
158 118 80
158 118 80
157 117 80
156 117 79
156 116 79
155 116 79
154 115 78
154 115 78
153 114 78
152 114 78
152 113 77
151 113 77
150 112 77
150 112 76
149 111 76
148 111 76
147 110 75
146 109 75
145 109 74
144 108 74
143 107 73
142 106 73
141 106 72
140 105 72
139 104 71
137 103 71
136 102 70
135 101 70
134 101 69
133 100 68
131 99 68
130 98 67
129 97 67
127 96 66
126 95 66
125 94 65
123 93 64
122 92 64
120 91 63
119 90 62
118 89 62
116 88 61
114 87 60
113 86 60
111 85 59
110 83 58
108 82 58
106 81 57
104 80 56
103 79 56
101 77 55
99 76 54
97 75 53
95 73 52
92 72 51
90 70 50
88 68 50
85 67 49
82 65 48
80 63 47
77 61 46
74 59 45
71 57 43
0 0 0
0 0 0
0 0 0
0 0 0
0 0 0
0 0 0
0 0 0
0 0 0
0 0 0
0 0 0
0 0 0
0 0 0
0 0 0
0 0 0
0 0 0
0 0 0
0 0 0
0 0 0
0 0 0
0 0 0
0 0 0
0 0 0
0 0 0
0 0 0
0 0 0
0 0 0
0 0 0
0 0 0
0 0 0
0 0 0
0 0 0
0 0 0
0 0 0
0 0 0
0 0 0
0 0 0
0 0 0
0 0 0
0 0 0
0 0 0
0 0 0
0 0 0
0 0 0
0 0 0
0 0 0
0 0 0
0 0 0
0 0 0
0 0 0
0 0 0
0 0 0
0 0 0
0 0 0
0 0 0
0 0 0
0 0 0
0 0 0
0 0 0
0 0 0
0 0 0
0 0 0
0 0 0
0 0 0
0 0 0
175 130 88
175 130 88
175 131 88
176 131 88
176 131 89
176 131 89
177 132 89
177 132 89
177 132 89
178 132 89
178 133 90
178 133 90
179 133 90
179 133 90
179 133 90
179 134 90
180 134 90
180 134 90
180 134 91
180 134 91
181 134 91
181 135 91
181 135 91
181 135 91
182 135 91
182 135 91
182 135 91
182 135 91
182 136 92
182 136 92
183 136 92
183 136 92
183 136 92
183 136 92
183 136 92
183 136 92
183 136 92
183 137 92
184 137 92
184 137 92
184 137 92
184 137 92
184 137 93
184 137 93
184 137 93
184 137 93
184 137 93
184 137 93
184 137 93
184 137 93
184 137 93
184 137 93
184 137 93
184 137 93
184 137 93
184 137 93
184 137 93
183 137 93
183 137 92
183 136 92
183 136 92
183 136 92
183 136 92
183 136 92
182 136 92
182 136 92
182 136 92
182 136 92
182 135 92
182 135 92
181 135 92
181 135 92
181 135 91
181 135 91
181 135 91
180 134 91
180 134 91
180 134 91
180 134 91
179 134 91
179 134 91
179 133 90
179 133 90
178 133 90
178 133 90
178 133 90
178 132 90
177 132 90
177 132 89
177 132 89
176 131 89
176 131 89
176 131 89
175 131 89
175 131 88
175 130 88
175 130 88
174 130 88
174 129 88
173 129 87
173 129 87
172 128 87
172 128 87
172 128 87
171 127 86
171 127 86
170 127 86
170 126 86
169 126 85
169 126 85
168 125 85
168 125 85
167 125 84
167 124 84
166 124 84
166 124 84
165 123 83
165 123 83
164 122 83
163 122 83
163 122 82
162 121 82
162 121 82
161 120 82
161 120 81
160 119 81
159 119 81
159 119 80
158 118 80
158 118 80
157 117 80
156 117 79
156 116 79
155 116 79
154 115 78
154 115 78
153 114 78
152 114 77
152 113 77
151 113 77
150 112 77
150 112 76
149 111 76
148 111 76
147 110 75
146 109 75
145 109 74
144 108 74
143 107 73
142 107 73
141 106 72
140 105 72
139 104 71
138 103 71
137 102 70
135 102 70
134 101 69
133 100 69
132 99 68
130 98 67
129 97 67
128 96 66
126 95 66
125 94 65
124 93 65
122 92 64
121 91 63
119 90 63
118 89 62
116 88 61
115 87 61
113 86 60
112 85 59
110 84 59
108 82 58
107 81 57
105 80 56
103 79 56
101 78 55
99 76 54
97 75 53
95 73 52
93 72 52
90 70 51
88 69 50
85 67 49
83 65 48
80 63 47
77 62 46
75 60 45
72 58 44
68 56 43
0 0 0
0 0 0
0 0 0
0 0 0
0 0 0
0 0 0
0 0 0
0 0 0
0 0 0
0 0 0
0 0 0
0 0 0
0 0 0
0 0 0
0 0 0
0 0 0
0 0 0
0 0 0
0 0 0
0 0 0
0 0 0
0 0 0
0 0 0
0 0 0
0 0 0
0 0 0
0 0 0
0 0 0
0 0 0
0 0 0
0 0 0
0 0 0
0 0 0
0 0 0
0 0 0
0 0 0
0 0 0
0 0 0
0 0 0
0 0 0
0 0 0
0 0 0
0 0 0
0 0 0
0 0 0
0 0 0
0 0 0
0 0 0
0 0 0
0 0 0
0 0 0
0 0 0
0 0 0
0 0 0
0 0 0
0 0 0
0 0 0
0 0 0
0 0 0
0 0 0
0 0 0
0 0 0
0 0 0
0 0 0
174 130 88
174 130 88
175 130 88
175 130 88
175 131 88
176 131 88
176 131 89
176 131 89
177 132 89
177 132 89
177 132 89
178 132 89
178 132 89
178 133 90
178 133 90
179 133 90
179 133 90
179 133 90
179 134 90
180 134 90
180 134 90
180 134 91
180 134 91
181 134 91
181 135 91
181 135 91
181 135 91
181 135 91
181 135 91
182 135 91
182 135 91
182 135 91
182 135 91
182 136 92
182 136 92
183 136 92
183 136 92
183 136 92
183 136 92
183 136 92
183 136 92
183 136 92
183 136 92
183 137 92
184 137 92
184 137 92
184 137 92
184 137 92
184 137 92
184 137 92
184 137 92
183 137 92
183 137 92
183 136 92
183 136 92
183 136 92
183 136 92
183 136 92
183 136 92
183 136 92
182 136 92
182 136 92
182 136 92
182 136 92
182 135 92
182 135 92
181 135 92
181 135 92
181 135 91
181 135 91
181 135 91
181 135 91
180 134 91
180 134 91
180 134 91
180 134 91
179 134 91
179 134 91
179 133 90
179 133 90
179 133 90
178 133 90
178 133 90
178 132 90
177 132 90
177 132 89
177 132 89
177 132 89
176 131 89
176 131 89
176 131 89
175 131 89
175 131 88
175 130 88
175 130 88
174 130 88
174 130 88
173 129 88
173 129 87
173 129 87
172 128 87
172 128 87
171 128 86
171 127 86
170 127 86
170 127 86
169 126 86
169 126 85
169 126 85
168 125 85
168 125 85
167 125 84
167 124 84
166 124 84
165 123 84
165 123 83
164 123 83
164 122 83
163 122 83
163 121 82
162 121 82
162 121 82
161 120 82
160 120 81
160 119 81
159 119 81
159 118 80
158 118 80
157 118 80
157 117 80
156 117 79
156 116 79
155 116 79
154 115 78
154 115 78
153 114 78
152 114 77
152 113 77
151 113 77
150 112 76
150 112 76
149 111 76
148 111 75
147 110 75
146 110 75
145 109 74
144 108 74
143 107 73
142 107 73
141 106 72
140 105 72
139 104 71
138 103 71
137 103 70
136 102 70
134 101 69
133 100 69
132 99 68
131 98 68
129 97 67
128 96 66
127 95 66
125 95 65
124 94 65
123 93 64
121 92 63
120 91 63
118 89 62
117 88 61
115 87 61
114 86 60
112 85 59
110 84 59
109 83 58
107 82 57
105 80 57
104 79 56
102 78 55
100 77 54
98 75 53
95 74 53
93 72 52
91 70 51
88 69 50
86 67 49
83 65 48
81 64 47
78 62 46
75 60 45
72 58 44
69 56 43
65 54 42
0 0 0
0 0 0
0 0 0
0 0 0
0 0 0
0 0 0
0 0 0
0 0 0
0 0 0
0 0 0
0 0 0
0 0 0
0 0 0
0 0 0
0 0 0
0 0 0
0 0 0
0 0 0
0 0 0
0 0 0
0 0 0
0 0 0
0 0 0
0 0 0
0 0 0
0 0 0
0 0 0
0 0 0
0 0 0
0 0 0
0 0 0
0 0 0
0 0 0
0 0 0
0 0 0
0 0 0
0 0 0
0 0 0
0 0 0
0 0 0
0 0 0
0 0 0
0 0 0
0 0 0
0 0 0
0 0 0
0 0 0
0 0 0
0 0 0
0 0 0
0 0 0
0 0 0
0 0 0
0 0 0
0 0 0
0 0 0
0 0 0
0 0 0
0 0 0
0 0 0
0 0 0
0 0 0
0 0 0
0 0 0
173 129 87
173 129 87
174 129 88
174 130 88
175 130 88
175 130 88
175 130 88
176 131 88
176 131 88
176 131 89
176 131 89
177 132 89
177 132 89
177 132 89
178 132 89
178 132 89
178 133 90
178 133 90
179 133 90
179 133 90
179 133 90
179 133 90
180 134 90
180 134 90
180 134 90
180 134 91
180 134 91
181 134 91
181 135 91
181 135 91
181 135 91
181 135 91
181 135 91
182 135 91
182 135 91
182 135 91
182 135 91
182 136 92
182 136 92
182 136 92
183 136 92
183 136 92
183 136 92
183 136 92
183 136 92
183 136 92
183 136 92
183 136 92
183 136 92
183 136 92
183 136 92
183 136 92
183 136 92
183 136 92
183 136 92
182 136 92
182 136 92
182 136 92
182 136 92
182 135 92
182 135 92
182 135 92
181 135 92
181 135 91
181 135 91
181 135 91
181 135 91
181 135 91
180 134 91
180 134 91
180 134 91
180 134 91
180 134 91
179 134 91
179 134 90
179 133 90
179 133 90
179 133 90
178 133 90
178 133 90
178 133 90
178 132 90
177 132 90
177 132 89
177 132 89
177 132 89
176 131 89
176 131 89
176 131 89
175 131 89
175 130 88
175 130 88
175 130 88
174 130 88
174 130 88
174 129 88
173 129 87
173 129 87
172 128 87
172 128 87
172 128 87
171 128 86
171 127 86
170 127 86
170 127 86
169 126 85
169 126 85
168 125 85
168 125 85
167 125 85
167 124 84
166 124 84
166 124 84
165 123 84
165 123 83
164 123 83
164 122 83
163 122 83
163 121 82
162 121 82
162 120 82
161 120 81
160 120 81
160 119 81
159 119 81
159 118 80
158 118 80
157 117 80
157 117 80
156 117 79
155 116 79
155 116 79
154 115 78
154 115 78
153 114 78
152 114 77
151 113 77
151 113 77
150 112 76
149 112 76
149 111 76
148 111 75
147 110 75
147 110 75
146 109 74
145 108 74
144 108 73
143 107 73
142 106 72
140 105 72
139 104 71
138 104 71
137 103 70
136 102 70
135 101 69
133 100 69
132 99 68
131 98 68
130 98 67
128 97 67
127 96 66
126 95 65
124 94 65
123 93 64
122 92 64
120 91 63
119 90 62
117 89 62
116 88 61
114 86 60
112 85 60
111 84 59
109 83 58
107 82 58
106 81 57
104 79 56
102 78 55
100 77 54
98 75 54
96 74 53
93 72 52
91 71 51
89 69 50
86 67 49
84 66 48
81 64 47
78 62 46
75 60 45
72 58 44
69 56 43
66 54 42
63 52 41
0 0 0
0 0 0
0 0 0
0 0 0
0 0 0
0 0 0
0 0 0
0 0 0
0 0 0
0 0 0
0 0 0
0 0 0
0 0 0
0 0 0
0 0 0
0 0 0
0 0 0
0 0 0
0 0 0
0 0 0
0 0 0
0 0 0
0 0 0
0 0 0
0 0 0
0 0 0
0 0 0
0 0 0
0 0 0
0 0 0
0 0 0
0 0 0
0 0 0
0 0 0
0 0 0
0 0 0
0 0 0
0 0 0
0 0 0
0 0 0
0 0 0
0 0 0
0 0 0
0 0 0
0 0 0
0 0 0
0 0 0
0 0 0
0 0 0
0 0 0
0 0 0
0 0 0
0 0 0
0 0 0
0 0 0
0 0 0
0 0 0
0 0 0
0 0 0
0 0 0
0 0 0
0 0 0
0 0 0
0 0 0
172 128 87
173 129 87
173 129 87
173 129 87
174 129 87
174 130 88
174 130 88
175 130 88
175 130 88
175 131 88
176 131 88
176 131 89
176 131 89
177 131 89
177 132 89
177 132 89
177 132 89
178 132 89
178 132 89
178 133 90
178 133 90
179 133 90
179 133 90
179 133 90
179 133 90
179 134 90
180 134 90
180 134 90
180 134 90
180 134 91
180 134 91
181 134 91
181 134 91
181 135 91
181 135 91
181 135 91
181 135 91
182 135 91
182 135 91
182 135 91
182 135 91
182 135 91
182 136 92
182 136 92
182 136 92
182 136 92
182 136 92
182 136 92
182 136 92
182 136 92
182 136 92
182 136 92
182 136 92
182 135 92
182 135 92
182 135 92
182 135 91
182 135 91
181 135 91
181 135 91
181 135 91
181 135 91
181 135 91
181 135 91
181 134 91
180 134 91
180 134 91
180 134 91
180 134 91
180 134 91
179 134 90
179 134 90
179 133 90
179 133 90
179 133 90
178 133 90
178 133 90
178 133 90
178 132 90
177 132 90
177 132 89
177 132 89
177 132 89
176 131 89
176 131 89
176 131 89
176 131 89
175 131 88
175 130 88
175 130 88
174 130 88
174 130 88
174 130 88
174 129 88
173 129 87
173 129 87
173 129 87
172 128 87
172 128 87
171 128 86
171 127 86
170 127 86
170 127 86
170 126 86
169 126 85
169 126 85
168 125 85
168 125 85
167 125 84
167 124 84
166 124 84
166 124 84
165 123 83
165 123 83
164 122 83
164 122 83
163 122 82
162 121 82
162 121 82
161 120 82
161 120 81
160 120 81
160 119 81
159 119 81
158 118 80
158 118 80
157 117 80
157 117 79
156 116 79
155 116 79
155 116 79
154 115 78
153 115 78
153 114 78
152 114 77
151 113 77
151 113 77
150 112 76
149 112 76
149 111 76
148 111 75
147 110 75
146 110 75
146 109 74
145 108 74
144 108 74
143 107 73
142 106 73
141 105 72
140 105 72
138 104 71
137 103 71
136 102 70
135 101 70
134 100 69
133 100 68
131 99 68
130 98 67
129 97 67
127 96 66
126 95 66
125 94 65
123 93 64
122 92 64
120 91 63
119 90 62
117 89 62
116 88 61
114 87 60
113 86 60
111 85 59
110 83 58
108 82 58
106 81 57
104 80 56
102 78 55
100 77 55
98 76 54
96 74 53
94 73 52
92 71 51
89 69 50
87 68 49
84 66 48
82 64 47
79 62 46
76 61 45
73 59 44
70 57 43
67 55 42
63 52 41
59 50 40
0 0 0
0 0 0
0 0 0
0 0 0
0 0 0
0 0 0
0 0 0
0 0 0
0 0 0
0 0 0
0 0 0
0 0 0
0 0 0
0 0 0
0 0 0
0 0 0
0 0 0
0 0 0
0 0 0
0 0 0
0 0 0
0 0 0
0 0 0
0 0 0
0 0 0
0 0 0
0 0 0
0 0 0
0 0 0
0 0 0
0 0 0
0 0 0
0 0 0
0 0 0
0 0 0
0 0 0
0 0 0
0 0 0
0 0 0
0 0 0
0 0 0
0 0 0
0 0 0
0 0 0
0 0 0
0 0 0
0 0 0
0 0 0
0 0 0
0 0 0
0 0 0
0 0 0
0 0 0
0 0 0
0 0 0
0 0 0
0 0 0
0 0 0
0 0 0
0 0 0
0 0 0
0 0 0
0 0 0
0 0 0
171 128 86
172 128 87
172 128 87
172 128 87
173 129 87
173 129 87
174 129 87
174 129 88
174 130 88
175 130 88
175 130 88
175 130 88
175 131 88
176 131 88
176 131 89
176 131 89
177 131 89
177 132 89
177 132 89
177 132 89
178 132 89
178 132 89
178 133 90
178 133 90
178 133 90
179 133 90
179 133 90
179 133 90
179 133 90
179 134 90
180 134 90
180 134 90
180 134 90
180 134 91
180 134 91
181 134 91
181 134 91
181 135 91
181 135 91
181 135 91
181 135 91
181 135 91
181 135 91
182 135 91
182 135 91
182 135 91
182 135 91
182 135 91
182 135 91
182 135 91
182 135 91
182 135 91
181 135 91
181 135 91
181 135 91
181 135 91
181 135 91
181 135 91
181 135 91
181 134 91
180 134 91
180 134 91
180 134 91
180 134 91
180 134 91
180 134 91
180 134 90
179 134 90
179 133 90
179 133 90
179 133 90
179 133 90
178 133 90
178 133 90
178 133 90
178 132 90
177 132 90
177 132 89
177 132 89
177 132 89
177 132 89
176 131 89
176 131 89
176 131 89
176 131 89
175 131 88
175 130 88
175 130 88
174 130 88
174 130 88
174 130 88
174 129 88
173 129 87
173 129 87
173 129 87
172 128 87
172 128 87
172 128 87
171 127 86
171 127 86
170 127 86
170 127 86
169 126 85
169 126 85
168 126 85
168 125 85
167 125 85
167 124 84
166 124 84
166 124 84
165 123 84
165 123 83
164 123 83
164 122 83
163 122 83
163 121 82
162 121 82
162 121 82
161 120 82
161 120 81
160 119 81
159 119 81
159 119 81
158 118 80
158 118 80
157 117 80
156 117 79
156 116 79
155 116 79
155 115 78
154 115 78
153 115 78
153 114 78
152 114 77
151 113 77
151 113 77
150 112 76
149 112 76
148 111 76
148 111 75
147 110 75
146 110 75
146 109 74
145 108 74
144 108 74
143 107 73
142 106 73
141 106 72
140 105 72
139 104 71
137 103 71
136 102 70
135 101 70
134 101 69
133 100 69
132 99 68
130 98 67
129 97 67
128 96 66
126 95 66
125 94 65
124 93 64
122 92 64
121 91 63
119 90 63
118 89 62
116 88 61
115 87 61
113 86 60
112 85 59
110 84 59
108 82 58
107 81 57
105 80 56
103 79 56
101 77 55
99 76 54
96 74 53
94 73 52
92 71 51
90 70 50
87 68 49
85 66 48
82 65 47
79 63 46
76 61 45
73 59 44
70 57 43
67 55 42
64 53 41
60 51 40
56 48 39
0 0 0
0 0 0
0 0 0
0 0 0
0 0 0
0 0 0
0 0 0
0 0 0
0 0 0
0 0 0
0 0 0
0 0 0
0 0 0
0 0 0
0 0 0
0 0 0
0 0 0
0 0 0
0 0 0
0 0 0
0 0 0
0 0 0
0 0 0
0 0 0
0 0 0
0 0 0
0 0 0
0 0 0
0 0 0
0 0 0
0 0 0
0 0 0
0 0 0
0 0 0
0 0 0
0 0 0
0 0 0
0 0 0
0 0 0
0 0 0
0 0 0
0 0 0
0 0 0
0 0 0
0 0 0
0 0 0
0 0 0
0 0 0
0 0 0
0 0 0
0 0 0
0 0 0
0 0 0
0 0 0
0 0 0
0 0 0
0 0 0
0 0 0
0 0 0
0 0 0
0 0 0
0 0 0
0 0 0
0 0 0
171 127 86
171 127 86
171 128 86
172 128 86
172 128 87
172 128 87
173 129 87
173 129 87
173 129 87
174 129 87
174 130 88
174 130 88
175 130 88
175 130 88
175 130 88
175 131 88
176 131 88
176 131 89
176 131 89
177 131 89
177 132 89
177 132 89
177 132 89
177 132 89
178 132 89
178 132 89
178 133 90
178 133 90
178 133 90
179 133 90
179 133 90
179 133 90
179 133 90
180 134 90
180 134 90
180 134 90
180 134 90
180 134 91
180 134 91
180 134 91
181 134 91
181 134 91
181 135 91
181 135 91
181 135 91
181 135 91
181 135 91
181 135 91
181 135 91
181 135 91
181 135 91
181 135 91
181 135 91
181 135 91
181 134 91
180 134 91
180 134 91
180 134 91
180 134 91
180 134 91
180 134 91
180 134 90
180 134 90
179 134 90
179 133 90
179 133 90
179 133 90
179 133 90
179 133 90
178 133 90
178 133 90
178 133 90
178 132 90
177 132 89
177 132 89
177 132 89
177 132 89
177 132 89
176 131 89
176 131 89
176 131 89
176 131 89
175 131 88
175 130 88
175 130 88
175 130 88
174 130 88
174 130 88
174 129 88
173 129 87
173 129 87
173 129 87
173 129 87
172 128 87
172 128 87
172 128 87
171 128 86
171 127 86
170 127 86
170 127 86
170 126 86
169 126 85
169 126 85
168 125 85
168 125 85
167 125 84
167 124 84
166 124 84
166 124 84
165 123 84
165 123 83
164 123 83
164 122 83
163 122 83
163 121 82
162 121 82
162 121 82
161 120 82
160 120 81
160 119 81
159 119 81
159 118 80
158 118 80
158 118 80
157 117 80
156 117 79
156 116 79
155 116 79
154 115 78
154 115 78
153 114 78
152 114 78
152 113 77
151 113 77
150 112 77
150 112 76
149 111 76
148 111 76
148 110 75
147 110 75
146 109 75
145 109 74
145 108 74
144 108 74
143 107 73
142 106 73
141 106 72
140 105 72
139 104 71
138 103 71
137 102 70
135 102 70
134 101 69
133 100 69
132 99 68
131 98 68
129 97 67
128 96 66
127 95 66
125 94 65
124 93 65
123 92 64
121 91 63
120 90 63
118 89 62
117 88 61
115 87 61
114 86 60
112 85 59
110 84 59
109 83 58
107 82 57
105 80 57
103 79 56
101 77 55
99 76 54
97 75 53
95 73 52
92 71 51
90 70 50
88 68 49
85 67 49
82 65 48
80 63 47
77 61 46
74 59 44
71 57 43
68 55 42
64 53 41
60 51 40
57 49 39
56 48 39
0 0 0
0 0 0
0 0 0
0 0 0
0 0 0
0 0 0
0 0 0
0 0 0
0 0 0
0 0 0
0 0 0
0 0 0
0 0 0
0 0 0
0 0 0
0 0 0
0 0 0
0 0 0
0 0 0
0 0 0
0 0 0
0 0 0
0 0 0
0 0 0
0 0 0
0 0 0
0 0 0
0 0 0
0 0 0
0 0 0
0 0 0
0 0 0
0 0 0
0 0 0
0 0 0
0 0 0
0 0 0
0 0 0
0 0 0
0 0 0
0 0 0
0 0 0
0 0 0
0 0 0
0 0 0
0 0 0
0 0 0
0 0 0
0 0 0
0 0 0
0 0 0
0 0 0
0 0 0
0 0 0
0 0 0
0 0 0
0 0 0
0 0 0
0 0 0
0 0 0
0 0 0
0 0 0
0 0 0
0 0 0
170 126 86
170 127 86
170 127 86
171 127 86
171 127 86
171 128 86
172 128 87
172 128 87
172 128 87
173 129 87
173 129 87
173 129 87
174 129 87
174 130 88
174 130 88
175 130 88
175 130 88
175 130 88
175 131 88
176 131 88
176 131 89
176 131 89
176 131 89
177 132 89
177 132 89
177 132 89
177 132 89
178 132 89
178 132 89
178 132 90
178 133 90
178 133 90
179 133 90
179 133 90
179 133 90
179 133 90
179 133 90
179 134 90
180 134 90
180 134 90
180 134 90
180 134 90
180 134 91
180 134 91
180 134 91
180 134 91
180 134 91
181 134 91
181 134 91
180 134 91
180 134 91
180 134 91
180 134 91
180 134 91
180 134 91
180 134 90
180 134 90
180 134 90
179 134 90
179 134 90
179 133 90
179 133 90
179 133 90
179 133 90
179 133 90
178 133 90
178 133 90
178 133 90
178 132 90
178 132 90
177 132 89
177 132 89
177 132 89
177 132 89
177 132 89
176 131 89
176 131 89
176 131 89
176 131 89
175 131 88
175 131 88
175 130 88
175 130 88
174 130 88
174 130 88
174 130 88
174 129 88
173 129 87
173 129 87
173 129 87
173 129 87
172 128 87
172 128 87
172 128 87
171 128 86
171 127 86
171 127 86
170 127 86
170 127 86
169 126 85
169 126 85
168 126 85
168 125 85
168 125 85
167 125 84
167 124 84
166 124 84
166 123 84
165 123 83
165 123 83
164 122 83
164 122 83
163 122 82
163 121 82
162 121 82
161 120 82
161 120 81
160 120 81
160 119 81
159 119 81
159 118 80
158 118 80
157 118 80
157 117 80
156 117 79
156 116 79
155 116 79
154 115 78
154 115 78
153 114 78
152 114 77
152 113 77
151 113 77
150 112 77
150 112 76
149 111 76
148 111 76
148 110 75
147 110 75
146 109 75
145 109 74
145 108 74
144 108 74
143 107 73
142 107 73
141 106 72
140 105 72
139 104 71
138 103 71
137 103 70
136 102 70
134 101 69
133 100 69
132 99 68
131 98 68
130 97 67
128 97 67
127 96 66
126 95 65
124 94 65
123 93 64
121 92 64
120 91 63
119 90 62
117 89 62
115 88 61
114 86 60
112 85 60
111 84 59
109 83 58
107 82 58
105 80 57
103 79 56
101 78 55
99 76 54
97 75 53
95 73 52
93 72 52
90 70 51
88 69 50
85 67 49
83 65 48
80 63 47
77 61 46
74 60 45
71 58 44
68 56 42
65 53 41
61 51 40
57 49 39
56 48 39
56 48 39
0 0 0
0 0 0
0 0 0
0 0 0
0 0 0
0 0 0
0 0 0
0 0 0
0 0 0
0 0 0
0 0 0
0 0 0
0 0 0
0 0 0
0 0 0
0 0 0
0 0 0
0 0 0
0 0 0
0 0 0
0 0 0
0 0 0
0 0 0
0 0 0
0 0 0
0 0 0
0 0 0
0 0 0
0 0 0
0 0 0
0 0 0
0 0 0
0 0 0
0 0 0
0 0 0
0 0 0
0 0 0
0 0 0
0 0 0
0 0 0
0 0 0
0 0 0
0 0 0
0 0 0
0 0 0
0 0 0
0 0 0
0 0 0
0 0 0
0 0 0
0 0 0
0 0 0
0 0 0
0 0 0
0 0 0
0 0 0
0 0 0
0 0 0
0 0 0
0 0 0
0 0 0
0 0 0
0 0 0
0 0 0
169 126 85
169 126 85
169 126 85
170 127 86
170 127 86
171 127 86
171 127 86
171 128 86
172 128 86
172 128 87
172 128 87
173 129 87
173 129 87
173 129 87
173 129 87
174 129 87
174 130 88
174 130 88
175 130 88
175 130 88
175 130 88
175 131 88
176 131 88
176 131 88
176 131 89
176 131 89
177 131 89
177 132 89
177 132 89
177 132 89
178 132 89
178 132 89
178 132 89
178 133 90
178 133 90
178 133 90
179 133 90
179 133 90
179 133 90
179 133 90
179 133 90
179 133 90
179 134 90
180 134 90
180 134 90
180 134 90
180 134 90
180 134 90
180 134 90
180 134 90
180 134 90
180 134 90
179 134 90
179 134 90
179 133 90
179 133 90
179 133 90
179 133 90
179 133 90
179 133 90
178 133 90
178 133 90
178 133 90
178 133 90
178 132 90
178 132 89
178 132 89
177 132 89
177 132 89
177 132 89
177 132 89
177 131 89
176 131 89
176 131 89
176 131 89
176 131 89
175 131 88
175 131 88
175 130 88
175 130 88
175 130 88
174 130 88
174 130 88
174 129 88
174 129 87
173 129 87
173 129 87
173 129 87
172 128 87
172 128 87
172 128 87
172 128 87
171 128 86
171 127 86
171 127 86
170 127 86
170 127 86
170 126 86
169 126 85
169 126 85
168 125 85
168 125 85
167 125 84
167 124 84
166 124 84
166 124 84
165 123 84
165 123 83
164 123 83
164 122 83
163 122 83
163 121 82
162 121 82
162 121 82
161 120 82
161 120 81
160 119 81
160 119 81
159 119 81
158 118 80
158 118 80
157 117 80
157 117 79
156 117 79
155 116 79
155 116 79
154 115 78
154 115 78
153 114 78
152 114 77
152 113 77
151 113 77
150 112 76
150 112 76
149 111 76
148 111 76
147 110 75
147 110 75
146 109 75
145 109 74
145 108 74
144 108 74
143 107 73
142 107 73
141 106 72
140 105 72
139 104 71
138 104 71
137 103 70
136 102 70
135 101 69
133 100 69
132 99 68
131 99 68
130 98 67
129 97 67
127 96 66
126 95 65
125 94 65
123 93 64
122 92 64
120 91 63
119 90 62
117 89 62
116 88 61
114 87 60
113 86 60
111 84 59
109 83 58
108 82 58
106 81 57
104 79 56
102 78 55
100 77 54
98 75 53
95 74 53
93 72 52
91 70 51
88 69 50
86 67 49
83 65 48
81 64 47
78 62 46
75 60 45
72 58 44
69 56 43
65 54 41
62 52 40
58 49 39
56 48 39
56 48 39
56 48 39
0 0 0
0 0 0
0 0 0
0 0 0
0 0 0
0 0 0
0 0 0
0 0 0
0 0 0
0 0 0
0 0 0
0 0 0
0 0 0
0 0 0
0 0 0
0 0 0
0 0 0
0 0 0
0 0 0
0 0 0
0 0 0
0 0 0
0 0 0
0 0 0
0 0 0
0 0 0
0 0 0
0 0 0
0 0 0
0 0 0
0 0 0
0 0 0
0 0 0
0 0 0
0 0 0
0 0 0
0 0 0
0 0 0
0 0 0
0 0 0
0 0 0
0 0 0
0 0 0
0 0 0
0 0 0
0 0 0
0 0 0
0 0 0
0 0 0
0 0 0
0 0 0
0 0 0
0 0 0
0 0 0
0 0 0
0 0 0
0 0 0
0 0 0
0 0 0
0 0 0
0 0 0
0 0 0
0 0 0
0 0 0
168 125 85
168 125 85
169 126 85
169 126 85
169 126 85
170 126 86
170 127 86
170 127 86
171 127 86
171 127 86
171 128 86
172 128 86
172 128 87
172 128 87
173 129 87
173 129 87
173 129 87
173 129 87
174 129 87
174 130 88
174 130 88
175 130 88
175 130 88
175 130 88
175 131 88
176 131 88
176 131 88
176 131 89
176 131 89
177 131 89
177 132 89
177 132 89
177 132 89
177 132 89
178 132 89
178 132 89
178 132 89
178 133 90
178 133 90
178 133 90
179 133 90
179 133 90
179 133 90
179 133 90
179 133 90
179 133 90
179 133 90
179 133 90
179 133 90
179 133 90
179 133 90
179 133 90
179 133 90
179 133 90
179 133 90
178 133 90
178 133 90
178 133 90
178 133 90
178 133 90
178 132 90
178 132 89
178 132 89
177 132 89
177 132 89
177 132 89
177 132 89
177 132 89
176 131 89
176 131 89
176 131 89
176 131 89
176 131 89
175 131 88
175 131 88
175 130 88
175 130 88
175 130 88
174 130 88
174 130 88
174 130 88
174 129 88
173 129 87
173 129 87
173 129 87
173 129 87
172 128 87
172 128 87
172 128 87
171 128 86
171 128 86
171 127 86
171 127 86
170 127 86
170 127 86
170 126 86
169 126 85
169 126 85
168 126 85
168 125 85
168 125 85
167 125 84
167 124 84
166 124 84
166 123 84
165 123 83
165 123 83
164 122 83
164 122 83
163 122 83
163 121 82
162 121 82
162 121 82
161 120 82
161 120 81
160 119 81
159 119 81
159 119 80
158 118 80
158 118 80
157 117 80
156 117 79
156 116 79
155 116 79
155 115 79
154 115 78
153 115 78
153 114 78
152 114 77
151 113 77
151 113 77
150 112 76
149 112 76
149 111 76
148 111 75
147 110 75
147 110 75
146 109 74
145 109 74
144 108 74
144 108 73
143 107 73
142 107 73
141 106 72
140 105 72
139 105 72
138 104 71
137 103 71
136 102 70
135 101 70
134 100 69
133 100 68
131 99 68
130 98 67
129 97 67
127 96 66
126 95 66
125 94 65
123 93 64
122 92 64
121 91 63
119 90 63
118 89 62
116 88 61
115 87 61
113 86 60
111 85 59
110 84 59
108 82 58
106 81 57
104 80 56
102 78 55
100 77 54
98 75 54
96 74 53
93 72 52
91 71 51
89 69 50
86 67 49
84 66 48
81 64 47
78 62 46
75 60 45
72 58 44
69 56 43
66 54 42
62 52 40
58 50 39
56 48 39
56 48 39
56 48 39
56 48 39
0 0 0
0 0 0
0 0 0
0 0 0
0 0 0
0 0 0
0 0 0
0 0 0
0 0 0
0 0 0
0 0 0
0 0 0
0 0 0
0 0 0
0 0 0
0 0 0
0 0 0
0 0 0
0 0 0
0 0 0
0 0 0
0 0 0
0 0 0
0 0 0
0 0 0
0 0 0
0 0 0
0 0 0
0 0 0
0 0 0
0 0 0
0 0 0
0 0 0
0 0 0
0 0 0
0 0 0
0 0 0
0 0 0
0 0 0
0 0 0
0 0 0
0 0 0
0 0 0
0 0 0
0 0 0
0 0 0
0 0 0
0 0 0
0 0 0
0 0 0
0 0 0
0 0 0
0 0 0
0 0 0
0 0 0
0 0 0
0 0 0
0 0 0
0 0 0
0 0 0
0 0 0
0 0 0
0 0 0
0 0 0
167 124 84
167 125 84
168 125 85
168 125 85
168 125 85
169 126 85
169 126 85
169 126 85
170 127 86
170 127 86
170 127 86
171 127 86
171 127 86
171 128 86
172 128 87
172 128 87
172 128 87
173 129 87
173 129 87
173 129 87
173 129 87
174 129 87
174 130 88
174 130 88
175 130 88
175 130 88
175 130 88
175 131 88
176 131 88
176 131 88
176 131 89
176 131 89
176 131 89
177 132 89
177 132 89
177 132 89
177 132 89
177 132 89
178 132 89
178 132 89
178 132 89
178 132 89
178 133 90
178 133 90
178 133 90
178 133 90
178 133 90
179 133 90
179 133 90
178 133 90
178 133 90
178 133 90
178 133 90
178 133 90
178 132 90
178 132 89
178 132 89
178 132 89
177 132 89
177 132 89
177 132 89
177 132 89
177 132 89
177 132 89
176 131 89
176 131 89
176 131 89
176 131 89
176 131 89
176 131 88
175 131 88
175 130 88
175 130 88
175 130 88
175 130 88
174 130 88
174 130 88
174 130 88
174 129 88
173 129 87
173 129 87
173 129 87
173 129 87
172 128 87
172 128 87
172 128 87
172 128 87
171 128 86
171 127 86
171 127 86
170 127 86
170 127 86
170 127 86
170 126 86
169 126 85
169 126 85
169 126 85
168 125 85
168 125 85
167 125 84
167 124 84
166 124 84
166 124 84
165 123 84
165 123 83
164 123 83
164 122 83
163 122 83
163 122 82
162 121 82
162 121 82
161 120 82
161 120 81
160 120 81
160 119 81
159 119 81
159 118 80
158 118 80
157 118 80
157 117 80
156 117 79
156 116 79
155 116 79
154 115 78
154 115 78
153 114 78
153 114 78
152 114 77
151 113 77
151 113 77
150 112 76
149 112 76
149 111 76
148 111 75
147 110 75
146 110 75
146 109 74
145 109 74
144 108 74
144 107 73
143 107 73
142 106 73
141 106 72
141 105 72
140 105 72
139 104 71
137 103 71
136 102 70
135 101 70
134 101 69
133 100 69
132 99 68
130 98 67
129 97 67
128 96 66
126 95 66
125 94 65
124 93 65
122 92 64
121 91 63
119 90 63
118 89 62
117 88 61
115 87 61
113 86 60
112 85 59
110 84 59
108 82 58
106 81 57
104 80 56
102 78 55
100 77 55
98 76 54
96 74 53
94 72 52
91 71 51
89 69 50
87 68 49
84 66 48
81 64 47
79 62 46
76 60 45
73 59 44
70 57 43
66 54 42
63 52 41
59 50 39
56 48 39
56 48 39
56 48 39
56 48 39
56 48 39
0 0 0
0 0 0
0 0 0
0 0 0
0 0 0
0 0 0
0 0 0
0 0 0
0 0 0
0 0 0
0 0 0
0 0 0
0 0 0
0 0 0
0 0 0
0 0 0
0 0 0
0 0 0
0 0 0
0 0 0
0 0 0
0 0 0
0 0 0
0 0 0
0 0 0
0 0 0
0 0 0
0 0 0
0 0 0
0 0 0
0 0 0
0 0 0
0 0 0
0 0 0
0 0 0
0 0 0
0 0 0
0 0 0
0 0 0
0 0 0
0 0 0
0 0 0
0 0 0
0 0 0
0 0 0
0 0 0
0 0 0
0 0 0
0 0 0
0 0 0
0 0 0
0 0 0
0 0 0
0 0 0
0 0 0
0 0 0
0 0 0
0 0 0
0 0 0
0 0 0
0 0 0
0 0 0
0 0 0
0 0 0
166 124 84
166 124 84
167 124 84
167 125 84
167 125 85
168 125 85
168 125 85
169 126 85
169 126 85
169 126 85
170 126 85
170 127 86
170 127 86
171 127 86
171 127 86
171 127 86
171 128 86
172 128 87
172 128 87
172 128 87
173 128 87
173 129 87
173 129 87
173 129 87
174 129 87
174 130 88
174 130 88
175 130 88
175 130 88
175 130 88
175 131 88
176 131 88
176 131 88
176 131 89
176 131 89
176 131 89
177 131 89
177 132 89
177 132 89
177 132 89
177 132 89
177 132 89
177 132 89
177 132 89
178 132 89
178 132 89
178 132 89
178 132 89
178 132 89
178 132 89
178 132 89
178 132 89
177 132 89
177 132 89
177 132 89
177 132 89
177 132 89
177 132 89
177 132 89
177 131 89
176 131 89
176 131 89
176 131 89
176 131 89
176 131 89
176 131 88
175 131 88
175 131 88
175 130 88
175 130 88
175 130 88
175 130 88
174 130 88
174 130 88
174 130 88
174 129 88
173 129 87
173 129 87
173 129 87
173 129 87
172 128 87
172 128 87
172 128 87
172 128 87
171 128 86
171 128 86
171 127 86
171 127 86
170 127 86
170 127 86
170 127 86
169 126 86
169 126 85
169 126 85
169 126 85
168 125 85
168 125 85
167 125 85
167 124 84
167 124 84
166 124 84
166 123 84
165 123 83
165 123 83
164 122 83
164 122 83
163 122 83
163 121 82
162 121 82
162 121 82
161 120 82
161 120 81
160 119 81
160 119 81
159 119 81
158 118 80
158 118 80
157 117 80
157 117 79
156 117 79
155 116 79
155 116 79
154 115 78
154 115 78
153 114 78
152 114 77
152 113 77
151 113 77
150 112 77
150 112 76
149 111 76
148 111 76
148 110 75
147 110 75
146 109 75
146 109 74
145 108 74
144 108 74
143 107 73
143 107 73
142 106 73
141 106 72
140 105 72
140 105 72
139 104 71
138 103 71
136 102 70
135 102 70
134 101 69
133 100 69
132 99 68
131 98 68
129 97 67
128 96 66
127 95 66
125 94 65
124 94 65
123 93 64
121 92 63
120 91 63
118 90 62
117 88 62
115 87 61
114 86 60
112 85 60
110 84 59
109 83 58
107 81 57
105 80 56
103 79 56
101 77 55
99 76 54
96 74 53
94 73 52
92 71 51
89 70 50
87 68 49
84 66 48
82 64 47
79 63 46
76 61 45
73 59 44
70 57 43
67 55 42
63 53 41
59 50 40
56 48 39
56 48 39
56 48 39
56 48 39
56 48 39
56 48 39
0 0 0
0 0 0
0 0 0
0 0 0
0 0 0
0 0 0
0 0 0
0 0 0
0 0 0
0 0 0
0 0 0
0 0 0
0 0 0
0 0 0
0 0 0
0 0 0
0 0 0
0 0 0
0 0 0
0 0 0
0 0 0
0 0 0
0 0 0
0 0 0
0 0 0
0 0 0
0 0 0
0 0 0
0 0 0
0 0 0
0 0 0
0 0 0
0 0 0
0 0 0
0 0 0
0 0 0
0 0 0
0 0 0
0 0 0
0 0 0
0 0 0
0 0 0
0 0 0
0 0 0
0 0 0
0 0 0
0 0 0
0 0 0
0 0 0
0 0 0
0 0 0
0 0 0
0 0 0
0 0 0
0 0 0
0 0 0
0 0 0
0 0 0
0 0 0
0 0 0
0 0 0
0 0 0
0 0 0
0 0 0
165 123 83
165 123 84
166 124 84
166 124 84
167 124 84
167 124 84
167 125 84
168 125 85
168 125 85
168 125 85
169 126 85
169 126 85
169 126 85
170 126 86
170 127 86
170 127 86
171 127 86
171 127 86
171 127 86
171 128 86
172 128 87
172 128 87
172 128 87
173 129 87
173 129 87
173 129 87
174 129 87
174 129 88
174 130 88
174 130 88
175 130 88
175 130 88
175 130 88
175 130 88
175 131 88
176 131 88
176 131 88
176 131 89
176 131 89
176 131 89
176 131 89
177 131 89
177 132 89
177 132 89
177 132 89
177 132 89
177 132 89
177 132 89
177 132 89
177 132 89
177 132 89
177 132 89
177 132 89
177 132 89
177 131 89
176 131 89
176 131 89
176 131 89
176 131 89
176 131 89
176 131 88
176 131 88
175 131 88
175 131 88
175 130 88
175 130 88
175 130 88
175 130 88
174 130 88
174 130 88
174 130 88
174 129 88
174 129 87
173 129 87
173 129 87
173 129 87
173 129 87
172 129 87
172 128 87
172 128 87
172 128 87
172 128 86
171 128 86
171 127 86
171 127 86
170 127 86
170 127 86
170 127 86
170 126 86
169 126 85
169 126 85
169 126 85
168 126 85
168 125 85
168 125 85
168 125 85
167 125 84
167 124 84
166 124 84
166 124 84
165 123 84
165 123 83
164 123 83
164 122 83
163 122 83
163 122 82
162 121 82
162 121 82
161 120 82
161 120 81
160 120 81
160 119 81
159 119 81
159 119 80
158 118 80
158 118 80
157 117 80
156 117 79
156 116 79
155 116 79
155 116 79
154 115 78
153 115 78
153 114 78
152 114 77
152 113 77
151 113 77
150 112 76
150 112 76
149 111 76
148 111 76
148 110 75
147 110 75
146 109 75
145 109 74
145 108 74
144 108 74
143 107 73
142 107 73
142 106 73
141 106 72
140 105 72
139 105 72
139 104 71
138 103 71
137 103 70
136 102 70
134 101 69
133 100 69
132 99 68
131 98 68
130 97 67
128 97 67
127 96 66
126 95 65
124 94 65
123 93 64
122 92 64
120 91 63
119 90 62
117 89 62
116 88 61
114 87 60
112 85 60
111 84 59
109 83 58
107 82 57
105 80 57
103 79 56
101 77 55
99 76 54
97 74 53
94 73 52
92 71 51
90 70 50
87 68 49
85 66 48
82 65 47
79 63 46
77 61 45
74 59 44
71 57 43
67 55 42
64 53 41
60 51 40
56 48 39
56 48 39
56 48 39
56 48 39
56 48 39
56 48 39
56 48 39
0 0 0
0 0 0
0 0 0
0 0 0
0 0 0
0 0 0
0 0 0
0 0 0
0 0 0
0 0 0
0 0 0
0 0 0
0 0 0
0 0 0
0 0 0
0 0 0
0 0 0
0 0 0
0 0 0
0 0 0
0 0 0
0 0 0
0 0 0
0 0 0
0 0 0
0 0 0
0 0 0
0 0 0
0 0 0
0 0 0
0 0 0
0 0 0
0 0 0
0 0 0
0 0 0
0 0 0
0 0 0
0 0 0
0 0 0
0 0 0
0 0 0
0 0 0
0 0 0
0 0 0
0 0 0
0 0 0
0 0 0
0 0 0
0 0 0
0 0 0
0 0 0
0 0 0
0 0 0
0 0 0
0 0 0
0 0 0
0 0 0
0 0 0
0 0 0
0 0 0
0 0 0
0 0 0
0 0 0
0 0 0
164 122 83
164 123 83
165 123 83
165 123 83
166 123 84
166 124 84
166 124 84
167 124 84
167 124 84
167 125 84
168 125 85
168 125 85
168 125 85
169 126 85
169 126 85
169 126 85
170 126 86
170 127 86
170 127 86
171 127 86
171 127 86
171 128 86
172 128 86
172 128 87
172 128 87
172 128 87
173 129 87
173 129 87
173 129 87
174 129 87
174 129 87
174 130 88
174 130 88
174 130 88
175 130 88
175 130 88
175 130 88
175 130 88
175 131 88
176 131 88
176 131 88
176 131 88
176 131 89
176 131 89
176 131 89
176 131 89
176 131 89
176 131 89
176 131 89
176 131 89
176 131 89
176 131 89
176 131 89
176 131 89
176 131 89
176 131 88
176 131 88
175 131 88
175 131 88
175 130 88
175 130 88
175 130 88
175 130 88
175 130 88
174 130 88
174 130 88
174 130 88
174 129 88
174 129 87
173 129 87
173 129 87
173 129 87
173 129 87
173 129 87
172 128 87
172 128 87
172 128 87
172 128 87
172 128 86
171 128 86
171 127 86
171 127 86
171 127 86
170 127 86
170 127 86
170 127 86
169 126 86
169 126 85
169 126 85
169 126 85
168 125 85
168 125 85
168 125 85
167 125 85
167 125 84
167 124 84
166 124 84
166 124 84
166 123 84
165 123 83
165 123 83
164 122 83
164 122 83
163 122 83
163 121 82
162 121 82
162 121 82
161 120 82
161 120 81
160 120 81
160 119 81
159 119 81
159 118 80
158 118 80
157 118 80
157 117 80
156 117 79
156 116 79
155 116 79
154 115 78
154 115 78
153 115 78
153 114 78
152 114 77
151 113 77
151 113 77
150 112 76
149 112 76
149 111 76
148 111 75
147 110 75
147 110 75
146 109 75
145 109 74
145 108 74
144 108 74
143 107 73
142 107 73
142 106 73
141 106 72
140 105 72
139 104 71
139 104 71
138 103 71
137 103 70
136 102 70
135 101 69
133 100 69
132 99 68
131 98 68
130 98 67
128 97 67
127 96 66
126 95 65
125 94 65
123 93 64
122 92 64
120 91 63
119 90 62
117 89 62
116 88 61
114 87 61
113 86 60
111 84 59
109 83 58
107 82 57
105 80 57
103 79 56
101 78 55
99 76 54
97 75 53
95 73 52
93 72 51
90 70 51
88 68 50
85 67 49
83 65 48
80 63 47
77 61 46
74 59 45
71 57 43
68 55 42
64 53 41
61 51 40
57 49 39
56 48 39
56 48 39
56 48 39
56 48 39
56 48 39
56 48 39
56 48 39
0 0 0
0 0 0
0 0 0
0 0 0
0 0 0
0 0 0
0 0 0
0 0 0
0 0 0
0 0 0
0 0 0
0 0 0
0 0 0
0 0 0
0 0 0
0 0 0
0 0 0
0 0 0
0 0 0
0 0 0
0 0 0
0 0 0
0 0 0
0 0 0
0 0 0
0 0 0
0 0 0
0 0 0
0 0 0
0 0 0
0 0 0
0 0 0
0 0 0
0 0 0
0 0 0
0 0 0
0 0 0
0 0 0
0 0 0
0 0 0
0 0 0
0 0 0
0 0 0
0 0 0
0 0 0
0 0 0
0 0 0
0 0 0
0 0 0
0 0 0
0 0 0
0 0 0
0 0 0
0 0 0
0 0 0
0 0 0
0 0 0
0 0 0
0 0 0
0 0 0
0 0 0
0 0 0
0 0 0
0 0 0
163 122 82
163 122 83
164 122 83
164 122 83
165 123 83
165 123 83
165 123 84
166 124 84
166 124 84
166 124 84
167 124 84
167 125 84
167 125 84
168 125 85
168 125 85
168 125 85
169 126 85
169 126 85
169 126 85
170 127 86
170 127 86
170 127 86
171 127 86
171 127 86
171 128 86
172 128 87
172 128 87
172 128 87
173 128 87
173 129 87
173 129 87
173 129 87
173 129 87
174 129 87
174 130 88
174 130 88
174 130 88
174 130 88
175 130 88
175 130 88
175 130 88
175 130 88
175 130 88
175 131 88
175 131 88
176 131 88
176 131 88
176 131 88
176 131 88
176 131 88
176 131 88
175 131 88
175 131 88
175 131 88
175 130 88
175 130 88
175 130 88
175 130 88
175 130 88
174 130 88
174 130 88
174 130 88
174 130 88
174 129 88
174 129 87
174 129 87
173 129 87
173 129 87
173 129 87
173 129 87
173 129 87
172 128 87
172 128 87
172 128 87
172 128 87
172 128 86
171 128 86
171 127 86
171 127 86
171 127 86
170 127 86
170 127 86
170 127 86
170 126 86
169 126 85
169 126 85
169 126 85
169 126 85
168 125 85
168 125 85
168 125 85
167 125 84
167 125 84
167 124 84
166 124 84
166 124 84
166 124 84
165 123 84
165 123 83
164 123 83
164 122 83
163 122 83
163 122 82
162 121 82
162 121 82
161 120 82
161 120 81
160 120 81
160 119 81
159 119 81
159 119 81
158 118 80
158 118 80
157 117 80
157 117 79
156 117 79
155 116 79
155 116 79
154 115 78
154 115 78
153 114 78
152 114 77
152 113 77
151 113 77
151 113 77
150 112 76
149 112 76
149 111 76
148 111 75
147 110 75
146 110 75
146 109 74
145 109 74
144 108 74
144 108 73
143 107 73
142 107 73
141 106 72
141 105 72
140 105 72
139 104 71
138 104 71
138 103 71
137 103 70
136 102 70
135 101 69
134 100 69
132 100 68
131 99 68
130 98 67
129 97 67
127 96 66
126 95 66
125 94 65
123 93 64
122 92 64
121 91 63
119 90 63
118 89 62
116 88 61
115 87 61
113 86 60
111 84 59
109 83 58
107 82 58
106 81 57
104 79 56
102 78 55
100 76 54
97 75 53
95 73 53
93 72 52
91 70 51
88 69 50
86 67 49
83 65 48
80 63 47
78 62 46
75 60 45
71 58 44
68 56 42
65 54 41
61 51 40
57 49 39
56 48 39
56 48 39
56 48 39
56 48 39
56 48 39
56 48 39
56 48 39
56 48 39
0 0 0
0 0 0
0 0 0
0 0 0
0 0 0
0 0 0
0 0 0
0 0 0
0 0 0
0 0 0
0 0 0
0 0 0
0 0 0
0 0 0
0 0 0
0 0 0
0 0 0
0 0 0
0 0 0
0 0 0
0 0 0
0 0 0
0 0 0
0 0 0
0 0 0
0 0 0
0 0 0
0 0 0
0 0 0
0 0 0
0 0 0
0 0 0
0 0 0
0 0 0
0 0 0
0 0 0
0 0 0
0 0 0
0 0 0
0 0 0
0 0 0
0 0 0
0 0 0
0 0 0
0 0 0
0 0 0
0 0 0
0 0 0
0 0 0
0 0 0
0 0 0
0 0 0
0 0 0
0 0 0
0 0 0
0 0 0
0 0 0
0 0 0
0 0 0
0 0 0
0 0 0
0 0 0
0 0 0
0 0 0
162 121 82
162 121 82
163 121 82
163 122 83
164 122 83
164 122 83
164 123 83
165 123 83
165 123 83
165 123 84
166 124 84
166 124 84
166 124 84
167 124 84
167 125 84
167 125 85
168 125 85
168 125 85
169 126 85
169 126 85
169 126 85
170 126 86
170 127 86
170 127 86
171 127 86
171 127 86
171 128 86
171 128 86
172 128 87
172 128 87
172 128 87
172 128 87
173 129 87
173 129 87
173 129 87
173 129 87
174 129 87
174 129 87
174 130 88
174 130 88
174 130 88
174 130 88
175 130 88
175 130 88
175 130 88
175 130 88
175 130 88
175 130 88
175 130 88
175 130 88
175 130 88
175 130 88
175 130 88
175 130 88
174 130 88
174 130 88
174 130 88
174 130 88
174 130 88
174 129 88
174 129 87
173 129 87
173 129 87
173 129 87
173 129 87
173 129 87
173 129 87
172 128 87
172 128 87
172 128 87
172 128 87
172 128 87
171 128 86
171 128 86
171 127 86
171 127 86
171 127 86
170 127 86
170 127 86
170 127 86
170 126 86
169 126 85
169 126 85
169 126 85
169 126 85
168 125 85
168 125 85
168 125 85
167 125 85
167 125 84
167 124 84
167 124 84
166 124 84
166 124 84
166 124 84
165 123 84
165 123 83
165 123 83
164 122 83
164 122 83
163 122 83
163 121 82
162 121 82
162 121 82
161 120 82
161 120 81
160 120 81
160 119 81
159 119 81
159 118 80
158 118 80
158 118 80
157 117 80
156 117 79
156 116 79
155 116 79
155 116 79
154 115 78
153 115 78
153 114 78
152 114 77
152 113 77
151 113 77
150 112 77
150 112 76
149 111 76
148 111 76
148 110 75
147 110 75
146 109 75
146 109 74
145 108 74
144 108 74
143 107 73
143 107 73
142 106 73
141 106 72
141 105 72
140 105 72
139 104 71
138 104 71
137 103 71
137 103 70
136 102 70
135 101 70
134 100 69
133 100 68
131 99 68
130 98 67
129 97 67
128 96 66
126 95 66
125 94 65
124 93 65
122 92 64
121 91 63
120 90 63
118 89 62
117 88 61
115 87 61
113 86 60
111 85 59
110 83 58
108 82 58
106 81 57
104 79 56
102 78 55
100 77 54
98 75 54
95 74 53
93 72 52
91 71 51
88 69 50
86 67 49
83 66 48
81 64 47
78 62 46
75 60 45
72 58 44
69 56 43
65 54 42
62 52 40
58 49 39
56 48 39
56 48 39
56 48 39
56 48 39
56 48 39
56 48 39
56 48 39
56 48 39
56 48 39
0 0 0
0 0 0
0 0 0
0 0 0
0 0 0
0 0 0
0 0 0
0 0 0
0 0 0
0 0 0
0 0 0
0 0 0
0 0 0
0 0 0
0 0 0
0 0 0
0 0 0
0 0 0
0 0 0
0 0 0
0 0 0
0 0 0
0 0 0
0 0 0
0 0 0
0 0 0
0 0 0
0 0 0
0 0 0
0 0 0
0 0 0
0 0 0
0 0 0
0 0 0
0 0 0
0 0 0
0 0 0
0 0 0
0 0 0
0 0 0
0 0 0
0 0 0
0 0 0
0 0 0
0 0 0
0 0 0
0 0 0
0 0 0
0 0 0
0 0 0
0 0 0
0 0 0
0 0 0
0 0 0
0 0 0
0 0 0
0 0 0
0 0 0
0 0 0
0 0 0
0 0 0
0 0 0
0 0 0
0 0 0
161 120 82
161 120 82
162 121 82
162 121 82
163 121 82
163 122 82
163 122 83
164 122 83
164 122 83
164 123 83
165 123 83
165 123 83
165 123 84
166 124 84
166 124 84
167 124 84
167 125 84
167 125 84
168 125 85
168 125 85
168 126 85
169 126 85
169 126 85
169 126 85
170 127 86
170 127 86
170 127 86
171 127 86
171 127 86
171 128 86
171 128 86
172 128 87
172 128 87
172 128 87
172 128 87
173 129 87
173 129 87
173 129 87
173 129 87
173 129 87
173 129 87
174 129 87
174 129 87
174 130 88
174 130 88
174 130 88
174 130 88
174 130 88
174 130 88
174 130 88
174 130 88
174 130 88
174 130 88
174 129 88
174 129 87
174 129 87
173 129 87
173 129 87
173 129 87
173 129 87
173 129 87
173 129 87
173 129 87
172 128 87
172 128 87
172 128 87
172 128 87
172 128 87
172 128 86
171 128 86
171 127 86
171 127 86
171 127 86
171 127 86
170 127 86
170 127 86
170 127 86
170 126 86
169 126 85
169 126 85
169 126 85
169 126 85
168 125 85
168 125 85
168 125 85
168 125 85
167 125 84
167 125 84
167 124 84
166 124 84
166 124 84
166 124 84
166 123 84
165 123 84
165 123 83
165 123 83
164 123 83
164 122 83
163 122 83
163 122 82
162 121 82
162 121 82
161 120 82
161 120 81
160 120 81
160 119 81
159 119 81
159 119 81
158 118 80
158 118 80
157 117 80
157 117 80
156 117 79
156 116 79
155 116 79
154 115 78
154 115 78
153 114 78
153 114 78
152 114 77
151 113 77
151 113 77
150 112 76
149 112 76
149 111 76
148 111 76
147 110 75
147 110 75
146 109 75
145 109 74
145 108 74
144 108 74
143 107 73
143 107 73
142 106 73
141 106 72
140 105 72
140 105 72
139 104 71
138 104 71
137 103 71
137 102 70
136 102 70
135 101 70
134 101 69
133 100 69
132 99 68
130 98 67
129 97 67
128 96 66
127 95 66
125 94 65
124 94 65
123 93 64
121 92 63
120 91 63
118 90 62
117 88 62
115 87 61
113 86 60
112 85 59
110 84 59
108 82 58
106 81 57
104 80 56
102 78 55
100 77 55
98 75 54
96 74 53
94 72 52
91 71 51
89 69 50
86 67 49
84 66 48
81 64 47
78 62 46
75 60 45
72 58 44
69 56 43
66 54 42
62 52 41
58 50 39
56 48 39
56 48 39
56 48 39
56 48 39
56 48 39
56 48 39
56 48 39
56 48 39
56 48 39
56 48 39
0 0 0
0 0 0
0 0 0
0 0 0
0 0 0
0 0 0
0 0 0
0 0 0
0 0 0
0 0 0
0 0 0
0 0 0
0 0 0
0 0 0
0 0 0
0 0 0
0 0 0
0 0 0
0 0 0
0 0 0
0 0 0
0 0 0
0 0 0
0 0 0
0 0 0
0 0 0
0 0 0
0 0 0
0 0 0
0 0 0
0 0 0
0 0 0
0 0 0
0 0 0
0 0 0
0 0 0
0 0 0
0 0 0
0 0 0
0 0 0
0 0 0
0 0 0
0 0 0
0 0 0
0 0 0
0 0 0
0 0 0
0 0 0
0 0 0
0 0 0
0 0 0
0 0 0
0 0 0
0 0 0
0 0 0
0 0 0
0 0 0
0 0 0
0 0 0
0 0 0
0 0 0
0 0 0
0 0 0
0 0 0
160 119 81
160 120 81
161 120 81
161 120 82
162 121 82
162 121 82
162 121 82
163 121 82
163 122 82
163 122 83
164 122 83
164 122 83
165 123 83
165 123 83
165 123 84
166 124 84
166 124 84
167 124 84
167 124 84
167 125 84
168 125 85
168 125 85
168 125 85
169 126 85
169 126 85
169 126 85
170 126 86
170 127 86
170 127 86
170 127 86
171 127 86
171 127 86
171 127 86
171 128 86
172 128 86
172 128 87
172 128 87
172 128 87
172 128 87
173 129 87
173 129 87
173 129 87
173 129 87
173 129 87
173 129 87
173 129 87
174 129 87
174 129 87
174 129 87
174 129 87
173 129 87
173 129 87
173 129 87
173 129 87
173 129 87
173 129 87
173 129 87
173 129 87
172 128 87
172 128 87
172 128 87
172 128 87
172 128 87
172 128 87
172 128 86
171 128 86
171 128 86
171 127 86
171 127 86
171 127 86
170 127 86
170 127 86
170 127 86
170 127 86
170 126 86
169 126 85
169 126 85
169 126 85
169 126 85
168 126 85
168 125 85
168 125 85
168 125 85
167 125 84
167 125 84
167 124 84
167 124 84
166 124 84
166 124 84
166 124 84
165 123 84
165 123 83
165 123 83
165 123 83
164 122 83
164 122 83
164 122 83
163 122 82
163 121 82
162 121 82
162 121 82
161 120 82
161 120 81
160 120 81
160 119 81
159 119 81
159 118 80
158 118 80
158 118 80
157 117 80
157 117 79
156 116 79
155 116 79
155 116 79
154 115 78
154 115 78
153 114 78
152 114 77
152 113 77
151 113 77
151 113 77
150 112 76
149 112 76
149 111 76
148 111 75
147 110 75
147 110 75
146 109 74
145 109 74
144 108 74
144 108 74
143 107 73
142 107 73
142 106 73
141 106 72
140 105 72
139 105 72
139 104 71
138 103 71
137 103 70
136 102 70
136 102 70
135 101 69
134 101 69
133 100 69
132 99 68
131 98 68
129 97 67
128 96 66
127 96 66
126 95 65
124 94 65
123 93 64
122 92 64
120 91 63
119 90 62
117 89 62
115 87 61
114 86 60
112 85 59
110 84 59
108 82 58
106 81 57
104 80 56
102 78 55
100 77 55
98 76 54
96 74 53
94 73 52
92 71 51
89 69 50
87 68 49
84 66 48
82 64 47
79 62 46
76 61 45
73 59 44
70 57 43
66 55 42
63 52 41
59 50 40
56 48 39
56 48 39
56 48 39
56 48 39
56 48 39
56 48 39
56 48 39
56 48 39
56 48 39
56 48 39
56 48 39
0 0 0
0 0 0
0 0 0
0 0 0
0 0 0
0 0 0
0 0 0
0 0 0
0 0 0
0 0 0
0 0 0
0 0 0
0 0 0
0 0 0
0 0 0
0 0 0
0 0 0
0 0 0
0 0 0
0 0 0
0 0 0
0 0 0
0 0 0
0 0 0
0 0 0
0 0 0
0 0 0
0 0 0
0 0 0
0 0 0
0 0 0
0 0 0
0 0 0
0 0 0
0 0 0
0 0 0
0 0 0
0 0 0
0 0 0
0 0 0
0 0 0
0 0 0
0 0 0
0 0 0
0 0 0
0 0 0
0 0 0
0 0 0
0 0 0
0 0 0
0 0 0
0 0 0
0 0 0
0 0 0
0 0 0
0 0 0
0 0 0
0 0 0
0 0 0
0 0 0
0 0 0
0 0 0
0 0 0
0 0 0
159 119 81
159 119 81
160 119 81
160 120 81
161 120 81
161 120 81
161 120 82
162 121 82
162 121 82
162 121 82
163 121 82
163 122 83
164 122 83
164 122 83
165 123 83
165 123 83
165 123 84
166 124 84
166 124 84
166 124 84
167 124 84
167 125 84
168 125 85
168 125 85
168 125 85
168 126 85
169 126 85
169 126 85
169 126 85
170 126 86
170 127 86
170 127 86
170 127 86
171 127 86
171 127 86
171 127 86
171 128 86
171 128 86
172 128 86
172 128 87
172 128 87
172 128 87
172 128 87
172 128 87
173 129 87
173 129 87
173 129 87
173 129 87
173 129 87
173 129 87
173 129 87
173 129 87
172 128 87
172 128 87
172 128 87
172 128 87
172 128 87
172 128 87
172 128 87
172 128 86
171 128 86
171 128 86
171 127 86
171 127 86
171 127 86
171 127 86
170 127 86
170 127 86
170 127 86
170 127 86
170 126 86
169 126 85
169 126 85
169 126 85
169 126 85
169 126 85
168 125 85
168 125 85
168 125 85
168 125 85
167 125 85
167 125 84
167 124 84
167 124 84
166 124 84
166 124 84
166 124 84
166 123 84
165 123 83
165 123 83
165 123 83
164 123 83
164 122 83
164 122 83
163 122 83
163 122 83
163 121 82
162 121 82
162 121 82
161 120 82
161 120 81
160 120 81
160 119 81
159 119 81
159 119 81
158 118 80
158 118 80
157 117 80
157 117 80
156 117 79
156 116 79
155 116 79
155 115 78
154 115 78
153 115 78
153 114 78
152 114 77
152 113 77
151 113 77
150 112 77
150 112 76
149 111 76
148 111 76
148 110 75
147 110 75
146 110 75
146 109 74
145 109 74
144 108 74
144 108 73
143 107 73
142 106 73
141 106 72
141 105 72
140 105 72
139 104 71
138 104 71
138 103 71
137 103 70
136 102 70
135 102 70
135 101 69
134 100 69
133 100 69
132 99 68
131 98 68
130 97 67
128 97 67
127 96 66
126 95 65
124 94 65
123 93 64
122 92 64
120 91 63
119 90 62
117 89 62
116 88 61
114 86 60
112 85 60
110 84 59
109 83 58
107 81 57
105 80 56
103 79 56
101 77 55
99 76 54
96 74 53
94 73 52
92 71 51
90 70 50
87 68 49
85 66 48
82 65 47
79 63 46
76 61 45
73 59 44
70 57 43
67 55 42
63 53 41
60 50 40
56 48 39
56 48 39
56 48 39
56 48 39
56 48 39
56 48 39
56 48 39
56 48 39
56 48 39
56 48 39
56 48 39
56 48 39
0 0 0
0 0 0
0 0 0
0 0 0
0 0 0
0 0 0
0 0 0
0 0 0
0 0 0
0 0 0
0 0 0
0 0 0
0 0 0
0 0 0
0 0 0
0 0 0
0 0 0
0 0 0
0 0 0
0 0 0
0 0 0
0 0 0
0 0 0
0 0 0
0 0 0
0 0 0
0 0 0
0 0 0
0 0 0
0 0 0
0 0 0
0 0 0
0 0 0
0 0 0
0 0 0
0 0 0
0 0 0
0 0 0
0 0 0
0 0 0
0 0 0
0 0 0
0 0 0
0 0 0
0 0 0
0 0 0
0 0 0
0 0 0
0 0 0
0 0 0
0 0 0
0 0 0
0 0 0
0 0 0
0 0 0
0 0 0
0 0 0
0 0 0
0 0 0
0 0 0
0 0 0
0 0 0
0 0 0
0 0 0
158 118 80
158 118 80
159 119 80
159 119 81
160 119 81
160 119 81
160 120 81
161 120 81
161 120 82
162 121 82
162 121 82
162 121 82
163 121 82
163 122 83
164 122 83
164 122 83
164 123 83
165 123 83
165 123 83
166 123 84
166 124 84
166 124 84
167 124 84
167 124 84
167 125 84
168 125 85
168 125 85
168 125 85
169 126 85
169 126 85
169 126 85
169 126 85
170 126 85
170 127 86
170 127 86
170 127 86
170 127 86
171 127 86
171 127 86
171 127 86
171 128 86
171 128 86
172 128 86
172 128 86
172 128 87
172 128 87
172 128 87
172 128 87
172 128 87
172 128 87
172 128 87
172 128 87
172 128 87
172 128 86
172 128 86
171 128 86
171 128 86
171 127 86
171 127 86
171 127 86
171 127 86
171 127 86
170 127 86
170 127 86
170 127 86
170 127 86
170 126 86
170 126 85
169 126 85
169 126 85
169 126 85
169 126 85
169 126 85
168 125 85
168 125 85
168 125 85
168 125 85
167 125 84
167 125 84
167 124 84
167 124 84
166 124 84
166 124 84
166 124 84
166 123 84
165 123 84
165 123 83
165 123 83
165 123 83
164 122 83
164 122 83
164 122 83
163 122 83
163 122 82
163 121 82
162 121 82
162 121 82
162 121 82
161 120 82
161 120 81
160 119 81
160 119 81
159 119 81
159 118 80
158 118 80
158 118 80
157 117 80
157 117 79
156 116 79
155 116 79
155 116 79
154 115 78
154 115 78
153 114 78
153 114 78
152 114 77
151 113 77
151 113 77
150 112 76
149 112 76
149 111 76
148 111 76
147 110 75
147 110 75
146 109 75
145 109 74
145 108 74
144 108 74
143 107 73
143 107 73
142 106 73
141 106 72
140 105 72
140 105 72
139 104 71
138 104 71
137 103 71
137 103 70
136 102 70
135 101 70
134 101 69
134 100 69
133 100 69
132 99 68
131 98 68
130 98 67
129 97 67
127 96 66
126 95 66
125 94 65
123 93 64
122 92 64
121 91 63
119 90 62
117 89 62
116 88 61
114 87 60
112 85 60
111 84 59
109 83 58
107 82 57
105 80 57
103 79 56
101 77 55
99 76 54
97 75 53
95 73 52
92 71 51
90 70 50
87 68 49
85 67 49
82 65 48
80 63 47
77 61 45
74 59 44
71 57 43
67 55 42
64 53 41
60 51 40
56 48 39
56 48 39
56 48 39
56 48 39
56 48 39
56 48 39
56 48 39
56 48 39
56 48 39
56 48 39
56 48 39
56 48 39
56 48 39
0 0 0
0 0 0
0 0 0
0 0 0
0 0 0
0 0 0
0 0 0
0 0 0
0 0 0
0 0 0
0 0 0
0 0 0
0 0 0
0 0 0
0 0 0
0 0 0
0 0 0
0 0 0
0 0 0
0 0 0
0 0 0
0 0 0
0 0 0
0 0 0
0 0 0
0 0 0
0 0 0
0 0 0
0 0 0
0 0 0
0 0 0
0 0 0
0 0 0
0 0 0
0 0 0
0 0 0
0 0 0
0 0 0
0 0 0
0 0 0
0 0 0
0 0 0
0 0 0
0 0 0
0 0 0
0 0 0
0 0 0
0 0 0
0 0 0
0 0 0
0 0 0
0 0 0
0 0 0
0 0 0
0 0 0
0 0 0
0 0 0
0 0 0
0 0 0
0 0 0
0 0 0
0 0 0
0 0 0
0 0 0
157 117 80
157 117 80
158 118 80
158 118 80
159 118 80
159 119 81
159 119 81
160 119 81
160 120 81
161 120 81
161 120 82
162 121 82
162 121 82
162 121 82
163 121 82
163 122 83
164 122 83
164 122 83
164 123 83
165 123 83
165 123 83
165 123 84
166 124 84
166 124 84
166 124 84
167 124 84
167 125 84
167 125 84
168 125 85
168 125 85
168 125 85
168 126 85
169 126 85
169 126 85
169 126 85
169 126 85
170 126 86
170 127 86
170 127 86
170 127 86
170 127 86
171 127 86
171 127 86
171 127 86
171 127 86
171 128 86
171 128 86
171 128 86
171 128 86
171 128 86
171 128 86
171 127 86
171 127 86
171 127 86
171 127 86
171 127 86
170 127 86
170 127 86
170 127 86
170 127 86
170 127 86
170 126 86
170 126 86
169 126 85
169 126 85
169 126 85
169 126 85
169 126 85
169 126 85
168 125 85
168 125 85
168 125 85
168 125 85
168 125 85
167 125 84
167 125 84
167 124 84
167 124 84
166 124 84
166 124 84
166 124 84
166 123 84
165 123 84
165 123 83
165 123 83
165 123 83
164 123 83
164 122 83
164 122 83
163 122 83
163 122 83
163 121 82
163 121 82
162 121 82
162 121 82
162 121 82
161 120 82
161 120 81
160 120 81
160 119 81
159 119 81
159 119 80
158 118 80
158 118 80
157 117 80
157 117 80
156 117 79
156 116 79
155 116 79
155 115 78
154 115 78
153 115 78
153 114 78
152 114 77
152 113 77
151 113 77
150 112 77
150 112 76
149 112 76
149 111 76
148 111 75
147 110 75
147 110 75
146 109 74
145 109 74
145 108 74
144 108 74
143 107 73
142 107 73
142 106 73
141 106 72
140 105 72
140 105 72
139 104 71
138 104 71
137 103 71
137 102 70
136 102 70
135 101 70
134 101 69
133 100 69
133 100 68
132 99 68
131 98 68
130 98 67
129 97 67
127 96 66
126 95 66
125 94 65
124 93 64
122 92 64
121 91 63
119 90 63
118 89 62
116 88 61
114 87 60
113 85 60
111 84 59
109 83 58
107 82 57
105 80 57
103 79 56
101 78 55
99 76 54
97 75 53
95 73 52
93 72 51
90 70 51
88 68 50
85 67 49
83 65 48
80 63 47
77 61 46
74 60 45
71 58 43
68 55 42
64 53 41
61 51 40
57 49 39
56 48 39
56 48 39
56 48 39
56 48 39
56 48 39
56 48 39
56 48 39
56 48 39
56 48 39
56 48 39
56 48 39
56 48 39
56 48 39
0 0 0
0 0 0
0 0 0
0 0 0
0 0 0
0 0 0
0 0 0
0 0 0
0 0 0
0 0 0
0 0 0
0 0 0
0 0 0
0 0 0
0 0 0
0 0 0
0 0 0
0 0 0
0 0 0
0 0 0
0 0 0
0 0 0
0 0 0
0 0 0
0 0 0
0 0 0
0 0 0
0 0 0
0 0 0
0 0 0
0 0 0
0 0 0
0 0 0
0 0 0
0 0 0
0 0 0
0 0 0
0 0 0
0 0 0
0 0 0
0 0 0
0 0 0
0 0 0
0 0 0
0 0 0
0 0 0
0 0 0
0 0 0
0 0 0
0 0 0
0 0 0
0 0 0
0 0 0
0 0 0
0 0 0
0 0 0
0 0 0
0 0 0
0 0 0
0 0 0
0 0 0
0 0 0
0 0 0
0 0 0
156 116 79
156 117 79
157 117 79
157 117 80
157 118 80
158 118 80
158 118 80
159 119 80
159 119 81
160 119 81
160 120 81
161 120 81
161 120 82
162 120 82
162 121 82
162 121 82
163 121 82
163 122 82
164 122 83
164 122 83
164 122 83
165 123 83
165 123 83
165 123 83
166 123 84
166 124 84
166 124 84
167 124 84
167 124 84
167 125 84
167 125 84
168 125 85
168 125 85
168 125 85
168 125 85
169 126 85
169 126 85
169 126 85
169 126 85
169 126 85
170 126 86
170 127 86
170 127 86
170 127 86
170 127 86
170 127 86
171 127 86
171 127 86
171 127 86
171 127 86
170 127 86
170 127 86
170 127 86
170 127 86
170 127 86
170 127 86
170 126 86
170 126 86
169 126 85
169 126 85
169 126 85
169 126 85
169 126 85
169 126 85
169 126 85
168 125 85
168 125 85
168 125 85
168 125 85
168 125 85
167 125 84
167 125 84
167 124 84
167 124 84
167 124 84
166 124 84
166 124 84
166 124 84
166 123 84
165 123 84
165 123 83
165 123 83
165 123 83
164 123 83
164 122 83
164 122 83
164 122 83
163 122 83
163 122 82
163 121 82
162 121 82
162 121 82
162 121 82
162 120 82
161 120 82
161 120 81
161 120 81
160 119 81
160 119 81
159 119 81
159 118 80
158 118 80
158 118 80
157 117 80
157 117 79
156 116 79
155 116 79
155 116 79
154 115 78
154 115 78
153 114 78
153 114 78
152 114 77
151 113 77
151 113 77
150 112 76
150 112 76
149 111 76
148 111 76
148 110 75
147 110 75
146 110 75
146 109 74
145 109 74
144 108 74
144 108 73
143 107 73
142 107 73
142 106 72
141 106 72
140 105 72
139 104 72
139 104 71
138 103 71
137 103 70
136 102 70
136 102 70
135 101 69
134 101 69
133 100 69
132 100 68
132 99 68
131 98 68
130 98 67
129 97 67
128 96 66
126 95 66
125 94 65
124 93 65
122 92 64
121 91 63
119 90 63
118 89 62
116 88 61
115 87 61
113 86 60
111 84 59
109 83 58
107 82 58
106 81 57
104 79 56
102 78 55
100 76 54
97 75 53
95 73 53
93 72 52
91 70 51
88 69 50
86 67 49
83 65 48
80 64 47
78 62 46
75 60 45
72 58 44
68 56 43
65 54 41
61 51 40
57 49 39
56 48 39
56 48 39
56 48 39
56 48 39
56 48 39
56 48 39
56 48 39
56 48 39
56 48 39
56 48 39
56 48 39
56 48 39
56 48 39
56 48 39
0 0 0
0 0 0
0 0 0
0 0 0
0 0 0
0 0 0
0 0 0
0 0 0
0 0 0
0 0 0
0 0 0
0 0 0
0 0 0
0 0 0
0 0 0
0 0 0
0 0 0
0 0 0
0 0 0
0 0 0
0 0 0
0 0 0
0 0 0
0 0 0
0 0 0
0 0 0
0 0 0
0 0 0
0 0 0
0 0 0
0 0 0
0 0 0
0 0 0
0 0 0
0 0 0
0 0 0
0 0 0
0 0 0
0 0 0
0 0 0
0 0 0
0 0 0
0 0 0
0 0 0
0 0 0
0 0 0
0 0 0
0 0 0
0 0 0
0 0 0
0 0 0
0 0 0
0 0 0
0 0 0
0 0 0
0 0 0
0 0 0
0 0 0
0 0 0
0 0 0
0 0 0
0 0 0
0 0 0
0 0 0
155 116 79
155 116 79
156 116 79
156 116 79
156 117 79
157 117 80
157 118 80
158 118 80
158 118 80
159 119 80
159 119 81
160 119 81
160 120 81
161 120 81
161 120 81
161 120 82
162 121 82
162 121 82
163 121 82
163 122 82
163 122 83
164 122 83
164 122 83
164 123 83
165 123 83
165 123 83
165 123 84
166 124 84
166 124 84
166 124 84
167 124 84
167 124 84
167 125 84
167 125 84
168 125 85
168 125 85
168 125 85
168 125 85
168 126 85
169 126 85
169 126 85
169 126 85
169 126 85
169 126 85
170 126 85
170 126 86
170 127 86
170 127 86
170 127 86
170 127 86
170 126 86
170 126 86
169 126 85
169 126 85
169 126 85
169 126 85
169 126 85
169 126 85
169 126 85
169 126 85
168 126 85
168 125 85
168 125 85
168 125 85
168 125 85
168 125 85
167 125 84
167 125 84
167 124 84
167 124 84
167 124 84
166 124 84
166 124 84
166 124 84
166 124 84
166 123 84
165 123 84
165 123 83
165 123 83
165 123 83
164 123 83
164 122 83
164 122 83
164 122 83
163 122 83
163 122 82
163 121 82
162 121 82
162 121 82
162 121 82
162 121 82
161 120 82
161 120 82
161 120 81
160 120 81
160 119 81
160 119 81
159 119 81
159 118 80
158 118 80
158 118 80
157 117 80
157 117 79
156 117 79
156 116 79
155 116 79
155 115 78
154 115 78
153 115 78
153 114 78
152 114 77
152 113 77
151 113 77
151 113 77
150 112 76
149 112 76
149 111 76
148 111 75
147 110 75
147 110 75
146 109 75
145 109 74
145 108 74
144 108 74
143 107 73
143 107 73
142 106 73
141 106 72
141 105 72
140 105 72
139 104 71
138 104 71
138 103 71
137 103 70
136 102 70
135 102 70
135 101 69
134 100 69
133 100 69
132 99 68
131 99 68
131 98 68
130 98 67
129 97 67
128 96 66
127 95 66
125 94 65
124 94 65
123 93 64
121 91 63
120 90 63
118 89 62
116 88 61
115 87 61
113 86 60
111 85 59
109 83 58
108 82 58
106 81 57
104 79 56
102 78 55
100 77 54
98 75 54
96 74 53
93 72 52
91 71 51
89 69 50
86 67 49
83 66 48
81 64 47
78 62 46
75 60 45
72 58 44
69 56 43
65 54 42
62 52 40
58 49 39
56 48 39
56 48 39
56 48 39
56 48 39
56 48 39
56 48 39
56 48 39
56 48 39
56 48 39
56 48 39
56 48 39
56 48 39
56 48 39
56 48 39
56 48 39
0 0 0
0 0 0
0 0 0
0 0 0
0 0 0
0 0 0
0 0 0
0 0 0
0 0 0
0 0 0
0 0 0
0 0 0
0 0 0
0 0 0
0 0 0
0 0 0
0 0 0
0 0 0
0 0 0
0 0 0
0 0 0
0 0 0
0 0 0
0 0 0
0 0 0
0 0 0
0 0 0
0 0 0
0 0 0
0 0 0
0 0 0
0 0 0
0 0 0
0 0 0
0 0 0
0 0 0
0 0 0
0 0 0
0 0 0
0 0 0
0 0 0
0 0 0
0 0 0
0 0 0
0 0 0
0 0 0
0 0 0
0 0 0
0 0 0
0 0 0
0 0 0
0 0 0
0 0 0
0 0 0
0 0 0
0 0 0
0 0 0
0 0 0
0 0 0
0 0 0
0 0 0
0 0 0
0 0 0
0 0 0
154 115 78
154 115 78
155 115 78
155 116 79
156 116 79
156 117 79
157 117 79
157 117 80
157 118 80
158 118 80
158 118 80
159 119 80
159 119 81
160 119 81
160 119 81
161 120 81
161 120 81
161 120 82
162 121 82
162 121 82
162 121 82
163 121 82
163 122 83
164 122 83
164 122 83
164 122 83
165 123 83
165 123 83
165 123 83
165 123 84
166 124 84
166 124 84
166 124 84
167 124 84
167 124 84
167 124 84
167 125 84
167 125 84
168 125 85
168 125 85
168 125 85
168 125 85
168 125 85
169 126 85
169 126 85
169 126 85
169 126 85
169 126 85
169 126 85
169 126 85
169 126 85
169 126 85
169 126 85
169 126 85
168 126 85
168 125 85
168 125 85
168 125 85
168 125 85
168 125 85
168 125 85
167 125 85
167 125 84
167 125 84
167 124 84
167 124 84
167 124 84
166 124 84
166 124 84
166 124 84
166 124 84
166 123 84
165 123 84
165 123 83
165 123 83
165 123 83
165 123 83
164 123 83
164 122 83
164 122 83
164 122 83
163 122 83
163 122 82
163 121 82
163 121 82
162 121 82
162 121 82
162 121 82
161 120 82
161 120 82
161 120 81
161 120 81
160 120 81
160 119 81
160 119 81
159 119 81
159 119 81
158 118 80
158 118 80
157 118 80
157 117 80
156 117 79
156 116 79
155 116 79
155 116 79
154 115 78
154 115 78
153 114 78
153 114 78
152 114 77
151 113 77
151 113 77
150 112 76
150 112 76
149 111 76
148 111 76
148 111 75
147 110 75
146 110 75
146 109 74
145 109 74
145 108 74
144 108 74
143 107 73
142 107 73
142 106 73
141 106 72
140 105 72
140 105 72
139 104 71
138 104 71
137 103 71
137 103 70
136 102 70
135 101 70
134 101 69
134 100 69
133 100 69
132 99 68
131 99 68
130 98 67
130 97 67
129 97 67
128 96 66
127 96 66
126 95 65
124 94 65
123 93 64
121 92 63
120 91 63
118 89 62
117 88 61
115 87 61
113 86 60
111 85 59
110 83 58
108 82 58
106 81 57
104 80 56
102 78 55
100 77 54
98 75 54
96 74 53
94 72 52
91 71 51
89 69 50
86 68 49
84 66 48
81 64 47
78 62 46
76 60 45
73 58 44
69 56 43
66 54 42
62 52 41
59 50 39
56 48 39
56 48 39
56 48 39
56 48 39
56 48 39
56 48 39
56 48 39
56 48 39
56 48 39
56 48 39
56 48 39
56 48 39
56 48 39
56 48 39
56 48 39
56 48 39
0 0 0
0 0 0
0 0 0
0 0 0
0 0 0
0 0 0
0 0 0
0 0 0
0 0 0
0 0 0
0 0 0
0 0 0
0 0 0
0 0 0
0 0 0
0 0 0
0 0 0
0 0 0
0 0 0
0 0 0
0 0 0
0 0 0
0 0 0
0 0 0
0 0 0
0 0 0
0 0 0
0 0 0
0 0 0
0 0 0
0 0 0
0 0 0
0 0 0
0 0 0
0 0 0
0 0 0
0 0 0
0 0 0
0 0 0
0 0 0
0 0 0
0 0 0
0 0 0
0 0 0
0 0 0
0 0 0
0 0 0
0 0 0
0 0 0
0 0 0
0 0 0
0 0 0
0 0 0
0 0 0
0 0 0
0 0 0
0 0 0
0 0 0
0 0 0
0 0 0
0 0 0
0 0 0
0 0 0
0 0 0
153 114 78
153 114 78
154 115 78
154 115 78
155 115 79
155 116 79
156 116 79
156 117 79
157 117 79
157 117 80
157 118 80
158 118 80
158 118 80
159 119 80
159 119 81
160 119 81
160 119 81
160 120 81
161 120 81
161 120 82
162 121 82
162 121 82
162 121 82
163 121 82
163 122 82
163 122 83
164 122 83
164 122 83
164 123 83
165 123 83
165 123 83
165 123 83
165 123 84
166 124 84
166 124 84
166 124 84
166 124 84
167 124 84
167 124 84
167 125 84
167 125 84
167 125 84
168 125 85
168 125 85
168 125 85
168 125 85
168 125 85
168 125 85
168 125 85
168 125 85
168 125 85
168 125 85
168 125 85
168 125 85
168 125 85
168 125 85
167 125 85
167 125 84
167 125 84
167 124 84
167 124 84
167 124 84
167 124 84
166 124 84
166 124 84
166 124 84
166 124 84
166 123 84
165 123 84
165 123 83
165 123 83
165 123 83
165 123 83
164 123 83
164 122 83
164 122 83
164 122 83
164 122 83
163 122 83
163 122 82
163 121 82
163 121 82
162 121 82
162 121 82
162 121 82
161 120 82
161 120 82
161 120 81
161 120 81
160 120 81
160 119 81
160 119 81
159 119 81
159 119 81
159 119 80
159 118 80
158 118 80
158 118 80
157 117 80
157 117 79
156 117 79
156 116 79
155 116 79
155 115 78
154 115 78
153 115 78
153 114 78
152 114 77
152 113 77
151 113 77
151 113 77
150 112 76
149 112 76
149 111 76
148 111 76
148 110 75
147 110 75
146 109 75
146 109 74
145 108 74
144 108 74
144 108 73
143 107 73
142 107 73
142 106 72
141 106 72
140 105 72
139 104 72
139 104 71
138 103 71
137 103 71
136 102 70
136 102 70
135 101 69
134 101 69
133 100 69
133 100 68
132 99 68
131 98 68
130 98 67
129 97 67
128 97 67
128 96 66
127 96 66
126 95 65
124 94 65
123 93 64
121 92 64
120 91 63
118 90 62
117 88 61
115 87 61
113 86 60
112 85 59
110 84 59
108 82 58
106 81 57
104 80 56
102 78 55
100 77 55
98 76 54
96 74 53
94 73 52
92 71 51
89 69 50
87 68 49
84 66 48
82 64 47
79 63 46
76 61 45
73 59 44
70 57 43
66 55 42
63 52 41
59 50 40
56 48 39
56 48 39
56 48 39
56 48 39
56 48 39
56 48 39
56 48 39
56 48 39
56 48 39
56 48 39
56 48 39
56 48 39
56 48 39
56 48 39
56 48 39
56 48 39
56 48 39
0 0 0
0 0 0
0 0 0
0 0 0
0 0 0
0 0 0
0 0 0
0 0 0
0 0 0
0 0 0
0 0 0
0 0 0
0 0 0
0 0 0
0 0 0
0 0 0
0 0 0
0 0 0
0 0 0
0 0 0
0 0 0
0 0 0
0 0 0
0 0 0
0 0 0
0 0 0
0 0 0
0 0 0
0 0 0
0 0 0
0 0 0
0 0 0
0 0 0
0 0 0
0 0 0
0 0 0
0 0 0
0 0 0
0 0 0
0 0 0
0 0 0
0 0 0
0 0 0
0 0 0
0 0 0
0 0 0
0 0 0
0 0 0
0 0 0
0 0 0
0 0 0
0 0 0
0 0 0
0 0 0
0 0 0
0 0 0
0 0 0
0 0 0
0 0 0
0 0 0
0 0 0
0 0 0
0 0 0
0 0 0
0 0 0
0 0 0
0 0 0
0 0 0
0 0 0
0 0 0
0 0 0
0 0 0
0 0 0
0 0 0
0 0 0
0 0 0
0 0 0
0 0 0
0 0 0
0 0 0
0 0 0
0 0 0
0 0 0
0 0 0
0 0 0
0 0 0
0 0 0
0 0 0
0 0 0
0 0 0
0 0 0
0 0 0
0 0 0
0 0 0
0 0 0
0 0 0
0 0 0
0 0 0
0 0 0
0 0 0
0 0 0
0 0 0
0 0 0
0 0 0
0 0 0
0 0 0
0 0 0
0 0 0
0 0 0
0 0 0
0 0 0
0 0 0
0 0 0
0 0 0
0 0 0
0 0 0
0 0 0
0 0 0
0 0 0
0 0 0
0 0 0
0 0 0
0 0 0
0 0 0
0 0 0
0 0 0
0 0 0
0 0 0
0 0 0
0 0 0
0 0 0
0 0 0
0 0 0
0 0 0
0 0 0
0 0 0
0 0 0
0 0 0
0 0 0
0 0 0
0 0 0
0 0 0
0 0 0
0 0 0
0 0 0
0 0 0
0 0 0
0 0 0
0 0 0
0 0 0
0 0 0
0 0 0
0 0 0
0 0 0
0 0 0
0 0 0
0 0 0
0 0 0
0 0 0
0 0 0
0 0 0
0 0 0
0 0 0
0 0 0
0 0 0
0 0 0
0 0 0
0 0 0
0 0 0
0 0 0
0 0 0
0 0 0
0 0 0
0 0 0
0 0 0
0 0 0
0 0 0
0 0 0
0 0 0
0 0 0
0 0 0
0 0 0
0 0 0
0 0 0
0 0 0
0 0 0
0 0 0
0 0 0
0 0 0
0 0 0
0 0 0
0 0 0
0 0 0
0 0 0
0 0 0
0 0 0
0 0 0
0 0 0
0 0 0
0 0 0
0 0 0
0 0 0
0 0 0
0 0 0
0 0 0
0 0 0
0 0 0
0 0 0
0 0 0
0 0 0
0 0 0
0 0 0
0 0 0
0 0 0
0 0 0
0 0 0
0 0 0
0 0 0
0 0 0
0 0 0
0 0 0
0 0 0
0 0 0
0 0 0
0 0 0
0 0 0
0 0 0
0 0 0
0 0 0
0 0 0
0 0 0
0 0 0
0 0 0
0 0 0
0 0 0
0 0 0
0 0 0
0 0 0
0 0 0
0 0 0
0 0 0
0 0 0
0 0 0
0 0 0
0 0 0
0 0 0
0 0 0
0 0 0
0 0 0
0 0 0
0 0 0
0 0 0
0 0 0
0 0 0
0 0 0
0 0 0
0 0 0
0 0 0
0 0 0
0 0 0
0 0 0
0 0 0
0 0 0
0 0 0
0 0 0
0 0 0
0 0 0
0 0 0
0 0 0
0 0 0
0 0 0
0 0 0
0 0 0
0 0 0
0 0 0
0 0 0
0 0 0
0 0 0
0 0 0
0 0 0
0 0 0
0 0 0
0 0 0
0 0 0
0 0 0
0 0 0
0 0 0
0 0 0
0 0 0
0 0 0
0 0 0
0 0 0
0 0 0
0 0 0
0 0 0
0 0 0
0 0 0
0 0 0
0 0 0
0 0 0
0 0 0
0 0 0
0 0 0
0 0 0
0 0 0
0 0 0
0 0 0
0 0 0
0 0 0
0 0 0
0 0 0
0 0 0
0 0 0
0 0 0
0 0 0
0 0 0
0 0 0
0 0 0
0 0 0
0 0 0
0 0 0
0 0 0
0 0 0
0 0 0
0 0 0
0 0 0
0 0 0
0 0 0
0 0 0
0 0 0
0 0 0
0 0 0
0 0 0
0 0 0
0 0 0
0 0 0
0 0 0
0 0 0
0 0 0
0 0 0
0 0 0
0 0 0
0 0 0
0 0 0
0 0 0
0 0 0
0 0 0
0 0 0
0 0 0
0 0 0
0 0 0
0 0 0
0 0 0
0 0 0
0 0 0
0 0 0
0 0 0
0 0 0
0 0 0
0 0 0
0 0 0
0 0 0
0 0 0
0 0 0
0 0 0
0 0 0
0 0 0
0 0 0
0 0 0
0 0 0
0 0 0
0 0 0
0 0 0
0 0 0
0 0 0
0 0 0
0 0 0
0 0 0
0 0 0
0 0 0
0 0 0
0 0 0
0 0 0
0 0 0
0 0 0
0 0 0
0 0 0
0 0 0
0 0 0
0 0 0
0 0 0
0 0 0
0 0 0
0 0 0
0 0 0
0 0 0
0 0 0
0 0 0
0 0 0
0 0 0
0 0 0
0 0 0
0 0 0
0 0 0
0 0 0
0 0 0
0 0 0
0 0 0
0 0 0
0 0 0
0 0 0
0 0 0
0 0 0
0 0 0
0 0 0
0 0 0
0 0 0
0 0 0
0 0 0
0 0 0
0 0 0
0 0 0
0 0 0
0 0 0
0 0 0
0 0 0
0 0 0
0 0 0
0 0 0
0 0 0
0 0 0
0 0 0
0 0 0
0 0 0
0 0 0
0 0 0
0 0 0
0 0 0
0 0 0
0 0 0
0 0 0
0 0 0
0 0 0
0 0 0
0 0 0
0 0 0
0 0 0
0 0 0
0 0 0
0 0 0
0 0 0
0 0 0
0 0 0
0 0 0
0 0 0
0 0 0
0 0 0
0 0 0
0 0 0
0 0 0
0 0 0
0 0 0
0 0 0
0 0 0
0 0 0
0 0 0
0 0 0
0 0 0
0 0 0
0 0 0
0 0 0
0 0 0
0 0 0
0 0 0
0 0 0
0 0 0
0 0 0
0 0 0
0 0 0
0 0 0
0 0 0
0 0 0
0 0 0
0 0 0
0 0 0
0 0 0
0 0 0
0 0 0
0 0 0
0 0 0
0 0 0
0 0 0
0 0 0
0 0 0
0 0 0
0 0 0
0 0 0
0 0 0
0 0 0
0 0 0
0 0 0
0 0 0
0 0 0
0 0 0
0 0 0
0 0 0
0 0 0
0 0 0
0 0 0
0 0 0
0 0 0
0 0 0
0 0 0
0 0 0
0 0 0
0 0 0
0 0 0
0 0 0
0 0 0
0 0 0
0 0 0
0 0 0
0 0 0
0 0 0
0 0 0
0 0 0
0 0 0
0 0 0
0 0 0
0 0 0
0 0 0
0 0 0
0 0 0
0 0 0
0 0 0
0 0 0
0 0 0
0 0 0
0 0 0
0 0 0
0 0 0
0 0 0
0 0 0
0 0 0
0 0 0
0 0 0
0 0 0
0 0 0
0 0 0
0 0 0
0 0 0
0 0 0
0 0 0
0 0 0
0 0 0
0 0 0
0 0 0
0 0 0
0 0 0
0 0 0
0 0 0
0 0 0
0 0 0
0 0 0
0 0 0
0 0 0
0 0 0
0 0 0
0 0 0
0 0 0
0 0 0
0 0 0
0 0 0
0 0 0
0 0 0
0 0 0
0 0 0
0 0 0
0 0 0
0 0 0
0 0 0
0 0 0
0 0 0
0 0 0
0 0 0
0 0 0
0 0 0
0 0 0
0 0 0
0 0 0
0 0 0
0 0 0
0 0 0
0 0 0
0 0 0
0 0 0
0 0 0
0 0 0
0 0 0
0 0 0
0 0 0
0 0 0
0 0 0
0 0 0
0 0 0
0 0 0
0 0 0
0 0 0
0 0 0
0 0 0
0 0 0
0 0 0
0 0 0
0 0 0
0 0 0
0 0 0
0 0 0
0 0 0
0 0 0
0 0 0
0 0 0
0 0 0
0 0 0
0 0 0
0 0 0
0 0 0
0 0 0
0 0 0
0 0 0
0 0 0
0 0 0
0 0 0
0 0 0
0 0 0
0 0 0
0 0 0
0 0 0
0 0 0
0 0 0
0 0 0
0 0 0
0 0 0
0 0 0
0 0 0
0 0 0
0 0 0
0 0 0
0 0 0
0 0 0
0 0 0
0 0 0
0 0 0
0 0 0
0 0 0
0 0 0
0 0 0
0 0 0
0 0 0
0 0 0
0 0 0
0 0 0
0 0 0
0 0 0
0 0 0
0 0 0
0 0 0
0 0 0
0 0 0
0 0 0
0 0 0
0 0 0
0 0 0
0 0 0
0 0 0
0 0 0
0 0 0
0 0 0
0 0 0
0 0 0
0 0 0
0 0 0
0 0 0
0 0 0
0 0 0
0 0 0
0 0 0
0 0 0
0 0 0
0 0 0
0 0 0
0 0 0
0 0 0
0 0 0
0 0 0
0 0 0
0 0 0
0 0 0
0 0 0
0 0 0
0 0 0
0 0 0
0 0 0
0 0 0
0 0 0
0 0 0
0 0 0
0 0 0
0 0 0
0 0 0
0 0 0
0 0 0
0 0 0
0 0 0
0 0 0
0 0 0
0 0 0
0 0 0
0 0 0
0 0 0
0 0 0
0 0 0
0 0 0
0 0 0
0 0 0
0 0 0
0 0 0
0 0 0
0 0 0
0 0 0
0 0 0
0 0 0
0 0 0
0 0 0
0 0 0
0 0 0
0 0 0
0 0 0
0 0 0
0 0 0
0 0 0
0 0 0
0 0 0
0 0 0
0 0 0
0 0 0
0 0 0
0 0 0
0 0 0
0 0 0
0 0 0
0 0 0
0 0 0
0 0 0
0 0 0
0 0 0
0 0 0
0 0 0
0 0 0
0 0 0
0 0 0
0 0 0
0 0 0
0 0 0
0 0 0
0 0 0
0 0 0
0 0 0
0 0 0
0 0 0
0 0 0
0 0 0
0 0 0
0 0 0
0 0 0
0 0 0
0 0 0
0 0 0
0 0 0
0 0 0
0 0 0
0 0 0
0 0 0
0 0 0
0 0 0
0 0 0
0 0 0
0 0 0
0 0 0
0 0 0
0 0 0
0 0 0
0 0 0
0 0 0
0 0 0
0 0 0
0 0 0
0 0 0
0 0 0
0 0 0
0 0 0
0 0 0
0 0 0
0 0 0
0 0 0
0 0 0
0 0 0
0 0 0
0 0 0
0 0 0
0 0 0
0 0 0
0 0 0
0 0 0
0 0 0
0 0 0
0 0 0
0 0 0
0 0 0
0 0 0
0 0 0
0 0 0
0 0 0
0 0 0
0 0 0
0 0 0
0 0 0
0 0 0
0 0 0
0 0 0
0 0 0
0 0 0
0 0 0
0 0 0
0 0 0
0 0 0
0 0 0
0 0 0
0 0 0
0 0 0
0 0 0
0 0 0
0 0 0
0 0 0
0 0 0
0 0 0
0 0 0
0 0 0
0 0 0
0 0 0
0 0 0
0 0 0
0 0 0
0 0 0
0 0 0
0 0 0
0 0 0
0 0 0
0 0 0
0 0 0
0 0 0
0 0 0
0 0 0
0 0 0
0 0 0
0 0 0
0 0 0
0 0 0
0 0 0
0 0 0
0 0 0
0 0 0
0 0 0
0 0 0
0 0 0
0 0 0
0 0 0
0 0 0
0 0 0
0 0 0
0 0 0
0 0 0
0 0 0
0 0 0
0 0 0
0 0 0
0 0 0
0 0 0
0 0 0
0 0 0
0 0 0
0 0 0
0 0 0
0 0 0
0 0 0
0 0 0
0 0 0
0 0 0
0 0 0
0 0 0
0 0 0
0 0 0
0 0 0
0 0 0
0 0 0
0 0 0
0 0 0
0 0 0
0 0 0
0 0 0
0 0 0
0 0 0
0 0 0
0 0 0
0 0 0
0 0 0
0 0 0
0 0 0
0 0 0
0 0 0
0 0 0
0 0 0
0 0 0
0 0 0
0 0 0
0 0 0
0 0 0
0 0 0
0 0 0
0 0 0
0 0 0
0 0 0
0 0 0
0 0 0
0 0 0
0 0 0
0 0 0
0 0 0
0 0 0
0 0 0
0 0 0
0 0 0
0 0 0
0 0 0
0 0 0
0 0 0
0 0 0
0 0 0
0 0 0
0 0 0
0 0 0
0 0 0
0 0 0
0 0 0
0 0 0
0 0 0
0 0 0
0 0 0
0 0 0
0 0 0
0 0 0
0 0 0
0 0 0
0 0 0
0 0 0
0 0 0
0 0 0
0 0 0
0 0 0
0 0 0
0 0 0
0 0 0
0 0 0
0 0 0
0 0 0
0 0 0
0 0 0
0 0 0
0 0 0
0 0 0
0 0 0
0 0 0
0 0 0
0 0 0
0 0 0
0 0 0
0 0 0
0 0 0
0 0 0
0 0 0
0 0 0
0 0 0
0 0 0
0 0 0
0 0 0
0 0 0
0 0 0
0 0 0
0 0 0
0 0 0
0 0 0
0 0 0
0 0 0
0 0 0
0 0 0
0 0 0
0 0 0
0 0 0
0 0 0
0 0 0
0 0 0
0 0 0
0 0 0
0 0 0
0 0 0
0 0 0
0 0 0
0 0 0
0 0 0
0 0 0
0 0 0
0 0 0
0 0 0
0 0 0
0 0 0
0 0 0
0 0 0
0 0 0
0 0 0
0 0 0
0 0 0
0 0 0
0 0 0
0 0 0
0 0 0
0 0 0
0 0 0
0 0 0
0 0 0
0 0 0
0 0 0
0 0 0
0 0 0
0 0 0
0 0 0
0 0 0
0 0 0
0 0 0
0 0 0
0 0 0
0 0 0
0 0 0
0 0 0
0 0 0
0 0 0
0 0 0
0 0 0
0 0 0
0 0 0
0 0 0
0 0 0
0 0 0
0 0 0
0 0 0
0 0 0
0 0 0
0 0 0
0 0 0
0 0 0
0 0 0
0 0 0
0 0 0
0 0 0
0 0 0
0 0 0
0 0 0
0 0 0
0 0 0
0 0 0
0 0 0
0 0 0
0 0 0
0 0 0
0 0 0
0 0 0
0 0 0
0 0 0
0 0 0
0 0 0
0 0 0
0 0 0
0 0 0
0 0 0
0 0 0
0 0 0
0 0 0
0 0 0
0 0 0
0 0 0
0 0 0
0 0 0
0 0 0
0 0 0
0 0 0
0 0 0
0 0 0
0 0 0
0 0 0
0 0 0
0 0 0
0 0 0
0 0 0
0 0 0
0 0 0
0 0 0
0 0 0
0 0 0
0 0 0
0 0 0
0 0 0
0 0 0
0 0 0
0 0 0
0 0 0
0 0 0
0 0 0
0 0 0
0 0 0
0 0 0
0 0 0
0 0 0
0 0 0
0 0 0
0 0 0
0 0 0
0 0 0
0 0 0
0 0 0
0 0 0
0 0 0
0 0 0
0 0 0
0 0 0
0 0 0
0 0 0
0 0 0
0 0 0
0 0 0
0 0 0
0 0 0
0 0 0
0 0 0
0 0 0
0 0 0
0 0 0
0 0 0
0 0 0
0 0 0
0 0 0
0 0 0
0 0 0
0 0 0
0 0 0
0 0 0
0 0 0
0 0 0
0 0 0
0 0 0
0 0 0
0 0 0
0 0 0
0 0 0
0 0 0
0 0 0
0 0 0
0 0 0
0 0 0
0 0 0
0 0 0
0 0 0
0 0 0
0 0 0
0 0 0
0 0 0
0 0 0
0 0 0
0 0 0
0 0 0
0 0 0
0 0 0
0 0 0
0 0 0
0 0 0
0 0 0
0 0 0
0 0 0
0 0 0
0 0 0
0 0 0
0 0 0
0 0 0
0 0 0
0 0 0
0 0 0
0 0 0
0 0 0
0 0 0
0 0 0
0 0 0
0 0 0
0 0 0
0 0 0
0 0 0
0 0 0
0 0 0
0 0 0
0 0 0
0 0 0
0 0 0
0 0 0
0 0 0
0 0 0
0 0 0
0 0 0
0 0 0
0 0 0
0 0 0
0 0 0
0 0 0
0 0 0
0 0 0
0 0 0
0 0 0
0 0 0
0 0 0
0 0 0
0 0 0
0 0 0
0 0 0
0 0 0
0 0 0
0 0 0
0 0 0
0 0 0
0 0 0
0 0 0
0 0 0
0 0 0
0 0 0
0 0 0
0 0 0
0 0 0
0 0 0
0 0 0
0 0 0
0 0 0
0 0 0
0 0 0
0 0 0
0 0 0
0 0 0
0 0 0
0 0 0
0 0 0
0 0 0
0 0 0
0 0 0
0 0 0
0 0 0
0 0 0
0 0 0
0 0 0
0 0 0
0 0 0
0 0 0
0 0 0
0 0 0
0 0 0
0 0 0
0 0 0
0 0 0
0 0 0
0 0 0
0 0 0
0 0 0
0 0 0
0 0 0
0 0 0
0 0 0
0 0 0
0 0 0
0 0 0
0 0 0
0 0 0
0 0 0
0 0 0
0 0 0
0 0 0
0 0 0
0 0 0
0 0 0
0 0 0
0 0 0
0 0 0
0 0 0
0 0 0
0 0 0
0 0 0
0 0 0
0 0 0
0 0 0
0 0 0
0 0 0
0 0 0
0 0 0
0 0 0
0 0 0
0 0 0
0 0 0
0 0 0
0 0 0
0 0 0
0 0 0
0 0 0
0 0 0
0 0 0
0 0 0
0 0 0
0 0 0
0 0 0
0 0 0
0 0 0
0 0 0
0 0 0
0 0 0
0 0 0
0 0 0
0 0 0
0 0 0
0 0 0
0 0 0
0 0 0
0 0 0
0 0 0
0 0 0
0 0 0
0 0 0
0 0 0
0 0 0
0 0 0
0 0 0
0 0 0
0 0 0
0 0 0
0 0 0
0 0 0
0 0 0
0 0 0
0 0 0
0 0 0
0 0 0
0 0 0
0 0 0
0 0 0
0 0 0
0 0 0
0 0 0
0 0 0
0 0 0
0 0 0
0 0 0
0 0 0
0 0 0
0 0 0
0 0 0
0 0 0
0 0 0
0 0 0
0 0 0
0 0 0
0 0 0
0 0 0
0 0 0
0 0 0
0 0 0
0 0 0
0 0 0
0 0 0
0 0 0
0 0 0
0 0 0
0 0 0
0 0 0
0 0 0
0 0 0
0 0 0
0 0 0
0 0 0
0 0 0
0 0 0
0 0 0
0 0 0
0 0 0
0 0 0
0 0 0
0 0 0
0 0 0
0 0 0
0 0 0
0 0 0
0 0 0
0 0 0
0 0 0
0 0 0
0 0 0
0 0 0
0 0 0
0 0 0
0 0 0
0 0 0
0 0 0
0 0 0
0 0 0
0 0 0
0 0 0
0 0 0
0 0 0
0 0 0
0 0 0
0 0 0
0 0 0
0 0 0
0 0 0
0 0 0
0 0 0
0 0 0
0 0 0
0 0 0
0 0 0
0 0 0
0 0 0
0 0 0
0 0 0
0 0 0
0 0 0
0 0 0
0 0 0
0 0 0
0 0 0
0 0 0
0 0 0
0 0 0
0 0 0
0 0 0
0 0 0
0 0 0
0 0 0
0 0 0
0 0 0
0 0 0
0 0 0
0 0 0
0 0 0
0 0 0
0 0 0
0 0 0
0 0 0
0 0 0
0 0 0
0 0 0
0 0 0
0 0 0
0 0 0
0 0 0
0 0 0
0 0 0
0 0 0
0 0 0
0 0 0
0 0 0
0 0 0
0 0 0
0 0 0
0 0 0
0 0 0
0 0 0
0 0 0
0 0 0
0 0 0
0 0 0
0 0 0
0 0 0
0 0 0
0 0 0
0 0 0
0 0 0
0 0 0
0 0 0
0 0 0
0 0 0
0 0 0
0 0 0
0 0 0
0 0 0
0 0 0
0 0 0
0 0 0
0 0 0
0 0 0
0 0 0
0 0 0
0 0 0
0 0 0
0 0 0
0 0 0
0 0 0
0 0 0
0 0 0
0 0 0
0 0 0
0 0 0
0 0 0
0 0 0
0 0 0
0 0 0
0 0 0
0 0 0
0 0 0
0 0 0
0 0 0
0 0 0
0 0 0
0 0 0
0 0 0
0 0 0
0 0 0
0 0 0
0 0 0
0 0 0
0 0 0
0 0 0
0 0 0
0 0 0
0 0 0
0 0 0
0 0 0
0 0 0
0 0 0
0 0 0
0 0 0
0 0 0
0 0 0
0 0 0
0 0 0
0 0 0
0 0 0
0 0 0
0 0 0
0 0 0
0 0 0
0 0 0
0 0 0
0 0 0
0 0 0
0 0 0
0 0 0
0 0 0
0 0 0
0 0 0
0 0 0
0 0 0
0 0 0
0 0 0
0 0 0
0 0 0
0 0 0
0 0 0
0 0 0
0 0 0
0 0 0
0 0 0
0 0 0
0 0 0
0 0 0
0 0 0
0 0 0
0 0 0
0 0 0
0 0 0
0 0 0
0 0 0
0 0 0
0 0 0
0 0 0
0 0 0
0 0 0
0 0 0
0 0 0
0 0 0
0 0 0
0 0 0
0 0 0
0 0 0
0 0 0
0 0 0
0 0 0
0 0 0
0 0 0
0 0 0
0 0 0
0 0 0
0 0 0
0 0 0
0 0 0
0 0 0
0 0 0
0 0 0
0 0 0
0 0 0
0 0 0
0 0 0
0 0 0
0 0 0
0 0 0
0 0 0
0 0 0
0 0 0
0 0 0
0 0 0
0 0 0
0 0 0
0 0 0
0 0 0
0 0 0
0 0 0
0 0 0
0 0 0
0 0 0
0 0 0
0 0 0
0 0 0
0 0 0
0 0 0
0 0 0
0 0 0
0 0 0
0 0 0
0 0 0
0 0 0
0 0 0
0 0 0
0 0 0
0 0 0
0 0 0
0 0 0
0 0 0
0 0 0
0 0 0
0 0 0
0 0 0
0 0 0
0 0 0
0 0 0
0 0 0
0 0 0
0 0 0
0 0 0
0 0 0
0 0 0
0 0 0
0 0 0
0 0 0
0 0 0
0 0 0
0 0 0
0 0 0
0 0 0
0 0 0
0 0 0
0 0 0
0 0 0
0 0 0
0 0 0
0 0 0
0 0 0
0 0 0
0 0 0
0 0 0
0 0 0
0 0 0
0 0 0
0 0 0
0 0 0
0 0 0
0 0 0
0 0 0
0 0 0
0 0 0
0 0 0
0 0 0
0 0 0
0 0 0
0 0 0
0 0 0
0 0 0
0 0 0
0 0 0
0 0 0
0 0 0
0 0 0
0 0 0
0 0 0
0 0 0
0 0 0
0 0 0
0 0 0
0 0 0
0 0 0
0 0 0
0 0 0
0 0 0
0 0 0
0 0 0
0 0 0
0 0 0
0 0 0
0 0 0
0 0 0
0 0 0
0 0 0
0 0 0
0 0 0
0 0 0
0 0 0
0 0 0
0 0 0
0 0 0
0 0 0
0 0 0
0 0 0
0 0 0
0 0 0
0 0 0
0 0 0
0 0 0
0 0 0
0 0 0
0 0 0
0 0 0
0 0 0
0 0 0
0 0 0
0 0 0
0 0 0
0 0 0
0 0 0
0 0 0
0 0 0
0 0 0
0 0 0
0 0 0
0 0 0
0 0 0
0 0 0
0 0 0
0 0 0
0 0 0
0 0 0
0 0 0
0 0 0
0 0 0
0 0 0
0 0 0
0 0 0
0 0 0
0 0 0
0 0 0
0 0 0
0 0 0
0 0 0
0 0 0
0 0 0
0 0 0
0 0 0
0 0 0
0 0 0
0 0 0
0 0 0
0 0 0
0 0 0
0 0 0
0 0 0
0 0 0
0 0 0
0 0 0
0 0 0
0 0 0
0 0 0
0 0 0
0 0 0
0 0 0
0 0 0
0 0 0
0 0 0
0 0 0
0 0 0
0 0 0
0 0 0
0 0 0
0 0 0
0 0 0
0 0 0
0 0 0
0 0 0
0 0 0
0 0 0
0 0 0
0 0 0
0 0 0
0 0 0
0 0 0
0 0 0
0 0 0
0 0 0
0 0 0
0 0 0
0 0 0
0 0 0
0 0 0
0 0 0
0 0 0
0 0 0
0 0 0
0 0 0
0 0 0
0 0 0
0 0 0
0 0 0
0 0 0
0 0 0
0 0 0
0 0 0
0 0 0
0 0 0
0 0 0
0 0 0
0 0 0
0 0 0
0 0 0
0 0 0
0 0 0
0 0 0
0 0 0
0 0 0
0 0 0
0 0 0
0 0 0
0 0 0
0 0 0
0 0 0
0 0 0
0 0 0
0 0 0
0 0 0
0 0 0
0 0 0
0 0 0
0 0 0
0 0 0
0 0 0
0 0 0
0 0 0
0 0 0
0 0 0
0 0 0
0 0 0
0 0 0
0 0 0
0 0 0
0 0 0
0 0 0
0 0 0
0 0 0
0 0 0
0 0 0
0 0 0
0 0 0
0 0 0
0 0 0
0 0 0
0 0 0
0 0 0
0 0 0
0 0 0
0 0 0
0 0 0
0 0 0
0 0 0
0 0 0
0 0 0
0 0 0
0 0 0
0 0 0
0 0 0
0 0 0
0 0 0
0 0 0
0 0 0
0 0 0
0 0 0
0 0 0
0 0 0
0 0 0
0 0 0
0 0 0
0 0 0
0 0 0
0 0 0
0 0 0
0 0 0
0 0 0
0 0 0
0 0 0
0 0 0
0 0 0
0 0 0
0 0 0
0 0 0
0 0 0
0 0 0
0 0 0
0 0 0
0 0 0
0 0 0
0 0 0
0 0 0
0 0 0
0 0 0
0 0 0
0 0 0
0 0 0
0 0 0
0 0 0
0 0 0
0 0 0
0 0 0
0 0 0
0 0 0
0 0 0
0 0 0
0 0 0
0 0 0
0 0 0
0 0 0
0 0 0
0 0 0
0 0 0
0 0 0
0 0 0
0 0 0
0 0 0
0 0 0
0 0 0
0 0 0
0 0 0
0 0 0
0 0 0
0 0 0
0 0 0
0 0 0
0 0 0
0 0 0
0 0 0
0 0 0
0 0 0
0 0 0
0 0 0
0 0 0
0 0 0
0 0 0
0 0 0
0 0 0
0 0 0
0 0 0
0 0 0
0 0 0
0 0 0
0 0 0
0 0 0
0 0 0
0 0 0
0 0 0
0 0 0
0 0 0
0 0 0
0 0 0
0 0 0
0 0 0
0 0 0
0 0 0
0 0 0
0 0 0
0 0 0
0 0 0
0 0 0
0 0 0
0 0 0
0 0 0
0 0 0
0 0 0
0 0 0
0 0 0
0 0 0
0 0 0
0 0 0
0 0 0
0 0 0
0 0 0
0 0 0
0 0 0
0 0 0
0 0 0
0 0 0
0 0 0
0 0 0
0 0 0
0 0 0
0 0 0
0 0 0
0 0 0
0 0 0
0 0 0
0 0 0
0 0 0
0 0 0
0 0 0
0 0 0
0 0 0
0 0 0
0 0 0
0 0 0
0 0 0
0 0 0
0 0 0
0 0 0
0 0 0
0 0 0
0 0 0
0 0 0
0 0 0
0 0 0
0 0 0
0 0 0
0 0 0
0 0 0
0 0 0
0 0 0
0 0 0
0 0 0
0 0 0
0 0 0
0 0 0
0 0 0
0 0 0
0 0 0
0 0 0
0 0 0
0 0 0
0 0 0
0 0 0
0 0 0
0 0 0
0 0 0
0 0 0
0 0 0
0 0 0
0 0 0
0 0 0
0 0 0
0 0 0
0 0 0
0 0 0
0 0 0
0 0 0
0 0 0
0 0 0
0 0 0
0 0 0
0 0 0
0 0 0
0 0 0
0 0 0
0 0 0
0 0 0
0 0 0
0 0 0
0 0 0
0 0 0
0 0 0
0 0 0
0 0 0
0 0 0
0 0 0
0 0 0
0 0 0
0 0 0
0 0 0
0 0 0
0 0 0
0 0 0
0 0 0
0 0 0
0 0 0
0 0 0
0 0 0
0 0 0
0 0 0
0 0 0
0 0 0
0 0 0
0 0 0
0 0 0
0 0 0
0 0 0
0 0 0
0 0 0
0 0 0
0 0 0
0 0 0
0 0 0
0 0 0
0 0 0
0 0 0
0 0 0
0 0 0
0 0 0
0 0 0
0 0 0
0 0 0
0 0 0
0 0 0
0 0 0
0 0 0
0 0 0
0 0 0
0 0 0
0 0 0
0 0 0
0 0 0
0 0 0
0 0 0
0 0 0
0 0 0
0 0 0
0 0 0
0 0 0
0 0 0
0 0 0
0 0 0
0 0 0
0 0 0
0 0 0
0 0 0
0 0 0
0 0 0
0 0 0
0 0 0
0 0 0
0 0 0
0 0 0
0 0 0
0 0 0
0 0 0
0 0 0
0 0 0
0 0 0
0 0 0
0 0 0
0 0 0
0 0 0
0 0 0
0 0 0
0 0 0
0 0 0
0 0 0
0 0 0
0 0 0
0 0 0
0 0 0
0 0 0
0 0 0
0 0 0
0 0 0
0 0 0
0 0 0
0 0 0
0 0 0
0 0 0
0 0 0
0 0 0
0 0 0
0 0 0
0 0 0
0 0 0
0 0 0
0 0 0
0 0 0
0 0 0
0 0 0
0 0 0
0 0 0
0 0 0
0 0 0
0 0 0
0 0 0
0 0 0
0 0 0
0 0 0
0 0 0
0 0 0
0 0 0
0 0 0
0 0 0
0 0 0
0 0 0
0 0 0
0 0 0
0 0 0
0 0 0
0 0 0
0 0 0
0 0 0
0 0 0
0 0 0
0 0 0
0 0 0
0 0 0
0 0 0
0 0 0
0 0 0
0 0 0
0 0 0
0 0 0
0 0 0
0 0 0
0 0 0
0 0 0
0 0 0
0 0 0
0 0 0
0 0 0
0 0 0
0 0 0
0 0 0
0 0 0
0 0 0
0 0 0
0 0 0
0 0 0
0 0 0
0 0 0
0 0 0
0 0 0
0 0 0
0 0 0
0 0 0
0 0 0
0 0 0
0 0 0
0 0 0
0 0 0
0 0 0
0 0 0
0 0 0
0 0 0
0 0 0
0 0 0
0 0 0
0 0 0
0 0 0
0 0 0
0 0 0
0 0 0
0 0 0
0 0 0
0 0 0
0 0 0
0 0 0
0 0 0
0 0 0
0 0 0
0 0 0
0 0 0
0 0 0
0 0 0
0 0 0
0 0 0
0 0 0
0 0 0
0 0 0
0 0 0
0 0 0
0 0 0
0 0 0
0 0 0
0 0 0
0 0 0
0 0 0
0 0 0
0 0 0
0 0 0
0 0 0
0 0 0
0 0 0
0 0 0
0 0 0
0 0 0
0 0 0
0 0 0
0 0 0
0 0 0
0 0 0
0 0 0
0 0 0
0 0 0
0 0 0
0 0 0
0 0 0
0 0 0
0 0 0
0 0 0
0 0 0
0 0 0
0 0 0
0 0 0
0 0 0
0 0 0
0 0 0
0 0 0
0 0 0
0 0 0
0 0 0
0 0 0
0 0 0
0 0 0
0 0 0
0 0 0
0 0 0
0 0 0
0 0 0
0 0 0
0 0 0
0 0 0
0 0 0
0 0 0
0 0 0
0 0 0
0 0 0
0 0 0
0 0 0
0 0 0
0 0 0
0 0 0
0 0 0
0 0 0
0 0 0
0 0 0
0 0 0
0 0 0
0 0 0
0 0 0
0 0 0
0 0 0
0 0 0
0 0 0
0 0 0
0 0 0
0 0 0
0 0 0
0 0 0
0 0 0
0 0 0
0 0 0
0 0 0
0 0 0
0 0 0
0 0 0
0 0 0
0 0 0
0 0 0
0 0 0
0 0 0
0 0 0
0 0 0
0 0 0
0 0 0
0 0 0
0 0 0
0 0 0
0 0 0
0 0 0
0 0 0
0 0 0
0 0 0
0 0 0
0 0 0
0 0 0
0 0 0
0 0 0
0 0 0
0 0 0
0 0 0
0 0 0
0 0 0
0 0 0
0 0 0
0 0 0
0 0 0
0 0 0
0 0 0
0 0 0
0 0 0
0 0 0
0 0 0
0 0 0
0 0 0
0 0 0
0 0 0
0 0 0
0 0 0
0 0 0
0 0 0
0 0 0
0 0 0
0 0 0
0 0 0
0 0 0
0 0 0
0 0 0
0 0 0
0 0 0
0 0 0
0 0 0
0 0 0
0 0 0
0 0 0
0 0 0
0 0 0
0 0 0
0 0 0
0 0 0
0 0 0
0 0 0
0 0 0
0 0 0
0 0 0
0 0 0
0 0 0
0 0 0
0 0 0
0 0 0
0 0 0
0 0 0
0 0 0
0 0 0
0 0 0
0 0 0
0 0 0
0 0 0
0 0 0
0 0 0
0 0 0
0 0 0
0 0 0
0 0 0
0 0 0
0 0 0
0 0 0
0 0 0
0 0 0
0 0 0
0 0 0
0 0 0
0 0 0
0 0 0
0 0 0
0 0 0
0 0 0
0 0 0
0 0 0
0 0 0
0 0 0
0 0 0
0 0 0
0 0 0
0 0 0
0 0 0
0 0 0
0 0 0
0 0 0
0 0 0
0 0 0
0 0 0
0 0 0
0 0 0
0 0 0
0 0 0
0 0 0
0 0 0
0 0 0
0 0 0
0 0 0
0 0 0
0 0 0
0 0 0
0 0 0
0 0 0
0 0 0
0 0 0
0 0 0
0 0 0
0 0 0
0 0 0
0 0 0
0 0 0
0 0 0
0 0 0
0 0 0
0 0 0
0 0 0
0 0 0
0 0 0
0 0 0
0 0 0
0 0 0
0 0 0
0 0 0
0 0 0
0 0 0
0 0 0
0 0 0
0 0 0
0 0 0
0 0 0
0 0 0
0 0 0
0 0 0
0 0 0
0 0 0
0 0 0
0 0 0
0 0 0
0 0 0
0 0 0
0 0 0
0 0 0
0 0 0
0 0 0
0 0 0
0 0 0
0 0 0
0 0 0
0 0 0
0 0 0
0 0 0
0 0 0
0 0 0
0 0 0
0 0 0
0 0 0
0 0 0
0 0 0
0 0 0
0 0 0
0 0 0
0 0 0
0 0 0
0 0 0
0 0 0
0 0 0
0 0 0
0 0 0
0 0 0
0 0 0
0 0 0
0 0 0
0 0 0
0 0 0
0 0 0
0 0 0
0 0 0
0 0 0
0 0 0
0 0 0
0 0 0
0 0 0
0 0 0
0 0 0
0 0 0
0 0 0
0 0 0
0 0 0
0 0 0
0 0 0
0 0 0
0 0 0
0 0 0
0 0 0
0 0 0
0 0 0
0 0 0
0 0 0
0 0 0
0 0 0
0 0 0
0 0 0
0 0 0
0 0 0
0 0 0
0 0 0
0 0 0
0 0 0
0 0 0
0 0 0
0 0 0
0 0 0
0 0 0
0 0 0
0 0 0
0 0 0
0 0 0
0 0 0
0 0 0
0 0 0
0 0 0
0 0 0
0 0 0
0 0 0
0 0 0
0 0 0
0 0 0
0 0 0
0 0 0
0 0 0
0 0 0
0 0 0
0 0 0
0 0 0
0 0 0
0 0 0
0 0 0
0 0 0
0 0 0
0 0 0
0 0 0
0 0 0
0 0 0
0 0 0
0 0 0
0 0 0
0 0 0
0 0 0
0 0 0
0 0 0
0 0 0
0 0 0
0 0 0
0 0 0
0 0 0
0 0 0
0 0 0
0 0 0
0 0 0
0 0 0
0 0 0
0 0 0
0 0 0
0 0 0
0 0 0
0 0 0
0 0 0
0 0 0
0 0 0
0 0 0
0 0 0
0 0 0
0 0 0
0 0 0
0 0 0
0 0 0
0 0 0
0 0 0
0 0 0
0 0 0
0 0 0
0 0 0
0 0 0
0 0 0
0 0 0
0 0 0
0 0 0
0 0 0
0 0 0
0 0 0
0 0 0
0 0 0
0 0 0
0 0 0
0 0 0
0 0 0
0 0 0
0 0 0
0 0 0
0 0 0
0 0 0
0 0 0
0 0 0
0 0 0
0 0 0
0 0 0
0 0 0
0 0 0
0 0 0
0 0 0
0 0 0
0 0 0
0 0 0
0 0 0
0 0 0
0 0 0
0 0 0
0 0 0
0 0 0
0 0 0
0 0 0
0 0 0
0 0 0
0 0 0
0 0 0
0 0 0
0 0 0
0 0 0
0 0 0
0 0 0
0 0 0
0 0 0
0 0 0
0 0 0
0 0 0
0 0 0
0 0 0
0 0 0
0 0 0
0 0 0
0 0 0
0 0 0
0 0 0
0 0 0
0 0 0
0 0 0
0 0 0
0 0 0
0 0 0
0 0 0
0 0 0
0 0 0
0 0 0
0 0 0
0 0 0
0 0 0
0 0 0
0 0 0
0 0 0
0 0 0
0 0 0
0 0 0
0 0 0
0 0 0
0 0 0
0 0 0
0 0 0
0 0 0
0 0 0
0 0 0
0 0 0
0 0 0
0 0 0
0 0 0
0 0 0
0 0 0
0 0 0
0 0 0
0 0 0
0 0 0
0 0 0
0 0 0
0 0 0
0 0 0
0 0 0
0 0 0
0 0 0
0 0 0
0 0 0
0 0 0
0 0 0
0 0 0
0 0 0
0 0 0
0 0 0
0 0 0
0 0 0
0 0 0
0 0 0
0 0 0
0 0 0
0 0 0
0 0 0
0 0 0
0 0 0
0 0 0
0 0 0
0 0 0
0 0 0
0 0 0
0 0 0
0 0 0
0 0 0
0 0 0
0 0 0
0 0 0
0 0 0
0 0 0
0 0 0
0 0 0
0 0 0
0 0 0
0 0 0
0 0 0
0 0 0
0 0 0
0 0 0
0 0 0
0 0 0
0 0 0
0 0 0
0 0 0
0 0 0
0 0 0
0 0 0
0 0 0
0 0 0
0 0 0
0 0 0
0 0 0
0 0 0
0 0 0
0 0 0
0 0 0
0 0 0
0 0 0
0 0 0
0 0 0
0 0 0
0 0 0
0 0 0
0 0 0
0 0 0
0 0 0
0 0 0
0 0 0
0 0 0
0 0 0
0 0 0
0 0 0
0 0 0
0 0 0
0 0 0
0 0 0
0 0 0
0 0 0
0 0 0
0 0 0
0 0 0
0 0 0
0 0 0
0 0 0
0 0 0
0 0 0
0 0 0
0 0 0
0 0 0
0 0 0
0 0 0
0 0 0
0 0 0
0 0 0
0 0 0
0 0 0
0 0 0
0 0 0
0 0 0
0 0 0
0 0 0
0 0 0
0 0 0
0 0 0
0 0 0
0 0 0
0 0 0
0 0 0
0 0 0
0 0 0
0 0 0
0 0 0
0 0 0
0 0 0
0 0 0
0 0 0
0 0 0
0 0 0
0 0 0
0 0 0
0 0 0
0 0 0
0 0 0
0 0 0
0 0 0
0 0 0
0 0 0
0 0 0
0 0 0
0 0 0
0 0 0
0 0 0
0 0 0
0 0 0
0 0 0
0 0 0
0 0 0
0 0 0
0 0 0
0 0 0
0 0 0
0 0 0
0 0 0
0 0 0
0 0 0
0 0 0
0 0 0
0 0 0
0 0 0
0 0 0
0 0 0
0 0 0
0 0 0
0 0 0
0 0 0
0 0 0
0 0 0
0 0 0
0 0 0
0 0 0
0 0 0
0 0 0
0 0 0
0 0 0
0 0 0
0 0 0
0 0 0
0 0 0
0 0 0
0 0 0
0 0 0
0 0 0
0 0 0
0 0 0
0 0 0
0 0 0
0 0 0
0 0 0
0 0 0
0 0 0
0 0 0
0 0 0
0 0 0
0 0 0
0 0 0
0 0 0
0 0 0
0 0 0
0 0 0
0 0 0
0 0 0
0 0 0
0 0 0
0 0 0
0 0 0
0 0 0
0 0 0
0 0 0
0 0 0
0 0 0
0 0 0
0 0 0
0 0 0
0 0 0
0 0 0
0 0 0
0 0 0
0 0 0
0 0 0
0 0 0
0 0 0
0 0 0
0 0 0
0 0 0
0 0 0
0 0 0
0 0 0
0 0 0
0 0 0
0 0 0
0 0 0
0 0 0
0 0 0
0 0 0
0 0 0
0 0 0
0 0 0
0 0 0
0 0 0
0 0 0
0 0 0
0 0 0
0 0 0
0 0 0
0 0 0
0 0 0
0 0 0
0 0 0
0 0 0
0 0 0
0 0 0
0 0 0
0 0 0
0 0 0
0 0 0
0 0 0
0 0 0
0 0 0
0 0 0
0 0 0
0 0 0
0 0 0
0 0 0
0 0 0
0 0 0
0 0 0
0 0 0
0 0 0
0 0 0
0 0 0
0 0 0
0 0 0
0 0 0
0 0 0
0 0 0
0 0 0
0 0 0
0 0 0
0 0 0
0 0 0
0 0 0
0 0 0
0 0 0
0 0 0
0 0 0
0 0 0
0 0 0
0 0 0
0 0 0
0 0 0
0 0 0
0 0 0
0 0 0
0 0 0
0 0 0
0 0 0
0 0 0
0 0 0
0 0 0
0 0 0
0 0 0
0 0 0
0 0 0
0 0 0
0 0 0
0 0 0
0 0 0
0 0 0
0 0 0
0 0 0
0 0 0
0 0 0
0 0 0
0 0 0
0 0 0
0 0 0
0 0 0
0 0 0
0 0 0
0 0 0
0 0 0
0 0 0
0 0 0
0 0 0
0 0 0
0 0 0
0 0 0
0 0 0
0 0 0
0 0 0
0 0 0
0 0 0
0 0 0
0 0 0
0 0 0
0 0 0
0 0 0
0 0 0
0 0 0
0 0 0
0 0 0
0 0 0
0 0 0
0 0 0
0 0 0
0 0 0
0 0 0
0 0 0
0 0 0
0 0 0
0 0 0
0 0 0
0 0 0
0 0 0
0 0 0
0 0 0
0 0 0
0 0 0
0 0 0
0 0 0
0 0 0
0 0 0
0 0 0
0 0 0
0 0 0
0 0 0
0 0 0
0 0 0
0 0 0
0 0 0
0 0 0
0 0 0
0 0 0
0 0 0
0 0 0
0 0 0
0 0 0
0 0 0
0 0 0
0 0 0
0 0 0
0 0 0
0 0 0
0 0 0
0 0 0
0 0 0
0 0 0
0 0 0
0 0 0
0 0 0
0 0 0
0 0 0
0 0 0
0 0 0
0 0 0
0 0 0
0 0 0
0 0 0
0 0 0
0 0 0
0 0 0
0 0 0
0 0 0
0 0 0
0 0 0
0 0 0
0 0 0
0 0 0
0 0 0
0 0 0
0 0 0
0 0 0
0 0 0
0 0 0
0 0 0
0 0 0
0 0 0
0 0 0
0 0 0
0 0 0
0 0 0
0 0 0
0 0 0
0 0 0
0 0 0
0 0 0
0 0 0
0 0 0
0 0 0
0 0 0
0 0 0
0 0 0
0 0 0
0 0 0
0 0 0
0 0 0
0 0 0
0 0 0
0 0 0
0 0 0
0 0 0
0 0 0
0 0 0
0 0 0
0 0 0
0 0 0
0 0 0
0 0 0
0 0 0
0 0 0
0 0 0
0 0 0
0 0 0
0 0 0
0 0 0
0 0 0
0 0 0
0 0 0
0 0 0
0 0 0
0 0 0
0 0 0
0 0 0
0 0 0
0 0 0
0 0 0
0 0 0
0 0 0
0 0 0
0 0 0
0 0 0
0 0 0
0 0 0
0 0 0
0 0 0
0 0 0
0 0 0
0 0 0
0 0 0
0 0 0
0 0 0
0 0 0
0 0 0
0 0 0
0 0 0
0 0 0
0 0 0
0 0 0
0 0 0
0 0 0
0 0 0
0 0 0
0 0 0
0 0 0
0 0 0
0 0 0
0 0 0
0 0 0
0 0 0
0 0 0
0 0 0
0 0 0
0 0 0
0 0 0
0 0 0
0 0 0
0 0 0
0 0 0
0 0 0
0 0 0
0 0 0
0 0 0
0 0 0
0 0 0
0 0 0
0 0 0
0 0 0
0 0 0
0 0 0
0 0 0
0 0 0
0 0 0
0 0 0
0 0 0
0 0 0
0 0 0
0 0 0
0 0 0
0 0 0
0 0 0
0 0 0
0 0 0
0 0 0
0 0 0
0 0 0
0 0 0
0 0 0
0 0 0
0 0 0
0 0 0
0 0 0
0 0 0
0 0 0
0 0 0
0 0 0
0 0 0
0 0 0
0 0 0
0 0 0
0 0 0
0 0 0
0 0 0
0 0 0
0 0 0
0 0 0
0 0 0
0 0 0
0 0 0
0 0 0
0 0 0
0 0 0
0 0 0
0 0 0
0 0 0
0 0 0
0 0 0
0 0 0
0 0 0
0 0 0
0 0 0
0 0 0
0 0 0
0 0 0
0 0 0
0 0 0
0 0 0
0 0 0
0 0 0
0 0 0
0 0 0
0 0 0
0 0 0
0 0 0
0 0 0
0 0 0
0 0 0
0 0 0
0 0 0
0 0 0
0 0 0
0 0 0
0 0 0
0 0 0
0 0 0
0 0 0
0 0 0
0 0 0
0 0 0
0 0 0
0 0 0
0 0 0
0 0 0
0 0 0
0 0 0
0 0 0
0 0 0
0 0 0
0 0 0
0 0 0
0 0 0
0 0 0
0 0 0
0 0 0
0 0 0
0 0 0
0 0 0
0 0 0
0 0 0
0 0 0
0 0 0
0 0 0
0 0 0
0 0 0
0 0 0
0 0 0
0 0 0
0 0 0
0 0 0
0 0 0
0 0 0
0 0 0
0 0 0
0 0 0
0 0 0
0 0 0
0 0 0
0 0 0
0 0 0
0 0 0
0 0 0
0 0 0
0 0 0
0 0 0
0 0 0
0 0 0
0 0 0
0 0 0
0 0 0
0 0 0
0 0 0
0 0 0
0 0 0
0 0 0
0 0 0
0 0 0
0 0 0
0 0 0
0 0 0
0 0 0
0 0 0
0 0 0
0 0 0
0 0 0
0 0 0
0 0 0
0 0 0
0 0 0
0 0 0
0 0 0
0 0 0
0 0 0
0 0 0
0 0 0
0 0 0
0 0 0
0 0 0
0 0 0
0 0 0
0 0 0
0 0 0
0 0 0
0 0 0
0 0 0
0 0 0
0 0 0
0 0 0
0 0 0
0 0 0
0 0 0
0 0 0
0 0 0
0 0 0
0 0 0
0 0 0
0 0 0
0 0 0
0 0 0
0 0 0
0 0 0
0 0 0
0 0 0
0 0 0
0 0 0
0 0 0
0 0 0
0 0 0
0 0 0
0 0 0
0 0 0
0 0 0
0 0 0
0 0 0
0 0 0
0 0 0
0 0 0
0 0 0
0 0 0
0 0 0
0 0 0
0 0 0
0 0 0
0 0 0
0 0 0
0 0 0
0 0 0
0 0 0
0 0 0
0 0 0
0 0 0
0 0 0
0 0 0
0 0 0
0 0 0
0 0 0
0 0 0
0 0 0
0 0 0
0 0 0
0 0 0
0 0 0
0 0 0
0 0 0
0 0 0
0 0 0
0 0 0
0 0 0
0 0 0
0 0 0
0 0 0
0 0 0
0 0 0
0 0 0
0 0 0
0 0 0
0 0 0
0 0 0
0 0 0
0 0 0
0 0 0
0 0 0
0 0 0
0 0 0
0 0 0
0 0 0
0 0 0
0 0 0
0 0 0
0 0 0
0 0 0
0 0 0
0 0 0
0 0 0
0 0 0
0 0 0
0 0 0
0 0 0
0 0 0
0 0 0
0 0 0
0 0 0
0 0 0
0 0 0
0 0 0
0 0 0
0 0 0
0 0 0
0 0 0
0 0 0
0 0 0
0 0 0
0 0 0
0 0 0
0 0 0
0 0 0
0 0 0
0 0 0
0 0 0
0 0 0
0 0 0
0 0 0
0 0 0
0 0 0
0 0 0
0 0 0
0 0 0
0 0 0
0 0 0
0 0 0
0 0 0
0 0 0
0 0 0
0 0 0
0 0 0
0 0 0
0 0 0
0 0 0
0 0 0
0 0 0
0 0 0
0 0 0
0 0 0
0 0 0
0 0 0
0 0 0
0 0 0
0 0 0
0 0 0
0 0 0
0 0 0
0 0 0
0 0 0
0 0 0
0 0 0
0 0 0
0 0 0
0 0 0
0 0 0
0 0 0
0 0 0
0 0 0
0 0 0
0 0 0
0 0 0
0 0 0
0 0 0
0 0 0
0 0 0
0 0 0
0 0 0
0 0 0
0 0 0
0 0 0
0 0 0
0 0 0
0 0 0
0 0 0
0 0 0
0 0 0
0 0 0
0 0 0
0 0 0
0 0 0
0 0 0
0 0 0
0 0 0
0 0 0
0 0 0
0 0 0
0 0 0
0 0 0
0 0 0
0 0 0
0 0 0
0 0 0
0 0 0
0 0 0
0 0 0
0 0 0
0 0 0
0 0 0
0 0 0
0 0 0
0 0 0
0 0 0
0 0 0
0 0 0
0 0 0
0 0 0
0 0 0
0 0 0
0 0 0
0 0 0
0 0 0
0 0 0
0 0 0
0 0 0
0 0 0
0 0 0
0 0 0
0 0 0
0 0 0
0 0 0
0 0 0
0 0 0
0 0 0
0 0 0
0 0 0
0 0 0
0 0 0
0 0 0
0 0 0
0 0 0
0 0 0
0 0 0
0 0 0
0 0 0
0 0 0
0 0 0
0 0 0
0 0 0
0 0 0
0 0 0
0 0 0
0 0 0
0 0 0
0 0 0
0 0 0
0 0 0
0 0 0
0 0 0
0 0 0
0 0 0
0 0 0
0 0 0
0 0 0
0 0 0
0 0 0
0 0 0
0 0 0
0 0 0
0 0 0
0 0 0
0 0 0
0 0 0
0 0 0
0 0 0
0 0 0
0 0 0
0 0 0
0 0 0
0 0 0
0 0 0
0 0 0
0 0 0
0 0 0
0 0 0
0 0 0
0 0 0
0 0 0
0 0 0
0 0 0
0 0 0
0 0 0
0 0 0
0 0 0
0 0 0
0 0 0
0 0 0
0 0 0
0 0 0
0 0 0
0 0 0
0 0 0
0 0 0
0 0 0
0 0 0
0 0 0
0 0 0
0 0 0
0 0 0
0 0 0
0 0 0
0 0 0
0 0 0
0 0 0
0 0 0
0 0 0
0 0 0
0 0 0
0 0 0
0 0 0
0 0 0
0 0 0
0 0 0
0 0 0
0 0 0
0 0 0
0 0 0
0 0 0
0 0 0
0 0 0
0 0 0
0 0 0
0 0 0
0 0 0
0 0 0
0 0 0
0 0 0
0 0 0
0 0 0
0 0 0
0 0 0
0 0 0
0 0 0
0 0 0
0 0 0
0 0 0
0 0 0
0 0 0
0 0 0
0 0 0
0 0 0
0 0 0
0 0 0
0 0 0
0 0 0
0 0 0
0 0 0
0 0 0
0 0 0
0 0 0
0 0 0
0 0 0
0 0 0
0 0 0
0 0 0
0 0 0
0 0 0
0 0 0
0 0 0
0 0 0
0 0 0
0 0 0
0 0 0
0 0 0
0 0 0
0 0 0
0 0 0
0 0 0
0 0 0
0 0 0
0 0 0
0 0 0
0 0 0
0 0 0
0 0 0
0 0 0
0 0 0
0 0 0
0 0 0
0 0 0
0 0 0
0 0 0
0 0 0
0 0 0
0 0 0
0 0 0
0 0 0
0 0 0
0 0 0
0 0 0
0 0 0
0 0 0
0 0 0
0 0 0
0 0 0
0 0 0
0 0 0
0 0 0
0 0 0
0 0 0
0 0 0
0 0 0
0 0 0
0 0 0
0 0 0
0 0 0
0 0 0
0 0 0
0 0 0
0 0 0
0 0 0
0 0 0
0 0 0
0 0 0
0 0 0
0 0 0
0 0 0
0 0 0
0 0 0
0 0 0
0 0 0
0 0 0
0 0 0
0 0 0
0 0 0
0 0 0
0 0 0
0 0 0
0 0 0
0 0 0
0 0 0
0 0 0
0 0 0
0 0 0
0 0 0
0 0 0
0 0 0
0 0 0
0 0 0
0 0 0
0 0 0
0 0 0
0 0 0
0 0 0
0 0 0
0 0 0
0 0 0
0 0 0
0 0 0
0 0 0
0 0 0
0 0 0
0 0 0
0 0 0
0 0 0
0 0 0
0 0 0
0 0 0
0 0 0
0 0 0
0 0 0
0 0 0
0 0 0
0 0 0
0 0 0
0 0 0
0 0 0
0 0 0
0 0 0
0 0 0
0 0 0
0 0 0
0 0 0
0 0 0
0 0 0
0 0 0
0 0 0
0 0 0
0 0 0
0 0 0
0 0 0
0 0 0
0 0 0
0 0 0
0 0 0
0 0 0
0 0 0
0 0 0
0 0 0
0 0 0
0 0 0
0 0 0
0 0 0
0 0 0
0 0 0
0 0 0
0 0 0
0 0 0
0 0 0
0 0 0
0 0 0
0 0 0
0 0 0
0 0 0
0 0 0
0 0 0
0 0 0
0 0 0
0 0 0
0 0 0
0 0 0
0 0 0
0 0 0
0 0 0
0 0 0
0 0 0
0 0 0
0 0 0
0 0 0
0 0 0
0 0 0
0 0 0
0 0 0
0 0 0
0 0 0
0 0 0
0 0 0
0 0 0
0 0 0
0 0 0
0 0 0
0 0 0
0 0 0
0 0 0
0 0 0
0 0 0
0 0 0
0 0 0
0 0 0
0 0 0
0 0 0
0 0 0
0 0 0
0 0 0
0 0 0
0 0 0
0 0 0
0 0 0
0 0 0
0 0 0
0 0 0
0 0 0
0 0 0
0 0 0
0 0 0
0 0 0
0 0 0
0 0 0
0 0 0
0 0 0
0 0 0
0 0 0
0 0 0
0 0 0
0 0 0
0 0 0
0 0 0
0 0 0
0 0 0
0 0 0
0 0 0
0 0 0
0 0 0
0 0 0
0 0 0
0 0 0
0 0 0
0 0 0
0 0 0
0 0 0
0 0 0
0 0 0
0 0 0
0 0 0
0 0 0
0 0 0
0 0 0
0 0 0
0 0 0
0 0 0
0 0 0
0 0 0
0 0 0
0 0 0
0 0 0
0 0 0
0 0 0
0 0 0
0 0 0
0 0 0
0 0 0
0 0 0
0 0 0
0 0 0
0 0 0
0 0 0
0 0 0
0 0 0
0 0 0
0 0 0
0 0 0
0 0 0
0 0 0
0 0 0
0 0 0
0 0 0
0 0 0
0 0 0
0 0 0
0 0 0
0 0 0
0 0 0
0 0 0
0 0 0
0 0 0
0 0 0
0 0 0
0 0 0
0 0 0
0 0 0
0 0 0
0 0 0
0 0 0
0 0 0
0 0 0
0 0 0
0 0 0
0 0 0
0 0 0
0 0 0
0 0 0
0 0 0
0 0 0
0 0 0
0 0 0
0 0 0
0 0 0
0 0 0
0 0 0
0 0 0
0 0 0
0 0 0
0 0 0
0 0 0
0 0 0
0 0 0
0 0 0
0 0 0
0 0 0
0 0 0
0 0 0
0 0 0
0 0 0
0 0 0
0 0 0
0 0 0
0 0 0
0 0 0
0 0 0
0 0 0
0 0 0
0 0 0
0 0 0
0 0 0
0 0 0
0 0 0
0 0 0
0 0 0
0 0 0
0 0 0
0 0 0
0 0 0
0 0 0
0 0 0
0 0 0
0 0 0
0 0 0
0 0 0
0 0 0
0 0 0
0 0 0
0 0 0
0 0 0
0 0 0
0 0 0
0 0 0
0 0 0
0 0 0
0 0 0
0 0 0
0 0 0
0 0 0
0 0 0
0 0 0
0 0 0
0 0 0
0 0 0
0 0 0
0 0 0
0 0 0
0 0 0
0 0 0
0 0 0
0 0 0
0 0 0
0 0 0
0 0 0
0 0 0
0 0 0
0 0 0
0 0 0
0 0 0
0 0 0
0 0 0
0 0 0
0 0 0
0 0 0
0 0 0
0 0 0
0 0 0
0 0 0
0 0 0
0 0 0
0 0 0
0 0 0
0 0 0
0 0 0
0 0 0
0 0 0
0 0 0
0 0 0
0 0 0
0 0 0
0 0 0
0 0 0
0 0 0
0 0 0
0 0 0
0 0 0
0 0 0
0 0 0
0 0 0
0 0 0
0 0 0
0 0 0
0 0 0
0 0 0
0 0 0
0 0 0
0 0 0
0 0 0
0 0 0
0 0 0
0 0 0
0 0 0
0 0 0
0 0 0
0 0 0
0 0 0
0 0 0
0 0 0
0 0 0
0 0 0
0 0 0
0 0 0
0 0 0
0 0 0
0 0 0
0 0 0
0 0 0
0 0 0
0 0 0
0 0 0
0 0 0
0 0 0
0 0 0
0 0 0
0 0 0
0 0 0
0 0 0
0 0 0
0 0 0
0 0 0
0 0 0
0 0 0
0 0 0
0 0 0
0 0 0
0 0 0
0 0 0
0 0 0
0 0 0
0 0 0
0 0 0
0 0 0
0 0 0
0 0 0
0 0 0
0 0 0
0 0 0
0 0 0
0 0 0
0 0 0
0 0 0
0 0 0
0 0 0
0 0 0
0 0 0
0 0 0
0 0 0
0 0 0
0 0 0
0 0 0
0 0 0
0 0 0
0 0 0
0 0 0
0 0 0
0 0 0
0 0 0
0 0 0
0 0 0
0 0 0
0 0 0
0 0 0
0 0 0
0 0 0
0 0 0
0 0 0
0 0 0
0 0 0
0 0 0
0 0 0
0 0 0
0 0 0
0 0 0
0 0 0
0 0 0
0 0 0
0 0 0
0 0 0
0 0 0
0 0 0
0 0 0
0 0 0
0 0 0
0 0 0
0 0 0
0 0 0
0 0 0
0 0 0
0 0 0
0 0 0
0 0 0
0 0 0
0 0 0
0 0 0
0 0 0
0 0 0
0 0 0
0 0 0
0 0 0
0 0 0
0 0 0
0 0 0
0 0 0
0 0 0
0 0 0
0 0 0
0 0 0
0 0 0
0 0 0
0 0 0
0 0 0
0 0 0
0 0 0
0 0 0
0 0 0
0 0 0
0 0 0
0 0 0
0 0 0
0 0 0
0 0 0
0 0 0
0 0 0
0 0 0
0 0 0
0 0 0
0 0 0
0 0 0
0 0 0
0 0 0
0 0 0
0 0 0
0 0 0
0 0 0
0 0 0
0 0 0
0 0 0
0 0 0
0 0 0
0 0 0
0 0 0
0 0 0
0 0 0
0 0 0
0 0 0
0 0 0
0 0 0
0 0 0
0 0 0
0 0 0
0 0 0
0 0 0
0 0 0
0 0 0
0 0 0
0 0 0
0 0 0
0 0 0
0 0 0
0 0 0
0 0 0
0 0 0
0 0 0
0 0 0
0 0 0
0 0 0
0 0 0
0 0 0
0 0 0
0 0 0
0 0 0
0 0 0
0 0 0
0 0 0
0 0 0
0 0 0
0 0 0
0 0 0
0 0 0
0 0 0
0 0 0
0 0 0
0 0 0
0 0 0
0 0 0
0 0 0
0 0 0
0 0 0
0 0 0
0 0 0
0 0 0
0 0 0
0 0 0
0 0 0
0 0 0
0 0 0
0 0 0
0 0 0
0 0 0
0 0 0
0 0 0
0 0 0
0 0 0
0 0 0
0 0 0
0 0 0
0 0 0
0 0 0
0 0 0
0 0 0
0 0 0
0 0 0
0 0 0
0 0 0
0 0 0
0 0 0
0 0 0
0 0 0
0 0 0
0 0 0
0 0 0
0 0 0
0 0 0
0 0 0
0 0 0
0 0 0
0 0 0
0 0 0
0 0 0
0 0 0
0 0 0
0 0 0
0 0 0
0 0 0
0 0 0
0 0 0
0 0 0
0 0 0
0 0 0
0 0 0
0 0 0
0 0 0
0 0 0
0 0 0
0 0 0
0 0 0
0 0 0
0 0 0
0 0 0
0 0 0
0 0 0
0 0 0
0 0 0
0 0 0
0 0 0
0 0 0
0 0 0
0 0 0
0 0 0
0 0 0
0 0 0
0 0 0
0 0 0
0 0 0
0 0 0
0 0 0
0 0 0
0 0 0
0 0 0
0 0 0
0 0 0
0 0 0
0 0 0
0 0 0
0 0 0
0 0 0
0 0 0
0 0 0
0 0 0
0 0 0
0 0 0
0 0 0
0 0 0
0 0 0
0 0 0
0 0 0
0 0 0
0 0 0
0 0 0
0 0 0
0 0 0
0 0 0
0 0 0
0 0 0
0 0 0
0 0 0
0 0 0
0 0 0
0 0 0
0 0 0
0 0 0
0 0 0
0 0 0
0 0 0
0 0 0
0 0 0
0 0 0
0 0 0
0 0 0
0 0 0
0 0 0
0 0 0
0 0 0
0 0 0
0 0 0
0 0 0
0 0 0
0 0 0
0 0 0
0 0 0
0 0 0
0 0 0
0 0 0
0 0 0
0 0 0
0 0 0
0 0 0
0 0 0
0 0 0
0 0 0
0 0 0
0 0 0
0 0 0
0 0 0
0 0 0
0 0 0
0 0 0
0 0 0
0 0 0
0 0 0
0 0 0
0 0 0
0 0 0
0 0 0
0 0 0
0 0 0
0 0 0
0 0 0
0 0 0
0 0 0
0 0 0
0 0 0
0 0 0
0 0 0
0 0 0
0 0 0
0 0 0
0 0 0
0 0 0
0 0 0
0 0 0
0 0 0
0 0 0
0 0 0
0 0 0
0 0 0
0 0 0
0 0 0
0 0 0
0 0 0
0 0 0
0 0 0
0 0 0
0 0 0
0 0 0
0 0 0
0 0 0
0 0 0
0 0 0
0 0 0
0 0 0
0 0 0
0 0 0
0 0 0
0 0 0
0 0 0
0 0 0
0 0 0
0 0 0
0 0 0
0 0 0
0 0 0
0 0 0
0 0 0
0 0 0
0 0 0
0 0 0
0 0 0
0 0 0
0 0 0
0 0 0
0 0 0
0 0 0
0 0 0
0 0 0
0 0 0
0 0 0
0 0 0
0 0 0
0 0 0
0 0 0
0 0 0
0 0 0
0 0 0
0 0 0
0 0 0
0 0 0
0 0 0
0 0 0
0 0 0
0 0 0
0 0 0
0 0 0
0 0 0
0 0 0
0 0 0
0 0 0
0 0 0
0 0 0
0 0 0
0 0 0
0 0 0
0 0 0
0 0 0
0 0 0
0 0 0
0 0 0
0 0 0
0 0 0
0 0 0
0 0 0
0 0 0
0 0 0
0 0 0
0 0 0
0 0 0
0 0 0
0 0 0
0 0 0
0 0 0
0 0 0
0 0 0
0 0 0
0 0 0
0 0 0
0 0 0
0 0 0
0 0 0
0 0 0
0 0 0
0 0 0
0 0 0
0 0 0
0 0 0
0 0 0
0 0 0
0 0 0
0 0 0
0 0 0
0 0 0
0 0 0
0 0 0
0 0 0
0 0 0
0 0 0
0 0 0
0 0 0
0 0 0
0 0 0
0 0 0
0 0 0
0 0 0
0 0 0
0 0 0
0 0 0
0 0 0
0 0 0
0 0 0
0 0 0
0 0 0
0 0 0
0 0 0
0 0 0
0 0 0
0 0 0
0 0 0
0 0 0
0 0 0
0 0 0
0 0 0
0 0 0
0 0 0
0 0 0
0 0 0
0 0 0
0 0 0
0 0 0
0 0 0
0 0 0
0 0 0
0 0 0
0 0 0
0 0 0
0 0 0
0 0 0
0 0 0
0 0 0
0 0 0
0 0 0
0 0 0
0 0 0
0 0 0
0 0 0
0 0 0
0 0 0
0 0 0
0 0 0
0 0 0
0 0 0
0 0 0
0 0 0
0 0 0
0 0 0
0 0 0
0 0 0
0 0 0
0 0 0
0 0 0
0 0 0
0 0 0
0 0 0
0 0 0
0 0 0
0 0 0
0 0 0
0 0 0
0 0 0
0 0 0
0 0 0
0 0 0
0 0 0
0 0 0
0 0 0
0 0 0
0 0 0
0 0 0
0 0 0
0 0 0
0 0 0
0 0 0
0 0 0
0 0 0
0 0 0
0 0 0
0 0 0
0 0 0
0 0 0
0 0 0
0 0 0
0 0 0
0 0 0
0 0 0
0 0 0
0 0 0
0 0 0
0 0 0
0 0 0
0 0 0
0 0 0
0 0 0
0 0 0
0 0 0
0 0 0
0 0 0
0 0 0
0 0 0
0 0 0
0 0 0
0 0 0
0 0 0
0 0 0
0 0 0
0 0 0
0 0 0
0 0 0
0 0 0
0 0 0
0 0 0
0 0 0
0 0 0
0 0 0
0 0 0
0 0 0
0 0 0
0 0 0
0 0 0
0 0 0
0 0 0
0 0 0
0 0 0
0 0 0
0 0 0
0 0 0
0 0 0
0 0 0
0 0 0
0 0 0
0 0 0
0 0 0
0 0 0
0 0 0
0 0 0
0 0 0
0 0 0
0 0 0
0 0 0
0 0 0
0 0 0
0 0 0
0 0 0
0 0 0
0 0 0
0 0 0
0 0 0
0 0 0
0 0 0
0 0 0
0 0 0
0 0 0
0 0 0
0 0 0
0 0 0
0 0 0
0 0 0
0 0 0
0 0 0
0 0 0
0 0 0
0 0 0
0 0 0
0 0 0
0 0 0
0 0 0
0 0 0
0 0 0
0 0 0
0 0 0
0 0 0
0 0 0
0 0 0
0 0 0
0 0 0
0 0 0
0 0 0
0 0 0
0 0 0
0 0 0
0 0 0
0 0 0
0 0 0
0 0 0
0 0 0
0 0 0
0 0 0
0 0 0
0 0 0
0 0 0
0 0 0
0 0 0
0 0 0
0 0 0
0 0 0
0 0 0
0 0 0
0 0 0
0 0 0
0 0 0
0 0 0
0 0 0
0 0 0
0 0 0
0 0 0
0 0 0
0 0 0
0 0 0
0 0 0
0 0 0
0 0 0
0 0 0
0 0 0
0 0 0
0 0 0
0 0 0
0 0 0
0 0 0
0 0 0
0 0 0
0 0 0
0 0 0
0 0 0
0 0 0
0 0 0
0 0 0
0 0 0
0 0 0
0 0 0
0 0 0
0 0 0
0 0 0
0 0 0
0 0 0
0 0 0
0 0 0
0 0 0
0 0 0
0 0 0
0 0 0
0 0 0
0 0 0
0 0 0
0 0 0
0 0 0
0 0 0
0 0 0
0 0 0
0 0 0
0 0 0
0 0 0
0 0 0
0 0 0
0 0 0
0 0 0
0 0 0
0 0 0
0 0 0
0 0 0
0 0 0
0 0 0
0 0 0
0 0 0
0 0 0
0 0 0
0 0 0
0 0 0
0 0 0
0 0 0
0 0 0
0 0 0
0 0 0
0 0 0
0 0 0
0 0 0
0 0 0
0 0 0
0 0 0
0 0 0
0 0 0
0 0 0
0 0 0
0 0 0
0 0 0
0 0 0
0 0 0
0 0 0
0 0 0
0 0 0
0 0 0
0 0 0
0 0 0
0 0 0
0 0 0
0 0 0
0 0 0
0 0 0
0 0 0
0 0 0
0 0 0
0 0 0
0 0 0
0 0 0
0 0 0
0 0 0
0 0 0
0 0 0
0 0 0
0 0 0
0 0 0
0 0 0
0 0 0
0 0 0
0 0 0
0 0 0
0 0 0
0 0 0
0 0 0
0 0 0
0 0 0
0 0 0
0 0 0
0 0 0
0 0 0
0 0 0
0 0 0
0 0 0
0 0 0
0 0 0
0 0 0
0 0 0
0 0 0
0 0 0
0 0 0
0 0 0
0 0 0
0 0 0
0 0 0
0 0 0
0 0 0
0 0 0
0 0 0
0 0 0
0 0 0
0 0 0
0 0 0
0 0 0
0 0 0
0 0 0
0 0 0
0 0 0
0 0 0
0 0 0
0 0 0
0 0 0
0 0 0
0 0 0
0 0 0
0 0 0
0 0 0
0 0 0
0 0 0
0 0 0
0 0 0
0 0 0
0 0 0
0 0 0
0 0 0
0 0 0
0 0 0
0 0 0
0 0 0
0 0 0
0 0 0
0 0 0
0 0 0
0 0 0
0 0 0
0 0 0
0 0 0
0 0 0
0 0 0
0 0 0
0 0 0
0 0 0
0 0 0
0 0 0
0 0 0
0 0 0
0 0 0
0 0 0
0 0 0
0 0 0
0 0 0
0 0 0
0 0 0
0 0 0
0 0 0
0 0 0
0 0 0
0 0 0
0 0 0
0 0 0
0 0 0
0 0 0
0 0 0
0 0 0
0 0 0
0 0 0
0 0 0
0 0 0
0 0 0
0 0 0
0 0 0
0 0 0
0 0 0
0 0 0
0 0 0
0 0 0
0 0 0
0 0 0
0 0 0
0 0 0
0 0 0
0 0 0
0 0 0
0 0 0
0 0 0
0 0 0
0 0 0
0 0 0
0 0 0
0 0 0
0 0 0
0 0 0
0 0 0
0 0 0
0 0 0
0 0 0
0 0 0
0 0 0
0 0 0
0 0 0
0 0 0
0 0 0
0 0 0
0 0 0
0 0 0
0 0 0
0 0 0
0 0 0
0 0 0
0 0 0
0 0 0
0 0 0
0 0 0
0 0 0
0 0 0
0 0 0
0 0 0
0 0 0
0 0 0
0 0 0
0 0 0
0 0 0
0 0 0
0 0 0
0 0 0
0 0 0
0 0 0
0 0 0
0 0 0
0 0 0
0 0 0
0 0 0
0 0 0
0 0 0
0 0 0
0 0 0
0 0 0
0 0 0
0 0 0
0 0 0
0 0 0
0 0 0
0 0 0
0 0 0
0 0 0
0 0 0
0 0 0
0 0 0
0 0 0
0 0 0
0 0 0
0 0 0
0 0 0
0 0 0
0 0 0
0 0 0
0 0 0
0 0 0
0 0 0
0 0 0
0 0 0
0 0 0
0 0 0
0 0 0
0 0 0
0 0 0
0 0 0
0 0 0
0 0 0
0 0 0
0 0 0
0 0 0
0 0 0
0 0 0
0 0 0
0 0 0
0 0 0
0 0 0
0 0 0
0 0 0
0 0 0
0 0 0
0 0 0
0 0 0
0 0 0
0 0 0
0 0 0
0 0 0
0 0 0
0 0 0
0 0 0
0 0 0
0 0 0
0 0 0
0 0 0
0 0 0
0 0 0
0 0 0
0 0 0
0 0 0
0 0 0
0 0 0
0 0 0
0 0 0
0 0 0
0 0 0
0 0 0
0 0 0
0 0 0
0 0 0
0 0 0
0 0 0
0 0 0
0 0 0
0 0 0
0 0 0
0 0 0
0 0 0
0 0 0
0 0 0
0 0 0
0 0 0
0 0 0
0 0 0
0 0 0
0 0 0
0 0 0
0 0 0
0 0 0
0 0 0
0 0 0
0 0 0
0 0 0
0 0 0
0 0 0
0 0 0
0 0 0
0 0 0
0 0 0
0 0 0
0 0 0
0 0 0
0 0 0
0 0 0
0 0 0
0 0 0
0 0 0
0 0 0
0 0 0
0 0 0
0 0 0
0 0 0
0 0 0
0 0 0
0 0 0
0 0 0
0 0 0
0 0 0
0 0 0
0 0 0
0 0 0
0 0 0
0 0 0
0 0 0
0 0 0
0 0 0
0 0 0
0 0 0
0 0 0
0 0 0
0 0 0
0 0 0
0 0 0
0 0 0
0 0 0
0 0 0
0 0 0
0 0 0
0 0 0
0 0 0
0 0 0
0 0 0
0 0 0
0 0 0
0 0 0
0 0 0
0 0 0
0 0 0
0 0 0
0 0 0
0 0 0
0 0 0
0 0 0
0 0 0
0 0 0
0 0 0
0 0 0
0 0 0
0 0 0
0 0 0
0 0 0
0 0 0
0 0 0
0 0 0
0 0 0
0 0 0
0 0 0
0 0 0
0 0 0
0 0 0
0 0 0
0 0 0
0 0 0
0 0 0
0 0 0
0 0 0
0 0 0
0 0 0
0 0 0
0 0 0
0 0 0
0 0 0
0 0 0
0 0 0
0 0 0
0 0 0
0 0 0
0 0 0
0 0 0
0 0 0
0 0 0
0 0 0
0 0 0
0 0 0
0 0 0
0 0 0
0 0 0
0 0 0
0 0 0
0 0 0
0 0 0
0 0 0
0 0 0
0 0 0
0 0 0
0 0 0
0 0 0
0 0 0
0 0 0
0 0 0
0 0 0
0 0 0
0 0 0
0 0 0
0 0 0
0 0 0
0 0 0
0 0 0
0 0 0
0 0 0
0 0 0
0 0 0
0 0 0
0 0 0
0 0 0
0 0 0
0 0 0
0 0 0
0 0 0
0 0 0
0 0 0
0 0 0
0 0 0
0 0 0
0 0 0
0 0 0
0 0 0
0 0 0
0 0 0
0 0 0
0 0 0
0 0 0
0 0 0
0 0 0
0 0 0
0 0 0
0 0 0
0 0 0
0 0 0
0 0 0
0 0 0
0 0 0
0 0 0
0 0 0
0 0 0
0 0 0
0 0 0
0 0 0
0 0 0
0 0 0
0 0 0
0 0 0
0 0 0
0 0 0
0 0 0
0 0 0
0 0 0
0 0 0
0 0 0
0 0 0
0 0 0
0 0 0
0 0 0
0 0 0
0 0 0
0 0 0
0 0 0
0 0 0
0 0 0
0 0 0
0 0 0
0 0 0
0 0 0
0 0 0
0 0 0
0 0 0
0 0 0
0 0 0
0 0 0
0 0 0
0 0 0
0 0 0
0 0 0
0 0 0
0 0 0
0 0 0
0 0 0
0 0 0
0 0 0
0 0 0
0 0 0
0 0 0
0 0 0
0 0 0
0 0 0
0 0 0
0 0 0
0 0 0
0 0 0
0 0 0
0 0 0
0 0 0
0 0 0
0 0 0
0 0 0
0 0 0
0 0 0
0 0 0
0 0 0
0 0 0
0 0 0
0 0 0
0 0 0
0 0 0
0 0 0
0 0 0
0 0 0
0 0 0
0 0 0
0 0 0
0 0 0
0 0 0
0 0 0
0 0 0
0 0 0
0 0 0
0 0 0
0 0 0
0 0 0
0 0 0
0 0 0
0 0 0
0 0 0
0 0 0
0 0 0
0 0 0
0 0 0
0 0 0
0 0 0
0 0 0
0 0 0
0 0 0
0 0 0
0 0 0
0 0 0
0 0 0
0 0 0
0 0 0
0 0 0
0 0 0
0 0 0
0 0 0
0 0 0
0 0 0
0 0 0
0 0 0
0 0 0
0 0 0
0 0 0
0 0 0
0 0 0
0 0 0
0 0 0
0 0 0
0 0 0
0 0 0
0 0 0
0 0 0
0 0 0
0 0 0
0 0 0
0 0 0
0 0 0
0 0 0
0 0 0
0 0 0
0 0 0
0 0 0
0 0 0
0 0 0
0 0 0
0 0 0
0 0 0
0 0 0
0 0 0
0 0 0
0 0 0
0 0 0
0 0 0
0 0 0
0 0 0
0 0 0
0 0 0
0 0 0
0 0 0
0 0 0
0 0 0
0 0 0
0 0 0
0 0 0
0 0 0
0 0 0
0 0 0
0 0 0
0 0 0
0 0 0
0 0 0
0 0 0
0 0 0
0 0 0
0 0 0
0 0 0
0 0 0
0 0 0
0 0 0
0 0 0
0 0 0
0 0 0
0 0 0
0 0 0
0 0 0
0 0 0
0 0 0
0 0 0
0 0 0
0 0 0
0 0 0
0 0 0
0 0 0
0 0 0
0 0 0
0 0 0
0 0 0
0 0 0
0 0 0
0 0 0
0 0 0
0 0 0
0 0 0
0 0 0
0 0 0
0 0 0
0 0 0
0 0 0
0 0 0
0 0 0
0 0 0
0 0 0
0 0 0
0 0 0
0 0 0
0 0 0
0 0 0
0 0 0
0 0 0
0 0 0
0 0 0
0 0 0
0 0 0
0 0 0
0 0 0
0 0 0
0 0 0
0 0 0
0 0 0
0 0 0
0 0 0
0 0 0
0 0 0
0 0 0
0 0 0
0 0 0
0 0 0
0 0 0
0 0 0
0 0 0
0 0 0
0 0 0
0 0 0
0 0 0
0 0 0
0 0 0
0 0 0
0 0 0
0 0 0
0 0 0
0 0 0
0 0 0
0 0 0
0 0 0
0 0 0
0 0 0
0 0 0
0 0 0
0 0 0
0 0 0
0 0 0
0 0 0
0 0 0
0 0 0
0 0 0
0 0 0
0 0 0
0 0 0
0 0 0
0 0 0
0 0 0
0 0 0
0 0 0
0 0 0
0 0 0
0 0 0
0 0 0
0 0 0
0 0 0
0 0 0
0 0 0
0 0 0
0 0 0
0 0 0
0 0 0
0 0 0
0 0 0
0 0 0
0 0 0
0 0 0
0 0 0
0 0 0
0 0 0
0 0 0
0 0 0
0 0 0
0 0 0
0 0 0
0 0 0
0 0 0
0 0 0
0 0 0
0 0 0
0 0 0
0 0 0
0 0 0
0 0 0
0 0 0
0 0 0
0 0 0
0 0 0
0 0 0
0 0 0
0 0 0
0 0 0
0 0 0
0 0 0
0 0 0
0 0 0
0 0 0
0 0 0
0 0 0
0 0 0
0 0 0
0 0 0
0 0 0
0 0 0
0 0 0
0 0 0
0 0 0
0 0 0
0 0 0
0 0 0
0 0 0
0 0 0
0 0 0
0 0 0
0 0 0
0 0 0
0 0 0
0 0 0
0 0 0
0 0 0
0 0 0
0 0 0
0 0 0
0 0 0
0 0 0
0 0 0
0 0 0
0 0 0
0 0 0
0 0 0
0 0 0
0 0 0
0 0 0
0 0 0
0 0 0
0 0 0
0 0 0
0 0 0
0 0 0
0 0 0
0 0 0
0 0 0
0 0 0
0 0 0
0 0 0
0 0 0
0 0 0
0 0 0
0 0 0
0 0 0
0 0 0
0 0 0
0 0 0
0 0 0
0 0 0
0 0 0
0 0 0
0 0 0
0 0 0
0 0 0
0 0 0
0 0 0
0 0 0
0 0 0
0 0 0
0 0 0
0 0 0
0 0 0
0 0 0
0 0 0
0 0 0
0 0 0
0 0 0
0 0 0
0 0 0
0 0 0
0 0 0
0 0 0
0 0 0
0 0 0
0 0 0
0 0 0
0 0 0
0 0 0
0 0 0
0 0 0
0 0 0
0 0 0
0 0 0
0 0 0
0 0 0
0 0 0
0 0 0
0 0 0
0 0 0
0 0 0
0 0 0
0 0 0
0 0 0
0 0 0
0 0 0
0 0 0
0 0 0
0 0 0
0 0 0
0 0 0
0 0 0
0 0 0
0 0 0
0 0 0
0 0 0
0 0 0
0 0 0
0 0 0
0 0 0
0 0 0
0 0 0
0 0 0
0 0 0
0 0 0
0 0 0
0 0 0
0 0 0
0 0 0
0 0 0
0 0 0
0 0 0
0 0 0
0 0 0
0 0 0
0 0 0
0 0 0
0 0 0
0 0 0
0 0 0
0 0 0
0 0 0
0 0 0
0 0 0
0 0 0
0 0 0
0 0 0
0 0 0
0 0 0
0 0 0
0 0 0
0 0 0
0 0 0
0 0 0
0 0 0
0 0 0
0 0 0
0 0 0
0 0 0
0 0 0
0 0 0
0 0 0
0 0 0
0 0 0
0 0 0
0 0 0
0 0 0
0 0 0
0 0 0
0 0 0
0 0 0
0 0 0
0 0 0
0 0 0
0 0 0
0 0 0
0 0 0
0 0 0
0 0 0
0 0 0
0 0 0
0 0 0
0 0 0
0 0 0
0 0 0
0 0 0
0 0 0
0 0 0
0 0 0
0 0 0
0 0 0
0 0 0
0 0 0
0 0 0
0 0 0
0 0 0
0 0 0
0 0 0
0 0 0
0 0 0
0 0 0
0 0 0
0 0 0
0 0 0
0 0 0
0 0 0
0 0 0
0 0 0
0 0 0
0 0 0
0 0 0
0 0 0
0 0 0
0 0 0
0 0 0
0 0 0
0 0 0
0 0 0
0 0 0
0 0 0
0 0 0
0 0 0
0 0 0
0 0 0
0 0 0
0 0 0
0 0 0
0 0 0
0 0 0
0 0 0
0 0 0
0 0 0
0 0 0
0 0 0
0 0 0
0 0 0
0 0 0
0 0 0
0 0 0
0 0 0
0 0 0
0 0 0
0 0 0
0 0 0
0 0 0
0 0 0
0 0 0
0 0 0
0 0 0
0 0 0
0 0 0
0 0 0
0 0 0
0 0 0
0 0 0
0 0 0
0 0 0
0 0 0
0 0 0
0 0 0
0 0 0
0 0 0
0 0 0
0 0 0
0 0 0
0 0 0
0 0 0
0 0 0
0 0 0
0 0 0
0 0 0
0 0 0
0 0 0
0 0 0
0 0 0
0 0 0
0 0 0
0 0 0
0 0 0
0 0 0
0 0 0
0 0 0
0 0 0
0 0 0
0 0 0
0 0 0
0 0 0
0 0 0
0 0 0
0 0 0
0 0 0
0 0 0
0 0 0
0 0 0
0 0 0
0 0 0
0 0 0
0 0 0
0 0 0
0 0 0
0 0 0
0 0 0
0 0 0
0 0 0
0 0 0
0 0 0
0 0 0
0 0 0
0 0 0
0 0 0
0 0 0
0 0 0
0 0 0
0 0 0
0 0 0
0 0 0
0 0 0
0 0 0
0 0 0
0 0 0
0 0 0
0 0 0
0 0 0
0 0 0
0 0 0
0 0 0
0 0 0
0 0 0
0 0 0
0 0 0
0 0 0
0 0 0
0 0 0
0 0 0
0 0 0
0 0 0
0 0 0
0 0 0
0 0 0
0 0 0
0 0 0
0 0 0
0 0 0
0 0 0
0 0 0
0 0 0
0 0 0
0 0 0
0 0 0
0 0 0
0 0 0
0 0 0
0 0 0
0 0 0
0 0 0
0 0 0
0 0 0
0 0 0
0 0 0
0 0 0
0 0 0
0 0 0
0 0 0
0 0 0
0 0 0
0 0 0
0 0 0
0 0 0
0 0 0
0 0 0
0 0 0
0 0 0
0 0 0
0 0 0
0 0 0
0 0 0
0 0 0
0 0 0
0 0 0
0 0 0
0 0 0
0 0 0
0 0 0
0 0 0
0 0 0
0 0 0
0 0 0
0 0 0
0 0 0
0 0 0
0 0 0
0 0 0
0 0 0
0 0 0
0 0 0
0 0 0
0 0 0
0 0 0
0 0 0
0 0 0
0 0 0
0 0 0
0 0 0
0 0 0
0 0 0
0 0 0
0 0 0
0 0 0
0 0 0
0 0 0
0 0 0
0 0 0
0 0 0
0 0 0
0 0 0
0 0 0
0 0 0
0 0 0
0 0 0
0 0 0
0 0 0
0 0 0
0 0 0
0 0 0
0 0 0
0 0 0
0 0 0
0 0 0
0 0 0
0 0 0
0 0 0
0 0 0
0 0 0
0 0 0
0 0 0
0 0 0
0 0 0
0 0 0
0 0 0
0 0 0
0 0 0
0 0 0
0 0 0
0 0 0
0 0 0
0 0 0
0 0 0
0 0 0
0 0 0
0 0 0
0 0 0
0 0 0
0 0 0
0 0 0
0 0 0
0 0 0
0 0 0
0 0 0
0 0 0
0 0 0
0 0 0
0 0 0
0 0 0
0 0 0
0 0 0
0 0 0
0 0 0
0 0 0
0 0 0
0 0 0
0 0 0
0 0 0
0 0 0
0 0 0
0 0 0
0 0 0
0 0 0
0 0 0
0 0 0
0 0 0
0 0 0
0 0 0
0 0 0
0 0 0
0 0 0
0 0 0
0 0 0
0 0 0
0 0 0
0 0 0
0 0 0
0 0 0
0 0 0
0 0 0
0 0 0
0 0 0
0 0 0
0 0 0
0 0 0
0 0 0
0 0 0
0 0 0
0 0 0
0 0 0
0 0 0
0 0 0
0 0 0
0 0 0
0 0 0
0 0 0
0 0 0
0 0 0
0 0 0
0 0 0
0 0 0
0 0 0
0 0 0
0 0 0
0 0 0
0 0 0
0 0 0
0 0 0
0 0 0
0 0 0
0 0 0
0 0 0
0 0 0
0 0 0
0 0 0
0 0 0
0 0 0
0 0 0
0 0 0
0 0 0
0 0 0
0 0 0
0 0 0
0 0 0
0 0 0
0 0 0
0 0 0
0 0 0
0 0 0
0 0 0
0 0 0
0 0 0
0 0 0
0 0 0
0 0 0
0 0 0
0 0 0
0 0 0
0 0 0
0 0 0
0 0 0
0 0 0
0 0 0
0 0 0
0 0 0
0 0 0
0 0 0
0 0 0
0 0 0
0 0 0
0 0 0
0 0 0
0 0 0
0 0 0
0 0 0
0 0 0
0 0 0
0 0 0
0 0 0
0 0 0
0 0 0
0 0 0
0 0 0
0 0 0
0 0 0
0 0 0
0 0 0
0 0 0
0 0 0
0 0 0
0 0 0
0 0 0
0 0 0
0 0 0
0 0 0
0 0 0
0 0 0
0 0 0
0 0 0
0 0 0
0 0 0
0 0 0
0 0 0
0 0 0
0 0 0
0 0 0
0 0 0
0 0 0
0 0 0
0 0 0
0 0 0
0 0 0
0 0 0
0 0 0
0 0 0
0 0 0
0 0 0
0 0 0
0 0 0
0 0 0
0 0 0
0 0 0
0 0 0
0 0 0
0 0 0
0 0 0
0 0 0
0 0 0
0 0 0
0 0 0
0 0 0
0 0 0
0 0 0
0 0 0
0 0 0
0 0 0
0 0 0
0 0 0
0 0 0
0 0 0
0 0 0
0 0 0
0 0 0
0 0 0
0 0 0
0 0 0
0 0 0
0 0 0
0 0 0
0 0 0
0 0 0
0 0 0
0 0 0
0 0 0
0 0 0
0 0 0
0 0 0
0 0 0
0 0 0
0 0 0
0 0 0
0 0 0
0 0 0
0 0 0
0 0 0
0 0 0
0 0 0
0 0 0
0 0 0
0 0 0
0 0 0
0 0 0
0 0 0
0 0 0
0 0 0
0 0 0
0 0 0
0 0 0
0 0 0
0 0 0
0 0 0
0 0 0
0 0 0
0 0 0
0 0 0
0 0 0
0 0 0
0 0 0
0 0 0
0 0 0
0 0 0
0 0 0
0 0 0
0 0 0
0 0 0
0 0 0
0 0 0
0 0 0
0 0 0
0 0 0
0 0 0
0 0 0
0 0 0
0 0 0
0 0 0
0 0 0
0 0 0
0 0 0
0 0 0
0 0 0
0 0 0
0 0 0
0 0 0
0 0 0
0 0 0
0 0 0
0 0 0
0 0 0
0 0 0
0 0 0
0 0 0
0 0 0
0 0 0
0 0 0
0 0 0
0 0 0
0 0 0
0 0 0
0 0 0
0 0 0
0 0 0
0 0 0
0 0 0
0 0 0
0 0 0
0 0 0
0 0 0
0 0 0
0 0 0
0 0 0
0 0 0
0 0 0
0 0 0
0 0 0
0 0 0
0 0 0
0 0 0
0 0 0
0 0 0
0 0 0
0 0 0
0 0 0
0 0 0
0 0 0
0 0 0
0 0 0
0 0 0
0 0 0
0 0 0
0 0 0
0 0 0
0 0 0
0 0 0
0 0 0
0 0 0
0 0 0
0 0 0
0 0 0
0 0 0
0 0 0
0 0 0
0 0 0
0 0 0
0 0 0
0 0 0
0 0 0
0 0 0
0 0 0
0 0 0
0 0 0
0 0 0
0 0 0
0 0 0
0 0 0
0 0 0
0 0 0
0 0 0
0 0 0
0 0 0
0 0 0
0 0 0
0 0 0
0 0 0
0 0 0
0 0 0
0 0 0
0 0 0
0 0 0
0 0 0
0 0 0
0 0 0
0 0 0
0 0 0
0 0 0
0 0 0
0 0 0
0 0 0
0 0 0
0 0 0
0 0 0
0 0 0
0 0 0
0 0 0
0 0 0
0 0 0
0 0 0
0 0 0
0 0 0
0 0 0
0 0 0
0 0 0
0 0 0
0 0 0
0 0 0
0 0 0
0 0 0
0 0 0
0 0 0
0 0 0
0 0 0
0 0 0
0 0 0
0 0 0
0 0 0
0 0 0
0 0 0
0 0 0
0 0 0
0 0 0
0 0 0
0 0 0
0 0 0
0 0 0
0 0 0
0 0 0
0 0 0
0 0 0
0 0 0
0 0 0
0 0 0
0 0 0
0 0 0
0 0 0
0 0 0
0 0 0
0 0 0
0 0 0
0 0 0
0 0 0
0 0 0
0 0 0
0 0 0
0 0 0
0 0 0
0 0 0
0 0 0
0 0 0
0 0 0
0 0 0
0 0 0
0 0 0
0 0 0
0 0 0
0 0 0
0 0 0
0 0 0
0 0 0
0 0 0
0 0 0
0 0 0
0 0 0
0 0 0
0 0 0
0 0 0
0 0 0
0 0 0
0 0 0
0 0 0
0 0 0
0 0 0
0 0 0
0 0 0
0 0 0
0 0 0
0 0 0
0 0 0
0 0 0
0 0 0
0 0 0
0 0 0
0 0 0
0 0 0
0 0 0
0 0 0
0 0 0
0 0 0
0 0 0
0 0 0
0 0 0
0 0 0
0 0 0
0 0 0
0 0 0
0 0 0
0 0 0
0 0 0
0 0 0
0 0 0
0 0 0
0 0 0
0 0 0
0 0 0
0 0 0
0 0 0
0 0 0
0 0 0
0 0 0
0 0 0
0 0 0
0 0 0
0 0 0
0 0 0
0 0 0
0 0 0
0 0 0
0 0 0
0 0 0
0 0 0
0 0 0
0 0 0
0 0 0
0 0 0
0 0 0
0 0 0
0 0 0
0 0 0
0 0 0
0 0 0
0 0 0
0 0 0
0 0 0
0 0 0
0 0 0
0 0 0
0 0 0
0 0 0
0 0 0
0 0 0
0 0 0
0 0 0
0 0 0
0 0 0
0 0 0
0 0 0
0 0 0
0 0 0
0 0 0
0 0 0
0 0 0
0 0 0
0 0 0
0 0 0
0 0 0
0 0 0
0 0 0
0 0 0
0 0 0
0 0 0
0 0 0
0 0 0
0 0 0
0 0 0
0 0 0
0 0 0
0 0 0
0 0 0
0 0 0
0 0 0
0 0 0
0 0 0
0 0 0
0 0 0
0 0 0
0 0 0
0 0 0
0 0 0
0 0 0
0 0 0
0 0 0
0 0 0
0 0 0
0 0 0
0 0 0
0 0 0
0 0 0
0 0 0
0 0 0
0 0 0
0 0 0
0 0 0
0 0 0
0 0 0
0 0 0
0 0 0
0 0 0
0 0 0
0 0 0
0 0 0
0 0 0
0 0 0
0 0 0
0 0 0
0 0 0
0 0 0
0 0 0
0 0 0
0 0 0
0 0 0
0 0 0
0 0 0
0 0 0
0 0 0
0 0 0
0 0 0
0 0 0
0 0 0
0 0 0
0 0 0
0 0 0
0 0 0
0 0 0
0 0 0
0 0 0
0 0 0
0 0 0
0 0 0
0 0 0
0 0 0
0 0 0
0 0 0
0 0 0
0 0 0
0 0 0
0 0 0
0 0 0
0 0 0
0 0 0
0 0 0
0 0 0
0 0 0
0 0 0
0 0 0
0 0 0
0 0 0
0 0 0
0 0 0
0 0 0
0 0 0
0 0 0
0 0 0
0 0 0
0 0 0
0 0 0
0 0 0
0 0 0
0 0 0
0 0 0
0 0 0
0 0 0
0 0 0
0 0 0
0 0 0
0 0 0
0 0 0
0 0 0
0 0 0
0 0 0
0 0 0
0 0 0
0 0 0
0 0 0
0 0 0
0 0 0
0 0 0
0 0 0
0 0 0
0 0 0
0 0 0
0 0 0
0 0 0
0 0 0
0 0 0
0 0 0
0 0 0
0 0 0
0 0 0
0 0 0
0 0 0
0 0 0
0 0 0
0 0 0
0 0 0
0 0 0
0 0 0
0 0 0
0 0 0
0 0 0
0 0 0
0 0 0
0 0 0
0 0 0
0 0 0
0 0 0
0 0 0
0 0 0
0 0 0
0 0 0
0 0 0
0 0 0
0 0 0
0 0 0
0 0 0
0 0 0
0 0 0
0 0 0
0 0 0
0 0 0
0 0 0
0 0 0
0 0 0
0 0 0
0 0 0
0 0 0
0 0 0
0 0 0
0 0 0
0 0 0
0 0 0
0 0 0
0 0 0
0 0 0
0 0 0
0 0 0
0 0 0
0 0 0
0 0 0
0 0 0
0 0 0
0 0 0
0 0 0
0 0 0
0 0 0
0 0 0
0 0 0
0 0 0
0 0 0
0 0 0
0 0 0
0 0 0
0 0 0
0 0 0
0 0 0
0 0 0
0 0 0
0 0 0
0 0 0
0 0 0
0 0 0
0 0 0
0 0 0
0 0 0
0 0 0
0 0 0
0 0 0
0 0 0
0 0 0
0 0 0
0 0 0
0 0 0
0 0 0
0 0 0
0 0 0
0 0 0
0 0 0
0 0 0
0 0 0
0 0 0
0 0 0
0 0 0
0 0 0
0 0 0
0 0 0
0 0 0
0 0 0
0 0 0
0 0 0
0 0 0
0 0 0
0 0 0
0 0 0
0 0 0
0 0 0
0 0 0
0 0 0
0 0 0
0 0 0
0 0 0
0 0 0
0 0 0
0 0 0
0 0 0
0 0 0
0 0 0
0 0 0
0 0 0
0 0 0
0 0 0
0 0 0
0 0 0
0 0 0
0 0 0
0 0 0
0 0 0
0 0 0
0 0 0
0 0 0
0 0 0
0 0 0
0 0 0
0 0 0
0 0 0
0 0 0
0 0 0
0 0 0
0 0 0
0 0 0
0 0 0
0 0 0
0 0 0
0 0 0
0 0 0
0 0 0
0 0 0
0 0 0
0 0 0
0 0 0
0 0 0
0 0 0
0 0 0
0 0 0
0 0 0
0 0 0
0 0 0
0 0 0
0 0 0
0 0 0
0 0 0
0 0 0
0 0 0
0 0 0
0 0 0
0 0 0
0 0 0
0 0 0
0 0 0
0 0 0
0 0 0
0 0 0
0 0 0
0 0 0
0 0 0
0 0 0
0 0 0
0 0 0
0 0 0
0 0 0
0 0 0
0 0 0
0 0 0
0 0 0
0 0 0
0 0 0
0 0 0
0 0 0
0 0 0
0 0 0
0 0 0
0 0 0
0 0 0
0 0 0
0 0 0
0 0 0
0 0 0
0 0 0
0 0 0
0 0 0
0 0 0
0 0 0
0 0 0
0 0 0
0 0 0
0 0 0
0 0 0
0 0 0
0 0 0
0 0 0
0 0 0
0 0 0
0 0 0
0 0 0
0 0 0
0 0 0
0 0 0
0 0 0
0 0 0
0 0 0
0 0 0
0 0 0
0 0 0
0 0 0
0 0 0
0 0 0
0 0 0
0 0 0
0 0 0
0 0 0
0 0 0
0 0 0
0 0 0
0 0 0
0 0 0
0 0 0
0 0 0
0 0 0
0 0 0
0 0 0
0 0 0
0 0 0
0 0 0
0 0 0
0 0 0
0 0 0
0 0 0
0 0 0
0 0 0
0 0 0
0 0 0
0 0 0
0 0 0
0 0 0
0 0 0
0 0 0
0 0 0
0 0 0
0 0 0
0 0 0
0 0 0
0 0 0
0 0 0
0 0 0
0 0 0
0 0 0
0 0 0
0 0 0
0 0 0
0 0 0
0 0 0
0 0 0
0 0 0
0 0 0
0 0 0
0 0 0
0 0 0
0 0 0
0 0 0
0 0 0
0 0 0
0 0 0
0 0 0
0 0 0
0 0 0
0 0 0
0 0 0
0 0 0
0 0 0
0 0 0
0 0 0
0 0 0
0 0 0
0 0 0
0 0 0
0 0 0
0 0 0
0 0 0
0 0 0
0 0 0
0 0 0
0 0 0
0 0 0
0 0 0
0 0 0
0 0 0
0 0 0
0 0 0
0 0 0
0 0 0
0 0 0
0 0 0
0 0 0
0 0 0
0 0 0
0 0 0
0 0 0
0 0 0
0 0 0
0 0 0
0 0 0
0 0 0
0 0 0
0 0 0
0 0 0
0 0 0
0 0 0
0 0 0
0 0 0
0 0 0
0 0 0
0 0 0
0 0 0
0 0 0
0 0 0
0 0 0
0 0 0
0 0 0
0 0 0
0 0 0
0 0 0
0 0 0
0 0 0
0 0 0
0 0 0
0 0 0
0 0 0
0 0 0
0 0 0
0 0 0
0 0 0
0 0 0
0 0 0
0 0 0
0 0 0
0 0 0
0 0 0
0 0 0
0 0 0
0 0 0
0 0 0
0 0 0
0 0 0
0 0 0
0 0 0
0 0 0
0 0 0
0 0 0
0 0 0
0 0 0
0 0 0
0 0 0
0 0 0
0 0 0
0 0 0
0 0 0
0 0 0
0 0 0
0 0 0
0 0 0
0 0 0
0 0 0
0 0 0
0 0 0
0 0 0
0 0 0
0 0 0
0 0 0
0 0 0
0 0 0
0 0 0
0 0 0
0 0 0
0 0 0
0 0 0
0 0 0
0 0 0
0 0 0
0 0 0
0 0 0
0 0 0
0 0 0
0 0 0
0 0 0
0 0 0
0 0 0
0 0 0
0 0 0
0 0 0
0 0 0
0 0 0
0 0 0
0 0 0
0 0 0
0 0 0
0 0 0
0 0 0
0 0 0
0 0 0
0 0 0
0 0 0
0 0 0
0 0 0
0 0 0
0 0 0
0 0 0
0 0 0
0 0 0
0 0 0
0 0 0
0 0 0
0 0 0
0 0 0
0 0 0
0 0 0
0 0 0
0 0 0
0 0 0
0 0 0
0 0 0
0 0 0
0 0 0
0 0 0
0 0 0
0 0 0
0 0 0
0 0 0
0 0 0
0 0 0
0 0 0
0 0 0
0 0 0
0 0 0
0 0 0
0 0 0
0 0 0
0 0 0
0 0 0
0 0 0
0 0 0
0 0 0
0 0 0
0 0 0
0 0 0
0 0 0
0 0 0
0 0 0
0 0 0
0 0 0
0 0 0
0 0 0
0 0 0
0 0 0
0 0 0
0 0 0
0 0 0
0 0 0
0 0 0
0 0 0
0 0 0
0 0 0
0 0 0
0 0 0
0 0 0
0 0 0
0 0 0
0 0 0
0 0 0
0 0 0
0 0 0
0 0 0
0 0 0
0 0 0
0 0 0
0 0 0
0 0 0
0 0 0
0 0 0
0 0 0
0 0 0
0 0 0
0 0 0
0 0 0
0 0 0
0 0 0
0 0 0
0 0 0
0 0 0
0 0 0
0 0 0
0 0 0
0 0 0
0 0 0
0 0 0
0 0 0
0 0 0
0 0 0
0 0 0
0 0 0
0 0 0
0 0 0
0 0 0
0 0 0
0 0 0
0 0 0
0 0 0
0 0 0
0 0 0
0 0 0
0 0 0
0 0 0
0 0 0
0 0 0
0 0 0
0 0 0
0 0 0
0 0 0
0 0 0
0 0 0
0 0 0
0 0 0
0 0 0
0 0 0
0 0 0
0 0 0
0 0 0
0 0 0
0 0 0
0 0 0
0 0 0
0 0 0
0 0 0
0 0 0
0 0 0
0 0 0
0 0 0
0 0 0
0 0 0
0 0 0
0 0 0
0 0 0
0 0 0
0 0 0
0 0 0
0 0 0
0 0 0
0 0 0
0 0 0
0 0 0
0 0 0
0 0 0
0 0 0
0 0 0
0 0 0
0 0 0
0 0 0
0 0 0
0 0 0
0 0 0
0 0 0
0 0 0
0 0 0
0 0 0
0 0 0
0 0 0
0 0 0
0 0 0
0 0 0
0 0 0
0 0 0
0 0 0
0 0 0
0 0 0
0 0 0
0 0 0
0 0 0
0 0 0
0 0 0
0 0 0
0 0 0
0 0 0
0 0 0
0 0 0
0 0 0
0 0 0
0 0 0
0 0 0
0 0 0
0 0 0
0 0 0
0 0 0
0 0 0
0 0 0
0 0 0
0 0 0
0 0 0
0 0 0
0 0 0
0 0 0
0 0 0
0 0 0
0 0 0
0 0 0
0 0 0
0 0 0
0 0 0
0 0 0
0 0 0
0 0 0
0 0 0
0 0 0
0 0 0
0 0 0
0 0 0
0 0 0
0 0 0
0 0 0
0 0 0
0 0 0
0 0 0
0 0 0
0 0 0
0 0 0
0 0 0
0 0 0
0 0 0
0 0 0
0 0 0
0 0 0
0 0 0
0 0 0
0 0 0
0 0 0
0 0 0
0 0 0
0 0 0
0 0 0
0 0 0
0 0 0
0 0 0
0 0 0
0 0 0
0 0 0
0 0 0
0 0 0
0 0 0
0 0 0
0 0 0
0 0 0
0 0 0
0 0 0
0 0 0
0 0 0
0 0 0
0 0 0
0 0 0
0 0 0
0 0 0
0 0 0
0 0 0
0 0 0
0 0 0
0 0 0
0 0 0
0 0 0
0 0 0
0 0 0
0 0 0
0 0 0
0 0 0
0 0 0
0 0 0
0 0 0
0 0 0
0 0 0
0 0 0
0 0 0
0 0 0
0 0 0
0 0 0
0 0 0
0 0 0
0 0 0
0 0 0
0 0 0
0 0 0
0 0 0
0 0 0
0 0 0
0 0 0
0 0 0
0 0 0
0 0 0
0 0 0
0 0 0
0 0 0
0 0 0
0 0 0
0 0 0
0 0 0
0 0 0
0 0 0
0 0 0
0 0 0
0 0 0
0 0 0
0 0 0
0 0 0
0 0 0
0 0 0
0 0 0
0 0 0
0 0 0
0 0 0
0 0 0
0 0 0
0 0 0
0 0 0
0 0 0
0 0 0
0 0 0
0 0 0
0 0 0
0 0 0
0 0 0
0 0 0
0 0 0
0 0 0
0 0 0
0 0 0
0 0 0
0 0 0
0 0 0
0 0 0
0 0 0
0 0 0
0 0 0
0 0 0
0 0 0
0 0 0
0 0 0
0 0 0
0 0 0
0 0 0
0 0 0
0 0 0
0 0 0
0 0 0
0 0 0
0 0 0
0 0 0
0 0 0
0 0 0
0 0 0
0 0 0
0 0 0
0 0 0
0 0 0
0 0 0
0 0 0
0 0 0
0 0 0
0 0 0
0 0 0
0 0 0
0 0 0
0 0 0
0 0 0
0 0 0
0 0 0
0 0 0
0 0 0
0 0 0
0 0 0
0 0 0
0 0 0
0 0 0
0 0 0
0 0 0
0 0 0
0 0 0
0 0 0
0 0 0
0 0 0
0 0 0
0 0 0
0 0 0
0 0 0
0 0 0
0 0 0
0 0 0
0 0 0
0 0 0
0 0 0
0 0 0
0 0 0
0 0 0
0 0 0
0 0 0
0 0 0
0 0 0
0 0 0
0 0 0
0 0 0
0 0 0
0 0 0
0 0 0
0 0 0
0 0 0
0 0 0
0 0 0
0 0 0
0 0 0
0 0 0
0 0 0
0 0 0
0 0 0
0 0 0
0 0 0
0 0 0
0 0 0
0 0 0
0 0 0
0 0 0
0 0 0
0 0 0
0 0 0
0 0 0
0 0 0
0 0 0
0 0 0
0 0 0
0 0 0
0 0 0
0 0 0
0 0 0
0 0 0
0 0 0
0 0 0
0 0 0
0 0 0
0 0 0
0 0 0
0 0 0
0 0 0
0 0 0
0 0 0
0 0 0
0 0 0
0 0 0
0 0 0
0 0 0
0 0 0
0 0 0
0 0 0
0 0 0
0 0 0
0 0 0
0 0 0
0 0 0
0 0 0
0 0 0
0 0 0
0 0 0
0 0 0
0 0 0
0 0 0
0 0 0
0 0 0
0 0 0
0 0 0
0 0 0
0 0 0
0 0 0
0 0 0
0 0 0
0 0 0
0 0 0
0 0 0
0 0 0
0 0 0
0 0 0
0 0 0
0 0 0
0 0 0
0 0 0
0 0 0
0 0 0
0 0 0
0 0 0
0 0 0
0 0 0
0 0 0
0 0 0
0 0 0
0 0 0
0 0 0
0 0 0
0 0 0
0 0 0
0 0 0
0 0 0
0 0 0
0 0 0
0 0 0
0 0 0
0 0 0
0 0 0
0 0 0
0 0 0
0 0 0
0 0 0
0 0 0
0 0 0
0 0 0
0 0 0
0 0 0
0 0 0
0 0 0
0 0 0
0 0 0
0 0 0
0 0 0
0 0 0
0 0 0
0 0 0
0 0 0
0 0 0
0 0 0
0 0 0
0 0 0
0 0 0
0 0 0
0 0 0
0 0 0
0 0 0
0 0 0
0 0 0
0 0 0
0 0 0
0 0 0
0 0 0
0 0 0
0 0 0
0 0 0
0 0 0
0 0 0
0 0 0
0 0 0
0 0 0
0 0 0
0 0 0
0 0 0
0 0 0
0 0 0
0 0 0
0 0 0
0 0 0
0 0 0
0 0 0
0 0 0
0 0 0
0 0 0
0 0 0
0 0 0
0 0 0
0 0 0
0 0 0
0 0 0
0 0 0
0 0 0
0 0 0
0 0 0
0 0 0
0 0 0
0 0 0
0 0 0
0 0 0
0 0 0
0 0 0
0 0 0
0 0 0
0 0 0
0 0 0
0 0 0
0 0 0
0 0 0
0 0 0
0 0 0
0 0 0
0 0 0
0 0 0
0 0 0
0 0 0
0 0 0
0 0 0
0 0 0
0 0 0
0 0 0
0 0 0
0 0 0
0 0 0
0 0 0
0 0 0
0 0 0
0 0 0
0 0 0
0 0 0
0 0 0
0 0 0
0 0 0
0 0 0
0 0 0
0 0 0
0 0 0
0 0 0
0 0 0
0 0 0
0 0 0
0 0 0
0 0 0
0 0 0
0 0 0
0 0 0
0 0 0
0 0 0
0 0 0
0 0 0
0 0 0
0 0 0
0 0 0
0 0 0
0 0 0
0 0 0
0 0 0
0 0 0
0 0 0
0 0 0
0 0 0
0 0 0
0 0 0
0 0 0
0 0 0
0 0 0
0 0 0
0 0 0
0 0 0
0 0 0
0 0 0
0 0 0
0 0 0
0 0 0
0 0 0
0 0 0
0 0 0
0 0 0
0 0 0
0 0 0
0 0 0
0 0 0
0 0 0
0 0 0
0 0 0
0 0 0
0 0 0
0 0 0
0 0 0
0 0 0
0 0 0
0 0 0
0 0 0
0 0 0
0 0 0
0 0 0
0 0 0
0 0 0
0 0 0
0 0 0
0 0 0
0 0 0
0 0 0
0 0 0
0 0 0
0 0 0
0 0 0
0 0 0
0 0 0
0 0 0
0 0 0
0 0 0
0 0 0
0 0 0
0 0 0
0 0 0
0 0 0
0 0 0
0 0 0
0 0 0
0 0 0
0 0 0
0 0 0
0 0 0
0 0 0
0 0 0
0 0 0
0 0 0
0 0 0
0 0 0
0 0 0
0 0 0
0 0 0
0 0 0
0 0 0
0 0 0
0 0 0
0 0 0
0 0 0
0 0 0
0 0 0
0 0 0
0 0 0
0 0 0
0 0 0
0 0 0
0 0 0
0 0 0
0 0 0
0 0 0
0 0 0
0 0 0
0 0 0
0 0 0
0 0 0
0 0 0
0 0 0
0 0 0
0 0 0
0 0 0
0 0 0
0 0 0
0 0 0
0 0 0
0 0 0
0 0 0
0 0 0
0 0 0
0 0 0
0 0 0
0 0 0
0 0 0
0 0 0
0 0 0
0 0 0
0 0 0
0 0 0
0 0 0
0 0 0
0 0 0
0 0 0
0 0 0
0 0 0
0 0 0
0 0 0
0 0 0
0 0 0
0 0 0
0 0 0
0 0 0
0 0 0
0 0 0
0 0 0
0 0 0
0 0 0
0 0 0
0 0 0
0 0 0
0 0 0
0 0 0
0 0 0
0 0 0
0 0 0
0 0 0
0 0 0
0 0 0
0 0 0
0 0 0
0 0 0
0 0 0
0 0 0
0 0 0
0 0 0
0 0 0
0 0 0
0 0 0
0 0 0
0 0 0
0 0 0
0 0 0
0 0 0
0 0 0
0 0 0
0 0 0
0 0 0
0 0 0
0 0 0
0 0 0
0 0 0
0 0 0
0 0 0
0 0 0
0 0 0
0 0 0
0 0 0
0 0 0
0 0 0
0 0 0
0 0 0
0 0 0
0 0 0
0 0 0
0 0 0
0 0 0
0 0 0
0 0 0
0 0 0
0 0 0
0 0 0
0 0 0
0 0 0
0 0 0
0 0 0
0 0 0
0 0 0
0 0 0
0 0 0
0 0 0
0 0 0
0 0 0
0 0 0
0 0 0
0 0 0
0 0 0
0 0 0
0 0 0
0 0 0
0 0 0
0 0 0
0 0 0
0 0 0
0 0 0
0 0 0
0 0 0
0 0 0
0 0 0
0 0 0
0 0 0
0 0 0
0 0 0
0 0 0
0 0 0
0 0 0
0 0 0
0 0 0
0 0 0
0 0 0
0 0 0
0 0 0
0 0 0
0 0 0
0 0 0
0 0 0
0 0 0
0 0 0
0 0 0
0 0 0
0 0 0
0 0 0
0 0 0
0 0 0
0 0 0
0 0 0
0 0 0
0 0 0
0 0 0
0 0 0
0 0 0
0 0 0
0 0 0
0 0 0
0 0 0
0 0 0
0 0 0
0 0 0
0 0 0
0 0 0
0 0 0
0 0 0
0 0 0
0 0 0
0 0 0
0 0 0
0 0 0
0 0 0
0 0 0
0 0 0
0 0 0
0 0 0
0 0 0
0 0 0
0 0 0
0 0 0
0 0 0
0 0 0
0 0 0
0 0 0
0 0 0
0 0 0
0 0 0
0 0 0
0 0 0
0 0 0
0 0 0
0 0 0
0 0 0
0 0 0
0 0 0
0 0 0
0 0 0
0 0 0
0 0 0
0 0 0
0 0 0
0 0 0
0 0 0
0 0 0
0 0 0
0 0 0
0 0 0
0 0 0
0 0 0
0 0 0
0 0 0
0 0 0
0 0 0
0 0 0
0 0 0
0 0 0
0 0 0
0 0 0
0 0 0
0 0 0
0 0 0
0 0 0
0 0 0
0 0 0
0 0 0
0 0 0
0 0 0
0 0 0
0 0 0
0 0 0
0 0 0
0 0 0
0 0 0
0 0 0
0 0 0
0 0 0
0 0 0
0 0 0
0 0 0
0 0 0
0 0 0
0 0 0
0 0 0
0 0 0
0 0 0
0 0 0
0 0 0
0 0 0
0 0 0
0 0 0
0 0 0
0 0 0
0 0 0
0 0 0
0 0 0
0 0 0
0 0 0
0 0 0
0 0 0
0 0 0
0 0 0
0 0 0
0 0 0
0 0 0
0 0 0
0 0 0
0 0 0
0 0 0
0 0 0
0 0 0
0 0 0
0 0 0
0 0 0
0 0 0
0 0 0
0 0 0
0 0 0
0 0 0
0 0 0
0 0 0
0 0 0
0 0 0
0 0 0
0 0 0
0 0 0
0 0 0
0 0 0
0 0 0
0 0 0
0 0 0
0 0 0
0 0 0
0 0 0
0 0 0
0 0 0
0 0 0
0 0 0
0 0 0
0 0 0
0 0 0
0 0 0
0 0 0
0 0 0
0 0 0
0 0 0
0 0 0
0 0 0
0 0 0
0 0 0
0 0 0
0 0 0
0 0 0
0 0 0
0 0 0
0 0 0
0 0 0
0 0 0
0 0 0
0 0 0
0 0 0
0 0 0
0 0 0
0 0 0
0 0 0
0 0 0
0 0 0
0 0 0
0 0 0
0 0 0
0 0 0
0 0 0
0 0 0
0 0 0
0 0 0
0 0 0
0 0 0
0 0 0
0 0 0
0 0 0
0 0 0
0 0 0
0 0 0
0 0 0
0 0 0
0 0 0
0 0 0
0 0 0
0 0 0
0 0 0
0 0 0
0 0 0
0 0 0
0 0 0
0 0 0
0 0 0
0 0 0
0 0 0
0 0 0
0 0 0
0 0 0
0 0 0
0 0 0
0 0 0
0 0 0
0 0 0
0 0 0
0 0 0
0 0 0
0 0 0
0 0 0
0 0 0
0 0 0
0 0 0
0 0 0
0 0 0
0 0 0
0 0 0
0 0 0
0 0 0
0 0 0
0 0 0
0 0 0
0 0 0
0 0 0
0 0 0
0 0 0
0 0 0
0 0 0
0 0 0
0 0 0
0 0 0
0 0 0
0 0 0
0 0 0
0 0 0
0 0 0
0 0 0
0 0 0
0 0 0
0 0 0
0 0 0
0 0 0
0 0 0
0 0 0
0 0 0
0 0 0
0 0 0
0 0 0
0 0 0
0 0 0
0 0 0
0 0 0
0 0 0
0 0 0
0 0 0
0 0 0
0 0 0
0 0 0
0 0 0
0 0 0
0 0 0
0 0 0
0 0 0
0 0 0
0 0 0
0 0 0
0 0 0
0 0 0
0 0 0
0 0 0
0 0 0
0 0 0
0 0 0
0 0 0
0 0 0
0 0 0
0 0 0
0 0 0
0 0 0
0 0 0
0 0 0
0 0 0
0 0 0
0 0 0
0 0 0
0 0 0
0 0 0
0 0 0
0 0 0
0 0 0
0 0 0
0 0 0
0 0 0
0 0 0
0 0 0
0 0 0
0 0 0
0 0 0
0 0 0
0 0 0
0 0 0
0 0 0
0 0 0
0 0 0
0 0 0
0 0 0
0 0 0
0 0 0
0 0 0
0 0 0
0 0 0
0 0 0
0 0 0
0 0 0
0 0 0
0 0 0
0 0 0
0 0 0
0 0 0
0 0 0
0 0 0
0 0 0
0 0 0
0 0 0
0 0 0
0 0 0
0 0 0
0 0 0
0 0 0
0 0 0
0 0 0
0 0 0
0 0 0
0 0 0
0 0 0
0 0 0
0 0 0
0 0 0
0 0 0
0 0 0
0 0 0
0 0 0
0 0 0
0 0 0
0 0 0
0 0 0
0 0 0
0 0 0
0 0 0
0 0 0
0 0 0
0 0 0
0 0 0
0 0 0
0 0 0
0 0 0
0 0 0
0 0 0
0 0 0
0 0 0
0 0 0
0 0 0
0 0 0
0 0 0
0 0 0
0 0 0
0 0 0
0 0 0
0 0 0
0 0 0
0 0 0
0 0 0
0 0 0
0 0 0
0 0 0
0 0 0
0 0 0
0 0 0
0 0 0
0 0 0
0 0 0
0 0 0
0 0 0
0 0 0
0 0 0
0 0 0
0 0 0
0 0 0
0 0 0
0 0 0
0 0 0
0 0 0
0 0 0
0 0 0
0 0 0
0 0 0
0 0 0
0 0 0
0 0 0
0 0 0
0 0 0
0 0 0
0 0 0
0 0 0
0 0 0
0 0 0
0 0 0
0 0 0
0 0 0
0 0 0
0 0 0
0 0 0
0 0 0
0 0 0
0 0 0
0 0 0
0 0 0
0 0 0
0 0 0
0 0 0
0 0 0
0 0 0
0 0 0
0 0 0
0 0 0
0 0 0
0 0 0
0 0 0
0 0 0
0 0 0
0 0 0
0 0 0
0 0 0
0 0 0
0 0 0
0 0 0
0 0 0
0 0 0
0 0 0
0 0 0
0 0 0
0 0 0
0 0 0
0 0 0
0 0 0
0 0 0
0 0 0
0 0 0
0 0 0
0 0 0
0 0 0
0 0 0
0 0 0
0 0 0
0 0 0
0 0 0
0 0 0
0 0 0
0 0 0
0 0 0
0 0 0
0 0 0
0 0 0
0 0 0
0 0 0
0 0 0
0 0 0
0 0 0
0 0 0
0 0 0
0 0 0
0 0 0
0 0 0
0 0 0
0 0 0
0 0 0
0 0 0
0 0 0
0 0 0
0 0 0
0 0 0
0 0 0
0 0 0
0 0 0
0 0 0
0 0 0
0 0 0
0 0 0
0 0 0
0 0 0
0 0 0
0 0 0
0 0 0
0 0 0
0 0 0
0 0 0
0 0 0
0 0 0
0 0 0
0 0 0
0 0 0
0 0 0
0 0 0
0 0 0
0 0 0
0 0 0
0 0 0
0 0 0
0 0 0
0 0 0
0 0 0
0 0 0
0 0 0
0 0 0
0 0 0
0 0 0
0 0 0
0 0 0
0 0 0
0 0 0
0 0 0
0 0 0
0 0 0
0 0 0
0 0 0
0 0 0
0 0 0
0 0 0
0 0 0
0 0 0
0 0 0
0 0 0
0 0 0
0 0 0
0 0 0
0 0 0
0 0 0
0 0 0
0 0 0
0 0 0
0 0 0
0 0 0
0 0 0
0 0 0
0 0 0
0 0 0
0 0 0
0 0 0
0 0 0
0 0 0
0 0 0
0 0 0
0 0 0
0 0 0
0 0 0
0 0 0
0 0 0
0 0 0
0 0 0
0 0 0
0 0 0
0 0 0
0 0 0
0 0 0
0 0 0
0 0 0
0 0 0
0 0 0
0 0 0
0 0 0
0 0 0
0 0 0
0 0 0
0 0 0
0 0 0
0 0 0
0 0 0
0 0 0
0 0 0
0 0 0
0 0 0
0 0 0
0 0 0
0 0 0
0 0 0
0 0 0
0 0 0
0 0 0
0 0 0
0 0 0
0 0 0
0 0 0
0 0 0
0 0 0
0 0 0
0 0 0
0 0 0
0 0 0
0 0 0
0 0 0
0 0 0
0 0 0
0 0 0
0 0 0
0 0 0
0 0 0
0 0 0
0 0 0
0 0 0
0 0 0
0 0 0
0 0 0
0 0 0
0 0 0
0 0 0
0 0 0
0 0 0
0 0 0
0 0 0
0 0 0
0 0 0
0 0 0
0 0 0
0 0 0
0 0 0
0 0 0
0 0 0
0 0 0
0 0 0
0 0 0
0 0 0
0 0 0
0 0 0
0 0 0
0 0 0
0 0 0
0 0 0
0 0 0
0 0 0
0 0 0
0 0 0
0 0 0
0 0 0
0 0 0
0 0 0
0 0 0
0 0 0
0 0 0
0 0 0
0 0 0
0 0 0
0 0 0
0 0 0
0 0 0
0 0 0
0 0 0
0 0 0
0 0 0
0 0 0
0 0 0
0 0 0
0 0 0
0 0 0
0 0 0
0 0 0
0 0 0
0 0 0
0 0 0
0 0 0
0 0 0
0 0 0
0 0 0
0 0 0
0 0 0
0 0 0
0 0 0
0 0 0
0 0 0
0 0 0
0 0 0
0 0 0
0 0 0
0 0 0
0 0 0
0 0 0
0 0 0
0 0 0
0 0 0
0 0 0
0 0 0
0 0 0
0 0 0
0 0 0
0 0 0
0 0 0
0 0 0
0 0 0
0 0 0
0 0 0
0 0 0
0 0 0
0 0 0
0 0 0
0 0 0
0 0 0
0 0 0
0 0 0
0 0 0
0 0 0
0 0 0
0 0 0
0 0 0
0 0 0
0 0 0
0 0 0
0 0 0
0 0 0
0 0 0
0 0 0
0 0 0
0 0 0
0 0 0
0 0 0
0 0 0
0 0 0
0 0 0
0 0 0
0 0 0
0 0 0
0 0 0
0 0 0
0 0 0
0 0 0
0 0 0
0 0 0
0 0 0
0 0 0
0 0 0
0 0 0
0 0 0
0 0 0
0 0 0
0 0 0
0 0 0
0 0 0
0 0 0
0 0 0
0 0 0
0 0 0
0 0 0
0 0 0
0 0 0
0 0 0
0 0 0
0 0 0
0 0 0
0 0 0
0 0 0
0 0 0
0 0 0
0 0 0
0 0 0
0 0 0
0 0 0
0 0 0
0 0 0
0 0 0
0 0 0
0 0 0
0 0 0
0 0 0
0 0 0
0 0 0
0 0 0
0 0 0
0 0 0
0 0 0
0 0 0
0 0 0
0 0 0
0 0 0
0 0 0
0 0 0
0 0 0
0 0 0
0 0 0
0 0 0
0 0 0
0 0 0
0 0 0
0 0 0
0 0 0
0 0 0
0 0 0
0 0 0
0 0 0
0 0 0
0 0 0
0 0 0
0 0 0
0 0 0
0 0 0
0 0 0
0 0 0
0 0 0
0 0 0
0 0 0
0 0 0
0 0 0
0 0 0
0 0 0
0 0 0
0 0 0
0 0 0
0 0 0
0 0 0
0 0 0
0 0 0
0 0 0
0 0 0
0 0 0
0 0 0
0 0 0
0 0 0
0 0 0
0 0 0
0 0 0
0 0 0
0 0 0
0 0 0
0 0 0
0 0 0
0 0 0
0 0 0
0 0 0
0 0 0
0 0 0
0 0 0
0 0 0
0 0 0
0 0 0
0 0 0
0 0 0
0 0 0
0 0 0
0 0 0
0 0 0
0 0 0
0 0 0
0 0 0
0 0 0
0 0 0
0 0 0
0 0 0
0 0 0
0 0 0
0 0 0
0 0 0
0 0 0
0 0 0
0 0 0
0 0 0
0 0 0
0 0 0
0 0 0
0 0 0
0 0 0
0 0 0
0 0 0
0 0 0
0 0 0
0 0 0
0 0 0
0 0 0
0 0 0
0 0 0
0 0 0
0 0 0
0 0 0
0 0 0
0 0 0
0 0 0
0 0 0
0 0 0
0 0 0
0 0 0
0 0 0
0 0 0
0 0 0
0 0 0
0 0 0
0 0 0
0 0 0
0 0 0
0 0 0
0 0 0
0 0 0
0 0 0
0 0 0
0 0 0
0 0 0
0 0 0
0 0 0
0 0 0
0 0 0
0 0 0
0 0 0
0 0 0
0 0 0
0 0 0
0 0 0
0 0 0
0 0 0
0 0 0
0 0 0
0 0 0
0 0 0
0 0 0
0 0 0
0 0 0
0 0 0
0 0 0
0 0 0
0 0 0
0 0 0
0 0 0
0 0 0
0 0 0
0 0 0
0 0 0
0 0 0
0 0 0
0 0 0
0 0 0
0 0 0
0 0 0
0 0 0
0 0 0
0 0 0
0 0 0
0 0 0
0 0 0
0 0 0
0 0 0
0 0 0
0 0 0
0 0 0
0 0 0
0 0 0
0 0 0
0 0 0
0 0 0
0 0 0
0 0 0
0 0 0
0 0 0
0 0 0
0 0 0
0 0 0
0 0 0
0 0 0
0 0 0
0 0 0
0 0 0
0 0 0
0 0 0
0 0 0
0 0 0
0 0 0
0 0 0
0 0 0
0 0 0
0 0 0
0 0 0
0 0 0
0 0 0
0 0 0
0 0 0
0 0 0
0 0 0
0 0 0
0 0 0
0 0 0
0 0 0
0 0 0
0 0 0
0 0 0
0 0 0
0 0 0
0 0 0
0 0 0
0 0 0
0 0 0
0 0 0
0 0 0
0 0 0
0 0 0
0 0 0
0 0 0
0 0 0
0 0 0
0 0 0
0 0 0
0 0 0
0 0 0
0 0 0
0 0 0
0 0 0
0 0 0
0 0 0
0 0 0
0 0 0
0 0 0
0 0 0
0 0 0
0 0 0
0 0 0
0 0 0
0 0 0
0 0 0
0 0 0
0 0 0
0 0 0
0 0 0
0 0 0
0 0 0
0 0 0
0 0 0
0 0 0
0 0 0
0 0 0
0 0 0
0 0 0
0 0 0
0 0 0
0 0 0
0 0 0
0 0 0
0 0 0
0 0 0
0 0 0
0 0 0
0 0 0
0 0 0
0 0 0
0 0 0
0 0 0
0 0 0
0 0 0
0 0 0
0 0 0
0 0 0
0 0 0
0 0 0
0 0 0
0 0 0
0 0 0
0 0 0
0 0 0
0 0 0
0 0 0
0 0 0
0 0 0
0 0 0
0 0 0
0 0 0
0 0 0
0 0 0
0 0 0
0 0 0
0 0 0
0 0 0
0 0 0
0 0 0
0 0 0
0 0 0
0 0 0
0 0 0
0 0 0
0 0 0
0 0 0
0 0 0
0 0 0
0 0 0
0 0 0
0 0 0
0 0 0
0 0 0
0 0 0
0 0 0
0 0 0
0 0 0
0 0 0
0 0 0
0 0 0
0 0 0
0 0 0
0 0 0
0 0 0
0 0 0
0 0 0
0 0 0
0 0 0
0 0 0
0 0 0
0 0 0
0 0 0
0 0 0
0 0 0
0 0 0
0 0 0
0 0 0
0 0 0
0 0 0
0 0 0
0 0 0
0 0 0
0 0 0
0 0 0
0 0 0
0 0 0
0 0 0
0 0 0
0 0 0
0 0 0
0 0 0
0 0 0
0 0 0
0 0 0
0 0 0
0 0 0
0 0 0
0 0 0
0 0 0
0 0 0
0 0 0
0 0 0
0 0 0
0 0 0
0 0 0
0 0 0
0 0 0
0 0 0
0 0 0
0 0 0
0 0 0
0 0 0
0 0 0
0 0 0
0 0 0
0 0 0
0 0 0
0 0 0
0 0 0
0 0 0
0 0 0
0 0 0
0 0 0
0 0 0
0 0 0
0 0 0
0 0 0
0 0 0
0 0 0
0 0 0
0 0 0
0 0 0
0 0 0
0 0 0
0 0 0
0 0 0
0 0 0
0 0 0
0 0 0
0 0 0
0 0 0
0 0 0
0 0 0
0 0 0
0 0 0
0 0 0
0 0 0
0 0 0
0 0 0
0 0 0
0 0 0
0 0 0
0 0 0
0 0 0
0 0 0
0 0 0
0 0 0
0 0 0
0 0 0
0 0 0
0 0 0
0 0 0
0 0 0
0 0 0
0 0 0
0 0 0
0 0 0
0 0 0
0 0 0
0 0 0
0 0 0
0 0 0
0 0 0
0 0 0
0 0 0
0 0 0
0 0 0
0 0 0
0 0 0
0 0 0
0 0 0
0 0 0
0 0 0
0 0 0
0 0 0
0 0 0
0 0 0
0 0 0
0 0 0
0 0 0
0 0 0
0 0 0
0 0 0
0 0 0
0 0 0
0 0 0
0 0 0
0 0 0
0 0 0
0 0 0
0 0 0
0 0 0
0 0 0
0 0 0
0 0 0
0 0 0
0 0 0
0 0 0
0 0 0
0 0 0
0 0 0
0 0 0
0 0 0
0 0 0
0 0 0
0 0 0
0 0 0
0 0 0
0 0 0
0 0 0
0 0 0
0 0 0
0 0 0
0 0 0
0 0 0
0 0 0
0 0 0
0 0 0
0 0 0
0 0 0
0 0 0
0 0 0
0 0 0
0 0 0
0 0 0
0 0 0
0 0 0
0 0 0
0 0 0
0 0 0
0 0 0
0 0 0
0 0 0
0 0 0
0 0 0
0 0 0
0 0 0
0 0 0
0 0 0
0 0 0
0 0 0
0 0 0
0 0 0
0 0 0
0 0 0
0 0 0
0 0 0
0 0 0
0 0 0
0 0 0
0 0 0
0 0 0
0 0 0
0 0 0
0 0 0
0 0 0
0 0 0
0 0 0
0 0 0
0 0 0
0 0 0
0 0 0
0 0 0
0 0 0
0 0 0
0 0 0
0 0 0
0 0 0
0 0 0
0 0 0
0 0 0
0 0 0
0 0 0
0 0 0
0 0 0
0 0 0
0 0 0
0 0 0
0 0 0
0 0 0
0 0 0
0 0 0
0 0 0
0 0 0
0 0 0
0 0 0
0 0 0
0 0 0
0 0 0
0 0 0
0 0 0
0 0 0
0 0 0
0 0 0
0 0 0
0 0 0
0 0 0
0 0 0
0 0 0
0 0 0
0 0 0
0 0 0
0 0 0
0 0 0
0 0 0
0 0 0
0 0 0
0 0 0
0 0 0
0 0 0
0 0 0
0 0 0
0 0 0
0 0 0
0 0 0
0 0 0
0 0 0
0 0 0
0 0 0
0 0 0
0 0 0
0 0 0
0 0 0
0 0 0
0 0 0
0 0 0
0 0 0
0 0 0
0 0 0
0 0 0
0 0 0
0 0 0
0 0 0
0 0 0
0 0 0
0 0 0
0 0 0
0 0 0
0 0 0
0 0 0
0 0 0
0 0 0
0 0 0
0 0 0
0 0 0
0 0 0
0 0 0
0 0 0
0 0 0
0 0 0
0 0 0
0 0 0
0 0 0
0 0 0
0 0 0
0 0 0
0 0 0
0 0 0
0 0 0
0 0 0
0 0 0
0 0 0
0 0 0
0 0 0
0 0 0
0 0 0
0 0 0
0 0 0
0 0 0
0 0 0
0 0 0
0 0 0
0 0 0
0 0 0
0 0 0
0 0 0
0 0 0
0 0 0
0 0 0
0 0 0
0 0 0
0 0 0
0 0 0
0 0 0
0 0 0
0 0 0
0 0 0
0 0 0
0 0 0
0 0 0
0 0 0
0 0 0
0 0 0
0 0 0
0 0 0
0 0 0
0 0 0
0 0 0
0 0 0
0 0 0
0 0 0
0 0 0
0 0 0
0 0 0
0 0 0
0 0 0
0 0 0
0 0 0
0 0 0
0 0 0
0 0 0
0 0 0
0 0 0
0 0 0
0 0 0
0 0 0
0 0 0
0 0 0
0 0 0
0 0 0
0 0 0
0 0 0
0 0 0
0 0 0
0 0 0
0 0 0
0 0 0
0 0 0
0 0 0
0 0 0
0 0 0
0 0 0
0 0 0
0 0 0
0 0 0
0 0 0
0 0 0
0 0 0
0 0 0
0 0 0
0 0 0
0 0 0
0 0 0
0 0 0
0 0 0
0 0 0
0 0 0
0 0 0
0 0 0
0 0 0
0 0 0
0 0 0
0 0 0
0 0 0
0 0 0
0 0 0
0 0 0
0 0 0
0 0 0
0 0 0
0 0 0
0 0 0
0 0 0
0 0 0
0 0 0
0 0 0
0 0 0
0 0 0
0 0 0
0 0 0
0 0 0
0 0 0
0 0 0
0 0 0
0 0 0
0 0 0
0 0 0
0 0 0
0 0 0
0 0 0
0 0 0
0 0 0
0 0 0
0 0 0
0 0 0
0 0 0
0 0 0
0 0 0
0 0 0
0 0 0
0 0 0
0 0 0
0 0 0
0 0 0
0 0 0
0 0 0
0 0 0
0 0 0
0 0 0
0 0 0
0 0 0
0 0 0
0 0 0
0 0 0
0 0 0
0 0 0
0 0 0
0 0 0
0 0 0
0 0 0
0 0 0
0 0 0
0 0 0
0 0 0
0 0 0
0 0 0
0 0 0
0 0 0
0 0 0
0 0 0
0 0 0
0 0 0
0 0 0
0 0 0
0 0 0
0 0 0
0 0 0
0 0 0
0 0 0
0 0 0
0 0 0
0 0 0
0 0 0
0 0 0
0 0 0
0 0 0
0 0 0
0 0 0
0 0 0
0 0 0
0 0 0
0 0 0
0 0 0
0 0 0
0 0 0
0 0 0
0 0 0
0 0 0
0 0 0
0 0 0
0 0 0
0 0 0
0 0 0
0 0 0
0 0 0
0 0 0
0 0 0
0 0 0
0 0 0
0 0 0
0 0 0
0 0 0
0 0 0
0 0 0
0 0 0
0 0 0
0 0 0
0 0 0
0 0 0
0 0 0
0 0 0
0 0 0
0 0 0
0 0 0
0 0 0
0 0 0
0 0 0
0 0 0
0 0 0
0 0 0
0 0 0
0 0 0
0 0 0
0 0 0
0 0 0
0 0 0
0 0 0
0 0 0
0 0 0
0 0 0
0 0 0
0 0 0
0 0 0
0 0 0
0 0 0
0 0 0
0 0 0
0 0 0
0 0 0
0 0 0
0 0 0
0 0 0
0 0 0
0 0 0
0 0 0
0 0 0
0 0 0
0 0 0
0 0 0
0 0 0
0 0 0
0 0 0
0 0 0
0 0 0
0 0 0
0 0 0
0 0 0
0 0 0
0 0 0
0 0 0
0 0 0
0 0 0
0 0 0
0 0 0
0 0 0
0 0 0
0 0 0
0 0 0
0 0 0
0 0 0
0 0 0
0 0 0
0 0 0
0 0 0
0 0 0
0 0 0
0 0 0
0 0 0
0 0 0
0 0 0
0 0 0
0 0 0
0 0 0
0 0 0
0 0 0
0 0 0
0 0 0
0 0 0
0 0 0
0 0 0
0 0 0
0 0 0
0 0 0
0 0 0
0 0 0
0 0 0
0 0 0
0 0 0
0 0 0
0 0 0
0 0 0
0 0 0
0 0 0
0 0 0
0 0 0
0 0 0
0 0 0
0 0 0
0 0 0
0 0 0
0 0 0
0 0 0
0 0 0
0 0 0
0 0 0
0 0 0
0 0 0
0 0 0
0 0 0
0 0 0
0 0 0
0 0 0
0 0 0
0 0 0
0 0 0
0 0 0
0 0 0
0 0 0
0 0 0
0 0 0
0 0 0
0 0 0
0 0 0
0 0 0
0 0 0
0 0 0
0 0 0
0 0 0
0 0 0
0 0 0
0 0 0
0 0 0
0 0 0
0 0 0
0 0 0
0 0 0
0 0 0
0 0 0
0 0 0
0 0 0
0 0 0
0 0 0
0 0 0
0 0 0
0 0 0
0 0 0
0 0 0
0 0 0
0 0 0
0 0 0
0 0 0
0 0 0
0 0 0
0 0 0
0 0 0
0 0 0
0 0 0
0 0 0
0 0 0
0 0 0
0 0 0
0 0 0
0 0 0
0 0 0
0 0 0
0 0 0
0 0 0
0 0 0
0 0 0
0 0 0
0 0 0
0 0 0
0 0 0
0 0 0
0 0 0
0 0 0
0 0 0
0 0 0
0 0 0
0 0 0
0 0 0
0 0 0
0 0 0
0 0 0
0 0 0
0 0 0
0 0 0
0 0 0
0 0 0
0 0 0
0 0 0
0 0 0
0 0 0
0 0 0
0 0 0
0 0 0
0 0 0
0 0 0
0 0 0
0 0 0
0 0 0
0 0 0
0 0 0
0 0 0
0 0 0
0 0 0
0 0 0
0 0 0
0 0 0
0 0 0
0 0 0
0 0 0
0 0 0
0 0 0
0 0 0
0 0 0
0 0 0
0 0 0
0 0 0
0 0 0
0 0 0
0 0 0
0 0 0
0 0 0
0 0 0
0 0 0
0 0 0
0 0 0
0 0 0
0 0 0
0 0 0
0 0 0
0 0 0
0 0 0
0 0 0
0 0 0
0 0 0
0 0 0
0 0 0
0 0 0
0 0 0
0 0 0
0 0 0
0 0 0
0 0 0
0 0 0
0 0 0
0 0 0
0 0 0
0 0 0
0 0 0
0 0 0
0 0 0
0 0 0
0 0 0
0 0 0
0 0 0
0 0 0
0 0 0
0 0 0
0 0 0
0 0 0
0 0 0
0 0 0
0 0 0
0 0 0
0 0 0
0 0 0
0 0 0
0 0 0
0 0 0
0 0 0
0 0 0
0 0 0
0 0 0
0 0 0
0 0 0
0 0 0
0 0 0
0 0 0
0 0 0
0 0 0
0 0 0
0 0 0
0 0 0
0 0 0
0 0 0
0 0 0
0 0 0
0 0 0
0 0 0
0 0 0
0 0 0
0 0 0
0 0 0
0 0 0
0 0 0
0 0 0
0 0 0
0 0 0
0 0 0
0 0 0
0 0 0
0 0 0
0 0 0
0 0 0
0 0 0
0 0 0
0 0 0
0 0 0
0 0 0
0 0 0
0 0 0
0 0 0
0 0 0
0 0 0
0 0 0
0 0 0
0 0 0
0 0 0
0 0 0
0 0 0
0 0 0
0 0 0
0 0 0
0 0 0
0 0 0
0 0 0
0 0 0
0 0 0
0 0 0
0 0 0
0 0 0
0 0 0
0 0 0
0 0 0
0 0 0
0 0 0
0 0 0
0 0 0
0 0 0
0 0 0
0 0 0
0 0 0
0 0 0
0 0 0
0 0 0
0 0 0
0 0 0
0 0 0
0 0 0
0 0 0
0 0 0
0 0 0
0 0 0
0 0 0
0 0 0
0 0 0
0 0 0
0 0 0
0 0 0
0 0 0
0 0 0
0 0 0
0 0 0
0 0 0
0 0 0
0 0 0
0 0 0
0 0 0
0 0 0
0 0 0
0 0 0
0 0 0
0 0 0
0 0 0
0 0 0
0 0 0
0 0 0
0 0 0
0 0 0
0 0 0
0 0 0
0 0 0
0 0 0
0 0 0
0 0 0
0 0 0
0 0 0
0 0 0
0 0 0
0 0 0
0 0 0
0 0 0
0 0 0
0 0 0
0 0 0
0 0 0
0 0 0
0 0 0
0 0 0
0 0 0
0 0 0
0 0 0
0 0 0
0 0 0
0 0 0
0 0 0
0 0 0
0 0 0
0 0 0
0 0 0
0 0 0
0 0 0
0 0 0
0 0 0
0 0 0
0 0 0
0 0 0
0 0 0
0 0 0
0 0 0
0 0 0
0 0 0
0 0 0
0 0 0
0 0 0
0 0 0
0 0 0
0 0 0
0 0 0
0 0 0
0 0 0
0 0 0
0 0 0
0 0 0
0 0 0
0 0 0
0 0 0
0 0 0
0 0 0
0 0 0
0 0 0
0 0 0
0 0 0
0 0 0
0 0 0
0 0 0
0 0 0
0 0 0
0 0 0
0 0 0
0 0 0
0 0 0
0 0 0
0 0 0
0 0 0
0 0 0
0 0 0
0 0 0
0 0 0
0 0 0
0 0 0
0 0 0
0 0 0
0 0 0
0 0 0
0 0 0
0 0 0
0 0 0
0 0 0
0 0 0
0 0 0
0 0 0
0 0 0
0 0 0
0 0 0
0 0 0
0 0 0
0 0 0
0 0 0
0 0 0
0 0 0
0 0 0
0 0 0
0 0 0
0 0 0
0 0 0
0 0 0
0 0 0
0 0 0
0 0 0
0 0 0
0 0 0
0 0 0
0 0 0
0 0 0
0 0 0
0 0 0
0 0 0
0 0 0
0 0 0
0 0 0
0 0 0
0 0 0
0 0 0
0 0 0
0 0 0
0 0 0
0 0 0
0 0 0
0 0 0
0 0 0
0 0 0
0 0 0
0 0 0
0 0 0
0 0 0
0 0 0
0 0 0
0 0 0
0 0 0
0 0 0
0 0 0
0 0 0
0 0 0
0 0 0
0 0 0
0 0 0
0 0 0
0 0 0
0 0 0
0 0 0
0 0 0
0 0 0
0 0 0
0 0 0
0 0 0
0 0 0
0 0 0
0 0 0
0 0 0
0 0 0
0 0 0
0 0 0
0 0 0
0 0 0
0 0 0
0 0 0
0 0 0
0 0 0
0 0 0
0 0 0
0 0 0
0 0 0
0 0 0
0 0 0
0 0 0
0 0 0
0 0 0
0 0 0
0 0 0
0 0 0
0 0 0
0 0 0
0 0 0
0 0 0
0 0 0
0 0 0
0 0 0
0 0 0
0 0 0
0 0 0
0 0 0
0 0 0
0 0 0
0 0 0
0 0 0
0 0 0
0 0 0
0 0 0
0 0 0
0 0 0
0 0 0
0 0 0
0 0 0
0 0 0
0 0 0
0 0 0
0 0 0
0 0 0
0 0 0
0 0 0
0 0 0
0 0 0
0 0 0
0 0 0
0 0 0
0 0 0
0 0 0
0 0 0
0 0 0
0 0 0
0 0 0
0 0 0
0 0 0
0 0 0
0 0 0
0 0 0
0 0 0
0 0 0
0 0 0
0 0 0
0 0 0
0 0 0
0 0 0
0 0 0
0 0 0
0 0 0
0 0 0
0 0 0
0 0 0
0 0 0
0 0 0
0 0 0
0 0 0
0 0 0
0 0 0
0 0 0
0 0 0
0 0 0
0 0 0
0 0 0
0 0 0
0 0 0
0 0 0
0 0 0
0 0 0
0 0 0
0 0 0
0 0 0
0 0 0
0 0 0
0 0 0
0 0 0
0 0 0
0 0 0
0 0 0
0 0 0
0 0 0
0 0 0
0 0 0
0 0 0
0 0 0
0 0 0
0 0 0
0 0 0
0 0 0
0 0 0
0 0 0
0 0 0
0 0 0
0 0 0
0 0 0
0 0 0
0 0 0
0 0 0
0 0 0
0 0 0
0 0 0
0 0 0
0 0 0
0 0 0
0 0 0
0 0 0
0 0 0
0 0 0
0 0 0
0 0 0
0 0 0
0 0 0
0 0 0
0 0 0
0 0 0
0 0 0
0 0 0
0 0 0
0 0 0
0 0 0
0 0 0
0 0 0
0 0 0
0 0 0
0 0 0
0 0 0
0 0 0
0 0 0
0 0 0
0 0 0
0 0 0
0 0 0
0 0 0
0 0 0
0 0 0
0 0 0
0 0 0
0 0 0
0 0 0
0 0 0
0 0 0
0 0 0
0 0 0
0 0 0
0 0 0
0 0 0
0 0 0
0 0 0
0 0 0
0 0 0
0 0 0
0 0 0
0 0 0
0 0 0
0 0 0
0 0 0
0 0 0
0 0 0
0 0 0
0 0 0
0 0 0
0 0 0
0 0 0
0 0 0
0 0 0
0 0 0
0 0 0
0 0 0
0 0 0
0 0 0
0 0 0
0 0 0
0 0 0
0 0 0
0 0 0
0 0 0
0 0 0
0 0 0
0 0 0
0 0 0
0 0 0
0 0 0
0 0 0
0 0 0
0 0 0
0 0 0
0 0 0
0 0 0
0 0 0
0 0 0
0 0 0
0 0 0
0 0 0
0 0 0
0 0 0
0 0 0
0 0 0
0 0 0
0 0 0
0 0 0
0 0 0
0 0 0
0 0 0
0 0 0
0 0 0
0 0 0
0 0 0
0 0 0
0 0 0
0 0 0
0 0 0
0 0 0
0 0 0
0 0 0
0 0 0
0 0 0
0 0 0
0 0 0
0 0 0
0 0 0
0 0 0
0 0 0
0 0 0
0 0 0
0 0 0
0 0 0
0 0 0
0 0 0
0 0 0
0 0 0
0 0 0
0 0 0
0 0 0
0 0 0
0 0 0
0 0 0
0 0 0
0 0 0
0 0 0
0 0 0
0 0 0
0 0 0
0 0 0
0 0 0
0 0 0
0 0 0
0 0 0
0 0 0
0 0 0
0 0 0
0 0 0
0 0 0
0 0 0
0 0 0
0 0 0
0 0 0
0 0 0
0 0 0
0 0 0
0 0 0
0 0 0
0 0 0
0 0 0
0 0 0
0 0 0
0 0 0
0 0 0
0 0 0
0 0 0
0 0 0
0 0 0
0 0 0
0 0 0
0 0 0
0 0 0
0 0 0
0 0 0
0 0 0
0 0 0
0 0 0
0 0 0
0 0 0
0 0 0
0 0 0
0 0 0
0 0 0
0 0 0
0 0 0
0 0 0
0 0 0
0 0 0
0 0 0
0 0 0
0 0 0
0 0 0
0 0 0
0 0 0
0 0 0
0 0 0
0 0 0
0 0 0
0 0 0
0 0 0
0 0 0
0 0 0
0 0 0
0 0 0
0 0 0
0 0 0
0 0 0
0 0 0
0 0 0
0 0 0
0 0 0
0 0 0
0 0 0
0 0 0
0 0 0
0 0 0
0 0 0
0 0 0
0 0 0
0 0 0
0 0 0
0 0 0
0 0 0
0 0 0
0 0 0
0 0 0
0 0 0
0 0 0
0 0 0
0 0 0
0 0 0
0 0 0
0 0 0
0 0 0
0 0 0
0 0 0
0 0 0
0 0 0
0 0 0
0 0 0
0 0 0
0 0 0
0 0 0
0 0 0
0 0 0
0 0 0
0 0 0
0 0 0
0 0 0
0 0 0
0 0 0
0 0 0
0 0 0
0 0 0
0 0 0
0 0 0
0 0 0
0 0 0
0 0 0
0 0 0
0 0 0
0 0 0
0 0 0
0 0 0
0 0 0
0 0 0
0 0 0
0 0 0
0 0 0
0 0 0
0 0 0
0 0 0
0 0 0
0 0 0
0 0 0
0 0 0
0 0 0
0 0 0
0 0 0
0 0 0
0 0 0
0 0 0
0 0 0
0 0 0
0 0 0
0 0 0
0 0 0
0 0 0
0 0 0
0 0 0
0 0 0
0 0 0
0 0 0
0 0 0
0 0 0
0 0 0
0 0 0
0 0 0
0 0 0
0 0 0
0 0 0
0 0 0
0 0 0
0 0 0
0 0 0
0 0 0
0 0 0
0 0 0
0 0 0
0 0 0
0 0 0
0 0 0
0 0 0
0 0 0
0 0 0
0 0 0
0 0 0
0 0 0
0 0 0
0 0 0
0 0 0
0 0 0
0 0 0
0 0 0
0 0 0
0 0 0
0 0 0
0 0 0
0 0 0
0 0 0
0 0 0
0 0 0
0 0 0
0 0 0
0 0 0
0 0 0
0 0 0
0 0 0
0 0 0
0 0 0
0 0 0
0 0 0
0 0 0
0 0 0
0 0 0
0 0 0
0 0 0
0 0 0
0 0 0
0 0 0
0 0 0
0 0 0
0 0 0
0 0 0
0 0 0
0 0 0
0 0 0
0 0 0
0 0 0
0 0 0
0 0 0
0 0 0
0 0 0
0 0 0
0 0 0
0 0 0
0 0 0
0 0 0
0 0 0
0 0 0
0 0 0
0 0 0
0 0 0
0 0 0
0 0 0
0 0 0
0 0 0
0 0 0
0 0 0
0 0 0
0 0 0
0 0 0
0 0 0
0 0 0
0 0 0
0 0 0
0 0 0
0 0 0
0 0 0
0 0 0
0 0 0
0 0 0
0 0 0
0 0 0
0 0 0
0 0 0
0 0 0
0 0 0
0 0 0
0 0 0
0 0 0
0 0 0
0 0 0
0 0 0
0 0 0
0 0 0
0 0 0
0 0 0
0 0 0
0 0 0
0 0 0
0 0 0
0 0 0
0 0 0
0 0 0
0 0 0
0 0 0
0 0 0
0 0 0
0 0 0
0 0 0
0 0 0
0 0 0
0 0 0
0 0 0
0 0 0
0 0 0
0 0 0
0 0 0
0 0 0
0 0 0
0 0 0
0 0 0
0 0 0
0 0 0
0 0 0
0 0 0
0 0 0
0 0 0
0 0 0
0 0 0
0 0 0
0 0 0
0 0 0
0 0 0
0 0 0
0 0 0
0 0 0
0 0 0
0 0 0
0 0 0
0 0 0
0 0 0
0 0 0
0 0 0
0 0 0
0 0 0
0 0 0
0 0 0
0 0 0
0 0 0
0 0 0
0 0 0
0 0 0
0 0 0
0 0 0
0 0 0
0 0 0
0 0 0
0 0 0
0 0 0
0 0 0
0 0 0
0 0 0
0 0 0
0 0 0
0 0 0
0 0 0
0 0 0
0 0 0
0 0 0
0 0 0
0 0 0
0 0 0
0 0 0
0 0 0
0 0 0
0 0 0
0 0 0
0 0 0
0 0 0
0 0 0
0 0 0
0 0 0
0 0 0
0 0 0
0 0 0
0 0 0
0 0 0
0 0 0
0 0 0
0 0 0
0 0 0
0 0 0
0 0 0
0 0 0
0 0 0
0 0 0
0 0 0
0 0 0
0 0 0
0 0 0
0 0 0
0 0 0
0 0 0
0 0 0
0 0 0
0 0 0
0 0 0
0 0 0
0 0 0
0 0 0
0 0 0
0 0 0
0 0 0
0 0 0
0 0 0
0 0 0
0 0 0
0 0 0
0 0 0
0 0 0
0 0 0
0 0 0
0 0 0
0 0 0
0 0 0
0 0 0
0 0 0
0 0 0
0 0 0
0 0 0
0 0 0
0 0 0
0 0 0
0 0 0
0 0 0
0 0 0
0 0 0
0 0 0
0 0 0
0 0 0
0 0 0
0 0 0
0 0 0
0 0 0
0 0 0
0 0 0
0 0 0
0 0 0
0 0 0
0 0 0
0 0 0
0 0 0
0 0 0
0 0 0
0 0 0
0 0 0
0 0 0
0 0 0
0 0 0
0 0 0
0 0 0
0 0 0
0 0 0
0 0 0
0 0 0
0 0 0
0 0 0
0 0 0
0 0 0
0 0 0
0 0 0
0 0 0
0 0 0
0 0 0
0 0 0
0 0 0
0 0 0
0 0 0
0 0 0
0 0 0
0 0 0
0 0 0
0 0 0
0 0 0
0 0 0
0 0 0
0 0 0
0 0 0
0 0 0
0 0 0
0 0 0
0 0 0
0 0 0
0 0 0
0 0 0
0 0 0
0 0 0
0 0 0
0 0 0
0 0 0
0 0 0
0 0 0
0 0 0
0 0 0
0 0 0
0 0 0
0 0 0
0 0 0
0 0 0
0 0 0
0 0 0
0 0 0
0 0 0
0 0 0
0 0 0
0 0 0
0 0 0
0 0 0
0 0 0
0 0 0
0 0 0
0 0 0
0 0 0
0 0 0
0 0 0
0 0 0
0 0 0
0 0 0
0 0 0
0 0 0
0 0 0
0 0 0
0 0 0
0 0 0
0 0 0
0 0 0
0 0 0
0 0 0
0 0 0
0 0 0
0 0 0
0 0 0
0 0 0
0 0 0
0 0 0
0 0 0
0 0 0
0 0 0
0 0 0
0 0 0
0 0 0
0 0 0
0 0 0
0 0 0
0 0 0
0 0 0
0 0 0
0 0 0
0 0 0
0 0 0
0 0 0
0 0 0
0 0 0
0 0 0
0 0 0
0 0 0
0 0 0
0 0 0
0 0 0
0 0 0
0 0 0
0 0 0
0 0 0
0 0 0
0 0 0
0 0 0
0 0 0
0 0 0
0 0 0
0 0 0
0 0 0
0 0 0
0 0 0
0 0 0
0 0 0
0 0 0
0 0 0
0 0 0
0 0 0
0 0 0
0 0 0
0 0 0
0 0 0
0 0 0
0 0 0
0 0 0
0 0 0
0 0 0
0 0 0
0 0 0
0 0 0
0 0 0
0 0 0
0 0 0
0 0 0
0 0 0
0 0 0
0 0 0
0 0 0
0 0 0
0 0 0
0 0 0
0 0 0
0 0 0
0 0 0
0 0 0
0 0 0
0 0 0
0 0 0
0 0 0
0 0 0
0 0 0
0 0 0
0 0 0
0 0 0
0 0 0
0 0 0
0 0 0
0 0 0
0 0 0
0 0 0
0 0 0
0 0 0
0 0 0
0 0 0
0 0 0
0 0 0
0 0 0
0 0 0
0 0 0
0 0 0
0 0 0
0 0 0
0 0 0
0 0 0
0 0 0
0 0 0
0 0 0
0 0 0
0 0 0
0 0 0
0 0 0
0 0 0
0 0 0
0 0 0
0 0 0
0 0 0
0 0 0
0 0 0
0 0 0
0 0 0
0 0 0
0 0 0
0 0 0
0 0 0
0 0 0
0 0 0
0 0 0
0 0 0
0 0 0
0 0 0
0 0 0
0 0 0
0 0 0
0 0 0
0 0 0
0 0 0
0 0 0
0 0 0
0 0 0
0 0 0
0 0 0
0 0 0
0 0 0
0 0 0
0 0 0
0 0 0
0 0 0
0 0 0
0 0 0
0 0 0
0 0 0
0 0 0
0 0 0
0 0 0
0 0 0
0 0 0
0 0 0
0 0 0
0 0 0
0 0 0
0 0 0
0 0 0
0 0 0
0 0 0
0 0 0
0 0 0
0 0 0
0 0 0
0 0 0
0 0 0
0 0 0
0 0 0
0 0 0
0 0 0
0 0 0
0 0 0
0 0 0
0 0 0
0 0 0
0 0 0
0 0 0
0 0 0
0 0 0
0 0 0
0 0 0
0 0 0
0 0 0
0 0 0
0 0 0
0 0 0
0 0 0
0 0 0
0 0 0
0 0 0
0 0 0
0 0 0
0 0 0
0 0 0
0 0 0
0 0 0
0 0 0
0 0 0
0 0 0
0 0 0
0 0 0
0 0 0
0 0 0
0 0 0
0 0 0
0 0 0
0 0 0
0 0 0
0 0 0
0 0 0
0 0 0
0 0 0
0 0 0
0 0 0
0 0 0
0 0 0
0 0 0
0 0 0
0 0 0
0 0 0
0 0 0
0 0 0
0 0 0
0 0 0
0 0 0
0 0 0
0 0 0
0 0 0
0 0 0
0 0 0
0 0 0
0 0 0
0 0 0
0 0 0
0 0 0
0 0 0
0 0 0
0 0 0
0 0 0
0 0 0
0 0 0
0 0 0
0 0 0
0 0 0
0 0 0
0 0 0
0 0 0
0 0 0
0 0 0
0 0 0
0 0 0
0 0 0
0 0 0
0 0 0
0 0 0
0 0 0
0 0 0
0 0 0
0 0 0
0 0 0
0 0 0
0 0 0
0 0 0
0 0 0
0 0 0
0 0 0
0 0 0
0 0 0
0 0 0
0 0 0
0 0 0
0 0 0
0 0 0
0 0 0
0 0 0
0 0 0
0 0 0
0 0 0
0 0 0
0 0 0
0 0 0
0 0 0
0 0 0
0 0 0
0 0 0
0 0 0
0 0 0
0 0 0
0 0 0
0 0 0
0 0 0
0 0 0
0 0 0
0 0 0
0 0 0
0 0 0
0 0 0
0 0 0
0 0 0
0 0 0
0 0 0
0 0 0
0 0 0
0 0 0
0 0 0
0 0 0
0 0 0
0 0 0
0 0 0
0 0 0
0 0 0
0 0 0
0 0 0
0 0 0
0 0 0
0 0 0
0 0 0
0 0 0
0 0 0
0 0 0
0 0 0
0 0 0
0 0 0
0 0 0
0 0 0
0 0 0
0 0 0
0 0 0
0 0 0
0 0 0
0 0 0
0 0 0
0 0 0
0 0 0
0 0 0
0 0 0
0 0 0
0 0 0
0 0 0
0 0 0
0 0 0
0 0 0
0 0 0
0 0 0
0 0 0
0 0 0
0 0 0
0 0 0
0 0 0
0 0 0
0 0 0
0 0 0
0 0 0
0 0 0
0 0 0
0 0 0
0 0 0
0 0 0
0 0 0
0 0 0
0 0 0
0 0 0
0 0 0
0 0 0
0 0 0
0 0 0
0 0 0
0 0 0
0 0 0
0 0 0
0 0 0
0 0 0
0 0 0
0 0 0
0 0 0
0 0 0
0 0 0
0 0 0
0 0 0
0 0 0
0 0 0
0 0 0
0 0 0
0 0 0
0 0 0
0 0 0
0 0 0
0 0 0
0 0 0
0 0 0
0 0 0
0 0 0
0 0 0
0 0 0
0 0 0
0 0 0
0 0 0
0 0 0
0 0 0
0 0 0
0 0 0
0 0 0
0 0 0
0 0 0
0 0 0
0 0 0
0 0 0
0 0 0
0 0 0
0 0 0
0 0 0
0 0 0
0 0 0
0 0 0
0 0 0
0 0 0
0 0 0
0 0 0
0 0 0
0 0 0
0 0 0
0 0 0
0 0 0
0 0 0
0 0 0
0 0 0
0 0 0
0 0 0
0 0 0
0 0 0
0 0 0
0 0 0
0 0 0
0 0 0
0 0 0
0 0 0
0 0 0
0 0 0
0 0 0
0 0 0
0 0 0
0 0 0
0 0 0
0 0 0
0 0 0
0 0 0
0 0 0
0 0 0
0 0 0
0 0 0
0 0 0
0 0 0
0 0 0
0 0 0
0 0 0
0 0 0
0 0 0
0 0 0
0 0 0
0 0 0
0 0 0
0 0 0
0 0 0
0 0 0
0 0 0
0 0 0
0 0 0
0 0 0
0 0 0
0 0 0
0 0 0
0 0 0
0 0 0
0 0 0
0 0 0
0 0 0
0 0 0
0 0 0
0 0 0
0 0 0
0 0 0
0 0 0
0 0 0
0 0 0
0 0 0
0 0 0
0 0 0
0 0 0
0 0 0
0 0 0
0 0 0
0 0 0
0 0 0
0 0 0
0 0 0
0 0 0
0 0 0
0 0 0
0 0 0
0 0 0
0 0 0
0 0 0
0 0 0
0 0 0
0 0 0
0 0 0
0 0 0
0 0 0
0 0 0
0 0 0
0 0 0
0 0 0
0 0 0
0 0 0
0 0 0
0 0 0
0 0 0
0 0 0
0 0 0
0 0 0
0 0 0
0 0 0
0 0 0
0 0 0
0 0 0
0 0 0
0 0 0
0 0 0
0 0 0
0 0 0
0 0 0
0 0 0
0 0 0
0 0 0
0 0 0
0 0 0
0 0 0
0 0 0
0 0 0
0 0 0
0 0 0
0 0 0
0 0 0
0 0 0
0 0 0
0 0 0
0 0 0
0 0 0
0 0 0
0 0 0
0 0 0
0 0 0
0 0 0
0 0 0
0 0 0
0 0 0
0 0 0
0 0 0
0 0 0
0 0 0
0 0 0
0 0 0
0 0 0
0 0 0
0 0 0
0 0 0
0 0 0
0 0 0
0 0 0
0 0 0
0 0 0
0 0 0
0 0 0
0 0 0
0 0 0
0 0 0
0 0 0
0 0 0
0 0 0
0 0 0
0 0 0
0 0 0
0 0 0
0 0 0
0 0 0
0 0 0
0 0 0
0 0 0
0 0 0
0 0 0
0 0 0
0 0 0
0 0 0
0 0 0
0 0 0
0 0 0
0 0 0
0 0 0
0 0 0
0 0 0
0 0 0
0 0 0
0 0 0
0 0 0
0 0 0
0 0 0
0 0 0
0 0 0
0 0 0
0 0 0
0 0 0
0 0 0
0 0 0
0 0 0
0 0 0
0 0 0
0 0 0
0 0 0
0 0 0
0 0 0
0 0 0
0 0 0
0 0 0
0 0 0
0 0 0
0 0 0
0 0 0
0 0 0
0 0 0
0 0 0
0 0 0
0 0 0
0 0 0
0 0 0
0 0 0
0 0 0
0 0 0
0 0 0
0 0 0
0 0 0
0 0 0
0 0 0
0 0 0
0 0 0
0 0 0
0 0 0
0 0 0
0 0 0
0 0 0
0 0 0
0 0 0
0 0 0
0 0 0
0 0 0
0 0 0
0 0 0
0 0 0
0 0 0
0 0 0
0 0 0
0 0 0
0 0 0
0 0 0
0 0 0
0 0 0
0 0 0
0 0 0
0 0 0
0 0 0
0 0 0
0 0 0
0 0 0
0 0 0
0 0 0
0 0 0
0 0 0
0 0 0
0 0 0
0 0 0
0 0 0
0 0 0
0 0 0
0 0 0
0 0 0
0 0 0
0 0 0
0 0 0
0 0 0
0 0 0
0 0 0
0 0 0
0 0 0
0 0 0
0 0 0
0 0 0
0 0 0
0 0 0
0 0 0
0 0 0
0 0 0
0 0 0
0 0 0
0 0 0
0 0 0
0 0 0
0 0 0
0 0 0
0 0 0
0 0 0
0 0 0
0 0 0
0 0 0
0 0 0
0 0 0
0 0 0
0 0 0
0 0 0
0 0 0
0 0 0
0 0 0
0 0 0
0 0 0
0 0 0
0 0 0
0 0 0
0 0 0
0 0 0
0 0 0
0 0 0
0 0 0
0 0 0
0 0 0
0 0 0
0 0 0
0 0 0
0 0 0
0 0 0
0 0 0
0 0 0
0 0 0
0 0 0
0 0 0
0 0 0
0 0 0
0 0 0
0 0 0
0 0 0
0 0 0
0 0 0
0 0 0
0 0 0
0 0 0
0 0 0
0 0 0
0 0 0
0 0 0
0 0 0
0 0 0
0 0 0
0 0 0
0 0 0
0 0 0
0 0 0
0 0 0
0 0 0
0 0 0
0 0 0
0 0 0
0 0 0
0 0 0
0 0 0
0 0 0
0 0 0
0 0 0
0 0 0
0 0 0
0 0 0
0 0 0
0 0 0
0 0 0
0 0 0
0 0 0
0 0 0
0 0 0
0 0 0
0 0 0
0 0 0
0 0 0
0 0 0
0 0 0
0 0 0
0 0 0
0 0 0
0 0 0
0 0 0
0 0 0
0 0 0
0 0 0
0 0 0
0 0 0
0 0 0
0 0 0
0 0 0
0 0 0
0 0 0
0 0 0
0 0 0
0 0 0
0 0 0
0 0 0
0 0 0
0 0 0
0 0 0
0 0 0
0 0 0
0 0 0
0 0 0
0 0 0
0 0 0
0 0 0
0 0 0
0 0 0
0 0 0
0 0 0
0 0 0
0 0 0
0 0 0
0 0 0
0 0 0
0 0 0
0 0 0
0 0 0
0 0 0
0 0 0
0 0 0
0 0 0
0 0 0
0 0 0
0 0 0
0 0 0
0 0 0
0 0 0
0 0 0
0 0 0
0 0 0
0 0 0
0 0 0
0 0 0
0 0 0
0 0 0
0 0 0
0 0 0
0 0 0
0 0 0
0 0 0
0 0 0
0 0 0
0 0 0
0 0 0
0 0 0
0 0 0
0 0 0
0 0 0
0 0 0
0 0 0
0 0 0
0 0 0
0 0 0
0 0 0
0 0 0
0 0 0
0 0 0
0 0 0
0 0 0
0 0 0
0 0 0
0 0 0
0 0 0
0 0 0
0 0 0
0 0 0
0 0 0
0 0 0
0 0 0
0 0 0
0 0 0
0 0 0
0 0 0
0 0 0
0 0 0
0 0 0
0 0 0
0 0 0
0 0 0
0 0 0
0 0 0
0 0 0
0 0 0
0 0 0
0 0 0
0 0 0
0 0 0
0 0 0
0 0 0
0 0 0
0 0 0
0 0 0
0 0 0
0 0 0
0 0 0
0 0 0
0 0 0
0 0 0
0 0 0
0 0 0
0 0 0
0 0 0
0 0 0
0 0 0
0 0 0
0 0 0
0 0 0
0 0 0
0 0 0
0 0 0
0 0 0
0 0 0
0 0 0
0 0 0
0 0 0
0 0 0
0 0 0
0 0 0
0 0 0
0 0 0
0 0 0
0 0 0
0 0 0
0 0 0
0 0 0
0 0 0
0 0 0
0 0 0
0 0 0
0 0 0
0 0 0
0 0 0
0 0 0
0 0 0
0 0 0
0 0 0
0 0 0
0 0 0
0 0 0
0 0 0
0 0 0
0 0 0
0 0 0
0 0 0
0 0 0
0 0 0
0 0 0
0 0 0
0 0 0
0 0 0
0 0 0
0 0 0
0 0 0
0 0 0
0 0 0
0 0 0
0 0 0
0 0 0
0 0 0
0 0 0
0 0 0
0 0 0
0 0 0
0 0 0
0 0 0
0 0 0
0 0 0
0 0 0
0 0 0
0 0 0
0 0 0
0 0 0
0 0 0
0 0 0
0 0 0
0 0 0
0 0 0
0 0 0
0 0 0
0 0 0
0 0 0
0 0 0
0 0 0
0 0 0
0 0 0
0 0 0
0 0 0
0 0 0
0 0 0
0 0 0
0 0 0
0 0 0
0 0 0
0 0 0
0 0 0
0 0 0
0 0 0
0 0 0
0 0 0
0 0 0
0 0 0
0 0 0
0 0 0
0 0 0
0 0 0
0 0 0
0 0 0
0 0 0
0 0 0
0 0 0
0 0 0
0 0 0
0 0 0
0 0 0
0 0 0
0 0 0
0 0 0
0 0 0
0 0 0
0 0 0
0 0 0
0 0 0
0 0 0
0 0 0
0 0 0
0 0 0
0 0 0
0 0 0
0 0 0
0 0 0
0 0 0
0 0 0
0 0 0
0 0 0
0 0 0
0 0 0
0 0 0
0 0 0
0 0 0
0 0 0
0 0 0
0 0 0
0 0 0
0 0 0
0 0 0
0 0 0
0 0 0
0 0 0
0 0 0
0 0 0
0 0 0
0 0 0
0 0 0
0 0 0
0 0 0
0 0 0
0 0 0
0 0 0
0 0 0
0 0 0
0 0 0
0 0 0
0 0 0
0 0 0
0 0 0
0 0 0
0 0 0
0 0 0
0 0 0
0 0 0
0 0 0
0 0 0
0 0 0
0 0 0
0 0 0
0 0 0
0 0 0
0 0 0
0 0 0
0 0 0
0 0 0
0 0 0
0 0 0
0 0 0
0 0 0
0 0 0
0 0 0
0 0 0
0 0 0
0 0 0
0 0 0
0 0 0
0 0 0
0 0 0
0 0 0
0 0 0
0 0 0
0 0 0
0 0 0
0 0 0
0 0 0
0 0 0
0 0 0
0 0 0
0 0 0
0 0 0
0 0 0
0 0 0
0 0 0
0 0 0
0 0 0
0 0 0
0 0 0
0 0 0
0 0 0
0 0 0
0 0 0
0 0 0
0 0 0
0 0 0
0 0 0
0 0 0
0 0 0
0 0 0
0 0 0
0 0 0
0 0 0
0 0 0
0 0 0
0 0 0
0 0 0
0 0 0
0 0 0
0 0 0
0 0 0
0 0 0
0 0 0
0 0 0
0 0 0
0 0 0
0 0 0
0 0 0
0 0 0
0 0 0
0 0 0
0 0 0
0 0 0
0 0 0
0 0 0
0 0 0
0 0 0
0 0 0
0 0 0
0 0 0
0 0 0
0 0 0
0 0 0
0 0 0
0 0 0
0 0 0
0 0 0
0 0 0
0 0 0
0 0 0
0 0 0
0 0 0
0 0 0
0 0 0
0 0 0
0 0 0
0 0 0
0 0 0
0 0 0
0 0 0
0 0 0
0 0 0
0 0 0
0 0 0
0 0 0
0 0 0
0 0 0
0 0 0
0 0 0
0 0 0
0 0 0
0 0 0
0 0 0
0 0 0
0 0 0
0 0 0
0 0 0
0 0 0
0 0 0
0 0 0
0 0 0
0 0 0
0 0 0
0 0 0
0 0 0
0 0 0
0 0 0
0 0 0
0 0 0
0 0 0
0 0 0
0 0 0
0 0 0
0 0 0
0 0 0
0 0 0
0 0 0
0 0 0
0 0 0
0 0 0
0 0 0
0 0 0
0 0 0
0 0 0
0 0 0
0 0 0
0 0 0
0 0 0
0 0 0
0 0 0
0 0 0
0 0 0
0 0 0
0 0 0
0 0 0
0 0 0
0 0 0
0 0 0
0 0 0
0 0 0
0 0 0
0 0 0
0 0 0
0 0 0
0 0 0
0 0 0
0 0 0
0 0 0
0 0 0
0 0 0
0 0 0
0 0 0
0 0 0
0 0 0
0 0 0
0 0 0
0 0 0
0 0 0
0 0 0
0 0 0
0 0 0
0 0 0
0 0 0
0 0 0
0 0 0
0 0 0
0 0 0
0 0 0
0 0 0
0 0 0
0 0 0
0 0 0
0 0 0
0 0 0
0 0 0
0 0 0
0 0 0
0 0 0
0 0 0
0 0 0
0 0 0
0 0 0
0 0 0
0 0 0
0 0 0
0 0 0
0 0 0
0 0 0
0 0 0
0 0 0
0 0 0
0 0 0
0 0 0
0 0 0
0 0 0
0 0 0
0 0 0
0 0 0
0 0 0
0 0 0
0 0 0
0 0 0
0 0 0
0 0 0
0 0 0
0 0 0
0 0 0
0 0 0
0 0 0
0 0 0
0 0 0
0 0 0
0 0 0
0 0 0
0 0 0
0 0 0
0 0 0
0 0 0
0 0 0
0 0 0
0 0 0
0 0 0
0 0 0
0 0 0
0 0 0
0 0 0
0 0 0
0 0 0
0 0 0
0 0 0
0 0 0
0 0 0
0 0 0
0 0 0
0 0 0
0 0 0
0 0 0
0 0 0
0 0 0
0 0 0
0 0 0
0 0 0
0 0 0
0 0 0
0 0 0
0 0 0
0 0 0
0 0 0
0 0 0
0 0 0
0 0 0
0 0 0
0 0 0
0 0 0
0 0 0
0 0 0
0 0 0
0 0 0
0 0 0
0 0 0
0 0 0
0 0 0
0 0 0
0 0 0
0 0 0
0 0 0
0 0 0
0 0 0
0 0 0
0 0 0
0 0 0
0 0 0
0 0 0
0 0 0
0 0 0
0 0 0
0 0 0
0 0 0
0 0 0
0 0 0
0 0 0
0 0 0
0 0 0
0 0 0
0 0 0
0 0 0
0 0 0
0 0 0
0 0 0
0 0 0
0 0 0
0 0 0
0 0 0
0 0 0
0 0 0
0 0 0
0 0 0
0 0 0
0 0 0
0 0 0
0 0 0
0 0 0
0 0 0
0 0 0
0 0 0
0 0 0
0 0 0
0 0 0
0 0 0
0 0 0
0 0 0
0 0 0
0 0 0
0 0 0
0 0 0
0 0 0
0 0 0
0 0 0
0 0 0
0 0 0
0 0 0
0 0 0
0 0 0
0 0 0
0 0 0
0 0 0
0 0 0
0 0 0
0 0 0
0 0 0
0 0 0
0 0 0
0 0 0
0 0 0
0 0 0
0 0 0
0 0 0
0 0 0
0 0 0
0 0 0
0 0 0
0 0 0
0 0 0
0 0 0
0 0 0
0 0 0
0 0 0
0 0 0
0 0 0
0 0 0
0 0 0
0 0 0
0 0 0
0 0 0
0 0 0
0 0 0
0 0 0
0 0 0
0 0 0
0 0 0
0 0 0
0 0 0
0 0 0
0 0 0
0 0 0
0 0 0
0 0 0
0 0 0
0 0 0
0 0 0
0 0 0
0 0 0
0 0 0
0 0 0
0 0 0
0 0 0
0 0 0
0 0 0
0 0 0
0 0 0
0 0 0
0 0 0
0 0 0
0 0 0
0 0 0
0 0 0
0 0 0
0 0 0
0 0 0
0 0 0
0 0 0
0 0 0
0 0 0
0 0 0
0 0 0
0 0 0
0 0 0
0 0 0
0 0 0
0 0 0
0 0 0
0 0 0
0 0 0
0 0 0
0 0 0
0 0 0
0 0 0
0 0 0
0 0 0
0 0 0
0 0 0
0 0 0
0 0 0
0 0 0
0 0 0
0 0 0
0 0 0
0 0 0
0 0 0
0 0 0
0 0 0
0 0 0
0 0 0
0 0 0
0 0 0
0 0 0
0 0 0
0 0 0
0 0 0
0 0 0
0 0 0
0 0 0
0 0 0
0 0 0
0 0 0
0 0 0
0 0 0
0 0 0
0 0 0
0 0 0
0 0 0
0 0 0
0 0 0
0 0 0
0 0 0
0 0 0
0 0 0
0 0 0
0 0 0
0 0 0
0 0 0
0 0 0
0 0 0
0 0 0
0 0 0
0 0 0
0 0 0
0 0 0
0 0 0
0 0 0
0 0 0
0 0 0
0 0 0
0 0 0
0 0 0
0 0 0
0 0 0
0 0 0
0 0 0
0 0 0
0 0 0
0 0 0
0 0 0
0 0 0
0 0 0
0 0 0
0 0 0
0 0 0
0 0 0
0 0 0
0 0 0
0 0 0
0 0 0
0 0 0
0 0 0
0 0 0
0 0 0
0 0 0
0 0 0
0 0 0
0 0 0
0 0 0
0 0 0
0 0 0
0 0 0
0 0 0
0 0 0
0 0 0
0 0 0
0 0 0
0 0 0
0 0 0
0 0 0
0 0 0
0 0 0
0 0 0
0 0 0
0 0 0
0 0 0
0 0 0
0 0 0
0 0 0
0 0 0
0 0 0
0 0 0
0 0 0
0 0 0
0 0 0
0 0 0
0 0 0
0 0 0
0 0 0
0 0 0
0 0 0
0 0 0
0 0 0
0 0 0
0 0 0
0 0 0
0 0 0
0 0 0
0 0 0
0 0 0
0 0 0
0 0 0
0 0 0
0 0 0
0 0 0
0 0 0
0 0 0
0 0 0
0 0 0
0 0 0
0 0 0
0 0 0
0 0 0
0 0 0
0 0 0
0 0 0
0 0 0
0 0 0
0 0 0
0 0 0
0 0 0
0 0 0
0 0 0
0 0 0
0 0 0
0 0 0
0 0 0
0 0 0
0 0 0
0 0 0
0 0 0
0 0 0
0 0 0
0 0 0
0 0 0
0 0 0
0 0 0
0 0 0
0 0 0
0 0 0
0 0 0
0 0 0
0 0 0
0 0 0
0 0 0
0 0 0
0 0 0
0 0 0
0 0 0
0 0 0
0 0 0
0 0 0
0 0 0
0 0 0
0 0 0
0 0 0
0 0 0
0 0 0
0 0 0
0 0 0
0 0 0
0 0 0
0 0 0
0 0 0
0 0 0
0 0 0
0 0 0
0 0 0
0 0 0
0 0 0
0 0 0
0 0 0
0 0 0
0 0 0
0 0 0
0 0 0
0 0 0
0 0 0
0 0 0
0 0 0
0 0 0
0 0 0
0 0 0
0 0 0
0 0 0
0 0 0
0 0 0
0 0 0
0 0 0
0 0 0
0 0 0
0 0 0
0 0 0
0 0 0
0 0 0
0 0 0
0 0 0
0 0 0
0 0 0
0 0 0
0 0 0
0 0 0
0 0 0
0 0 0
0 0 0
0 0 0
0 0 0
0 0 0
0 0 0
0 0 0
0 0 0
0 0 0
0 0 0
0 0 0
0 0 0
0 0 0
0 0 0
0 0 0
0 0 0
0 0 0
0 0 0
0 0 0
0 0 0
0 0 0
0 0 0
0 0 0
0 0 0
0 0 0
0 0 0
0 0 0
0 0 0
0 0 0
0 0 0
0 0 0
0 0 0
0 0 0
0 0 0
0 0 0
0 0 0
0 0 0
0 0 0
0 0 0
0 0 0
0 0 0
0 0 0
0 0 0
0 0 0
0 0 0
0 0 0
0 0 0
0 0 0
0 0 0
0 0 0
0 0 0
0 0 0
0 0 0
0 0 0
0 0 0
0 0 0
0 0 0
0 0 0
0 0 0
0 0 0
0 0 0
0 0 0
0 0 0
0 0 0
0 0 0
0 0 0
0 0 0
0 0 0
0 0 0
0 0 0
0 0 0
0 0 0
0 0 0
0 0 0
0 0 0
0 0 0
0 0 0
0 0 0
0 0 0
0 0 0
0 0 0
0 0 0
0 0 0
0 0 0
0 0 0
0 0 0
0 0 0
0 0 0
0 0 0
0 0 0
0 0 0
0 0 0
0 0 0
0 0 0
0 0 0
0 0 0
0 0 0
0 0 0
0 0 0
0 0 0
0 0 0
0 0 0
0 0 0
0 0 0
0 0 0
0 0 0
0 0 0
0 0 0
0 0 0
0 0 0
0 0 0
0 0 0
0 0 0
0 0 0
0 0 0
0 0 0
0 0 0
0 0 0
0 0 0
0 0 0
0 0 0
0 0 0
0 0 0
0 0 0
0 0 0
0 0 0
0 0 0
0 0 0
0 0 0
0 0 0
0 0 0
0 0 0
0 0 0
0 0 0
0 0 0
0 0 0
0 0 0
0 0 0
0 0 0
0 0 0
0 0 0
0 0 0
0 0 0
0 0 0
0 0 0
0 0 0
0 0 0
0 0 0
0 0 0
0 0 0
0 0 0
0 0 0
0 0 0
0 0 0
0 0 0
0 0 0
0 0 0
0 0 0
0 0 0
0 0 0
0 0 0
0 0 0
0 0 0
0 0 0
0 0 0
0 0 0
0 0 0
0 0 0
0 0 0
0 0 0
0 0 0
0 0 0
0 0 0
0 0 0
0 0 0
0 0 0
0 0 0
0 0 0
0 0 0
0 0 0
0 0 0
0 0 0
0 0 0
0 0 0
0 0 0
0 0 0
0 0 0
0 0 0
0 0 0
0 0 0
0 0 0
0 0 0
0 0 0
0 0 0
0 0 0
0 0 0
0 0 0
0 0 0
0 0 0
0 0 0
0 0 0
0 0 0
0 0 0
0 0 0
0 0 0
0 0 0
0 0 0
0 0 0
0 0 0
0 0 0
0 0 0
0 0 0
0 0 0
0 0 0
0 0 0
0 0 0
0 0 0
0 0 0
0 0 0
0 0 0
0 0 0
0 0 0
0 0 0
0 0 0
0 0 0
0 0 0
0 0 0
0 0 0
0 0 0
0 0 0
0 0 0
0 0 0
0 0 0
0 0 0
0 0 0
0 0 0
0 0 0
0 0 0
0 0 0
0 0 0
0 0 0
0 0 0
0 0 0
0 0 0
0 0 0
0 0 0
0 0 0
0 0 0
0 0 0
0 0 0
0 0 0
0 0 0
0 0 0
0 0 0
0 0 0
0 0 0
0 0 0
0 0 0
0 0 0
0 0 0
0 0 0
0 0 0
0 0 0
0 0 0
0 0 0
0 0 0
0 0 0
0 0 0
0 0 0
0 0 0
0 0 0
0 0 0
0 0 0
0 0 0
0 0 0
0 0 0
0 0 0
0 0 0
0 0 0
0 0 0
0 0 0
0 0 0
0 0 0
0 0 0
0 0 0
0 0 0
0 0 0
0 0 0
0 0 0
0 0 0
0 0 0
0 0 0
0 0 0
0 0 0
0 0 0
0 0 0
0 0 0
0 0 0
0 0 0
0 0 0
0 0 0
0 0 0
0 0 0
0 0 0
0 0 0
0 0 0
0 0 0
0 0 0
0 0 0
0 0 0
0 0 0
0 0 0
0 0 0
0 0 0
0 0 0
0 0 0
0 0 0
0 0 0
0 0 0
0 0 0
0 0 0
0 0 0
0 0 0
0 0 0
0 0 0
0 0 0
0 0 0
0 0 0
0 0 0
0 0 0
0 0 0
0 0 0
0 0 0
0 0 0
0 0 0
0 0 0
0 0 0
0 0 0
0 0 0
0 0 0
0 0 0
0 0 0
0 0 0
0 0 0
0 0 0
0 0 0
0 0 0
0 0 0
0 0 0
0 0 0
0 0 0
0 0 0
0 0 0
0 0 0
0 0 0
0 0 0
0 0 0
0 0 0
0 0 0
0 0 0
0 0 0
0 0 0
0 0 0
0 0 0
0 0 0
0 0 0
0 0 0
0 0 0
0 0 0
0 0 0
0 0 0
0 0 0
0 0 0
0 0 0
0 0 0
0 0 0
0 0 0
0 0 0
0 0 0
0 0 0
0 0 0
0 0 0
0 0 0
0 0 0
0 0 0
0 0 0
0 0 0
0 0 0
0 0 0
0 0 0
0 0 0
0 0 0
0 0 0
0 0 0
0 0 0
0 0 0
0 0 0
0 0 0
0 0 0
0 0 0
0 0 0
0 0 0
0 0 0
0 0 0
0 0 0
0 0 0
0 0 0
0 0 0
0 0 0
0 0 0
0 0 0
0 0 0
0 0 0
0 0 0
0 0 0
0 0 0
0 0 0
0 0 0
0 0 0
0 0 0
0 0 0
0 0 0
0 0 0
0 0 0
0 0 0
0 0 0
0 0 0
0 0 0
0 0 0
0 0 0
0 0 0
0 0 0
0 0 0
0 0 0
0 0 0
0 0 0
0 0 0
0 0 0
0 0 0
0 0 0
0 0 0
0 0 0
0 0 0
0 0 0
0 0 0
0 0 0
0 0 0
0 0 0
0 0 0
0 0 0
0 0 0
0 0 0
0 0 0
0 0 0
0 0 0
0 0 0
0 0 0
0 0 0
0 0 0
0 0 0
0 0 0
0 0 0
0 0 0
0 0 0
0 0 0
0 0 0
0 0 0
0 0 0
0 0 0
0 0 0
0 0 0
0 0 0
0 0 0
0 0 0
0 0 0
0 0 0
0 0 0
0 0 0
0 0 0
0 0 0
0 0 0
0 0 0
0 0 0
0 0 0
0 0 0
0 0 0
0 0 0
0 0 0
0 0 0
0 0 0
0 0 0
0 0 0
0 0 0
0 0 0
0 0 0
0 0 0
0 0 0
0 0 0
0 0 0
0 0 0
0 0 0
0 0 0
0 0 0
0 0 0
0 0 0
0 0 0
0 0 0
0 0 0
0 0 0
0 0 0
0 0 0
0 0 0
0 0 0
0 0 0
0 0 0
0 0 0
0 0 0
0 0 0
0 0 0
0 0 0
0 0 0
0 0 0
0 0 0
0 0 0
0 0 0
0 0 0
0 0 0
0 0 0
0 0 0
0 0 0
0 0 0
0 0 0
0 0 0
0 0 0
0 0 0
0 0 0
0 0 0
0 0 0
0 0 0
0 0 0
0 0 0
0 0 0
0 0 0
0 0 0
0 0 0
0 0 0
0 0 0
0 0 0
0 0 0
0 0 0
0 0 0
0 0 0
0 0 0
0 0 0
0 0 0
0 0 0
0 0 0
0 0 0
0 0 0
0 0 0
0 0 0
0 0 0
0 0 0
0 0 0
0 0 0
0 0 0
0 0 0
0 0 0
0 0 0
0 0 0
0 0 0
0 0 0
0 0 0
0 0 0
0 0 0
0 0 0
0 0 0
0 0 0
0 0 0
0 0 0
0 0 0
0 0 0
0 0 0
0 0 0
0 0 0
0 0 0
0 0 0
0 0 0
0 0 0
0 0 0
0 0 0
0 0 0
0 0 0
0 0 0
0 0 0
0 0 0
0 0 0
0 0 0
0 0 0
0 0 0
0 0 0
0 0 0
0 0 0
0 0 0
0 0 0
0 0 0
0 0 0
0 0 0
0 0 0
0 0 0
0 0 0
0 0 0
0 0 0
0 0 0
0 0 0
0 0 0
0 0 0
0 0 0
0 0 0
0 0 0
0 0 0
0 0 0
0 0 0
0 0 0
0 0 0
0 0 0
0 0 0
0 0 0
0 0 0
0 0 0
0 0 0
0 0 0
0 0 0
0 0 0
0 0 0
0 0 0
0 0 0
0 0 0
0 0 0
0 0 0
0 0 0
0 0 0
0 0 0
0 0 0
0 0 0
0 0 0
0 0 0
0 0 0
0 0 0
0 0 0
0 0 0
0 0 0
0 0 0
0 0 0
0 0 0
0 0 0
0 0 0
0 0 0
0 0 0
0 0 0
0 0 0
0 0 0
0 0 0
0 0 0
0 0 0
0 0 0
0 0 0
0 0 0
0 0 0
0 0 0
0 0 0
0 0 0
0 0 0
0 0 0
0 0 0
0 0 0
0 0 0
0 0 0
0 0 0
0 0 0
0 0 0
0 0 0
0 0 0
0 0 0
0 0 0
0 0 0
0 0 0
0 0 0
0 0 0
0 0 0
0 0 0
0 0 0
0 0 0
0 0 0
0 0 0
0 0 0
0 0 0
0 0 0
0 0 0
0 0 0
0 0 0
0 0 0
0 0 0
0 0 0
0 0 0
0 0 0
0 0 0
0 0 0
0 0 0
0 0 0
0 0 0
0 0 0
0 0 0
0 0 0
0 0 0
0 0 0
0 0 0
0 0 0
0 0 0
0 0 0
0 0 0
0 0 0
0 0 0
0 0 0
0 0 0
0 0 0
0 0 0
0 0 0
0 0 0
0 0 0
0 0 0
0 0 0
0 0 0
0 0 0
0 0 0
0 0 0
0 0 0
0 0 0
0 0 0
0 0 0
0 0 0
0 0 0
0 0 0
0 0 0
0 0 0
0 0 0
0 0 0
0 0 0
0 0 0
0 0 0
0 0 0
0 0 0
0 0 0
0 0 0
0 0 0
0 0 0
0 0 0
0 0 0
0 0 0
0 0 0
0 0 0
0 0 0
0 0 0
0 0 0
0 0 0
0 0 0
0 0 0
0 0 0
0 0 0
0 0 0
0 0 0
0 0 0
0 0 0
0 0 0
0 0 0
0 0 0
0 0 0
0 0 0
0 0 0
0 0 0
0 0 0
0 0 0
0 0 0
0 0 0
0 0 0
0 0 0
0 0 0
0 0 0
0 0 0
0 0 0
0 0 0
0 0 0
0 0 0
0 0 0
0 0 0
0 0 0
0 0 0
0 0 0
0 0 0
0 0 0
0 0 0
0 0 0
0 0 0
0 0 0
0 0 0
0 0 0
0 0 0
0 0 0
0 0 0
0 0 0
0 0 0
0 0 0
0 0 0
0 0 0
0 0 0
0 0 0
0 0 0
0 0 0
0 0 0
0 0 0
0 0 0
0 0 0
0 0 0
0 0 0
0 0 0
0 0 0
0 0 0
0 0 0
0 0 0
0 0 0
0 0 0
0 0 0
0 0 0
0 0 0
0 0 0
0 0 0
0 0 0
0 0 0
0 0 0
0 0 0
0 0 0
0 0 0
0 0 0
0 0 0
0 0 0
0 0 0
0 0 0
0 0 0
0 0 0
0 0 0
0 0 0
0 0 0
0 0 0
0 0 0
0 0 0
0 0 0
0 0 0
0 0 0
0 0 0
0 0 0
0 0 0
0 0 0
0 0 0
0 0 0
0 0 0
0 0 0
0 0 0
0 0 0
0 0 0
0 0 0
0 0 0
0 0 0
0 0 0
0 0 0
0 0 0
0 0 0
0 0 0
0 0 0
0 0 0
0 0 0
0 0 0
0 0 0
0 0 0
0 0 0
0 0 0
0 0 0
0 0 0
0 0 0
0 0 0
0 0 0
0 0 0
0 0 0
0 0 0
0 0 0
0 0 0
0 0 0
0 0 0
0 0 0
0 0 0
0 0 0
0 0 0
0 0 0
0 0 0
0 0 0
0 0 0
0 0 0
0 0 0
0 0 0
0 0 0
0 0 0
0 0 0
0 0 0
0 0 0
0 0 0
0 0 0
0 0 0
0 0 0
0 0 0
0 0 0
0 0 0
0 0 0
0 0 0
0 0 0
0 0 0
0 0 0
0 0 0
0 0 0
0 0 0
0 0 0
0 0 0
0 0 0
0 0 0
0 0 0
0 0 0
0 0 0
0 0 0
0 0 0
0 0 0
0 0 0
0 0 0
0 0 0
0 0 0
0 0 0
0 0 0
0 0 0
0 0 0
0 0 0
0 0 0
0 0 0
0 0 0
0 0 0
0 0 0
0 0 0
0 0 0
0 0 0
0 0 0
0 0 0
0 0 0
0 0 0
0 0 0
0 0 0
0 0 0
0 0 0
0 0 0
0 0 0
0 0 0
0 0 0
0 0 0
0 0 0
0 0 0
0 0 0
0 0 0
0 0 0
0 0 0
0 0 0
0 0 0
0 0 0
0 0 0
0 0 0
0 0 0
0 0 0
0 0 0
0 0 0
0 0 0
0 0 0
0 0 0
0 0 0
0 0 0
0 0 0
0 0 0
0 0 0
0 0 0
0 0 0
0 0 0
0 0 0
0 0 0
0 0 0
0 0 0
0 0 0
0 0 0
0 0 0
0 0 0
0 0 0
0 0 0
0 0 0
0 0 0
0 0 0
0 0 0
0 0 0
0 0 0
0 0 0
0 0 0
0 0 0
0 0 0
0 0 0
0 0 0
0 0 0
0 0 0
0 0 0
0 0 0
0 0 0
0 0 0
0 0 0
0 0 0
0 0 0
0 0 0
0 0 0
0 0 0
0 0 0
0 0 0
0 0 0
0 0 0
0 0 0
0 0 0
0 0 0
0 0 0
0 0 0
0 0 0
0 0 0
0 0 0
0 0 0
0 0 0
0 0 0
0 0 0
0 0 0
0 0 0
0 0 0
0 0 0
0 0 0
0 0 0
0 0 0
0 0 0
0 0 0
0 0 0
0 0 0
0 0 0
0 0 0
0 0 0
0 0 0
0 0 0
0 0 0
0 0 0
0 0 0
0 0 0
0 0 0
0 0 0
0 0 0
0 0 0
0 0 0
0 0 0
0 0 0
0 0 0
0 0 0
0 0 0
0 0 0
0 0 0
0 0 0
0 0 0
0 0 0
0 0 0
0 0 0
0 0 0
0 0 0
0 0 0
0 0 0
0 0 0
0 0 0
0 0 0
0 0 0
0 0 0
0 0 0
0 0 0
0 0 0
0 0 0
0 0 0
0 0 0
0 0 0
0 0 0
0 0 0
0 0 0
0 0 0
0 0 0
0 0 0
0 0 0
0 0 0
0 0 0
0 0 0
0 0 0
0 0 0
0 0 0
0 0 0
0 0 0
0 0 0
0 0 0
0 0 0
0 0 0
0 0 0
0 0 0
0 0 0
0 0 0
0 0 0
0 0 0
0 0 0
0 0 0
0 0 0
0 0 0
0 0 0
0 0 0
0 0 0
0 0 0
0 0 0
0 0 0
0 0 0
0 0 0
0 0 0
0 0 0
0 0 0
0 0 0
0 0 0
0 0 0
0 0 0
0 0 0
0 0 0
0 0 0
0 0 0
0 0 0
0 0 0
0 0 0
0 0 0
0 0 0
0 0 0
0 0 0
0 0 0
0 0 0
0 0 0
0 0 0
0 0 0
0 0 0
0 0 0
0 0 0
0 0 0
0 0 0
0 0 0
0 0 0
0 0 0
0 0 0
0 0 0
0 0 0
0 0 0
0 0 0
0 0 0
0 0 0
0 0 0
0 0 0
0 0 0
0 0 0
0 0 0
0 0 0
0 0 0
0 0 0
0 0 0
0 0 0
0 0 0
0 0 0
0 0 0
0 0 0
0 0 0
0 0 0
0 0 0
0 0 0
0 0 0
0 0 0
0 0 0
0 0 0
0 0 0
0 0 0
0 0 0
0 0 0
0 0 0
0 0 0
0 0 0
0 0 0
0 0 0
0 0 0
0 0 0
0 0 0
0 0 0
0 0 0
0 0 0
0 0 0
0 0 0
0 0 0
0 0 0
0 0 0
0 0 0
0 0 0
0 0 0
0 0 0
0 0 0
0 0 0
0 0 0
0 0 0
0 0 0
0 0 0
0 0 0
0 0 0
0 0 0
0 0 0
0 0 0
0 0 0
0 0 0
0 0 0
0 0 0
0 0 0
0 0 0
0 0 0
0 0 0
0 0 0
0 0 0
0 0 0
0 0 0
0 0 0
0 0 0
0 0 0
0 0 0
0 0 0
0 0 0
0 0 0
0 0 0
0 0 0
0 0 0
0 0 0
0 0 0
0 0 0
0 0 0
0 0 0
0 0 0
0 0 0
0 0 0
0 0 0
0 0 0
0 0 0
0 0 0
0 0 0
0 0 0
0 0 0
0 0 0
0 0 0
0 0 0
0 0 0
0 0 0
0 0 0
0 0 0
0 0 0
0 0 0
0 0 0
0 0 0
0 0 0
0 0 0
0 0 0
0 0 0
0 0 0
0 0 0
0 0 0
0 0 0
0 0 0
0 0 0
0 0 0
0 0 0
0 0 0
0 0 0
0 0 0
0 0 0
0 0 0
0 0 0
0 0 0
0 0 0
0 0 0
0 0 0
0 0 0
0 0 0
0 0 0
0 0 0
0 0 0
0 0 0
0 0 0
0 0 0
0 0 0
0 0 0
0 0 0
0 0 0
0 0 0
0 0 0
0 0 0
0 0 0
0 0 0
0 0 0
0 0 0
0 0 0
0 0 0
0 0 0
0 0 0
0 0 0
0 0 0
0 0 0
0 0 0
0 0 0
0 0 0
0 0 0
0 0 0
0 0 0
0 0 0
0 0 0
0 0 0
0 0 0
0 0 0
0 0 0
0 0 0
0 0 0
0 0 0
0 0 0
0 0 0
0 0 0
0 0 0
0 0 0
0 0 0
0 0 0
0 0 0
0 0 0
0 0 0
0 0 0
0 0 0
0 0 0
0 0 0
0 0 0
0 0 0
0 0 0
0 0 0
0 0 0
0 0 0
0 0 0
0 0 0
0 0 0
0 0 0
0 0 0
0 0 0
0 0 0
0 0 0
0 0 0
0 0 0
0 0 0
0 0 0
0 0 0
0 0 0
0 0 0
0 0 0
0 0 0
0 0 0
0 0 0
0 0 0
0 0 0
0 0 0
0 0 0
0 0 0
0 0 0
0 0 0
0 0 0
0 0 0
0 0 0
0 0 0
0 0 0
0 0 0
0 0 0
0 0 0
0 0 0
0 0 0
0 0 0
0 0 0
0 0 0
0 0 0
0 0 0
0 0 0
0 0 0
0 0 0
0 0 0
0 0 0
0 0 0
0 0 0
0 0 0
0 0 0
0 0 0
0 0 0
0 0 0
0 0 0
0 0 0
0 0 0
0 0 0
0 0 0
0 0 0
0 0 0
0 0 0
0 0 0
0 0 0
0 0 0
0 0 0
0 0 0
0 0 0
0 0 0
0 0 0
0 0 0
0 0 0
0 0 0
0 0 0
0 0 0
0 0 0
0 0 0
0 0 0
0 0 0
0 0 0
0 0 0
0 0 0
0 0 0
0 0 0
0 0 0
0 0 0
0 0 0
0 0 0
0 0 0
0 0 0
0 0 0
0 0 0
0 0 0
0 0 0
0 0 0
0 0 0
0 0 0
0 0 0
0 0 0
0 0 0
0 0 0
0 0 0
0 0 0
0 0 0
0 0 0
0 0 0
0 0 0
0 0 0
0 0 0
0 0 0
0 0 0
0 0 0
0 0 0
0 0 0
0 0 0
0 0 0
0 0 0
0 0 0
0 0 0
0 0 0
0 0 0
0 0 0
0 0 0
0 0 0
0 0 0
0 0 0
0 0 0
0 0 0
0 0 0
0 0 0
0 0 0
0 0 0
0 0 0
0 0 0
0 0 0
0 0 0
0 0 0
0 0 0
0 0 0
0 0 0
0 0 0
0 0 0
0 0 0
0 0 0
0 0 0
0 0 0
0 0 0
0 0 0
0 0 0
0 0 0
0 0 0
0 0 0
0 0 0
0 0 0
0 0 0
0 0 0
0 0 0
0 0 0
0 0 0
0 0 0
0 0 0
0 0 0
0 0 0
0 0 0
0 0 0
0 0 0
0 0 0
0 0 0
0 0 0
0 0 0
0 0 0
0 0 0
0 0 0
0 0 0
0 0 0
0 0 0
0 0 0
0 0 0
0 0 0
0 0 0
0 0 0
0 0 0
0 0 0
0 0 0
0 0 0
0 0 0
0 0 0
0 0 0
0 0 0
0 0 0
0 0 0
0 0 0
0 0 0
0 0 0
0 0 0
0 0 0
0 0 0
0 0 0
0 0 0
0 0 0
0 0 0
0 0 0
0 0 0
0 0 0
0 0 0
0 0 0
0 0 0
0 0 0
0 0 0
0 0 0
0 0 0
0 0 0
0 0 0
0 0 0
0 0 0
0 0 0
0 0 0
0 0 0
0 0 0
0 0 0
0 0 0
0 0 0
0 0 0
0 0 0
0 0 0
0 0 0
0 0 0
0 0 0
0 0 0
0 0 0
0 0 0
0 0 0
0 0 0
0 0 0
0 0 0
0 0 0
0 0 0
0 0 0
0 0 0
0 0 0
0 0 0
0 0 0
0 0 0
0 0 0
0 0 0
0 0 0
0 0 0
0 0 0
0 0 0
0 0 0
0 0 0
0 0 0
0 0 0
0 0 0
0 0 0
0 0 0
0 0 0
0 0 0
0 0 0
0 0 0
0 0 0
0 0 0
0 0 0
0 0 0
0 0 0
0 0 0
0 0 0
0 0 0
0 0 0
0 0 0
0 0 0
0 0 0
0 0 0
0 0 0
0 0 0
0 0 0
0 0 0
0 0 0
0 0 0
0 0 0
0 0 0
0 0 0
0 0 0
0 0 0
0 0 0
0 0 0
0 0 0
0 0 0
0 0 0
0 0 0
0 0 0
0 0 0
0 0 0
0 0 0
0 0 0
0 0 0
0 0 0
0 0 0
0 0 0
0 0 0
0 0 0
0 0 0
0 0 0
0 0 0
0 0 0
0 0 0
0 0 0
0 0 0
0 0 0
0 0 0
0 0 0
0 0 0
0 0 0
0 0 0
0 0 0
0 0 0
0 0 0
0 0 0
0 0 0
0 0 0
0 0 0
0 0 0
0 0 0
0 0 0
0 0 0
0 0 0
0 0 0
0 0 0
0 0 0
0 0 0
0 0 0
0 0 0
0 0 0
0 0 0
0 0 0
0 0 0
0 0 0
0 0 0
0 0 0
0 0 0
0 0 0
0 0 0
0 0 0
0 0 0
0 0 0
0 0 0
0 0 0
0 0 0
0 0 0
0 0 0
0 0 0
0 0 0
0 0 0
0 0 0
0 0 0
0 0 0
0 0 0
0 0 0
0 0 0
0 0 0
0 0 0
0 0 0
0 0 0
0 0 0
0 0 0
0 0 0
0 0 0
0 0 0
0 0 0
0 0 0
0 0 0
0 0 0
0 0 0
0 0 0
0 0 0
0 0 0
0 0 0
0 0 0
0 0 0
0 0 0
0 0 0
0 0 0
0 0 0
0 0 0
0 0 0
0 0 0
0 0 0
0 0 0
0 0 0
0 0 0
0 0 0
0 0 0
0 0 0
0 0 0
0 0 0
0 0 0
0 0 0
0 0 0
0 0 0
0 0 0
0 0 0
0 0 0
0 0 0
0 0 0
0 0 0
0 0 0
0 0 0
0 0 0
0 0 0
0 0 0
0 0 0
0 0 0
0 0 0
0 0 0
0 0 0
0 0 0
0 0 0
0 0 0
0 0 0
0 0 0
0 0 0
0 0 0
0 0 0
0 0 0
0 0 0
0 0 0
0 0 0
0 0 0
0 0 0
0 0 0
0 0 0
0 0 0
0 0 0
0 0 0
0 0 0
0 0 0
0 0 0
0 0 0
0 0 0
0 0 0
0 0 0
0 0 0
0 0 0
0 0 0
0 0 0
0 0 0
0 0 0
0 0 0
0 0 0
0 0 0
0 0 0
0 0 0
0 0 0
0 0 0
0 0 0
0 0 0
0 0 0
0 0 0
0 0 0
0 0 0
0 0 0
0 0 0
0 0 0
0 0 0
0 0 0
0 0 0
0 0 0
0 0 0
0 0 0
0 0 0
0 0 0
0 0 0
0 0 0
0 0 0
0 0 0
0 0 0
0 0 0
0 0 0
0 0 0
0 0 0
0 0 0
0 0 0
0 0 0
0 0 0
0 0 0
0 0 0
0 0 0
0 0 0
0 0 0
0 0 0
0 0 0
0 0 0
0 0 0
0 0 0
0 0 0
0 0 0
0 0 0
0 0 0
0 0 0
0 0 0
0 0 0
0 0 0
0 0 0
0 0 0
0 0 0
0 0 0
0 0 0
0 0 0
0 0 0
0 0 0
0 0 0
0 0 0
0 0 0
0 0 0
0 0 0
0 0 0
0 0 0
0 0 0
0 0 0
0 0 0
0 0 0
0 0 0
0 0 0
0 0 0
0 0 0
0 0 0
0 0 0
0 0 0
0 0 0
0 0 0
0 0 0
0 0 0
0 0 0
0 0 0
0 0 0
0 0 0
0 0 0
0 0 0
0 0 0
0 0 0
0 0 0
0 0 0
0 0 0
0 0 0
0 0 0
0 0 0
0 0 0
0 0 0
0 0 0
0 0 0
0 0 0
0 0 0
0 0 0
0 0 0
0 0 0
0 0 0
0 0 0
0 0 0
0 0 0
0 0 0
0 0 0
0 0 0
0 0 0
0 0 0
0 0 0
0 0 0
0 0 0
0 0 0
0 0 0
0 0 0
0 0 0
0 0 0
0 0 0
0 0 0
0 0 0
0 0 0
0 0 0
0 0 0
0 0 0
0 0 0
0 0 0
0 0 0
0 0 0
0 0 0
0 0 0
0 0 0
0 0 0
0 0 0
0 0 0
0 0 0
0 0 0
0 0 0
0 0 0
0 0 0
0 0 0
0 0 0
0 0 0
0 0 0
0 0 0
0 0 0
0 0 0
0 0 0
0 0 0
0 0 0
0 0 0
0 0 0
0 0 0
0 0 0
0 0 0
0 0 0
0 0 0
0 0 0
0 0 0
0 0 0
0 0 0
0 0 0
0 0 0
0 0 0
0 0 0
0 0 0
0 0 0
0 0 0
0 0 0
0 0 0
0 0 0
0 0 0
0 0 0
0 0 0
0 0 0
0 0 0
0 0 0
0 0 0
0 0 0
0 0 0
0 0 0
0 0 0
0 0 0
0 0 0
0 0 0
0 0 0
0 0 0
0 0 0
0 0 0
0 0 0
0 0 0
0 0 0
0 0 0
0 0 0
0 0 0
0 0 0
0 0 0
0 0 0
0 0 0
0 0 0
0 0 0
0 0 0
0 0 0
0 0 0
0 0 0
0 0 0
0 0 0
0 0 0
0 0 0
0 0 0
0 0 0
0 0 0
0 0 0
0 0 0
0 0 0
0 0 0
0 0 0
0 0 0
0 0 0
0 0 0
0 0 0
0 0 0
0 0 0
0 0 0
0 0 0
0 0 0
0 0 0
0 0 0
0 0 0
0 0 0
0 0 0
0 0 0
0 0 0
0 0 0
0 0 0
0 0 0
0 0 0
0 0 0
0 0 0
0 0 0
0 0 0
0 0 0
0 0 0
0 0 0
0 0 0
0 0 0
0 0 0
0 0 0
0 0 0
0 0 0
0 0 0
0 0 0
0 0 0
0 0 0
0 0 0
0 0 0
0 0 0
0 0 0
0 0 0
0 0 0
0 0 0
0 0 0
0 0 0
0 0 0
0 0 0
0 0 0
0 0 0
0 0 0
0 0 0
0 0 0
0 0 0
0 0 0
0 0 0
0 0 0
0 0 0
0 0 0
0 0 0
0 0 0
0 0 0
0 0 0
0 0 0
0 0 0
0 0 0
0 0 0
0 0 0
0 0 0
0 0 0
0 0 0
0 0 0
0 0 0
0 0 0
0 0 0
0 0 0
0 0 0
0 0 0
0 0 0
0 0 0
0 0 0
0 0 0
0 0 0
0 0 0
0 0 0
0 0 0
0 0 0
0 0 0
0 0 0
0 0 0
0 0 0
0 0 0
0 0 0
0 0 0
0 0 0
0 0 0
0 0 0
0 0 0
0 0 0
0 0 0
0 0 0
0 0 0
0 0 0
0 0 0
0 0 0
0 0 0
0 0 0
0 0 0
0 0 0
0 0 0
0 0 0
0 0 0
0 0 0
0 0 0
0 0 0
0 0 0
0 0 0
0 0 0
0 0 0
0 0 0
0 0 0
0 0 0
0 0 0
0 0 0
0 0 0
0 0 0
0 0 0
0 0 0
0 0 0
0 0 0
0 0 0
0 0 0
0 0 0
0 0 0
0 0 0
0 0 0
0 0 0
0 0 0
0 0 0
0 0 0
0 0 0
0 0 0
0 0 0
0 0 0
0 0 0
0 0 0
0 0 0
0 0 0
0 0 0
0 0 0
0 0 0
0 0 0
0 0 0
0 0 0
0 0 0
0 0 0
0 0 0
0 0 0
0 0 0
0 0 0
0 0 0
0 0 0
0 0 0
0 0 0
0 0 0
0 0 0
0 0 0
0 0 0
0 0 0
0 0 0
0 0 0
0 0 0
0 0 0
0 0 0
0 0 0
0 0 0
0 0 0
0 0 0
0 0 0
0 0 0
0 0 0
0 0 0
0 0 0
0 0 0
0 0 0
0 0 0
0 0 0
0 0 0
0 0 0
0 0 0
0 0 0
0 0 0
0 0 0
0 0 0
0 0 0
0 0 0
0 0 0
0 0 0
0 0 0
0 0 0
0 0 0
0 0 0
0 0 0
0 0 0
0 0 0
0 0 0
0 0 0
0 0 0
0 0 0
0 0 0
0 0 0
0 0 0
0 0 0
0 0 0
0 0 0
0 0 0
0 0 0
0 0 0
0 0 0
0 0 0
0 0 0
0 0 0
0 0 0
0 0 0
0 0 0
0 0 0
0 0 0
0 0 0
0 0 0
0 0 0
0 0 0
0 0 0
0 0 0
0 0 0
0 0 0
0 0 0
0 0 0
0 0 0
0 0 0
0 0 0
0 0 0
0 0 0
0 0 0
0 0 0
0 0 0
0 0 0
0 0 0
0 0 0
0 0 0
0 0 0
0 0 0
0 0 0
0 0 0
0 0 0
0 0 0
0 0 0
0 0 0
0 0 0
0 0 0
0 0 0
0 0 0
0 0 0
0 0 0
0 0 0
0 0 0
0 0 0
0 0 0
0 0 0
0 0 0
0 0 0
0 0 0
0 0 0
0 0 0
0 0 0
0 0 0
0 0 0
0 0 0
0 0 0
0 0 0
0 0 0
0 0 0
0 0 0
0 0 0
0 0 0
0 0 0
0 0 0
0 0 0
0 0 0
0 0 0
0 0 0
0 0 0
0 0 0
0 0 0
0 0 0
0 0 0
0 0 0
0 0 0
0 0 0
0 0 0
0 0 0
0 0 0
0 0 0
0 0 0
0 0 0
0 0 0
0 0 0
0 0 0
0 0 0
0 0 0
0 0 0
0 0 0
0 0 0
0 0 0
0 0 0
0 0 0
0 0 0
0 0 0
0 0 0
0 0 0
0 0 0
0 0 0
0 0 0
0 0 0
0 0 0
0 0 0
0 0 0
0 0 0
0 0 0
0 0 0
0 0 0
0 0 0
0 0 0
0 0 0
0 0 0
0 0 0
0 0 0
0 0 0
0 0 0
0 0 0
0 0 0
0 0 0
0 0 0
0 0 0
0 0 0
0 0 0
0 0 0
0 0 0
0 0 0
0 0 0
0 0 0
0 0 0
0 0 0
0 0 0
0 0 0
0 0 0
0 0 0
0 0 0
0 0 0
0 0 0
0 0 0
0 0 0
0 0 0
0 0 0
0 0 0
0 0 0
0 0 0
0 0 0
0 0 0
0 0 0
0 0 0
0 0 0
0 0 0
0 0 0
0 0 0
0 0 0
0 0 0
0 0 0
0 0 0
0 0 0
0 0 0
0 0 0
0 0 0
0 0 0
0 0 0
0 0 0
0 0 0
0 0 0
0 0 0
0 0 0
0 0 0
0 0 0
0 0 0
0 0 0
0 0 0
0 0 0
0 0 0
0 0 0
0 0 0
0 0 0
0 0 0
0 0 0
0 0 0
0 0 0
0 0 0
0 0 0
0 0 0
0 0 0
0 0 0
0 0 0
0 0 0
0 0 0
0 0 0
0 0 0
0 0 0
0 0 0
0 0 0
0 0 0
0 0 0
0 0 0
0 0 0
0 0 0
0 0 0
0 0 0
0 0 0
0 0 0
0 0 0
0 0 0
0 0 0
0 0 0
0 0 0
0 0 0
0 0 0
0 0 0
0 0 0
0 0 0
0 0 0
0 0 0
0 0 0
0 0 0
0 0 0
0 0 0
0 0 0
0 0 0
0 0 0
0 0 0
0 0 0
0 0 0
0 0 0
0 0 0
0 0 0
0 0 0
0 0 0
0 0 0
0 0 0
0 0 0
0 0 0
0 0 0
0 0 0
0 0 0
0 0 0
0 0 0
0 0 0
0 0 0
0 0 0
0 0 0
0 0 0
0 0 0
0 0 0
0 0 0
0 0 0
0 0 0
0 0 0
0 0 0
0 0 0
0 0 0
0 0 0
0 0 0
0 0 0
0 0 0
0 0 0
0 0 0
0 0 0
0 0 0
0 0 0
0 0 0
0 0 0
0 0 0
0 0 0
0 0 0
0 0 0
0 0 0
0 0 0
0 0 0
0 0 0
0 0 0
0 0 0
0 0 0
0 0 0
0 0 0
0 0 0
0 0 0
0 0 0
0 0 0
0 0 0
0 0 0
0 0 0
0 0 0
0 0 0
0 0 0
0 0 0
0 0 0
0 0 0
0 0 0
0 0 0
0 0 0
0 0 0
0 0 0
0 0 0
0 0 0
0 0 0
0 0 0
0 0 0
0 0 0
0 0 0
0 0 0
0 0 0
0 0 0
0 0 0
0 0 0
0 0 0
0 0 0
0 0 0
0 0 0
0 0 0
0 0 0
0 0 0
0 0 0
0 0 0
0 0 0
0 0 0
0 0 0
0 0 0
0 0 0
0 0 0
0 0 0
0 0 0
0 0 0
0 0 0
0 0 0
0 0 0
0 0 0
0 0 0
0 0 0
0 0 0
0 0 0
0 0 0
0 0 0
0 0 0
0 0 0
0 0 0
0 0 0
0 0 0
0 0 0
0 0 0
0 0 0
0 0 0
0 0 0
0 0 0
0 0 0
0 0 0
0 0 0
0 0 0
0 0 0
0 0 0
0 0 0
0 0 0
0 0 0
0 0 0
0 0 0
0 0 0
0 0 0
0 0 0
0 0 0
0 0 0
0 0 0
0 0 0
0 0 0
0 0 0
0 0 0
0 0 0
0 0 0
0 0 0
0 0 0
0 0 0
0 0 0
0 0 0
0 0 0
0 0 0
0 0 0
0 0 0
0 0 0
0 0 0
0 0 0
0 0 0
0 0 0
0 0 0
0 0 0
0 0 0
0 0 0
0 0 0
0 0 0
0 0 0
0 0 0
0 0 0
0 0 0
0 0 0
0 0 0
0 0 0
0 0 0
0 0 0
0 0 0
0 0 0
0 0 0
0 0 0
0 0 0
0 0 0
0 0 0
0 0 0
0 0 0
0 0 0
0 0 0
0 0 0
0 0 0
0 0 0
0 0 0
0 0 0
0 0 0
0 0 0
0 0 0
0 0 0
0 0 0
0 0 0
0 0 0
0 0 0
0 0 0
0 0 0
0 0 0
0 0 0
0 0 0
0 0 0
0 0 0
0 0 0
0 0 0
0 0 0
0 0 0
0 0 0
0 0 0
0 0 0
0 0 0
0 0 0
0 0 0
0 0 0
0 0 0
0 0 0
0 0 0
0 0 0
0 0 0
0 0 0
0 0 0
0 0 0
0 0 0
0 0 0
0 0 0
0 0 0
0 0 0
0 0 0
0 0 0
0 0 0
0 0 0
0 0 0
0 0 0
0 0 0
0 0 0
0 0 0
0 0 0
0 0 0
0 0 0
0 0 0
0 0 0
0 0 0
0 0 0
0 0 0
0 0 0
0 0 0
0 0 0
0 0 0
0 0 0
0 0 0
0 0 0
0 0 0
0 0 0
0 0 0
0 0 0
0 0 0
0 0 0
0 0 0
0 0 0
0 0 0
0 0 0
0 0 0
0 0 0
0 0 0
0 0 0
0 0 0
0 0 0
0 0 0
0 0 0
0 0 0
0 0 0
0 0 0
0 0 0
0 0 0
0 0 0
0 0 0
0 0 0
0 0 0
0 0 0
0 0 0
0 0 0
0 0 0
0 0 0
0 0 0
0 0 0
0 0 0
0 0 0
0 0 0
0 0 0
0 0 0
0 0 0
0 0 0
0 0 0
0 0 0
0 0 0
0 0 0
0 0 0
0 0 0
0 0 0
0 0 0
0 0 0
0 0 0
0 0 0
0 0 0
0 0 0
0 0 0
0 0 0
0 0 0
0 0 0
0 0 0
0 0 0
0 0 0
0 0 0
0 0 0
0 0 0
0 0 0
0 0 0
0 0 0
0 0 0
0 0 0
0 0 0
0 0 0
0 0 0
0 0 0
0 0 0
0 0 0
0 0 0
0 0 0
0 0 0
0 0 0
0 0 0
0 0 0
0 0 0
0 0 0
0 0 0
0 0 0
0 0 0
0 0 0
0 0 0
0 0 0
0 0 0
0 0 0
0 0 0
0 0 0
0 0 0
0 0 0
0 0 0
0 0 0
0 0 0
0 0 0
0 0 0
0 0 0
0 0 0
0 0 0
0 0 0
0 0 0
0 0 0
0 0 0
0 0 0
0 0 0
0 0 0
0 0 0
0 0 0
0 0 0
0 0 0
0 0 0
0 0 0
0 0 0
0 0 0
0 0 0
0 0 0
0 0 0
0 0 0
0 0 0
0 0 0
0 0 0
0 0 0
0 0 0
0 0 0
0 0 0
0 0 0
0 0 0
0 0 0
0 0 0
0 0 0
0 0 0
0 0 0
0 0 0
0 0 0
0 0 0
0 0 0
0 0 0
0 0 0
0 0 0
0 0 0
0 0 0
0 0 0
0 0 0
0 0 0
0 0 0
0 0 0
0 0 0
0 0 0
0 0 0
0 0 0
0 0 0
0 0 0
0 0 0
0 0 0
0 0 0
0 0 0
0 0 0
0 0 0
0 0 0
0 0 0
0 0 0
0 0 0
0 0 0
0 0 0
0 0 0
0 0 0
0 0 0
0 0 0
0 0 0
0 0 0
0 0 0
0 0 0
0 0 0
0 0 0
0 0 0
0 0 0
0 0 0
0 0 0
0 0 0
0 0 0
0 0 0
0 0 0
0 0 0
0 0 0
0 0 0
0 0 0
0 0 0
0 0 0
0 0 0
0 0 0
0 0 0
0 0 0
0 0 0
0 0 0
0 0 0
0 0 0
0 0 0
0 0 0
0 0 0
0 0 0
0 0 0
0 0 0
0 0 0
0 0 0
0 0 0
0 0 0
0 0 0
0 0 0
0 0 0
0 0 0
0 0 0
0 0 0
0 0 0
0 0 0
0 0 0
0 0 0
0 0 0
0 0 0
0 0 0
0 0 0
0 0 0
0 0 0
0 0 0
0 0 0
0 0 0
0 0 0
0 0 0
0 0 0
0 0 0
0 0 0
0 0 0
0 0 0
0 0 0
0 0 0
0 0 0
0 0 0
0 0 0
0 0 0
0 0 0
0 0 0
0 0 0
0 0 0
0 0 0
0 0 0
0 0 0
0 0 0
0 0 0
0 0 0
0 0 0
0 0 0
0 0 0
0 0 0
0 0 0
0 0 0
0 0 0
0 0 0
0 0 0
0 0 0
0 0 0
0 0 0
0 0 0
0 0 0
0 0 0
0 0 0
0 0 0
0 0 0
0 0 0
0 0 0
0 0 0
0 0 0
0 0 0
0 0 0
0 0 0
0 0 0
0 0 0
0 0 0
0 0 0
0 0 0
0 0 0
0 0 0
0 0 0
0 0 0
0 0 0
0 0 0
0 0 0
0 0 0
0 0 0
0 0 0
0 0 0
0 0 0
0 0 0
0 0 0
0 0 0
0 0 0
0 0 0
0 0 0
0 0 0
0 0 0
0 0 0
0 0 0
0 0 0
0 0 0
0 0 0
0 0 0
0 0 0
0 0 0
0 0 0
0 0 0
0 0 0
0 0 0
0 0 0
0 0 0
0 0 0
0 0 0
0 0 0
0 0 0
0 0 0
0 0 0
0 0 0
0 0 0
0 0 0
0 0 0
0 0 0
0 0 0
0 0 0
0 0 0
0 0 0
0 0 0
0 0 0
0 0 0
0 0 0
0 0 0
0 0 0
0 0 0
0 0 0
0 0 0
0 0 0
0 0 0
0 0 0
0 0 0
0 0 0
0 0 0
0 0 0
0 0 0
0 0 0
0 0 0
0 0 0
0 0 0
0 0 0
0 0 0
0 0 0
0 0 0
0 0 0
0 0 0
0 0 0
0 0 0
0 0 0
0 0 0
0 0 0
0 0 0
0 0 0
0 0 0
0 0 0
0 0 0
0 0 0
0 0 0
0 0 0
0 0 0
0 0 0
0 0 0
0 0 0
0 0 0
0 0 0
0 0 0
0 0 0
0 0 0
0 0 0
0 0 0
0 0 0
0 0 0
0 0 0
0 0 0
0 0 0
0 0 0
0 0 0
0 0 0
0 0 0
0 0 0
0 0 0
0 0 0
0 0 0
0 0 0
0 0 0
0 0 0
0 0 0
0 0 0
0 0 0
0 0 0
0 0 0
0 0 0
0 0 0
0 0 0
0 0 0
0 0 0
0 0 0
0 0 0
0 0 0
0 0 0
0 0 0
0 0 0
0 0 0
0 0 0
0 0 0
0 0 0
0 0 0
0 0 0
0 0 0
0 0 0
0 0 0
0 0 0
0 0 0
0 0 0
0 0 0
0 0 0
0 0 0
0 0 0
0 0 0
0 0 0
0 0 0
0 0 0
0 0 0
0 0 0
0 0 0
0 0 0
0 0 0
0 0 0
0 0 0
0 0 0
0 0 0
0 0 0
0 0 0
0 0 0
0 0 0
0 0 0
0 0 0
0 0 0
0 0 0
0 0 0
0 0 0
0 0 0
0 0 0
0 0 0
0 0 0
0 0 0
0 0 0
0 0 0
0 0 0
0 0 0
0 0 0
0 0 0
0 0 0
0 0 0
0 0 0
0 0 0
0 0 0
0 0 0
0 0 0
0 0 0
0 0 0
0 0 0
0 0 0
0 0 0
0 0 0
0 0 0
0 0 0
0 0 0
0 0 0
0 0 0
0 0 0
0 0 0
0 0 0
0 0 0
0 0 0
0 0 0
0 0 0
0 0 0
0 0 0
0 0 0
0 0 0
0 0 0
0 0 0
0 0 0
0 0 0
0 0 0
0 0 0
0 0 0
0 0 0
0 0 0
0 0 0
0 0 0
0 0 0
0 0 0
0 0 0
0 0 0
0 0 0
0 0 0
0 0 0
0 0 0
0 0 0
0 0 0
0 0 0
0 0 0
0 0 0
0 0 0
0 0 0
0 0 0
0 0 0
0 0 0
0 0 0
0 0 0
0 0 0
0 0 0
0 0 0
0 0 0
0 0 0
0 0 0
0 0 0
0 0 0
0 0 0
0 0 0
0 0 0
0 0 0
0 0 0
0 0 0
0 0 0
0 0 0
0 0 0
0 0 0
0 0 0
0 0 0
0 0 0
0 0 0
0 0 0
0 0 0
0 0 0
0 0 0
0 0 0
0 0 0
0 0 0
0 0 0
0 0 0
0 0 0
0 0 0
0 0 0
0 0 0
0 0 0
0 0 0
0 0 0
0 0 0
0 0 0
0 0 0
0 0 0
0 0 0
0 0 0
0 0 0
0 0 0
0 0 0
0 0 0
0 0 0
0 0 0
0 0 0
0 0 0
0 0 0
0 0 0
0 0 0
0 0 0
0 0 0
0 0 0
0 0 0
0 0 0
0 0 0
0 0 0
0 0 0
0 0 0
0 0 0
0 0 0
0 0 0
0 0 0
0 0 0
0 0 0
0 0 0
0 0 0
0 0 0
0 0 0
0 0 0
0 0 0
0 0 0
0 0 0
0 0 0
0 0 0
0 0 0
0 0 0
0 0 0
0 0 0
0 0 0
0 0 0
0 0 0
0 0 0
0 0 0
0 0 0
0 0 0
0 0 0
0 0 0
0 0 0
0 0 0
0 0 0
0 0 0
0 0 0
0 0 0
0 0 0
0 0 0
0 0 0
0 0 0
0 0 0
0 0 0
0 0 0
0 0 0
0 0 0
0 0 0
0 0 0
0 0 0
0 0 0
0 0 0
0 0 0
0 0 0
0 0 0
0 0 0
0 0 0
0 0 0
0 0 0
0 0 0
0 0 0
0 0 0
0 0 0
0 0 0
0 0 0
0 0 0
0 0 0
0 0 0
0 0 0
0 0 0
0 0 0
0 0 0
0 0 0
0 0 0
0 0 0
0 0 0
0 0 0
0 0 0
0 0 0
0 0 0
0 0 0
0 0 0
0 0 0
0 0 0
0 0 0
0 0 0
0 0 0
0 0 0
0 0 0
0 0 0
0 0 0
0 0 0
0 0 0
0 0 0
0 0 0
0 0 0
0 0 0
0 0 0
0 0 0
0 0 0
0 0 0
0 0 0
0 0 0
0 0 0
0 0 0
0 0 0
0 0 0
0 0 0
0 0 0
0 0 0
0 0 0
0 0 0
0 0 0
0 0 0
0 0 0
0 0 0
0 0 0
0 0 0
0 0 0
0 0 0
0 0 0
0 0 0
0 0 0
0 0 0
0 0 0
0 0 0
0 0 0
0 0 0
0 0 0
0 0 0
0 0 0
0 0 0
0 0 0
0 0 0
0 0 0
0 0 0
0 0 0
0 0 0
0 0 0
0 0 0
0 0 0
0 0 0
0 0 0
0 0 0
0 0 0
0 0 0
0 0 0
0 0 0
0 0 0
0 0 0
0 0 0
0 0 0
0 0 0
0 0 0
0 0 0
0 0 0
0 0 0
0 0 0
0 0 0
0 0 0
0 0 0
0 0 0
0 0 0
0 0 0
0 0 0
0 0 0
0 0 0
0 0 0
0 0 0
0 0 0
0 0 0
0 0 0
0 0 0
0 0 0
0 0 0
0 0 0
0 0 0
0 0 0
0 0 0
0 0 0
0 0 0
0 0 0
0 0 0
0 0 0
0 0 0
0 0 0
0 0 0
0 0 0
0 0 0
0 0 0
0 0 0
0 0 0
0 0 0
0 0 0
0 0 0
0 0 0
0 0 0
0 0 0
0 0 0
0 0 0
0 0 0
0 0 0
0 0 0
0 0 0
0 0 0
0 0 0
0 0 0
0 0 0
0 0 0
0 0 0
0 0 0
0 0 0
0 0 0
0 0 0
0 0 0
0 0 0
0 0 0
0 0 0
0 0 0
0 0 0
0 0 0
0 0 0
0 0 0
