P3
256 256
255
0 0 0
0 0 0
0 0 0
0 0 0
0 0 0
0 0 0
0 0 0
0 0 0
0 0 0
0 0 0
0 0 0
0 0 0
0 0 0
0 0 0
0 0 0
0 0 0
0 0 0
0 0 0
0 0 0
0 0 0
0 0 0
0 0 0
0 0 0
0 0 0
0 0 0
0 0 0
0 0 0
0 0 0
0 0 0
0 0 0
0 0 0
0 0 0
0 0 0
0 0 0
0 0 0
0 0 0
0 0 0
0 0 0
0 0 0
0 0 0
0 0 0
0 0 0
0 0 0
0 0 0
0 0 0
0 0 0
0 0 0
0 0 0
0 0 0
0 0 0
0 0 0
0 0 0
0 0 0
0 0 0
0 0 0
0 0 0
0 0 0
0 0 0
0 0 0
0 0 0
0 0 0
0 0 0
0 0 0
0 0 0
0 0 0
0 0 0
0 0 0
0 0 0
0 0 0
0 0 0
0 0 0
0 0 0
0 0 0
0 0 0
0 0 0
0 0 0
0 0 0
0 0 0
0 0 0
0 0 0
0 0 0
0 0 0
0 0 0
0 0 0
0 0 0
0 0 0
0 0 0
0 0 0
0 0 0
0 0 0
0 0 0
0 0 0
0 0 0
0 0 0
0 0 0
0 0 0
0 0 0
0 0 0
0 0 0
0 0 0
0 0 0
0 0 0
0 0 0
0 0 0
0 0 0
0 0 0
0 0 0
0 0 0
0 0 0
0 0 0
0 0 0
0 0 0
0 0 0
0 0 0
0 0 0
0 0 0
0 0 0
0 0 0
0 0 0
0 0 0
0 0 0
0 0 0
0 0 0
0 0 0
0 0 0
0 0 0
0 0 0
0 0 0
0 0 0
0 0 0
0 0 0
0 0 0
0 0 0
0 0 0
0 0 0
0 0 0
0 0 0
0 0 0
0 0 0
0 0 0
0 0 0
0 0 0
0 0 0
0 0 0
0 0 0
0 0 0
0 0 0
0 0 0
0 0 0
0 0 0
0 0 0
0 0 0
0 0 0
0 0 0
0 0 0
0 0 0
0 0 0
0 0 0
0 0 0
0 0 0
0 0 0
0 0 0
0 0 0
0 0 0
0 0 0
0 0 0
0 0 0
0 0 0
0 0 0
0 0 0
0 0 0
0 0 0
0 0 0
0 0 0
0 0 0
0 0 0
0 0 0
0 0 0
0 0 0
0 0 0
0 0 0
0 0 0
0 0 0
0 0 0
0 0 0
0 0 0
0 0 0
0 0 0
0 0 0
0 0 0
0 0 0
0 0 0
0 0 0
0 0 0
0 0 0
0 0 0
0 0 0
0 0 0
0 0 0
0 0 0
0 0 0
0 0 0
0 0 0
0 0 0
0 0 0
0 0 0
0 0 0
0 0 0
0 0 0
0 0 0
0 0 0
0 0 0
0 0 0
0 0 0
0 0 0
0 0 0
0 0 0
0 0 0
0 0 0
0 0 0
0 0 0
0 0 0
0 0 0
0 0 0
0 0 0
0 0 0
0 0 0
0 0 0
0 0 0
0 0 0
0 0 0
0 0 0
0 0 0
0 0 0
0 0 0
0 0 0
0 0 0
0 0 0
0 0 0
0 0 0
0 0 0
0 0 0
0 0 0
0 0 0
0 0 0
0 0 0
0 0 0
0 0 0
0 0 0
0 0 0
0 0 0
0 0 0
0 0 0
0 0 0
0 0 0
0 0 0
0 0 0
0 0 0
0 0 0
0 0 0
0 0 0
0 0 0
0 0 0
0 0 0
0 0 0
0 0 0
0 0 0
0 0 0
0 0 0
0 0 0
0 0 0
0 0 0
0 0 0
0 0 0
0 0 0
0 0 0
0 0 0
0 0 0
0 0 0
0 0 0
0 0 0
0 0 0
0 0 0
0 0 0
0 0 0
0 0 0
0 0 0
0 0 0
0 0 0
0 0 0
0 0 0
0 0 0
0 0 0
0 0 0
0 0 0
0 0 0
0 0 0
0 0 0
0 0 0
0 0 0
0 0 0
0 0 0
0 0 0
0 0 0
0 0 0
0 0 0
0 0 0
0 0 0
0 0 0
0 0 0
0 0 0
0 0 0
0 0 0
0 0 0
0 0 0
0 0 0
0 0 0
0 0 0
0 0 0
0 0 0
0 0 0
0 0 0
0 0 0
0 0 0
0 0 0
0 0 0
0 0 0
0 0 0
0 0 0
0 0 0
0 0 0
0 0 0
0 0 0
0 0 0
0 0 0
0 0 0
0 0 0
0 0 0
0 0 0
0 0 0
0 0 0
0 0 0
0 0 0
0 0 0
0 0 0
0 0 0
0 0 0
0 0 0
0 0 0
0 0 0
0 0 0
0 0 0
0 0 0
0 0 0
0 0 0
0 0 0
0 0 0
0 0 0
0 0 0
0 0 0
0 0 0
0 0 0
0 0 0
0 0 0
0 0 0
0 0 0
0 0 0
0 0 0
0 0 0
0 0 0
0 0 0
0 0 0
0 0 0
0 0 0
0 0 0
0 0 0
0 0 0
0 0 0
0 0 0
0 0 0
0 0 0
0 0 0
0 0 0
0 0 0
0 0 0
0 0 0
0 0 0
0 0 0
0 0 0
0 0 0
0 0 0
0 0 0
0 0 0
0 0 0
0 0 0
0 0 0
0 0 0
0 0 0
0 0 0
0 0 0
0 0 0
0 0 0
0 0 0
0 0 0
0 0 0
0 0 0
0 0 0
0 0 0
0 0 0
0 0 0
0 0 0
0 0 0
0 0 0
0 0 0
0 0 0
0 0 0
0 0 0
0 0 0
0 0 0
0 0 0
0 0 0
0 0 0
0 0 0
0 0 0
0 0 0
0 0 0
0 0 0
0 0 0
0 0 0
0 0 0
0 0 0
0 0 0
0 0 0
0 0 0
0 0 0
0 0 0
0 0 0
0 0 0
0 0 0
0 0 0
0 0 0
0 0 0
0 0 0
0 0 0
0 0 0
0 0 0
0 0 0
0 0 0
0 0 0
0 0 0
0 0 0
0 0 0
0 0 0
0 0 0
0 0 0
0 0 0
0 0 0
0 0 0
0 0 0
0 0 0
0 0 0
0 0 0
0 0 0
0 0 0
0 0 0
0 0 0
0 0 0
0 0 0
0 0 0
0 0 0
0 0 0
0 0 0
0 0 0
0 0 0
0 0 0
0 0 0
0 0 0
0 0 0
0 0 0
0 0 0
0 0 0
0 0 0
0 0 0
0 0 0
0 0 0
0 0 0
0 0 0
0 0 0
0 0 0
0 0 0
0 0 0
0 0 0
0 0 0
0 0 0
0 0 0
0 0 0
0 0 0
0 0 0
0 0 0
0 0 0
0 0 0
0 0 0
0 0 0
0 0 0
0 0 0
0 0 0
0 0 0
0 0 0
0 0 0
0 0 0
0 0 0
0 0 0
0 0 0
0 0 0
0 0 0
0 0 0
0 0 0
0 0 0
0 0 0
0 0 0
0 0 0
0 0 0
0 0 0
0 0 0
0 0 0
0 0 0
0 0 0
0 0 0
0 0 0
0 0 0
0 0 0
0 0 0
0 0 0
0 0 0
0 0 0
0 0 0
0 0 0
0 0 0
0 0 0
0 0 0
0 0 0
0 0 0
0 0 0
0 0 0
0 0 0
0 0 0
0 0 0
0 0 0
0 0 0
0 0 0
0 0 0
0 0 0
0 0 0
0 0 0
0 0 0
0 0 0
0 0 0
0 0 0
0 0 0
0 0 0
0 0 0
0 0 0
0 0 0
0 0 0
0 0 0
0 0 0
0 0 0
0 0 0
0 0 0
0 0 0
0 0 0
0 0 0
0 0 0
0 0 0
0 0 0
0 0 0
0 0 0
0 0 0
0 0 0
0 0 0
0 0 0
0 0 0
0 0 0
0 0 0
0 0 0
0 0 0
0 0 0
0 0 0
0 0 0
0 0 0
0 0 0
0 0 0
0 0 0
0 0 0
0 0 0
0 0 0
0 0 0
0 0 0
0 0 0
0 0 0
0 0 0
0 0 0
0 0 0
0 0 0
0 0 0
0 0 0
0 0 0
0 0 0
0 0 0
0 0 0
0 0 0
0 0 0
0 0 0
0 0 0
0 0 0
0 0 0
0 0 0
0 0 0
0 0 0
0 0 0
0 0 0
0 0 0
0 0 0
0 0 0
0 0 0
0 0 0
0 0 0
0 0 0
0 0 0
0 0 0
0 0 0
0 0 0
0 0 0
0 0 0
0 0 0
0 0 0
0 0 0
0 0 0
0 0 0
0 0 0
0 0 0
0 0 0
0 0 0
0 0 0
0 0 0
0 0 0
0 0 0
0 0 0
0 0 0
0 0 0
0 0 0
0 0 0
0 0 0
0 0 0
0 0 0
0 0 0
0 0 0
0 0 0
0 0 0
0 0 0
0 0 0
0 0 0
0 0 0
0 0 0
0 0 0
0 0 0
0 0 0
0 0 0
0 0 0
0 0 0
0 0 0
0 0 0
0 0 0
0 0 0
0 0 0
0 0 0
0 0 0
0 0 0
0 0 0
0 0 0
0 0 0
0 0 0
0 0 0
0 0 0
0 0 0
0 0 0
0 0 0
0 0 0
0 0 0
0 0 0
0 0 0
0 0 0
0 0 0
0 0 0
0 0 0
0 0 0
0 0 0
0 0 0
0 0 0
0 0 0
0 0 0
0 0 0
0 0 0
0 0 0
0 0 0
0 0 0
0 0 0
0 0 0
0 0 0
0 0 0
0 0 0
0 0 0
0 0 0
0 0 0
0 0 0
0 0 0
0 0 0
0 0 0
0 0 0
0 0 0
0 0 0
0 0 0
0 0 0
0 0 0
0 0 0
0 0 0
0 0 0
0 0 0
0 0 0
0 0 0
0 0 0
0 0 0
0 0 0
0 0 0
0 0 0
0 0 0
0 0 0
0 0 0
0 0 0
0 0 0
0 0 0
0 0 0
0 0 0
0 0 0
0 0 0
0 0 0
0 0 0
0 0 0
0 0 0
0 0 0
0 0 0
0 0 0
0 0 0
0 0 0
0 0 0
0 0 0
0 0 0
0 0 0
0 0 0
0 0 0
0 0 0
0 0 0
0 0 0
0 0 0
0 0 0
0 0 0
0 0 0
0 0 0
0 0 0
0 0 0
0 0 0
0 0 0
0 0 0
0 0 0
0 0 0
0 0 0
0 0 0
0 0 0
0 0 0
0 0 0
0 0 0
0 0 0
0 0 0
0 0 0
0 0 0
0 0 0
0 0 0
0 0 0
0 0 0
0 0 0
0 0 0
0 0 0
0 0 0
0 0 0
0 0 0
0 0 0
0 0 0
0 0 0
0 0 0
0 0 0
0 0 0
0 0 0
0 0 0
0 0 0
0 0 0
0 0 0
0 0 0
0 0 0
0 0 0
0 0 0
0 0 0
0 0 0
0 0 0
0 0 0
0 0 0
0 0 0
0 0 0
0 0 0
0 0 0
0 0 0
0 0 0
0 0 0
0 0 0
0 0 0
0 0 0
0 0 0
0 0 0
0 0 0
0 0 0
0 0 0
0 0 0
0 0 0
0 0 0
0 0 0
0 0 0
0 0 0
0 0 0
0 0 0
0 0 0
0 0 0
0 0 0
0 0 0
0 0 0
0 0 0
0 0 0
0 0 0
0 0 0
0 0 0
0 0 0
0 0 0
0 0 0
0 0 0
0 0 0
0 0 0
0 0 0
0 0 0
0 0 0
0 0 0
0 0 0
0 0 0
0 0 0
0 0 0
0 0 0
0 0 0
0 0 0
0 0 0
0 0 0
0 0 0
0 0 0
0 0 0
0 0 0
0 0 0
0 0 0
0 0 0
0 0 0
0 0 0
0 0 0
0 0 0
0 0 0
0 0 0
0 0 0
0 0 0
0 0 0
0 0 0
0 0 0
0 0 0
0 0 0
0 0 0
0 0 0
0 0 0
0 0 0
0 0 0
0 0 0
0 0 0
0 0 0
0 0 0
0 0 0
0 0 0
0 0 0
0 0 0
0 0 0
0 0 0
0 0 0
0 0 0
0 0 0
0 0 0
0 0 0
0 0 0
0 0 0
0 0 0
0 0 0
0 0 0
0 0 0
0 0 0
0 0 0
0 0 0
0 0 0
0 0 0
0 0 0
0 0 0
0 0 0
0 0 0
0 0 0
0 0 0
0 0 0
0 0 0
0 0 0
0 0 0
0 0 0
0 0 0
0 0 0
0 0 0
0 0 0
0 0 0
0 0 0
0 0 0
0 0 0
0 0 0
0 0 0
0 0 0
0 0 0
0 0 0
0 0 0
0 0 0
0 0 0
0 0 0
0 0 0
0 0 0
0 0 0
0 0 0
0 0 0
0 0 0
0 0 0
0 0 0
0 0 0
0 0 0
0 0 0
0 0 0
0 0 0
0 0 0
0 0 0
0 0 0
0 0 0
0 0 0
0 0 0
0 0 0
0 0 0
0 0 0
0 0 0
0 0 0
0 0 0
0 0 0
0 0 0
0 0 0
0 0 0
0 0 0
0 0 0
0 0 0
0 0 0
0 0 0
0 0 0
0 0 0
0 0 0
0 0 0
0 0 0
0 0 0
0 0 0
0 0 0
0 0 0
0 0 0
0 0 0
0 0 0
0 0 0
0 0 0
0 0 0
0 0 0
0 0 0
0 0 0
0 0 0
0 0 0
0 0 0
0 0 0
0 0 0
0 0 0
0 0 0
0 0 0
0 0 0
0 0 0
0 0 0
0 0 0
0 0 0
0 0 0
0 0 0
0 0 0
0 0 0
0 0 0
0 0 0
0 0 0
0 0 0
0 0 0
0 0 0
0 0 0
0 0 0
0 0 0
0 0 0
0 0 0
0 0 0
0 0 0
0 0 0
0 0 0
0 0 0
0 0 0
0 0 0
0 0 0
0 0 0
0 0 0
0 0 0
0 0 0
0 0 0
0 0 0
0 0 0
0 0 0
0 0 0
0 0 0
0 0 0
0 0 0
0 0 0
0 0 0
0 0 0
0 0 0
0 0 0
0 0 0
0 0 0
0 0 0
0 0 0
0 0 0
0 0 0
0 0 0
0 0 0
0 0 0
0 0 0
0 0 0
0 0 0
0 0 0
0 0 0
0 0 0
0 0 0
0 0 0
0 0 0
0 0 0
0 0 0
0 0 0
0 0 0
0 0 0
0 0 0
0 0 0
0 0 0
0 0 0
0 0 0
0 0 0
0 0 0
0 0 0
0 0 0
0 0 0
0 0 0
0 0 0
0 0 0
0 0 0
0 0 0
0 0 0
0 0 0
0 0 0
0 0 0
0 0 0
0 0 0
0 0 0
0 0 0
0 0 0
0 0 0
0 0 0
0 0 0
0 0 0
0 0 0
0 0 0
0 0 0
0 0 0
0 0 0
0 0 0
0 0 0
0 0 0
0 0 0
0 0 0
0 0 0
0 0 0
0 0 0
0 0 0
0 0 0
0 0 0
0 0 0
0 0 0
0 0 0
0 0 0
0 0 0
0 0 0
0 0 0
0 0 0
0 0 0
0 0 0
0 0 0
0 0 0
0 0 0
0 0 0
0 0 0
0 0 0
0 0 0
0 0 0
0 0 0
0 0 0
0 0 0
0 0 0
0 0 0
0 0 0
0 0 0
0 0 0
0 0 0
0 0 0
0 0 0
0 0 0
0 0 0
0 0 0
0 0 0
0 0 0
0 0 0
0 0 0
0 0 0
0 0 0
0 0 0
0 0 0
0 0 0
0 0 0
0 0 0
0 0 0
0 0 0
0 0 0
0 0 0
0 0 0
0 0 0
0 0 0
0 0 0
0 0 0
0 0 0
0 0 0
0 0 0
0 0 0
0 0 0
0 0 0
0 0 0
0 0 0
0 0 0
0 0 0
0 0 0
0 0 0
0 0 0
0 0 0
0 0 0
0 0 0
0 0 0
0 0 0
0 0 0
0 0 0
0 0 0
0 0 0
0 0 0
0 0 0
0 0 0
0 0 0
0 0 0
0 0 0
0 0 0
0 0 0
0 0 0
0 0 0
0 0 0
0 0 0
0 0 0
0 0 0
0 0 0
0 0 0
0 0 0
0 0 0
0 0 0
0 0 0
0 0 0
0 0 0
0 0 0
0 0 0
0 0 0
0 0 0
0 0 0
0 0 0
0 0 0
0 0 0
0 0 0
0 0 0
0 0 0
0 0 0
0 0 0
0 0 0
0 0 0
0 0 0
0 0 0
0 0 0
0 0 0
0 0 0
0 0 0
0 0 0
0 0 0
0 0 0
0 0 0
0 0 0
0 0 0
0 0 0
0 0 0
0 0 0
0 0 0
0 0 0
0 0 0
0 0 0
0 0 0
0 0 0
0 0 0
0 0 0
0 0 0
0 0 0
0 0 0
0 0 0
0 0 0
0 0 0
0 0 0
0 0 0
0 0 0
0 0 0
0 0 0
0 0 0
0 0 0
0 0 0
0 0 0
0 0 0
0 0 0
0 0 0
0 0 0
0 0 0
0 0 0
0 0 0
0 0 0
0 0 0
0 0 0
0 0 0
0 0 0
0 0 0
0 0 0
0 0 0
0 0 0
0 0 0
0 0 0
0 0 0
0 0 0
0 0 0
0 0 0
0 0 0
0 0 0
0 0 0
0 0 0
0 0 0
0 0 0
0 0 0
0 0 0
0 0 0
0 0 0
0 0 0
0 0 0
0 0 0
0 0 0
0 0 0
0 0 0
0 0 0
0 0 0
0 0 0
0 0 0
0 0 0
0 0 0
0 0 0
0 0 0
0 0 0
0 0 0
0 0 0
0 0 0
0 0 0
0 0 0
0 0 0
0 0 0
0 0 0
0 0 0
0 0 0
0 0 0
0 0 0
0 0 0
0 0 0
0 0 0
0 0 0
0 0 0
0 0 0
0 0 0
0 0 0
0 0 0
0 0 0
0 0 0
0 0 0
0 0 0
0 0 0
0 0 0
0 0 0
0 0 0
0 0 0
0 0 0
0 0 0
0 0 0
0 0 0
0 0 0
0 0 0
0 0 0
0 0 0
0 0 0
0 0 0
0 0 0
0 0 0
0 0 0
0 0 0
0 0 0
0 0 0
0 0 0
0 0 0
0 0 0
0 0 0
0 0 0
0 0 0
0 0 0
0 0 0
0 0 0
0 0 0
0 0 0
0 0 0
0 0 0
0 0 0
0 0 0
0 0 0
0 0 0
0 0 0
0 0 0
0 0 0
0 0 0
0 0 0
0 0 0
0 0 0
0 0 0
0 0 0
0 0 0
0 0 0
0 0 0
0 0 0
0 0 0
0 0 0
0 0 0
0 0 0
0 0 0
0 0 0
0 0 0
0 0 0
0 0 0
0 0 0
0 0 0
0 0 0
0 0 0
0 0 0
0 0 0
0 0 0
0 0 0
0 0 0
0 0 0
0 0 0
0 0 0
0 0 0
0 0 0
0 0 0
0 0 0
0 0 0
0 0 0
0 0 0
0 0 0
0 0 0
0 0 0
0 0 0
0 0 0
0 0 0
0 0 0
0 0 0
0 0 0
0 0 0
0 0 0
0 0 0
0 0 0
0 0 0
0 0 0
0 0 0
0 0 0
0 0 0
0 0 0
0 0 0
0 0 0
0 0 0
0 0 0
0 0 0
0 0 0
0 0 0
0 0 0
0 0 0
0 0 0
0 0 0
0 0 0
0 0 0
0 0 0
0 0 0
0 0 0
0 0 0
0 0 0
0 0 0
0 0 0
0 0 0
0 0 0
0 0 0
0 0 0
0 0 0
0 0 0
0 0 0
0 0 0
0 0 0
0 0 0
0 0 0
0 0 0
0 0 0
0 0 0
0 0 0
0 0 0
0 0 0
0 0 0
0 0 0
0 0 0
0 0 0
0 0 0
0 0 0
0 0 0
0 0 0
0 0 0
0 0 0
0 0 0
0 0 0
0 0 0
0 0 0
0 0 0
0 0 0
0 0 0
0 0 0
0 0 0
0 0 0
0 0 0
0 0 0
0 0 0
0 0 0
0 0 0
0 0 0
0 0 0
0 0 0
0 0 0
0 0 0
0 0 0
0 0 0
0 0 0
0 0 0
0 0 0
0 0 0
0 0 0
0 0 0
0 0 0
0 0 0
0 0 0
0 0 0
0 0 0
0 0 0
0 0 0
0 0 0
0 0 0
0 0 0
0 0 0
0 0 0
0 0 0
0 0 0
0 0 0
0 0 0
0 0 0
0 0 0
0 0 0
0 0 0
0 0 0
0 0 0
0 0 0
0 0 0
0 0 0
0 0 0
0 0 0
0 0 0
0 0 0
0 0 0
0 0 0
0 0 0
0 0 0
0 0 0
0 0 0
0 0 0
0 0 0
0 0 0
0 0 0
0 0 0
0 0 0
0 0 0
0 0 0
0 0 0
0 0 0
0 0 0
0 0 0
0 0 0
0 0 0
0 0 0
0 0 0
0 0 0
0 0 0
0 0 0
0 0 0
0 0 0
0 0 0
0 0 0
0 0 0
0 0 0
0 0 0
0 0 0
0 0 0
0 0 0
0 0 0
0 0 0
0 0 0
0 0 0
0 0 0
0 0 0
0 0 0
0 0 0
0 0 0
0 0 0
0 0 0
0 0 0
0 0 0
0 0 0
0 0 0
0 0 0
0 0 0
0 0 0
0 0 0
0 0 0
0 0 0
0 0 0
0 0 0
0 0 0
0 0 0
0 0 0
0 0 0
0 0 0
0 0 0
0 0 0
0 0 0
0 0 0
0 0 0
0 0 0
0 0 0
0 0 0
0 0 0
0 0 0
0 0 0
0 0 0
0 0 0
0 0 0
0 0 0
0 0 0
0 0 0
0 0 0
0 0 0
0 0 0
0 0 0
0 0 0
0 0 0
0 0 0
0 0 0
0 0 0
0 0 0
0 0 0
0 0 0
0 0 0
0 0 0
0 0 0
0 0 0
0 0 0
0 0 0
0 0 0
0 0 0
0 0 0
0 0 0
0 0 0
0 0 0
0 0 0
0 0 0
0 0 0
0 0 0
0 0 0
0 0 0
0 0 0
0 0 0
0 0 0
0 0 0
0 0 0
0 0 0
0 0 0
0 0 0
0 0 0
0 0 0
0 0 0
0 0 0
0 0 0
0 0 0
0 0 0
0 0 0
0 0 0
0 0 0
0 0 0
0 0 0
0 0 0
0 0 0
0 0 0
0 0 0
0 0 0
0 0 0
0 0 0
0 0 0
0 0 0
0 0 0
0 0 0
0 0 0
0 0 0
0 0 0
0 0 0
0 0 0
0 0 0
0 0 0
0 0 0
0 0 0
0 0 0
0 0 0
0 0 0
0 0 0
0 0 0
0 0 0
0 0 0
0 0 0
0 0 0
0 0 0
0 0 0
0 0 0
0 0 0
0 0 0
0 0 0
0 0 0
0 0 0
0 0 0
0 0 0
0 0 0
0 0 0
0 0 0
0 0 0
0 0 0
0 0 0
0 0 0
0 0 0
0 0 0
0 0 0
0 0 0
0 0 0
0 0 0
0 0 0
0 0 0
0 0 0
0 0 0
0 0 0
0 0 0
0 0 0
0 0 0
0 0 0
0 0 0
0 0 0
0 0 0
0 0 0
0 0 0
0 0 0
0 0 0
0 0 0
0 0 0
0 0 0
0 0 0
0 0 0
0 0 0
0 0 0
0 0 0
0 0 0
0 0 0
0 0 0
0 0 0
0 0 0
0 0 0
0 0 0
0 0 0
0 0 0
0 0 0
0 0 0
0 0 0
0 0 0
0 0 0
0 0 0
0 0 0
0 0 0
0 0 0
0 0 0
0 0 0
0 0 0
0 0 0
0 0 0
0 0 0
0 0 0
0 0 0
0 0 0
0 0 0
0 0 0
0 0 0
0 0 0
0 0 0
0 0 0
0 0 0
0 0 0
0 0 0
0 0 0
0 0 0
0 0 0
0 0 0
0 0 0
0 0 0
0 0 0
0 0 0
0 0 0
0 0 0
0 0 0
0 0 0
0 0 0
0 0 0
0 0 0
0 0 0
0 0 0
0 0 0
0 0 0
0 0 0
0 0 0
0 0 0
0 0 0
0 0 0
0 0 0
0 0 0
0 0 0
0 0 0
0 0 0
0 0 0
0 0 0
0 0 0
0 0 0
0 0 0
0 0 0
0 0 0
0 0 0
0 0 0
0 0 0
0 0 0
0 0 0
0 0 0
0 0 0
0 0 0
0 0 0
0 0 0
0 0 0
0 0 0
0 0 0
0 0 0
0 0 0
0 0 0
0 0 0
0 0 0
0 0 0
0 0 0
0 0 0
0 0 0
0 0 0
0 0 0
0 0 0
0 0 0
0 0 0
0 0 0
0 0 0
0 0 0
0 0 0
0 0 0
0 0 0
0 0 0
0 0 0
0 0 0
0 0 0
0 0 0
0 0 0
0 0 0
0 0 0
0 0 0
0 0 0
0 0 0
0 0 0
0 0 0
0 0 0
0 0 0
0 0 0
0 0 0
0 0 0
0 0 0
0 0 0
0 0 0
0 0 0
0 0 0
0 0 0
0 0 0
0 0 0
0 0 0
0 0 0
0 0 0
0 0 0
0 0 0
0 0 0
0 0 0
0 0 0
0 0 0
0 0 0
0 0 0
0 0 0
0 0 0
0 0 0
0 0 0
0 0 0
0 0 0
0 0 0
0 0 0
0 0 0
0 0 0
0 0 0
0 0 0
0 0 0
0 0 0
0 0 0
0 0 0
0 0 0
0 0 0
0 0 0
0 0 0
0 0 0
0 0 0
0 0 0
0 0 0
0 0 0
0 0 0
0 0 0
0 0 0
0 0 0
0 0 0
0 0 0
0 0 0
0 0 0
0 0 0
0 0 0
0 0 0
0 0 0
0 0 0
0 0 0
0 0 0
0 0 0
0 0 0
0 0 0
0 0 0
0 0 0
0 0 0
0 0 0
0 0 0
0 0 0
0 0 0
0 0 0
0 0 0
0 0 0
0 0 0
0 0 0
0 0 0
0 0 0
0 0 0
0 0 0
0 0 0
0 0 0
0 0 0
0 0 0
0 0 0
0 0 0
0 0 0
0 0 0
0 0 0
0 0 0
0 0 0
0 0 0
0 0 0
0 0 0
0 0 0
0 0 0
0 0 0
0 0 0
0 0 0
0 0 0
0 0 0
0 0 0
0 0 0
0 0 0
0 0 0
0 0 0
0 0 0
0 0 0
0 0 0
0 0 0
0 0 0
0 0 0
0 0 0
0 0 0
0 0 0
0 0 0
0 0 0
0 0 0
0 0 0
0 0 0
0 0 0
0 0 0
0 0 0
0 0 0
0 0 0
0 0 0
0 0 0
0 0 0
0 0 0
0 0 0
0 0 0
0 0 0
0 0 0
0 0 0
0 0 0
0 0 0
0 0 0
0 0 0
0 0 0
0 0 0
0 0 0
0 0 0
0 0 0
0 0 0
0 0 0
0 0 0
0 0 0
0 0 0
0 0 0
0 0 0
0 0 0
0 0 0
0 0 0
0 0 0
0 0 0
0 0 0
0 0 0
0 0 0
0 0 0
0 0 0
0 0 0
0 0 0
0 0 0
0 0 0
0 0 0
0 0 0
0 0 0
0 0 0
0 0 0
0 0 0
0 0 0
0 0 0
0 0 0
0 0 0
0 0 0
0 0 0
0 0 0
0 0 0
0 0 0
0 0 0
0 0 0
0 0 0
0 0 0
0 0 0
0 0 0
0 0 0
0 0 0
0 0 0
0 0 0
0 0 0
0 0 0
0 0 0
0 0 0
0 0 0
0 0 0
0 0 0
0 0 0
0 0 0
0 0 0
0 0 0
0 0 0
0 0 0
0 0 0
0 0 0
0 0 0
0 0 0
0 0 0
0 0 0
0 0 0
0 0 0
0 0 0
0 0 0
0 0 0
0 0 0
0 0 0
0 0 0
0 0 0
0 0 0
0 0 0
0 0 0
0 0 0
0 0 0
0 0 0
0 0 0
0 0 0
0 0 0
0 0 0
0 0 0
0 0 0
0 0 0
0 0 0
0 0 0
0 0 0
0 0 0
0 0 0
0 0 0
0 0 0
0 0 0
0 0 0
0 0 0
0 0 0
0 0 0
0 0 0
0 0 0
0 0 0
0 0 0
0 0 0
0 0 0
0 0 0
0 0 0
0 0 0
0 0 0
0 0 0
0 0 0
0 0 0
0 0 0
0 0 0
0 0 0
0 0 0
0 0 0
0 0 0
0 0 0
0 0 0
0 0 0
0 0 0
0 0 0
0 0 0
0 0 0
0 0 0
0 0 0
0 0 0
0 0 0
0 0 0
0 0 0
0 0 0
0 0 0
0 0 0
0 0 0
0 0 0
0 0 0
0 0 0
0 0 0
0 0 0
0 0 0
0 0 0
0 0 0
0 0 0
0 0 0
0 0 0
0 0 0
0 0 0
0 0 0
0 0 0
0 0 0
0 0 0
0 0 0
0 0 0
0 0 0
0 0 0
0 0 0
0 0 0
0 0 0
0 0 0
0 0 0
0 0 0
0 0 0
0 0 0
0 0 0
0 0 0
0 0 0
0 0 0
0 0 0
0 0 0
0 0 0
0 0 0
0 0 0
0 0 0
0 0 0
0 0 0
0 0 0
0 0 0
0 0 0
0 0 0
0 0 0
0 0 0
0 0 0
0 0 0
0 0 0
0 0 0
0 0 0
0 0 0
0 0 0
0 0 0
0 0 0
0 0 0
0 0 0
0 0 0
0 0 0
0 0 0
0 0 0
0 0 0
0 0 0
0 0 0
0 0 0
0 0 0
0 0 0
0 0 0
0 0 0
0 0 0
0 0 0
0 0 0
0 0 0
0 0 0
0 0 0
0 0 0
0 0 0
0 0 0
0 0 0
0 0 0
0 0 0
0 0 0
0 0 0
0 0 0
0 0 0
0 0 0
0 0 0
0 0 0
0 0 0
0 0 0
0 0 0
0 0 0
0 0 0
0 0 0
0 0 0
0 0 0
0 0 0
0 0 0
0 0 0
0 0 0
0 0 0
0 0 0
0 0 0
0 0 0
0 0 0
0 0 0
0 0 0
0 0 0
0 0 0
0 0 0
0 0 0
0 0 0
0 0 0
0 0 0
0 0 0
0 0 0
0 0 0
0 0 0
0 0 0
0 0 0
0 0 0
0 0 0
0 0 0
0 0 0
0 0 0
0 0 0
0 0 0
0 0 0
0 0 0
0 0 0
0 0 0
0 0 0
0 0 0
0 0 0
0 0 0
0 0 0
0 0 0
0 0 0
0 0 0
0 0 0
0 0 0
0 0 0
0 0 0
0 0 0
0 0 0
0 0 0
0 0 0
0 0 0
0 0 0
0 0 0
0 0 0
0 0 0
0 0 0
0 0 0
0 0 0
0 0 0
0 0 0
0 0 0
0 0 0
0 0 0
0 0 0
0 0 0
0 0 0
0 0 0
0 0 0
0 0 0
0 0 0
0 0 0
0 0 0
0 0 0
0 0 0
0 0 0
0 0 0
0 0 0
0 0 0
0 0 0
0 0 0
0 0 0
0 0 0
0 0 0
0 0 0
0 0 0
0 0 0
0 0 0
0 0 0
0 0 0
0 0 0
0 0 0
0 0 0
0 0 0
0 0 0
0 0 0
0 0 0
0 0 0
0 0 0
0 0 0
0 0 0
0 0 0
0 0 0
0 0 0
0 0 0
0 0 0
0 0 0
0 0 0
0 0 0
0 0 0
0 0 0
0 0 0
0 0 0
0 0 0
0 0 0
0 0 0
0 0 0
0 0 0
0 0 0
0 0 0
0 0 0
0 0 0
0 0 0
0 0 0
0 0 0
0 0 0
0 0 0
0 0 0
0 0 0
0 0 0
0 0 0
0 0 0
0 0 0
0 0 0
0 0 0
0 0 0
0 0 0
0 0 0
0 0 0
0 0 0
0 0 0
0 0 0
0 0 0
0 0 0
0 0 0
0 0 0
0 0 0
0 0 0
0 0 0
0 0 0
0 0 0
0 0 0
0 0 0
0 0 0
0 0 0
0 0 0
0 0 0
0 0 0
0 0 0
0 0 0
0 0 0
0 0 0
0 0 0
0 0 0
0 0 0
0 0 0
0 0 0
0 0 0
0 0 0
0 0 0
0 0 0
0 0 0
0 0 0
0 0 0
0 0 0
0 0 0
0 0 0
0 0 0
0 0 0
0 0 0
0 0 0
0 0 0
0 0 0
0 0 0
0 0 0
0 0 0
0 0 0
0 0 0
0 0 0
0 0 0
0 0 0
0 0 0
0 0 0
0 0 0
0 0 0
0 0 0
0 0 0
0 0 0
0 0 0
0 0 0
0 0 0
0 0 0
0 0 0
0 0 0
0 0 0
0 0 0
0 0 0
0 0 0
0 0 0
0 0 0
0 0 0
0 0 0
0 0 0
0 0 0
0 0 0
0 0 0
0 0 0
0 0 0
0 0 0
0 0 0
0 0 0
0 0 0
0 0 0
0 0 0
0 0 0
0 0 0
0 0 0
0 0 0
0 0 0
0 0 0
0 0 0
0 0 0
0 0 0
0 0 0
0 0 0
0 0 0
0 0 0
0 0 0
0 0 0
0 0 0
0 0 0
0 0 0
0 0 0
0 0 0
0 0 0
0 0 0
0 0 0
0 0 0
0 0 0
0 0 0
0 0 0
0 0 0
0 0 0
0 0 0
0 0 0
0 0 0
0 0 0
0 0 0
0 0 0
0 0 0
0 0 0
0 0 0
0 0 0
0 0 0
0 0 0
0 0 0
0 0 0
0 0 0
0 0 0
0 0 0
0 0 0
0 0 0
0 0 0
0 0 0
0 0 0
0 0 0
0 0 0
0 0 0
0 0 0
0 0 0
0 0 0
0 0 0
0 0 0
0 0 0
0 0 0
0 0 0
0 0 0
0 0 0
0 0 0
0 0 0
0 0 0
0 0 0
0 0 0
0 0 0
0 0 0
0 0 0
0 0 0
0 0 0
0 0 0
0 0 0
0 0 0
0 0 0
0 0 0
0 0 0
0 0 0
0 0 0
0 0 0
0 0 0
0 0 0
0 0 0
0 0 0
0 0 0
0 0 0
0 0 0
0 0 0
0 0 0
0 0 0
0 0 0
0 0 0
0 0 0
0 0 0
0 0 0
0 0 0
0 0 0
0 0 0
0 0 0
0 0 0
0 0 0
0 0 0
0 0 0
0 0 0
0 0 0
0 0 0
0 0 0
0 0 0
0 0 0
0 0 0
0 0 0
0 0 0
0 0 0
0 0 0
0 0 0
0 0 0
0 0 0
0 0 0
0 0 0
0 0 0
0 0 0
0 0 0
0 0 0
0 0 0
0 0 0
0 0 0
0 0 0
0 0 0
0 0 0
0 0 0
0 0 0
0 0 0
0 0 0
0 0 0
0 0 0
0 0 0
0 0 0
0 0 0
0 0 0
0 0 0
0 0 0
0 0 0
0 0 0
0 0 0
0 0 0
0 0 0
0 0 0
0 0 0
0 0 0
0 0 0
0 0 0
0 0 0
0 0 0
0 0 0
0 0 0
0 0 0
0 0 0
0 0 0
0 0 0
0 0 0
0 0 0
0 0 0
0 0 0
0 0 0
0 0 0
0 0 0
0 0 0
0 0 0
0 0 0
0 0 0
0 0 0
0 0 0
0 0 0
0 0 0
0 0 0
0 0 0
0 0 0
0 0 0
0 0 0
0 0 0
0 0 0
0 0 0
0 0 0
0 0 0
0 0 0
0 0 0
0 0 0
0 0 0
0 0 0
0 0 0
0 0 0
0 0 0
0 0 0
0 0 0
0 0 0
0 0 0
0 0 0
0 0 0
0 0 0
0 0 0
0 0 0
0 0 0
0 0 0
0 0 0
0 0 0
0 0 0
0 0 0
0 0 0
0 0 0
0 0 0
0 0 0
0 0 0
0 0 0
0 0 0
0 0 0
0 0 0
0 0 0
0 0 0
0 0 0
0 0 0
0 0 0
0 0 0
0 0 0
0 0 0
0 0 0
0 0 0
0 0 0
0 0 0
0 0 0
0 0 0
0 0 0
0 0 0
0 0 0
0 0 0
0 0 0
0 0 0
0 0 0
0 0 0
0 0 0
0 0 0
0 0 0
0 0 0
0 0 0
0 0 0
0 0 0
0 0 0
0 0 0
0 0 0
0 0 0
0 0 0
0 0 0
0 0 0
0 0 0
0 0 0
0 0 0
0 0 0
0 0 0
0 0 0
0 0 0
0 0 0
0 0 0
0 0 0
0 0 0
0 0 0
0 0 0
0 0 0
0 0 0
0 0 0
0 0 0
0 0 0
0 0 0
0 0 0
0 0 0
0 0 0
0 0 0
0 0 0
0 0 0
0 0 0
0 0 0
0 0 0
0 0 0
0 0 0
0 0 0
0 0 0
0 0 0
0 0 0
0 0 0
0 0 0
0 0 0
0 0 0
0 0 0
0 0 0
0 0 0
0 0 0
0 0 0
0 0 0
0 0 0
0 0 0
0 0 0
0 0 0
0 0 0
0 0 0
0 0 0
0 0 0
0 0 0
0 0 0
0 0 0
0 0 0
0 0 0
0 0 0
0 0 0
0 0 0
0 0 0
0 0 0
0 0 0
0 0 0
0 0 0
0 0 0
0 0 0
0 0 0
0 0 0
0 0 0
0 0 0
0 0 0
0 0 0
0 0 0
0 0 0
0 0 0
0 0 0
0 0 0
0 0 0
0 0 0
0 0 0
0 0 0
0 0 0
0 0 0
0 0 0
0 0 0
0 0 0
0 0 0
0 0 0
0 0 0
0 0 0
0 0 0
0 0 0
0 0 0
0 0 0
0 0 0
0 0 0
0 0 0
0 0 0
0 0 0
0 0 0
0 0 0
0 0 0
0 0 0
0 0 0
0 0 0
0 0 0
0 0 0
0 0 0
0 0 0
0 0 0
0 0 0
0 0 0
0 0 0
0 0 0
0 0 0
0 0 0
0 0 0
0 0 0
0 0 0
0 0 0
0 0 0
0 0 0
0 0 0
0 0 0
0 0 0
0 0 0
0 0 0
0 0 0
0 0 0
0 0 0
0 0 0
0 0 0
0 0 0
0 0 0
0 0 0
0 0 0
0 0 0
0 0 0
0 0 0
0 0 0
0 0 0
0 0 0
0 0 0
0 0 0
0 0 0
0 0 0
0 0 0
0 0 0
0 0 0
0 0 0
0 0 0
0 0 0
0 0 0
0 0 0
0 0 0
0 0 0
0 0 0
0 0 0
0 0 0
0 0 0
0 0 0
0 0 0
0 0 0
0 0 0
0 0 0
0 0 0
0 0 0
0 0 0
0 0 0
0 0 0
0 0 0
0 0 0
0 0 0
0 0 0
0 0 0
0 0 0
0 0 0
0 0 0
0 0 0
0 0 0
0 0 0
0 0 0
0 0 0
0 0 0
0 0 0
0 0 0
0 0 0
0 0 0
0 0 0
0 0 0
0 0 0
0 0 0
0 0 0
0 0 0
0 0 0
0 0 0
0 0 0
0 0 0
0 0 0
0 0 0
0 0 0
0 0 0
0 0 0
0 0 0
0 0 0
0 0 0
0 0 0
0 0 0
0 0 0
0 0 0
0 0 0
0 0 0
0 0 0
0 0 0
0 0 0
0 0 0
0 0 0
0 0 0
0 0 0
0 0 0
0 0 0
0 0 0
0 0 0
0 0 0
0 0 0
0 0 0
0 0 0
0 0 0
0 0 0
0 0 0
0 0 0
0 0 0
0 0 0
0 0 0
0 0 0
0 0 0
0 0 0
0 0 0
0 0 0
0 0 0
0 0 0
0 0 0
0 0 0
0 0 0
0 0 0
0 0 0
0 0 0
0 0 0
0 0 0
0 0 0
0 0 0
0 0 0
0 0 0
0 0 0
0 0 0
0 0 0
0 0 0
0 0 0
0 0 0
0 0 0
0 0 0
0 0 0
0 0 0
0 0 0
0 0 0
0 0 0
0 0 0
0 0 0
0 0 0
0 0 0
0 0 0
0 0 0
0 0 0
0 0 0
0 0 0
0 0 0
0 0 0
0 0 0
0 0 0
0 0 0
0 0 0
0 0 0
0 0 0
0 0 0
0 0 0
0 0 0
0 0 0
0 0 0
0 0 0
0 0 0
0 0 0
0 0 0
0 0 0
0 0 0
0 0 0
0 0 0
0 0 0
0 0 0
0 0 0
0 0 0
0 0 0
0 0 0
0 0 0
0 0 0
0 0 0
0 0 0
0 0 0
0 0 0
0 0 0
0 0 0
0 0 0
0 0 0
0 0 0
0 0 0
0 0 0
0 0 0
0 0 0
0 0 0
0 0 0
0 0 0
0 0 0
0 0 0
0 0 0
0 0 0
0 0 0
0 0 0
0 0 0
0 0 0
0 0 0
0 0 0
0 0 0
0 0 0
0 0 0
0 0 0
0 0 0
0 0 0
0 0 0
0 0 0
0 0 0
0 0 0
0 0 0
0 0 0
0 0 0
0 0 0
0 0 0
0 0 0
0 0 0
0 0 0
0 0 0
0 0 0
0 0 0
0 0 0
0 0 0
0 0 0
0 0 0
0 0 0
0 0 0
0 0 0
0 0 0
0 0 0
0 0 0
0 0 0
0 0 0
0 0 0
0 0 0
0 0 0
0 0 0
0 0 0
0 0 0
0 0 0
0 0 0
0 0 0
0 0 0
0 0 0
0 0 0
0 0 0
0 0 0
0 0 0
0 0 0
0 0 0
0 0 0
0 0 0
0 0 0
0 0 0
0 0 0
0 0 0
0 0 0
0 0 0
0 0 0
0 0 0
0 0 0
0 0 0
0 0 0
0 0 0
0 0 0
0 0 0
0 0 0
0 0 0
0 0 0
0 0 0
0 0 0
0 0 0
0 0 0
0 0 0
0 0 0
0 0 0
0 0 0
0 0 0
0 0 0
0 0 0
0 0 0
0 0 0
0 0 0
0 0 0
0 0 0
0 0 0
0 0 0
0 0 0
0 0 0
0 0 0
0 0 0
0 0 0
0 0 0
0 0 0
0 0 0
0 0 0
0 0 0
0 0 0
0 0 0
0 0 0
0 0 0
0 0 0
0 0 0
0 0 0
0 0 0
0 0 0
0 0 0
0 0 0
0 0 0
0 0 0
0 0 0
0 0 0
0 0 0
0 0 0
0 0 0
0 0 0
0 0 0
0 0 0
0 0 0
0 0 0
0 0 0
0 0 0
0 0 0
0 0 0
0 0 0
0 0 0
0 0 0
0 0 0
0 0 0
0 0 0
0 0 0
0 0 0
0 0 0
0 0 0
0 0 0
0 0 0
0 0 0
0 0 0
0 0 0
0 0 0
0 0 0
0 0 0
0 0 0
0 0 0
0 0 0
0 0 0
0 0 0
0 0 0
0 0 0
0 0 0
0 0 0
0 0 0
0 0 0
0 0 0
0 0 0
0 0 0
0 0 0
0 0 0
0 0 0
0 0 0
0 0 0
0 0 0
0 0 0
0 0 0
0 0 0
0 0 0
0 0 0
0 0 0
0 0 0
0 0 0
0 0 0
0 0 0
0 0 0
0 0 0
0 0 0
0 0 0
0 0 0
0 0 0
0 0 0
0 0 0
0 0 0
0 0 0
0 0 0
0 0 0
0 0 0
0 0 0
0 0 0
0 0 0
0 0 0
0 0 0
0 0 0
0 0 0
0 0 0
0 0 0
0 0 0
0 0 0
0 0 0
0 0 0
0 0 0
0 0 0
0 0 0
0 0 0
0 0 0
0 0 0
0 0 0
0 0 0
0 0 0
0 0 0
0 0 0
0 0 0
0 0 0
0 0 0
0 0 0
0 0 0
0 0 0
0 0 0
0 0 0
0 0 0
0 0 0
0 0 0
0 0 0
0 0 0
0 0 0
0 0 0
0 0 0
0 0 0
0 0 0
0 0 0
0 0 0
0 0 0
0 0 0
0 0 0
0 0 0
0 0 0
0 0 0
0 0 0
0 0 0
0 0 0
0 0 0
0 0 0
0 0 0
0 0 0
0 0 0
0 0 0
0 0 0
0 0 0
0 0 0
0 0 0
0 0 0
0 0 0
0 0 0
0 0 0
0 0 0
0 0 0
0 0 0
0 0 0
0 0 0
0 0 0
0 0 0
0 0 0
0 0 0
0 0 0
0 0 0
0 0 0
0 0 0
0 0 0
0 0 0
0 0 0
0 0 0
0 0 0
0 0 0
0 0 0
0 0 0
0 0 0
0 0 0
0 0 0
0 0 0
0 0 0
0 0 0
0 0 0
0 0 0
0 0 0
0 0 0
0 0 0
0 0 0
0 0 0
0 0 0
0 0 0
0 0 0
0 0 0
0 0 0
0 0 0
0 0 0
0 0 0
0 0 0
0 0 0
0 0 0
0 0 0
0 0 0
0 0 0
0 0 0
0 0 0
0 0 0
0 0 0
0 0 0
0 0 0
0 0 0
0 0 0
0 0 0
0 0 0
0 0 0
0 0 0
0 0 0
0 0 0
0 0 0
0 0 0
0 0 0
0 0 0
0 0 0
0 0 0
0 0 0
0 0 0
0 0 0
0 0 0
0 0 0
0 0 0
0 0 0
0 0 0
0 0 0
0 0 0
0 0 0
0 0 0
0 0 0
0 0 0
0 0 0
0 0 0
0 0 0
0 0 0
0 0 0
0 0 0
0 0 0
0 0 0
0 0 0
0 0 0
0 0 0
0 0 0
0 0 0
0 0 0
0 0 0
0 0 0
0 0 0
0 0 0
0 0 0
0 0 0
0 0 0
0 0 0
0 0 0
0 0 0
0 0 0
0 0 0
0 0 0
0 0 0
0 0 0
0 0 0
0 0 0
0 0 0
0 0 0
0 0 0
0 0 0
0 0 0
0 0 0
0 0 0
0 0 0
0 0 0
0 0 0
0 0 0
0 0 0
0 0 0
0 0 0
0 0 0
0 0 0
0 0 0
0 0 0
0 0 0
0 0 0
0 0 0
0 0 0
0 0 0
0 0 0
0 0 0
0 0 0
0 0 0
0 0 0
0 0 0
0 0 0
0 0 0
0 0 0
0 0 0
0 0 0
0 0 0
0 0 0
0 0 0
0 0 0
0 0 0
0 0 0
0 0 0
0 0 0
0 0 0
0 0 0
0 0 0
0 0 0
0 0 0
0 0 0
0 0 0
0 0 0
0 0 0
0 0 0
0 0 0
0 0 0
0 0 0
0 0 0
0 0 0
0 0 0
0 0 0
0 0 0
0 0 0
0 0 0
0 0 0
0 0 0
0 0 0
0 0 0
0 0 0
0 0 0
0 0 0
0 0 0
0 0 0
0 0 0
0 0 0
0 0 0
0 0 0
0 0 0
0 0 0
0 0 0
0 0 0
0 0 0
0 0 0
0 0 0
0 0 0
0 0 0
0 0 0
0 0 0
0 0 0
0 0 0
0 0 0
0 0 0
0 0 0
0 0 0
0 0 0
0 0 0
0 0 0
0 0 0
0 0 0
0 0 0
0 0 0
0 0 0
0 0 0
0 0 0
0 0 0
0 0 0
0 0 0
0 0 0
0 0 0
0 0 0
0 0 0
0 0 0
0 0 0
0 0 0
0 0 0
0 0 0
0 0 0
0 0 0
0 0 0
0 0 0
0 0 0
0 0 0
0 0 0
0 0 0
0 0 0
0 0 0
0 0 0
0 0 0
0 0 0
0 0 0
0 0 0
0 0 0
0 0 0
0 0 0
0 0 0
0 0 0
0 0 0
0 0 0
0 0 0
0 0 0
0 0 0
0 0 0
0 0 0
0 0 0
0 0 0
0 0 0
0 0 0
0 0 0
0 0 0
0 0 0
0 0 0
0 0 0
0 0 0
0 0 0
0 0 0
0 0 0
0 0 0
0 0 0
0 0 0
0 0 0
0 0 0
0 0 0
0 0 0
0 0 0
0 0 0
0 0 0
0 0 0
0 0 0
0 0 0
0 0 0
0 0 0
0 0 0
0 0 0
0 0 0
0 0 0
0 0 0
0 0 0
0 0 0
0 0 0
0 0 0
0 0 0
0 0 0
0 0 0
0 0 0
0 0 0
0 0 0
0 0 0
0 0 0
0 0 0
0 0 0
0 0 0
0 0 0
0 0 0
0 0 0
0 0 0
0 0 0
0 0 0
0 0 0
0 0 0
0 0 0
0 0 0
0 0 0
0 0 0
0 0 0
0 0 0
0 0 0
0 0 0
0 0 0
0 0 0
0 0 0
0 0 0
0 0 0
0 0 0
0 0 0
0 0 0
0 0 0
0 0 0
0 0 0
0 0 0
0 0 0
0 0 0
0 0 0
0 0 0
0 0 0
0 0 0
0 0 0
0 0 0
0 0 0
0 0 0
0 0 0
0 0 0
0 0 0
0 0 0
0 0 0
0 0 0
0 0 0
0 0 0
0 0 0
0 0 0
0 0 0
0 0 0
0 0 0
0 0 0
0 0 0
0 0 0
0 0 0
0 0 0
0 0 0
0 0 0
0 0 0
0 0 0
0 0 0
0 0 0
0 0 0
0 0 0
0 0 0
0 0 0
0 0 0
0 0 0
0 0 0
0 0 0
0 0 0
0 0 0
0 0 0
0 0 0
0 0 0
0 0 0
0 0 0
0 0 0
0 0 0
0 0 0
0 0 0
0 0 0
0 0 0
0 0 0
0 0 0
0 0 0
0 0 0
0 0 0
0 0 0
0 0 0
0 0 0
0 0 0
0 0 0
0 0 0
0 0 0
0 0 0
0 0 0
0 0 0
0 0 0
0 0 0
0 0 0
0 0 0
0 0 0
0 0 0
0 0 0
0 0 0
0 0 0
0 0 0
0 0 0
0 0 0
0 0 0
0 0 0
0 0 0
0 0 0
0 0 0
0 0 0
0 0 0
0 0 0
0 0 0
0 0 0
0 0 0
0 0 0
0 0 0
0 0 0
0 0 0
0 0 0
0 0 0
0 0 0
0 0 0
0 0 0
0 0 0
0 0 0
0 0 0
0 0 0
0 0 0
0 0 0
0 0 0
0 0 0
0 0 0
0 0 0
0 0 0
0 0 0
0 0 0
0 0 0
0 0 0
0 0 0
0 0 0
0 0 0
0 0 0
0 0 0
0 0 0
0 0 0
0 0 0
0 0 0
0 0 0
0 0 0
0 0 0
0 0 0
0 0 0
0 0 0
0 0 0
0 0 0
0 0 0
0 0 0
0 0 0
0 0 0
0 0 0
0 0 0
0 0 0
0 0 0
0 0 0
0 0 0
0 0 0
0 0 0
0 0 0
0 0 0
0 0 0
0 0 0
0 0 0
0 0 0
0 0 0
0 0 0
0 0 0
0 0 0
0 0 0
0 0 0
0 0 0
0 0 0
0 0 0
0 0 0
0 0 0
0 0 0
0 0 0
0 0 0
0 0 0
0 0 0
0 0 0
0 0 0
0 0 0
0 0 0
0 0 0
0 0 0
0 0 0
0 0 0
0 0 0
0 0 0
0 0 0
0 0 0
0 0 0
0 0 0
0 0 0
0 0 0
0 0 0
0 0 0
0 0 0
0 0 0
0 0 0
0 0 0
0 0 0
0 0 0
0 0 0
0 0 0
0 0 0
0 0 0
0 0 0
0 0 0
0 0 0
0 0 0
0 0 0
0 0 0
0 0 0
0 0 0
0 0 0
0 0 0
0 0 0
0 0 0
0 0 0
0 0 0
0 0 0
0 0 0
0 0 0
0 0 0
0 0 0
0 0 0
0 0 0
0 0 0
0 0 0
0 0 0
0 0 0
0 0 0
0 0 0
0 0 0
0 0 0
0 0 0
0 0 0
0 0 0
0 0 0
0 0 0
0 0 0
0 0 0
0 0 0
0 0 0
0 0 0
0 0 0
0 0 0
0 0 0
0 0 0
0 0 0
0 0 0
0 0 0
0 0 0
0 0 0
0 0 0
0 0 0
0 0 0
0 0 0
0 0 0
0 0 0
0 0 0
0 0 0
0 0 0
0 0 0
0 0 0
0 0 0
0 0 0
0 0 0
0 0 0
0 0 0
0 0 0
0 0 0
0 0 0
0 0 0
0 0 0
0 0 0
0 0 0
0 0 0
0 0 0
0 0 0
0 0 0
0 0 0
0 0 0
0 0 0
0 0 0
0 0 0
0 0 0
0 0 0
0 0 0
0 0 0
0 0 0
0 0 0
0 0 0
0 0 0
0 0 0
0 0 0
0 0 0
0 0 0
0 0 0
0 0 0
0 0 0
0 0 0
0 0 0
0 0 0
0 0 0
0 0 0
0 0 0
0 0 0
0 0 0
0 0 0
0 0 0
0 0 0
0 0 0
0 0 0
0 0 0
0 0 0
0 0 0
0 0 0
0 0 0
0 0 0
0 0 0
0 0 0
0 0 0
0 0 0
0 0 0
0 0 0
0 0 0
0 0 0
0 0 0
0 0 0
0 0 0
0 0 0
0 0 0
0 0 0
0 0 0
0 0 0
0 0 0
0 0 0
0 0 0
0 0 0
0 0 0
0 0 0
0 0 0
0 0 0
0 0 0
0 0 0
0 0 0
0 0 0
0 0 0
0 0 0
0 0 0
0 0 0
0 0 0
0 0 0
0 0 0
0 0 0
0 0 0
0 0 0
0 0 0
0 0 0
0 0 0
0 0 0
0 0 0
0 0 0
0 0 0
0 0 0
0 0 0
0 0 0
0 0 0
0 0 0
0 0 0
0 0 0
0 0 0
0 0 0
0 0 0
0 0 0
0 0 0
0 0 0
0 0 0
0 0 0
0 0 0
0 0 0
0 0 0
0 0 0
0 0 0
0 0 0
0 0 0
0 0 0
0 0 0
0 0 0
0 0 0
0 0 0
0 0 0
0 0 0
0 0 0
0 0 0
0 0 0
0 0 0
0 0 0
0 0 0
0 0 0
0 0 0
0 0 0
0 0 0
0 0 0
0 0 0
0 0 0
0 0 0
0 0 0
0 0 0
0 0 0
0 0 0
0 0 0
0 0 0
0 0 0
0 0 0
0 0 0
0 0 0
0 0 0
0 0 0
0 0 0
0 0 0
0 0 0
0 0 0
0 0 0
0 0 0
0 0 0
0 0 0
0 0 0
0 0 0
0 0 0
0 0 0
0 0 0
0 0 0
0 0 0
0 0 0
0 0 0
0 0 0
0 0 0
0 0 0
0 0 0
0 0 0
0 0 0
0 0 0
0 0 0
0 0 0
0 0 0
0 0 0
0 0 0
0 0 0
0 0 0
0 0 0
0 0 0
0 0 0
0 0 0
0 0 0
0 0 0
0 0 0
0 0 0
0 0 0
0 0 0
0 0 0
0 0 0
0 0 0
0 0 0
0 0 0
0 0 0
0 0 0
0 0 0
0 0 0
0 0 0
0 0 0
0 0 0
0 0 0
0 0 0
0 0 0
0 0 0
0 0 0
0 0 0
0 0 0
0 0 0
0 0 0
0 0 0
0 0 0
0 0 0
0 0 0
0 0 0
0 0 0
0 0 0
0 0 0
0 0 0
0 0 0
0 0 0
0 0 0
0 0 0
0 0 0
0 0 0
0 0 0
0 0 0
0 0 0
0 0 0
0 0 0
0 0 0
0 0 0
0 0 0
0 0 0
0 0 0
0 0 0
0 0 0
0 0 0
0 0 0
0 0 0
0 0 0
0 0 0
0 0 0
0 0 0
0 0 0
0 0 0
0 0 0
0 0 0
0 0 0
0 0 0
0 0 0
0 0 0
0 0 0
0 0 0
0 0 0
0 0 0
0 0 0
0 0 0
0 0 0
0 0 0
0 0 0
0 0 0
0 0 0
0 0 0
0 0 0
0 0 0
0 0 0
0 0 0
0 0 0
0 0 0
0 0 0
0 0 0
0 0 0
0 0 0
0 0 0
0 0 0
0 0 0
0 0 0
0 0 0
0 0 0
0 0 0
0 0 0
0 0 0
0 0 0
0 0 0
0 0 0
0 0 0
0 0 0
0 0 0
0 0 0
0 0 0
0 0 0
0 0 0
0 0 0
0 0 0
0 0 0
0 0 0
0 0 0
0 0 0
0 0 0
0 0 0
0 0 0
0 0 0
0 0 0
0 0 0
0 0 0
0 0 0
0 0 0
0 0 0
0 0 0
0 0 0
0 0 0
0 0 0
0 0 0
0 0 0
0 0 0
0 0 0
0 0 0
0 0 0
0 0 0
0 0 0
0 0 0
0 0 0
0 0 0
0 0 0
0 0 0
0 0 0
0 0 0
0 0 0
0 0 0
0 0 0
0 0 0
0 0 0
0 0 0
0 0 0
0 0 0
0 0 0
0 0 0
0 0 0
0 0 0
0 0 0
0 0 0
0 0 0
0 0 0
0 0 0
0 0 0
0 0 0
0 0 0
0 0 0
0 0 0
0 0 0
0 0 0
0 0 0
0 0 0
0 0 0
0 0 0
0 0 0
0 0 0
0 0 0
0 0 0
0 0 0
0 0 0
0 0 0
0 0 0
0 0 0
0 0 0
0 0 0
0 0 0
0 0 0
0 0 0
0 0 0
0 0 0
0 0 0
0 0 0
0 0 0
0 0 0
0 0 0
0 0 0
0 0 0
0 0 0
0 0 0
0 0 0
0 0 0
0 0 0
0 0 0
0 0 0
0 0 0
0 0 0
0 0 0
0 0 0
0 0 0
0 0 0
0 0 0
0 0 0
0 0 0
0 0 0
0 0 0
0 0 0
0 0 0
0 0 0
0 0 0
0 0 0
0 0 0
0 0 0
0 0 0
0 0 0
0 0 0
0 0 0
0 0 0
0 0 0
0 0 0
0 0 0
0 0 0
0 0 0
0 0 0
0 0 0
0 0 0
0 0 0
0 0 0
0 0 0
0 0 0
0 0 0
0 0 0
0 0 0
0 0 0
0 0 0
0 0 0
0 0 0
0 0 0
0 0 0
0 0 0
0 0 0
0 0 0
0 0 0
0 0 0
0 0 0
0 0 0
0 0 0
0 0 0
0 0 0
0 0 0
0 0 0
0 0 0
0 0 0
0 0 0
0 0 0
0 0 0
0 0 0
0 0 0
0 0 0
0 0 0
0 0 0
0 0 0
0 0 0
0 0 0
0 0 0
0 0 0
0 0 0
0 0 0
0 0 0
0 0 0
0 0 0
0 0 0
0 0 0
0 0 0
0 0 0
0 0 0
0 0 0
0 0 0
0 0 0
0 0 0
0 0 0
0 0 0
0 0 0
0 0 0
0 0 0
0 0 0
0 0 0
0 0 0
0 0 0
0 0 0
0 0 0
0 0 0
0 0 0
0 0 0
0 0 0
0 0 0
0 0 0
0 0 0
0 0 0
0 0 0
0 0 0
0 0 0
0 0 0
0 0 0
0 0 0
0 0 0
0 0 0
0 0 0
0 0 0
0 0 0
0 0 0
0 0 0
0 0 0
0 0 0
0 0 0
0 0 0
0 0 0
0 0 0
0 0 0
0 0 0
0 0 0
0 0 0
0 0 0
0 0 0
0 0 0
0 0 0
0 0 0
0 0 0
0 0 0
0 0 0
0 0 0
0 0 0
0 0 0
0 0 0
0 0 0
0 0 0
0 0 0
0 0 0
0 0 0
0 0 0
0 0 0
0 0 0
0 0 0
0 0 0
0 0 0
0 0 0
0 0 0
0 0 0
0 0 0
0 0 0
0 0 0
0 0 0
0 0 0
0 0 0
0 0 0
0 0 0
0 0 0
0 0 0
0 0 0
0 0 0
0 0 0
0 0 0
0 0 0
0 0 0
0 0 0
0 0 0
0 0 0
0 0 0
0 0 0
0 0 0
0 0 0
0 0 0
0 0 0
0 0 0
0 0 0
0 0 0
0 0 0
0 0 0
0 0 0
0 0 0
0 0 0
0 0 0
0 0 0
0 0 0
0 0 0
0 0 0
0 0 0
0 0 0
0 0 0
0 0 0
0 0 0
0 0 0
0 0 0
0 0 0
0 0 0
0 0 0
0 0 0
0 0 0
0 0 0
0 0 0
0 0 0
0 0 0
0 0 0
0 0 0
0 0 0
0 0 0
0 0 0
0 0 0
0 0 0
0 0 0
0 0 0
0 0 0
0 0 0
0 0 0
0 0 0
0 0 0
0 0 0
0 0 0
0 0 0
0 0 0
0 0 0
0 0 0
0 0 0
0 0 0
0 0 0
0 0 0
0 0 0
0 0 0
0 0 0
0 0 0
0 0 0
0 0 0
0 0 0
0 0 0
0 0 0
0 0 0
0 0 0
0 0 0
0 0 0
0 0 0
0 0 0
0 0 0
0 0 0
0 0 0
0 0 0
0 0 0
0 0 0
0 0 0
0 0 0
0 0 0
0 0 0
0 0 0
0 0 0
0 0 0
0 0 0
0 0 0
0 0 0
0 0 0
0 0 0
0 0 0
0 0 0
0 0 0
0 0 0
0 0 0
0 0 0
0 0 0
0 0 0
0 0 0
0 0 0
0 0 0
0 0 0
0 0 0
0 0 0
0 0 0
0 0 0
0 0 0
0 0 0
0 0 0
0 0 0
0 0 0
0 0 0
0 0 0
0 0 0
0 0 0
0 0 0
0 0 0
0 0 0
0 0 0
0 0 0
0 0 0
0 0 0
0 0 0
0 0 0
0 0 0
0 0 0
0 0 0
0 0 0
0 0 0
0 0 0
0 0 0
0 0 0
0 0 0
0 0 0
0 0 0
0 0 0
0 0 0
0 0 0
0 0 0
0 0 0
0 0 0
0 0 0
0 0 0
0 0 0
0 0 0
0 0 0
0 0 0
0 0 0
0 0 0
0 0 0
0 0 0
0 0 0
0 0 0
0 0 0
0 0 0
0 0 0
0 0 0
0 0 0
0 0 0
0 0 0
0 0 0
0 0 0
0 0 0
0 0 0
0 0 0
0 0 0
0 0 0
0 0 0
0 0 0
0 0 0
0 0 0
0 0 0
0 0 0
0 0 0
0 0 0
0 0 0
0 0 0
0 0 0
0 0 0
0 0 0
0 0 0
0 0 0
0 0 0
0 0 0
0 0 0
0 0 0
0 0 0
0 0 0
0 0 0
0 0 0
0 0 0
0 0 0
0 0 0
0 0 0
0 0 0
0 0 0
0 0 0
0 0 0
0 0 0
0 0 0
0 0 0
0 0 0
0 0 0
0 0 0
0 0 0
0 0 0
0 0 0
0 0 0
0 0 0
0 0 0
0 0 0
0 0 0
0 0 0
0 0 0
0 0 0
0 0 0
0 0 0
0 0 0
0 0 0
0 0 0
0 0 0
0 0 0
0 0 0
0 0 0
0 0 0
0 0 0
0 0 0
0 0 0
0 0 0
0 0 0
0 0 0
0 0 0
0 0 0
0 0 0
0 0 0
0 0 0
0 0 0
0 0 0
0 0 0
0 0 0
0 0 0
0 0 0
0 0 0
0 0 0
0 0 0
0 0 0
0 0 0
0 0 0
0 0 0
0 0 0
0 0 0
0 0 0
0 0 0
0 0 0
0 0 0
0 0 0
0 0 0
0 0 0
0 0 0
0 0 0
0 0 0
0 0 0
0 0 0
0 0 0
0 0 0
0 0 0
0 0 0
0 0 0
0 0 0
0 0 0
0 0 0
0 0 0
0 0 0
0 0 0
0 0 0
0 0 0
0 0 0
0 0 0
0 0 0
0 0 0
0 0 0
0 0 0
0 0 0
0 0 0
0 0 0
0 0 0
0 0 0
0 0 0
0 0 0
0 0 0
0 0 0
0 0 0
0 0 0
0 0 0
0 0 0
0 0 0
0 0 0
0 0 0
0 0 0
0 0 0
0 0 0
0 0 0
0 0 0
0 0 0
0 0 0
0 0 0
0 0 0
0 0 0
0 0 0
0 0 0
0 0 0
0 0 0
0 0 0
0 0 0
0 0 0
0 0 0
0 0 0
0 0 0
0 0 0
0 0 0
0 0 0
0 0 0
0 0 0
0 0 0
0 0 0
0 0 0
0 0 0
0 0 0
0 0 0
0 0 0
0 0 0
0 0 0
0 0 0
0 0 0
0 0 0
0 0 0
0 0 0
0 0 0
0 0 0
0 0 0
0 0 0
0 0 0
0 0 0
0 0 0
0 0 0
0 0 0
0 0 0
0 0 0
0 0 0
0 0 0
0 0 0
0 0 0
0 0 0
0 0 0
0 0 0
0 0 0
0 0 0
0 0 0
0 0 0
0 0 0
0 0 0
0 0 0
0 0 0
0 0 0
0 0 0
0 0 0
0 0 0
0 0 0
0 0 0
0 0 0
0 0 0
0 0 0
0 0 0
0 0 0
0 0 0
0 0 0
0 0 0
0 0 0
0 0 0
0 0 0
0 0 0
0 0 0
0 0 0
0 0 0
0 0 0
0 0 0
0 0 0
0 0 0
0 0 0
0 0 0
0 0 0
0 0 0
0 0 0
0 0 0
0 0 0
0 0 0
0 0 0
0 0 0
0 0 0
0 0 0
0 0 0
0 0 0
0 0 0
0 0 0
0 0 0
0 0 0
0 0 0
0 0 0
0 0 0
0 0 0
0 0 0
0 0 0
0 0 0
0 0 0
0 0 0
0 0 0
0 0 0
0 0 0
0 0 0
0 0 0
0 0 0
0 0 0
0 0 0
0 0 0
0 0 0
0 0 0
0 0 0
0 0 0
0 0 0
0 0 0
0 0 0
0 0 0
0 0 0
0 0 0
0 0 0
0 0 0
0 0 0
0 0 0
0 0 0
0 0 0
0 0 0
0 0 0
0 0 0
0 0 0
0 0 0
0 0 0
0 0 0
0 0 0
0 0 0
0 0 0
0 0 0
0 0 0
0 0 0
0 0 0
0 0 0
0 0 0
0 0 0
0 0 0
0 0 0
0 0 0
0 0 0
0 0 0
0 0 0
0 0 0
0 0 0
0 0 0
0 0 0
0 0 0
0 0 0
0 0 0
0 0 0
0 0 0
0 0 0
0 0 0
0 0 0
0 0 0
0 0 0
0 0 0
0 0 0
0 0 0
0 0 0
0 0 0
0 0 0
0 0 0
0 0 0
0 0 0
0 0 0
0 0 0
0 0 0
0 0 0
0 0 0
0 0 0
0 0 0
0 0 0
0 0 0
0 0 0
0 0 0
0 0 0
0 0 0
0 0 0
0 0 0
0 0 0
0 0 0
0 0 0
0 0 0
0 0 0
0 0 0
0 0 0
0 0 0
0 0 0
0 0 0
0 0 0
0 0 0
0 0 0
0 0 0
0 0 0
0 0 0
0 0 0
0 0 0
0 0 0
0 0 0
0 0 0
0 0 0
0 0 0
0 0 0
0 0 0
0 0 0
0 0 0
0 0 0
0 0 0
0 0 0
0 0 0
0 0 0
0 0 0
0 0 0
0 0 0
0 0 0
0 0 0
0 0 0
0 0 0
0 0 0
0 0 0
0 0 0
0 0 0
0 0 0
0 0 0
0 0 0
0 0 0
0 0 0
0 0 0
0 0 0
0 0 0
0 0 0
0 0 0
0 0 0
0 0 0
0 0 0
0 0 0
0 0 0
0 0 0
0 0 0
0 0 0
0 0 0
0 0 0
0 0 0
0 0 0
0 0 0
0 0 0
0 0 0
0 0 0
0 0 0
0 0 0
0 0 0
0 0 0
0 0 0
0 0 0
0 0 0
0 0 0
0 0 0
0 0 0
0 0 0
0 0 0
0 0 0
0 0 0
0 0 0
0 0 0
0 0 0
0 0 0
0 0 0
0 0 0
0 0 0
0 0 0
0 0 0
0 0 0
0 0 0
0 0 0
0 0 0
0 0 0
0 0 0
0 0 0
0 0 0
0 0 0
0 0 0
0 0 0
0 0 0
0 0 0
0 0 0
0 0 0
0 0 0
0 0 0
0 0 0
0 0 0
0 0 0
0 0 0
0 0 0
0 0 0
0 0 0
0 0 0
0 0 0
0 0 0
0 0 0
0 0 0
0 0 0
0 0 0
0 0 0
0 0 0
0 0 0
0 0 0
0 0 0
0 0 0
0 0 0
0 0 0
0 0 0
0 0 0
0 0 0
0 0 0
0 0 0
0 0 0
0 0 0
0 0 0
0 0 0
0 0 0
0 0 0
0 0 0
0 0 0
0 0 0
0 0 0
0 0 0
0 0 0
0 0 0
0 0 0
0 0 0
0 0 0
0 0 0
0 0 0
0 0 0
0 0 0
0 0 0
0 0 0
0 0 0
0 0 0
0 0 0
0 0 0
0 0 0
0 0 0
0 0 0
0 0 0
0 0 0
0 0 0
0 0 0
0 0 0
0 0 0
0 0 0
0 0 0
0 0 0
0 0 0
0 0 0
0 0 0
0 0 0
0 0 0
0 0 0
0 0 0
0 0 0
0 0 0
0 0 0
0 0 0
0 0 0
0 0 0
0 0 0
0 0 0
0 0 0
0 0 0
0 0 0
0 0 0
0 0 0
0 0 0
0 0 0
0 0 0
0 0 0
0 0 0
0 0 0
0 0 0
0 0 0
0 0 0
0 0 0
0 0 0
0 0 0
0 0 0
0 0 0
0 0 0
0 0 0
0 0 0
0 0 0
0 0 0
0 0 0
0 0 0
0 0 0
0 0 0
0 0 0
0 0 0
0 0 0
0 0 0
0 0 0
0 0 0
0 0 0
0 0 0
0 0 0
0 0 0
0 0 0
0 0 0
0 0 0
0 0 0
0 0 0
0 0 0
0 0 0
0 0 0
0 0 0
0 0 0
0 0 0
0 0 0
0 0 0
0 0 0
0 0 0
0 0 0
0 0 0
0 0 0
0 0 0
0 0 0
0 0 0
0 0 0
0 0 0
0 0 0
0 0 0
0 0 0
0 0 0
0 0 0
0 0 0
0 0 0
0 0 0
0 0 0
0 0 0
0 0 0
0 0 0
0 0 0
0 0 0
0 0 0
0 0 0
0 0 0
0 0 0
0 0 0
0 0 0
0 0 0
0 0 0
0 0 0
0 0 0
0 0 0
0 0 0
0 0 0
0 0 0
0 0 0
0 0 0
0 0 0
0 0 0
0 0 0
0 0 0
0 0 0
0 0 0
0 0 0
0 0 0
0 0 0
0 0 0
0 0 0
0 0 0
0 0 0
0 0 0
0 0 0
0 0 0
0 0 0
0 0 0
0 0 0
0 0 0
0 0 0
0 0 0
0 0 0
0 0 0
0 0 0
0 0 0
0 0 0
0 0 0
0 0 0
0 0 0
0 0 0
0 0 0
0 0 0
0 0 0
0 0 0
0 0 0
0 0 0
0 0 0
0 0 0
0 0 0
0 0 0
0 0 0
0 0 0
0 0 0
0 0 0
0 0 0
0 0 0
0 0 0
0 0 0
0 0 0
0 0 0
0 0 0
0 0 0
0 0 0
0 0 0
0 0 0
0 0 0
0 0 0
0 0 0
0 0 0
0 0 0
0 0 0
0 0 0
0 0 0
0 0 0
0 0 0
0 0 0
0 0 0
0 0 0
0 0 0
0 0 0
0 0 0
0 0 0
0 0 0
0 0 0
0 0 0
0 0 0
0 0 0
0 0 0
0 0 0
0 0 0
0 0 0
0 0 0
0 0 0
0 0 0
0 0 0
0 0 0
0 0 0
0 0 0
0 0 0
0 0 0
0 0 0
0 0 0
0 0 0
0 0 0
0 0 0
0 0 0
0 0 0
0 0 0
0 0 0
0 0 0
0 0 0
0 0 0
0 0 0
0 0 0
0 0 0
0 0 0
0 0 0
0 0 0
0 0 0
0 0 0
0 0 0
0 0 0
0 0 0
0 0 0
0 0 0
0 0 0
0 0 0
0 0 0
0 0 0
0 0 0
0 0 0
0 0 0
0 0 0
0 0 0
0 0 0
0 0 0
0 0 0
0 0 0
0 0 0
0 0 0
0 0 0
0 0 0
0 0 0
0 0 0
0 0 0
0 0 0
0 0 0
0 0 0
0 0 0
0 0 0
0 0 0
0 0 0
0 0 0
0 0 0
0 0 0
0 0 0
0 0 0
0 0 0
0 0 0
0 0 0
0 0 0
0 0 0
0 0 0
0 0 0
0 0 0
0 0 0
0 0 0
0 0 0
0 0 0
0 0 0
0 0 0
0 0 0
0 0 0
0 0 0
0 0 0
0 0 0
0 0 0
0 0 0
0 0 0
0 0 0
0 0 0
0 0 0
0 0 0
0 0 0
0 0 0
0 0 0
0 0 0
0 0 0
0 0 0
0 0 0
0 0 0
0 0 0
0 0 0
0 0 0
0 0 0
0 0 0
0 0 0
0 0 0
0 0 0
0 0 0
0 0 0
0 0 0
0 0 0
0 0 0
0 0 0
0 0 0
0 0 0
0 0 0
0 0 0
0 0 0
0 0 0
0 0 0
0 0 0
0 0 0
0 0 0
0 0 0
0 0 0
0 0 0
0 0 0
0 0 0
0 0 0
0 0 0
0 0 0
0 0 0
0 0 0
0 0 0
0 0 0
0 0 0
0 0 0
0 0 0
0 0 0
0 0 0
0 0 0
0 0 0
0 0 0
0 0 0
0 0 0
0 0 0
0 0 0
0 0 0
0 0 0
0 0 0
0 0 0
0 0 0
0 0 0
0 0 0
0 0 0
0 0 0
0 0 0
0 0 0
0 0 0
0 0 0
0 0 0
0 0 0
0 0 0
0 0 0
0 0 0
0 0 0
0 0 0
0 0 0
0 0 0
0 0 0
0 0 0
0 0 0
0 0 0
0 0 0
0 0 0
0 0 0
0 0 0
0 0 0
0 0 0
0 0 0
0 0 0
0 0 0
0 0 0
0 0 0
0 0 0
0 0 0
0 0 0
0 0 0
0 0 0
0 0 0
0 0 0
0 0 0
0 0 0
0 0 0
0 0 0
0 0 0
0 0 0
0 0 0
0 0 0
0 0 0
0 0 0
0 0 0
0 0 0
0 0 0
0 0 0
0 0 0
0 0 0
0 0 0
0 0 0
0 0 0
0 0 0
0 0 0
0 0 0
0 0 0
0 0 0
0 0 0
0 0 0
0 0 0
0 0 0
0 0 0
0 0 0
0 0 0
0 0 0
0 0 0
0 0 0
0 0 0
0 0 0
0 0 0
0 0 0
0 0 0
0 0 0
0 0 0
0 0 0
0 0 0
0 0 0
0 0 0
0 0 0
0 0 0
0 0 0
0 0 0
0 0 0
0 0 0
0 0 0
0 0 0
0 0 0
0 0 0
0 0 0
0 0 0
0 0 0
0 0 0
0 0 0
0 0 0
0 0 0
0 0 0
0 0 0
0 0 0
0 0 0
0 0 0
0 0 0
0 0 0
0 0 0
0 0 0
0 0 0
0 0 0
0 0 0
0 0 0
0 0 0
0 0 0
0 0 0
0 0 0
0 0 0
0 0 0
0 0 0
0 0 0
0 0 0
0 0 0
0 0 0
0 0 0
0 0 0
0 0 0
0 0 0
0 0 0
0 0 0
0 0 0
0 0 0
0 0 0
0 0 0
0 0 0
0 0 0
0 0 0
0 0 0
0 0 0
0 0 0
0 0 0
0 0 0
0 0 0
0 0 0
0 0 0
0 0 0
0 0 0
0 0 0
0 0 0
0 0 0
0 0 0
0 0 0
0 0 0
0 0 0
0 0 0
0 0 0
0 0 0
0 0 0
0 0 0
0 0 0
0 0 0
0 0 0
0 0 0
0 0 0
0 0 0
0 0 0
0 0 0
0 0 0
0 0 0
0 0 0
0 0 0
0 0 0
0 0 0
0 0 0
0 0 0
0 0 0
0 0 0
0 0 0
0 0 0
0 0 0
0 0 0
0 0 0
0 0 0
0 0 0
0 0 0
0 0 0
0 0 0
0 0 0
0 0 0
0 0 0
0 0 0
0 0 0
0 0 0
0 0 0
0 0 0
0 0 0
0 0 0
0 0 0
0 0 0
0 0 0
0 0 0
0 0 0
0 0 0
0 0 0
0 0 0
0 0 0
0 0 0
0 0 0
0 0 0
0 0 0
0 0 0
0 0 0
0 0 0
0 0 0
0 0 0
0 0 0
0 0 0
0 0 0
0 0 0
0 0 0
0 0 0
0 0 0
0 0 0
0 0 0
0 0 0
0 0 0
0 0 0
0 0 0
0 0 0
0 0 0
0 0 0
0 0 0
0 0 0
0 0 0
0 0 0
0 0 0
0 0 0
0 0 0
0 0 0
0 0 0
0 0 0
0 0 0
0 0 0
0 0 0
0 0 0
0 0 0
0 0 0
0 0 0
0 0 0
0 0 0
0 0 0
0 0 0
0 0 0
0 0 0
0 0 0
0 0 0
0 0 0
0 0 0
0 0 0
0 0 0
0 0 0
0 0 0
0 0 0
0 0 0
0 0 0
0 0 0
0 0 0
0 0 0
0 0 0
0 0 0
0 0 0
0 0 0
0 0 0
0 0 0
0 0 0
0 0 0
0 0 0
0 0 0
0 0 0
0 0 0
0 0 0
0 0 0
0 0 0
0 0 0
0 0 0
0 0 0
0 0 0
0 0 0
0 0 0
0 0 0
0 0 0
0 0 0
0 0 0
0 0 0
0 0 0
0 0 0
0 0 0
0 0 0
0 0 0
0 0 0
0 0 0
0 0 0
0 0 0
0 0 0
0 0 0
0 0 0
0 0 0
0 0 0
0 0 0
0 0 0
0 0 0
0 0 0
0 0 0
0 0 0
0 0 0
0 0 0
0 0 0
0 0 0
0 0 0
0 0 0
0 0 0
0 0 0
0 0 0
0 0 0
0 0 0
0 0 0
0 0 0
0 0 0
0 0 0
0 0 0
0 0 0
0 0 0
0 0 0
0 0 0
0 0 0
0 0 0
0 0 0
0 0 0
0 0 0
0 0 0
0 0 0
0 0 0
0 0 0
0 0 0
0 0 0
0 0 0
0 0 0
0 0 0
0 0 0
0 0 0
0 0 0
0 0 0
0 0 0
0 0 0
0 0 0
0 0 0
0 0 0
0 0 0
0 0 0
0 0 0
0 0 0
0 0 0
0 0 0
0 0 0
0 0 0
0 0 0
0 0 0
0 0 0
0 0 0
0 0 0
0 0 0
0 0 0
0 0 0
0 0 0
0 0 0
0 0 0
0 0 0
0 0 0
0 0 0
0 0 0
0 0 0
0 0 0
0 0 0
0 0 0
0 0 0
0 0 0
0 0 0
0 0 0
0 0 0
0 0 0
0 0 0
0 0 0
0 0 0
0 0 0
0 0 0
0 0 0
0 0 0
0 0 0
0 0 0
0 0 0
0 0 0
0 0 0
0 0 0
0 0 0
0 0 0
0 0 0
0 0 0
0 0 0
0 0 0
0 0 0
0 0 0
0 0 0
0 0 0
0 0 0
0 0 0
0 0 0
0 0 0
0 0 0
0 0 0
0 0 0
0 0 0
0 0 0
0 0 0
0 0 0
0 0 0
0 0 0
0 0 0
0 0 0
0 0 0
0 0 0
0 0 0
0 0 0
0 0 0
0 0 0
0 0 0
0 0 0
0 0 0
0 0 0
0 0 0
0 0 0
0 0 0
0 0 0
0 0 0
0 0 0
0 0 0
0 0 0
0 0 0
0 0 0
0 0 0
0 0 0
0 0 0
0 0 0
0 0 0
0 0 0
0 0 0
0 0 0
0 0 0
0 0 0
0 0 0
0 0 0
0 0 0
0 0 0
0 0 0
0 0 0
0 0 0
0 0 0
0 0 0
0 0 0
0 0 0
0 0 0
0 0 0
0 0 0
0 0 0
0 0 0
0 0 0
0 0 0
0 0 0
0 0 0
0 0 0
0 0 0
0 0 0
0 0 0
0 0 0
0 0 0
0 0 0
0 0 0
0 0 0
0 0 0
0 0 0
0 0 0
0 0 0
0 0 0
0 0 0
0 0 0
0 0 0
0 0 0
0 0 0
0 0 0
0 0 0
0 0 0
0 0 0
0 0 0
0 0 0
0 0 0
0 0 0
0 0 0
0 0 0
0 0 0
0 0 0
0 0 0
0 0 0
0 0 0
0 0 0
0 0 0
0 0 0
0 0 0
0 0 0
0 0 0
0 0 0
0 0 0
0 0 0
0 0 0
0 0 0
0 0 0
0 0 0
0 0 0
0 0 0
0 0 0
0 0 0
0 0 0
0 0 0
0 0 0
0 0 0
0 0 0
0 0 0
0 0 0
0 0 0
0 0 0
0 0 0
0 0 0
0 0 0
0 0 0
0 0 0
0 0 0
0 0 0
0 0 0
0 0 0
0 0 0
0 0 0
0 0 0
0 0 0
0 0 0
0 0 0
0 0 0
0 0 0
0 0 0
0 0 0
0 0 0
0 0 0
0 0 0
0 0 0
0 0 0
0 0 0
0 0 0
0 0 0
0 0 0
0 0 0
0 0 0
0 0 0
0 0 0
0 0 0
0 0 0
0 0 0
0 0 0
0 0 0
0 0 0
0 0 0
0 0 0
0 0 0
0 0 0
0 0 0
0 0 0
0 0 0
0 0 0
0 0 0
0 0 0
0 0 0
0 0 0
0 0 0
0 0 0
0 0 0
0 0 0
0 0 0
0 0 0
0 0 0
0 0 0
0 0 0
0 0 0
0 0 0
0 0 0
0 0 0
0 0 0
0 0 0
0 0 0
0 0 0
0 0 0
0 0 0
0 0 0
0 0 0
0 0 0
0 0 0
0 0 0
0 0 0
0 0 0
0 0 0
0 0 0
0 0 0
0 0 0
0 0 0
0 0 0
0 0 0
0 0 0
0 0 0
0 0 0
0 0 0
0 0 0
0 0 0
0 0 0
0 0 0
0 0 0
0 0 0
0 0 0
0 0 0
0 0 0
0 0 0
0 0 0
0 0 0
0 0 0
0 0 0
0 0 0
0 0 0
0 0 0
0 0 0
0 0 0
0 0 0
0 0 0
0 0 0
0 0 0
0 0 0
0 0 0
0 0 0
0 0 0
0 0 0
0 0 0
0 0 0
0 0 0
0 0 0
0 0 0
0 0 0
0 0 0
0 0 0
0 0 0
0 0 0
0 0 0
0 0 0
0 0 0
0 0 0
0 0 0
0 0 0
0 0 0
0 0 0
0 0 0
0 0 0
0 0 0
0 0 0
0 0 0
0 0 0
0 0 0
0 0 0
0 0 0
0 0 0
0 0 0
0 0 0
0 0 0
0 0 0
0 0 0
0 0 0
0 0 0
0 0 0
0 0 0
0 0 0
0 0 0
0 0 0
0 0 0
0 0 0
0 0 0
0 0 0
0 0 0
0 0 0
0 0 0
0 0 0
0 0 0
0 0 0
0 0 0
0 0 0
0 0 0
0 0 0
0 0 0
0 0 0
0 0 0
0 0 0
0 0 0
0 0 0
0 0 0
0 0 0
0 0 0
0 0 0
0 0 0
0 0 0
0 0 0
0 0 0
0 0 0
0 0 0
0 0 0
0 0 0
0 0 0
0 0 0
0 0 0
0 0 0
0 0 0
0 0 0
0 0 0
0 0 0
0 0 0
0 0 0
0 0 0
0 0 0
0 0 0
0 0 0
0 0 0
0 0 0
0 0 0
0 0 0
0 0 0
0 0 0
0 0 0
0 0 0
0 0 0
0 0 0
0 0 0
0 0 0
0 0 0
0 0 0
0 0 0
0 0 0
0 0 0
0 0 0
0 0 0
0 0 0
0 0 0
0 0 0
0 0 0
0 0 0
0 0 0
0 0 0
0 0 0
0 0 0
0 0 0
0 0 0
0 0 0
0 0 0
0 0 0
0 0 0
0 0 0
0 0 0
0 0 0
0 0 0
0 0 0
0 0 0
0 0 0
0 0 0
0 0 0
0 0 0
0 0 0
0 0 0
0 0 0
0 0 0
0 0 0
0 0 0
0 0 0
0 0 0
0 0 0
0 0 0
0 0 0
0 0 0
0 0 0
0 0 0
0 0 0
0 0 0
0 0 0
0 0 0
0 0 0
0 0 0
0 0 0
0 0 0
0 0 0
0 0 0
0 0 0
0 0 0
0 0 0
0 0 0
0 0 0
0 0 0
0 0 0
0 0 0
0 0 0
0 0 0
0 0 0
0 0 0
0 0 0
0 0 0
0 0 0
0 0 0
0 0 0
0 0 0
0 0 0
0 0 0
0 0 0
0 0 0
0 0 0
0 0 0
0 0 0
0 0 0
0 0 0
0 0 0
0 0 0
0 0 0
0 0 0
0 0 0
0 0 0
0 0 0
0 0 0
0 0 0
0 0 0
0 0 0
0 0 0
0 0 0
0 0 0
0 0 0
0 0 0
0 0 0
0 0 0
0 0 0
0 0 0
0 0 0
0 0 0
0 0 0
0 0 0
0 0 0
0 0 0
0 0 0
0 0 0
0 0 0
0 0 0
0 0 0
0 0 0
0 0 0
0 0 0
0 0 0
0 0 0
0 0 0
0 0 0
0 0 0
0 0 0
0 0 0
0 0 0
0 0 0
0 0 0
0 0 0
0 0 0
0 0 0
0 0 0
0 0 0
0 0 0
0 0 0
0 0 0
0 0 0
0 0 0
0 0 0
0 0 0
0 0 0
0 0 0
0 0 0
0 0 0
0 0 0
0 0 0
0 0 0
0 0 0
0 0 0
0 0 0
0 0 0
0 0 0
0 0 0
0 0 0
0 0 0
0 0 0
0 0 0
0 0 0
0 0 0
0 0 0
0 0 0
0 0 0
0 0 0
0 0 0
0 0 0
0 0 0
0 0 0
0 0 0
0 0 0
0 0 0
0 0 0
0 0 0
0 0 0
0 0 0
0 0 0
0 0 0
0 0 0
0 0 0
0 0 0
0 0 0
0 0 0
0 0 0
0 0 0
0 0 0
0 0 0
0 0 0
0 0 0
0 0 0
0 0 0
0 0 0
0 0 0
0 0 0
0 0 0
0 0 0
0 0 0
0 0 0
0 0 0
0 0 0
0 0 0
0 0 0
0 0 0
0 0 0
0 0 0
0 0 0
0 0 0
0 0 0
0 0 0
0 0 0
0 0 0
0 0 0
0 0 0
0 0 0
0 0 0
0 0 0
0 0 0
0 0 0
0 0 0
0 0 0
0 0 0
0 0 0
0 0 0
0 0 0
0 0 0
0 0 0
0 0 0
0 0 0
0 0 0
0 0 0
0 0 0
0 0 0
0 0 0
0 0 0
0 0 0
0 0 0
0 0 0
0 0 0
0 0 0
0 0 0
0 0 0
0 0 0
0 0 0
0 0 0
0 0 0
0 0 0
0 0 0
0 0 0
0 0 0
0 0 0
0 0 0
0 0 0
0 0 0
0 0 0
0 0 0
0 0 0
0 0 0
0 0 0
0 0 0
0 0 0
0 0 0
0 0 0
0 0 0
0 0 0
0 0 0
0 0 0
0 0 0
0 0 0
0 0 0
0 0 0
0 0 0
0 0 0
0 0 0
0 0 0
0 0 0
0 0 0
0 0 0
0 0 0
0 0 0
0 0 0
0 0 0
0 0 0
0 0 0
0 0 0
0 0 0
0 0 0
0 0 0
0 0 0
0 0 0
0 0 0
0 0 0
0 0 0
0 0 0
0 0 0
0 0 0
0 0 0
0 0 0
0 0 0
0 0 0
0 0 0
0 0 0
0 0 0
0 0 0
0 0 0
0 0 0
0 0 0
0 0 0
0 0 0
0 0 0
0 0 0
0 0 0
0 0 0
0 0 0
0 0 0
0 0 0
0 0 0
0 0 0
0 0 0
0 0 0
0 0 0
0 0 0
0 0 0
0 0 0
0 0 0
0 0 0
0 0 0
0 0 0
0 0 0
0 0 0
0 0 0
0 0 0
0 0 0
0 0 0
0 0 0
0 0 0
0 0 0
0 0 0
0 0 0
0 0 0
0 0 0
0 0 0
0 0 0
0 0 0
0 0 0
0 0 0
0 0 0
0 0 0
0 0 0
0 0 0
0 0 0
0 0 0
0 0 0
0 0 0
0 0 0
0 0 0
0 0 0
0 0 0
0 0 0
0 0 0
0 0 0
0 0 0
0 0 0
0 0 0
0 0 0
0 0 0
0 0 0
0 0 0
0 0 0
0 0 0
0 0 0
0 0 0
0 0 0
0 0 0
0 0 0
0 0 0
0 0 0
0 0 0
0 0 0
0 0 0
0 0 0
0 0 0
0 0 0
0 0 0
0 0 0
0 0 0
0 0 0
0 0 0
0 0 0
0 0 0
0 0 0
0 0 0
0 0 0
0 0 0
0 0 0
0 0 0
0 0 0
0 0 0
0 0 0
0 0 0
0 0 0
0 0 0
0 0 0
0 0 0
0 0 0
0 0 0
0 0 0
0 0 0
0 0 0
0 0 0
0 0 0
0 0 0
0 0 0
0 0 0
0 0 0
0 0 0
0 0 0
0 0 0
0 0 0
0 0 0
0 0 0
0 0 0
0 0 0
0 0 0
0 0 0
0 0 0
0 0 0
0 0 0
0 0 0
0 0 0
0 0 0
0 0 0
0 0 0
0 0 0
0 0 0
0 0 0
0 0 0
0 0 0
0 0 0
0 0 0
0 0 0
0 0 0
0 0 0
0 0 0
0 0 0
0 0 0
0 0 0
0 0 0
0 0 0
0 0 0
0 0 0
0 0 0
0 0 0
0 0 0
0 0 0
0 0 0
0 0 0
0 0 0
0 0 0
0 0 0
0 0 0
0 0 0
0 0 0
0 0 0
0 0 0
0 0 0
0 0 0
0 0 0
0 0 0
0 0 0
0 0 0
0 0 0
0 0 0
0 0 0
0 0 0
0 0 0
0 0 0
0 0 0
0 0 0
0 0 0
0 0 0
0 0 0
0 0 0
0 0 0
0 0 0
0 0 0
0 0 0
0 0 0
0 0 0
0 0 0
0 0 0
0 0 0
0 0 0
0 0 0
0 0 0
0 0 0
0 0 0
0 0 0
0 0 0
0 0 0
0 0 0
0 0 0
0 0 0
0 0 0
0 0 0
0 0 0
0 0 0
0 0 0
0 0 0
0 0 0
0 0 0
0 0 0
0 0 0
0 0 0
0 0 0
0 0 0
0 0 0
0 0 0
0 0 0
0 0 0
0 0 0
0 0 0
0 0 0
0 0 0
0 0 0
0 0 0
0 0 0
0 0 0
0 0 0
0 0 0
0 0 0
0 0 0
0 0 0
0 0 0
0 0 0
0 0 0
0 0 0
0 0 0
0 0 0
0 0 0
0 0 0
0 0 0
0 0 0
0 0 0
0 0 0
0 0 0
0 0 0
0 0 0
0 0 0
0 0 0
0 0 0
0 0 0
0 0 0
0 0 0
0 0 0
0 0 0
0 0 0
0 0 0
0 0 0
0 0 0
0 0 0
0 0 0
0 0 0
0 0 0
0 0 0
0 0 0
0 0 0
0 0 0
0 0 0
0 0 0
0 0 0
0 0 0
0 0 0
0 0 0
0 0 0
0 0 0
0 0 0
0 0 0
0 0 0
0 0 0
0 0 0
0 0 0
0 0 0
0 0 0
0 0 0
0 0 0
0 0 0
0 0 0
0 0 0
0 0 0
0 0 0
0 0 0
0 0 0
0 0 0
0 0 0
0 0 0
0 0 0
0 0 0
0 0 0
0 0 0
0 0 0
0 0 0
0 0 0
0 0 0
0 0 0
0 0 0
0 0 0
0 0 0
0 0 0
0 0 0
0 0 0
0 0 0
0 0 0
0 0 0
0 0 0
0 0 0
0 0 0
0 0 0
0 0 0
0 0 0
0 0 0
0 0 0
0 0 0
0 0 0
0 0 0
0 0 0
0 0 0
0 0 0
0 0 0
0 0 0
0 0 0
0 0 0
0 0 0
0 0 0
0 0 0
0 0 0
0 0 0
0 0 0
0 0 0
0 0 0
0 0 0
0 0 0
0 0 0
0 0 0
0 0 0
0 0 0
0 0 0
0 0 0
0 0 0
0 0 0
0 0 0
0 0 0
0 0 0
0 0 0
0 0 0
0 0 0
0 0 0
0 0 0
0 0 0
0 0 0
0 0 0
0 0 0
0 0 0
0 0 0
0 0 0
0 0 0
0 0 0
0 0 0
0 0 0
0 0 0
0 0 0
0 0 0
0 0 0
0 0 0
0 0 0
0 0 0
0 0 0
0 0 0
0 0 0
0 0 0
0 0 0
0 0 0
0 0 0
0 0 0
0 0 0
0 0 0
0 0 0
0 0 0
0 0 0
0 0 0
0 0 0
0 0 0
0 0 0
0 0 0
0 0 0
0 0 0
0 0 0
0 0 0
0 0 0
0 0 0
0 0 0
0 0 0
0 0 0
0 0 0
0 0 0
0 0 0
0 0 0
0 0 0
0 0 0
0 0 0
0 0 0
0 0 0
0 0 0
0 0 0
0 0 0
0 0 0
0 0 0
0 0 0
0 0 0
0 0 0
0 0 0
0 0 0
0 0 0
0 0 0
0 0 0
0 0 0
0 0 0
0 0 0
0 0 0
0 0 0
0 0 0
0 0 0
0 0 0
0 0 0
0 0 0
0 0 0
0 0 0
0 0 0
0 0 0
0 0 0
0 0 0
0 0 0
0 0 0
0 0 0
0 0 0
0 0 0
0 0 0
0 0 0
0 0 0
0 0 0
0 0 0
0 0 0
0 0 0
0 0 0
0 0 0
0 0 0
0 0 0
0 0 0
0 0 0
0 0 0
0 0 0
0 0 0
0 0 0
0 0 0
0 0 0
0 0 0
0 0 0
0 0 0
0 0 0
0 0 0
0 0 0
0 0 0
0 0 0
0 0 0
0 0 0
0 0 0
0 0 0
0 0 0
0 0 0
0 0 0
0 0 0
0 0 0
0 0 0
0 0 0
0 0 0
0 0 0
0 0 0
0 0 0
0 0 0
0 0 0
0 0 0
0 0 0
0 0 0
0 0 0
0 0 0
0 0 0
0 0 0
0 0 0
0 0 0
0 0 0
0 0 0
0 0 0
0 0 0
0 0 0
0 0 0
0 0 0
0 0 0
0 0 0
0 0 0
0 0 0
0 0 0
0 0 0
0 0 0
0 0 0
0 0 0
0 0 0
0 0 0
0 0 0
0 0 0
0 0 0
0 0 0
0 0 0
0 0 0
0 0 0
0 0 0
0 0 0
0 0 0
0 0 0
0 0 0
0 0 0
0 0 0
0 0 0
0 0 0
0 0 0
0 0 0
0 0 0
0 0 0
0 0 0
0 0 0
0 0 0
0 0 0
0 0 0
0 0 0
0 0 0
0 0 0
0 0 0
0 0 0
0 0 0
0 0 0
0 0 0
0 0 0
0 0 0
0 0 0
0 0 0
0 0 0
0 0 0
0 0 0
0 0 0
0 0 0
0 0 0
0 0 0
0 0 0
0 0 0
0 0 0
0 0 0
0 0 0
0 0 0
0 0 0
0 0 0
0 0 0
0 0 0
0 0 0
0 0 0
0 0 0
0 0 0
0 0 0
0 0 0
0 0 0
0 0 0
0 0 0
0 0 0
0 0 0
0 0 0
0 0 0
0 0 0
0 0 0
0 0 0
0 0 0
0 0 0
0 0 0
0 0 0
0 0 0
0 0 0
0 0 0
0 0 0
0 0 0
0 0 0
0 0 0
0 0 0
0 0 0
0 0 0
0 0 0
0 0 0
0 0 0
0 0 0
0 0 0
0 0 0
0 0 0
0 0 0
0 0 0
0 0 0
0 0 0
0 0 0
0 0 0
0 0 0
0 0 0
0 0 0
0 0 0
0 0 0
0 0 0
0 0 0
0 0 0
0 0 0
0 0 0
0 0 0
0 0 0
0 0 0
0 0 0
0 0 0
0 0 0
0 0 0
0 0 0
0 0 0
0 0 0
0 0 0
0 0 0
0 0 0
0 0 0
0 0 0
0 0 0
0 0 0
0 0 0
0 0 0
0 0 0
0 0 0
0 0 0
0 0 0
0 0 0
0 0 0
0 0 0
0 0 0
0 0 0
0 0 0
0 0 0
0 0 0
0 0 0
0 0 0
0 0 0
0 0 0
0 0 0
0 0 0
0 0 0
0 0 0
0 0 0
0 0 0
0 0 0
0 0 0
0 0 0
0 0 0
0 0 0
0 0 0
0 0 0
0 0 0
0 0 0
0 0 0
0 0 0
0 0 0
0 0 0
0 0 0
0 0 0
0 0 0
0 0 0
0 0 0
0 0 0
0 0 0
0 0 0
0 0 0
0 0 0
0 0 0
0 0 0
0 0 0
0 0 0
0 0 0
0 0 0
0 0 0
0 0 0
0 0 0
0 0 0
0 0 0
0 0 0
0 0 0
0 0 0
0 0 0
0 0 0
0 0 0
0 0 0
0 0 0
0 0 0
0 0 0
0 0 0
0 0 0
0 0 0
0 0 0
0 0 0
0 0 0
0 0 0
0 0 0
0 0 0
0 0 0
0 0 0
0 0 0
0 0 0
0 0 0
0 0 0
0 0 0
0 0 0
0 0 0
0 0 0
0 0 0
0 0 0
0 0 0
0 0 0
0 0 0
0 0 0
0 0 0
0 0 0
0 0 0
0 0 0
0 0 0
0 0 0
0 0 0
0 0 0
0 0 0
0 0 0
0 0 0
0 0 0
0 0 0
0 0 0
0 0 0
0 0 0
0 0 0
0 0 0
0 0 0
0 0 0
0 0 0
0 0 0
0 0 0
0 0 0
0 0 0
0 0 0
0 0 0
0 0 0
0 0 0
0 0 0
0 0 0
0 0 0
0 0 0
0 0 0
0 0 0
0 0 0
0 0 0
0 0 0
0 0 0
0 0 0
0 0 0
0 0 0
0 0 0
0 0 0
0 0 0
0 0 0
0 0 0
0 0 0
0 0 0
0 0 0
0 0 0
0 0 0
0 0 0
0 0 0
0 0 0
0 0 0
0 0 0
0 0 0
0 0 0
0 0 0
0 0 0
0 0 0
0 0 0
0 0 0
0 0 0
0 0 0
0 0 0
0 0 0
0 0 0
0 0 0
0 0 0
0 0 0
0 0 0
0 0 0
0 0 0
0 0 0
0 0 0
0 0 0
0 0 0
0 0 0
0 0 0
0 0 0
0 0 0
0 0 0
0 0 0
0 0 0
0 0 0
0 0 0
0 0 0
0 0 0
0 0 0
0 0 0
0 0 0
0 0 0
0 0 0
0 0 0
0 0 0
0 0 0
0 0 0
0 0 0
0 0 0
0 0 0
0 0 0
0 0 0
0 0 0
0 0 0
0 0 0
0 0 0
0 0 0
0 0 0
0 0 0
0 0 0
0 0 0
0 0 0
0 0 0
0 0 0
0 0 0
0 0 0
0 0 0
0 0 0
0 0 0
0 0 0
0 0 0
0 0 0
0 0 0
0 0 0
0 0 0
0 0 0
0 0 0
0 0 0
0 0 0
0 0 0
0 0 0
0 0 0
0 0 0
0 0 0
0 0 0
0 0 0
0 0 0
0 0 0
0 0 0
0 0 0
0 0 0
0 0 0
0 0 0
0 0 0
0 0 0
0 0 0
0 0 0
0 0 0
0 0 0
0 0 0
0 0 0
0 0 0
0 0 0
0 0 0
0 0 0
0 0 0
0 0 0
0 0 0
0 0 0
0 0 0
0 0 0
0 0 0
0 0 0
0 0 0
0 0 0
0 0 0
0 0 0
0 0 0
0 0 0
0 0 0
0 0 0
0 0 0
0 0 0
0 0 0
0 0 0
0 0 0
0 0 0
0 0 0
0 0 0
0 0 0
0 0 0
0 0 0
0 0 0
0 0 0
0 0 0
0 0 0
0 0 0
0 0 0
0 0 0
0 0 0
0 0 0
0 0 0
0 0 0
0 0 0
0 0 0
0 0 0
0 0 0
0 0 0
0 0 0
0 0 0
0 0 0
0 0 0
0 0 0
0 0 0
0 0 0
0 0 0
0 0 0
0 0 0
0 0 0
0 0 0
0 0 0
0 0 0
0 0 0
0 0 0
0 0 0
0 0 0
0 0 0
0 0 0
0 0 0
0 0 0
0 0 0
0 0 0
0 0 0
0 0 0
0 0 0
0 0 0
0 0 0
0 0 0
0 0 0
0 0 0
0 0 0
0 0 0
0 0 0
0 0 0
0 0 0
0 0 0
0 0 0
0 0 0
0 0 0
0 0 0
0 0 0
0 0 0
0 0 0
0 0 0
0 0 0
0 0 0
0 0 0
0 0 0
0 0 0
0 0 0
0 0 0
0 0 0
0 0 0
0 0 0
0 0 0
0 0 0
0 0 0
0 0 0
0 0 0
0 0 0
0 0 0
0 0 0
0 0 0
0 0 0
0 0 0
0 0 0
0 0 0
0 0 0
0 0 0
0 0 0
0 0 0
0 0 0
0 0 0
0 0 0
0 0 0
0 0 0
0 0 0
0 0 0
0 0 0
0 0 0
0 0 0
0 0 0
0 0 0
0 0 0
0 0 0
0 0 0
0 0 0
0 0 0
0 0 0
0 0 0
0 0 0
0 0 0
0 0 0
0 0 0
0 0 0
0 0 0
0 0 0
0 0 0
0 0 0
0 0 0
0 0 0
0 0 0
0 0 0
0 0 0
0 0 0
0 0 0
0 0 0
0 0 0
0 0 0
0 0 0
0 0 0
0 0 0
0 0 0
0 0 0
0 0 0
0 0 0
0 0 0
0 0 0
0 0 0
0 0 0
0 0 0
0 0 0
0 0 0
0 0 0
0 0 0
0 0 0
0 0 0
0 0 0
0 0 0
0 0 0
0 0 0
0 0 0
0 0 0
0 0 0
0 0 0
0 0 0
0 0 0
0 0 0
0 0 0
0 0 0
0 0 0
0 0 0
0 0 0
0 0 0
0 0 0
0 0 0
0 0 0
0 0 0
0 0 0
0 0 0
0 0 0
0 0 0
0 0 0
0 0 0
0 0 0
0 0 0
0 0 0
0 0 0
0 0 0
0 0 0
0 0 0
0 0 0
0 0 0
0 0 0
0 0 0
0 0 0
0 0 0
0 0 0
0 0 0
0 0 0
0 0 0
0 0 0
0 0 0
0 0 0
0 0 0
0 0 0
0 0 0
0 0 0
0 0 0
0 0 0
0 0 0
0 0 0
0 0 0
0 0 0
0 0 0
0 0 0
0 0 0
0 0 0
0 0 0
0 0 0
0 0 0
0 0 0
0 0 0
0 0 0
0 0 0
0 0 0
0 0 0
0 0 0
0 0 0
0 0 0
0 0 0
0 0 0
0 0 0
0 0 0
0 0 0
0 0 0
0 0 0
0 0 0
0 0 0
0 0 0
0 0 0
0 0 0
0 0 0
0 0 0
0 0 0
0 0 0
0 0 0
0 0 0
0 0 0
0 0 0
0 0 0
0 0 0
0 0 0
0 0 0
0 0 0
0 0 0
0 0 0
0 0 0
0 0 0
0 0 0
0 0 0
0 0 0
0 0 0
0 0 0
0 0 0
0 0 0
0 0 0
0 0 0
0 0 0
0 0 0
0 0 0
0 0 0
0 0 0
0 0 0
0 0 0
0 0 0
0 0 0
0 0 0
0 0 0
0 0 0
0 0 0
0 0 0
0 0 0
0 0 0
0 0 0
0 0 0
0 0 0
0 0 0
0 0 0
0 0 0
0 0 0
0 0 0
0 0 0
0 0 0
0 0 0
0 0 0
0 0 0
0 0 0
0 0 0
0 0 0
0 0 0
0 0 0
0 0 0
0 0 0
0 0 0
0 0 0
0 0 0
0 0 0
0 0 0
0 0 0
0 0 0
0 0 0
0 0 0
0 0 0
0 0 0
0 0 0
0 0 0
0 0 0
0 0 0
0 0 0
0 0 0
0 0 0
0 0 0
0 0 0
0 0 0
0 0 0
0 0 0
0 0 0
0 0 0
0 0 0
0 0 0
0 0 0
0 0 0
0 0 0
0 0 0
0 0 0
0 0 0
0 0 0
0 0 0
0 0 0
0 0 0
0 0 0
0 0 0
0 0 0
0 0 0
0 0 0
0 0 0
0 0 0
0 0 0
0 0 0
0 0 0
0 0 0
0 0 0
0 0 0
0 0 0
0 0 0
0 0 0
0 0 0
0 0 0
0 0 0
0 0 0
0 0 0
0 0 0
0 0 0
0 0 0
0 0 0
0 0 0
0 0 0
0 0 0
0 0 0
0 0 0
0 0 0
0 0 0
0 0 0
0 0 0
0 0 0
0 0 0
0 0 0
0 0 0
0 0 0
0 0 0
0 0 0
0 0 0
0 0 0
0 0 0
0 0 0
0 0 0
0 0 0
0 0 0
0 0 0
0 0 0
0 0 0
0 0 0
0 0 0
0 0 0
0 0 0
0 0 0
0 0 0
0 0 0
0 0 0
0 0 0
0 0 0
0 0 0
0 0 0
0 0 0
0 0 0
0 0 0
0 0 0
0 0 0
0 0 0
0 0 0
0 0 0
0 0 0
0 0 0
0 0 0
0 0 0
0 0 0
0 0 0
0 0 0
0 0 0
0 0 0
0 0 0
0 0 0
0 0 0
0 0 0
0 0 0
0 0 0
0 0 0
0 0 0
0 0 0
0 0 0
0 0 0
0 0 0
0 0 0
0 0 0
0 0 0
0 0 0
0 0 0
0 0 0
0 0 0
0 0 0
0 0 0
0 0 0
0 0 0
0 0 0
0 0 0
0 0 0
0 0 0
0 0 0
0 0 0
0 0 0
0 0 0
0 0 0
0 0 0
0 0 0
0 0 0
0 0 0
0 0 0
0 0 0
0 0 0
0 0 0
0 0 0
0 0 0
0 0 0
0 0 0
0 0 0
0 0 0
0 0 0
0 0 0
0 0 0
0 0 0
0 0 0
0 0 0
0 0 0
0 0 0
0 0 0
0 0 0
0 0 0
0 0 0
0 0 0
0 0 0
0 0 0
0 0 0
0 0 0
0 0 0
0 0 0
0 0 0
0 0 0
0 0 0
0 0 0
0 0 0
0 0 0
0 0 0
0 0 0
0 0 0
0 0 0
0 0 0
0 0 0
0 0 0
0 0 0
0 0 0
0 0 0
0 0 0
0 0 0
0 0 0
0 0 0
0 0 0
0 0 0
0 0 0
0 0 0
0 0 0
0 0 0
0 0 0
0 0 0
0 0 0
0 0 0
0 0 0
0 0 0
0 0 0
0 0 0
0 0 0
0 0 0
0 0 0
0 0 0
0 0 0
0 0 0
0 0 0
0 0 0
0 0 0
0 0 0
0 0 0
0 0 0
0 0 0
0 0 0
0 0 0
0 0 0
0 0 0
0 0 0
0 0 0
0 0 0
0 0 0
0 0 0
0 0 0
0 0 0
0 0 0
0 0 0
0 0 0
0 0 0
0 0 0
0 0 0
0 0 0
0 0 0
0 0 0
0 0 0
0 0 0
0 0 0
0 0 0
0 0 0
0 0 0
0 0 0
0 0 0
0 0 0
0 0 0
0 0 0
0 0 0
0 0 0
0 0 0
0 0 0
0 0 0
0 0 0
0 0 0
0 0 0
0 0 0
0 0 0
0 0 0
0 0 0
0 0 0
0 0 0
0 0 0
0 0 0
0 0 0
0 0 0
0 0 0
0 0 0
0 0 0
0 0 0
0 0 0
0 0 0
0 0 0
0 0 0
0 0 0
0 0 0
0 0 0
0 0 0
0 0 0
0 0 0
0 0 0
0 0 0
0 0 0
0 0 0
0 0 0
0 0 0
0 0 0
0 0 0
0 0 0
0 0 0
0 0 0
0 0 0
0 0 0
0 0 0
0 0 0
0 0 0
0 0 0
0 0 0
0 0 0
0 0 0
0 0 0
0 0 0
0 0 0
0 0 0
0 0 0
0 0 0
0 0 0
0 0 0
0 0 0
0 0 0
0 0 0
0 0 0
0 0 0
0 0 0
0 0 0
0 0 0
0 0 0
0 0 0
0 0 0
0 0 0
0 0 0
0 0 0
0 0 0
0 0 0
0 0 0
0 0 0
0 0 0
0 0 0
0 0 0
0 0 0
0 0 0
0 0 0
0 0 0
0 0 0
0 0 0
0 0 0
0 0 0
0 0 0
0 0 0
0 0 0
0 0 0
0 0 0
0 0 0
0 0 0
0 0 0
0 0 0
0 0 0
0 0 0
0 0 0
0 0 0
0 0 0
0 0 0
0 0 0
0 0 0
0 0 0
0 0 0
0 0 0
0 0 0
0 0 0
0 0 0
0 0 0
0 0 0
0 0 0
0 0 0
0 0 0
0 0 0
0 0 0
0 0 0
0 0 0
0 0 0
0 0 0
0 0 0
0 0 0
0 0 0
0 0 0
0 0 0
0 0 0
0 0 0
0 0 0
0 0 0
0 0 0
0 0 0
0 0 0
0 0 0
0 0 0
0 0 0
0 0 0
0 0 0
0 0 0
0 0 0
0 0 0
0 0 0
0 0 0
0 0 0
0 0 0
0 0 0
0 0 0
0 0 0
0 0 0
0 0 0
0 0 0
0 0 0
0 0 0
0 0 0
0 0 0
0 0 0
0 0 0
0 0 0
0 0 0
0 0 0
0 0 0
0 0 0
0 0 0
0 0 0
0 0 0
0 0 0
0 0 0
0 0 0
0 0 0
0 0 0
0 0 0
0 0 0
0 0 0
0 0 0
0 0 0
0 0 0
0 0 0
0 0 0
0 0 0
0 0 0
0 0 0
0 0 0
0 0 0
0 0 0
0 0 0
0 0 0
0 0 0
0 0 0
0 0 0
0 0 0
0 0 0
0 0 0
0 0 0
0 0 0
0 0 0
0 0 0
0 0 0
0 0 0
0 0 0
0 0 0
0 0 0
0 0 0
0 0 0
0 0 0
0 0 0
0 0 0
0 0 0
0 0 0
0 0 0
0 0 0
0 0 0
0 0 0
0 0 0
0 0 0
0 0 0
0 0 0
0 0 0
0 0 0
0 0 0
0 0 0
0 0 0
0 0 0
0 0 0
0 0 0
0 0 0
0 0 0
0 0 0
0 0 0
0 0 0
0 0 0
0 0 0
0 0 0
0 0 0
0 0 0
0 0 0
0 0 0
0 0 0
0 0 0
0 0 0
0 0 0
0 0 0
0 0 0
0 0 0
0 0 0
0 0 0
0 0 0
0 0 0
0 0 0
0 0 0
0 0 0
0 0 0
0 0 0
0 0 0
0 0 0
0 0 0
0 0 0
0 0 0
0 0 0
0 0 0
0 0 0
0 0 0
0 0 0
0 0 0
0 0 0
0 0 0
0 0 0
0 0 0
0 0 0
0 0 0
0 0 0
0 0 0
0 0 0
0 0 0
0 0 0
0 0 0
0 0 0
0 0 0
0 0 0
0 0 0
0 0 0
0 0 0
0 0 0
0 0 0
0 0 0
0 0 0
0 0 0
0 0 0
0 0 0
0 0 0
0 0 0
0 0 0
0 0 0
0 0 0
0 0 0
0 0 0
0 0 0
0 0 0
0 0 0
0 0 0
0 0 0
0 0 0
0 0 0
0 0 0
0 0 0
0 0 0
0 0 0
0 0 0
0 0 0
0 0 0
0 0 0
0 0 0
0 0 0
0 0 0
0 0 0
0 0 0
0 0 0
0 0 0
0 0 0
0 0 0
0 0 0
0 0 0
0 0 0
0 0 0
0 0 0
0 0 0
0 0 0
0 0 0
0 0 0
0 0 0
0 0 0
0 0 0
0 0 0
0 0 0
0 0 0
0 0 0
0 0 0
0 0 0
0 0 0
0 0 0
0 0 0
0 0 0
0 0 0
0 0 0
0 0 0
0 0 0
0 0 0
0 0 0
0 0 0
0 0 0
0 0 0
0 0 0
0 0 0
0 0 0
0 0 0
0 0 0
0 0 0
0 0 0
0 0 0
0 0 0
0 0 0
0 0 0
0 0 0
0 0 0
0 0 0
0 0 0
0 0 0
0 0 0
0 0 0
0 0 0
0 0 0
0 0 0
0 0 0
0 0 0
0 0 0
0 0 0
0 0 0
0 0 0
0 0 0
0 0 0
0 0 0
0 0 0
0 0 0
0 0 0
0 0 0
0 0 0
0 0 0
0 0 0
0 0 0
0 0 0
0 0 0
0 0 0
0 0 0
0 0 0
0 0 0
0 0 0
0 0 0
0 0 0
0 0 0
0 0 0
0 0 0
0 0 0
0 0 0
0 0 0
0 0 0
0 0 0
0 0 0
0 0 0
0 0 0
0 0 0
0 0 0
0 0 0
0 0 0
0 0 0
0 0 0
0 0 0
0 0 0
0 0 0
0 0 0
0 0 0
0 0 0
0 0 0
0 0 0
0 0 0
0 0 0
0 0 0
0 0 0
0 0 0
0 0 0
0 0 0
0 0 0
0 0 0
0 0 0
0 0 0
0 0 0
0 0 0
0 0 0
0 0 0
0 0 0
0 0 0
0 0 0
0 0 0
0 0 0
0 0 0
0 0 0
0 0 0
0 0 0
0 0 0
0 0 0
0 0 0
0 0 0
0 0 0
0 0 0
0 0 0
0 0 0
0 0 0
0 0 0
0 0 0
0 0 0
0 0 0
0 0 0
0 0 0
0 0 0
0 0 0
0 0 0
0 0 0
0 0 0
0 0 0
0 0 0
0 0 0
0 0 0
0 0 0
0 0 0
0 0 0
0 0 0
0 0 0
0 0 0
0 0 0
0 0 0
0 0 0
0 0 0
0 0 0
0 0 0
0 0 0
0 0 0
0 0 0
0 0 0
0 0 0
0 0 0
0 0 0
0 0 0
0 0 0
0 0 0
0 0 0
0 0 0
0 0 0
0 0 0
0 0 0
0 0 0
0 0 0
0 0 0
0 0 0
0 0 0
0 0 0
0 0 0
0 0 0
0 0 0
0 0 0
0 0 0
0 0 0
0 0 0
0 0 0
0 0 0
0 0 0
0 0 0
0 0 0
0 0 0
0 0 0
0 0 0
0 0 0
0 0 0
0 0 0
0 0 0
0 0 0
0 0 0
0 0 0
0 0 0
0 0 0
0 0 0
0 0 0
0 0 0
0 0 0
0 0 0
0 0 0
0 0 0
0 0 0
0 0 0
0 0 0
0 0 0
0 0 0
0 0 0
0 0 0
0 0 0
0 0 0
0 0 0
0 0 0
0 0 0
0 0 0
0 0 0
0 0 0
0 0 0
0 0 0
0 0 0
0 0 0
0 0 0
0 0 0
0 0 0
0 0 0
0 0 0
0 0 0
0 0 0
0 0 0
0 0 0
0 0 0
0 0 0
0 0 0
0 0 0
0 0 0
0 0 0
0 0 0
0 0 0
0 0 0
0 0 0
0 0 0
0 0 0
0 0 0
0 0 0
0 0 0
0 0 0
0 0 0
0 0 0
0 0 0
0 0 0
0 0 0
0 0 0
0 0 0
0 0 0
0 0 0
0 0 0
0 0 0
0 0 0
0 0 0
0 0 0
0 0 0
0 0 0
0 0 0
0 0 0
0 0 0
0 0 0
0 0 0
0 0 0
0 0 0
0 0 0
0 0 0
0 0 0
0 0 0
0 0 0
0 0 0
0 0 0
0 0 0
0 0 0
0 0 0
0 0 0
0 0 0
0 0 0
0 0 0
0 0 0
0 0 0
0 0 0
0 0 0
0 0 0
0 0 0
0 0 0
0 0 0
0 0 0
0 0 0
0 0 0
0 0 0
0 0 0
0 0 0
0 0 0
0 0 0
0 0 0
0 0 0
0 0 0
0 0 0
0 0 0
0 0 0
0 0 0
0 0 0
0 0 0
0 0 0
0 0 0
0 0 0
0 0 0
0 0 0
0 0 0
0 0 0
0 0 0
0 0 0
0 0 0
0 0 0
0 0 0
0 0 0
0 0 0
0 0 0
0 0 0
0 0 0
0 0 0
0 0 0
0 0 0
0 0 0
0 0 0
0 0 0
0 0 0
0 0 0
0 0 0
0 0 0
0 0 0
0 0 0
0 0 0
0 0 0
0 0 0
0 0 0
0 0 0
0 0 0
0 0 0
0 0 0
0 0 0
0 0 0
0 0 0
0 0 0
0 0 0
0 0 0
0 0 0
0 0 0
0 0 0
0 0 0
0 0 0
0 0 0
0 0 0
0 0 0
0 0 0
0 0 0
0 0 0
0 0 0
0 0 0
0 0 0
0 0 0
0 0 0
0 0 0
0 0 0
0 0 0
0 0 0
0 0 0
0 0 0
0 0 0
0 0 0
0 0 0
0 0 0
0 0 0
0 0 0
0 0 0
0 0 0
0 0 0
0 0 0
0 0 0
0 0 0
0 0 0
0 0 0
0 0 0
0 0 0
0 0 0
0 0 0
0 0 0
0 0 0
0 0 0
0 0 0
0 0 0
0 0 0
0 0 0
0 0 0
0 0 0
0 0 0
0 0 0
0 0 0
0 0 0
0 0 0
0 0 0
0 0 0
0 0 0
0 0 0
0 0 0
0 0 0
0 0 0
0 0 0
0 0 0
0 0 0
0 0 0
0 0 0
0 0 0
0 0 0
0 0 0
0 0 0
0 0 0
0 0 0
0 0 0
0 0 0
0 0 0
0 0 0
0 0 0
0 0 0
0 0 0
0 0 0
0 0 0
0 0 0
0 0 0
0 0 0
0 0 0
0 0 0
0 0 0
0 0 0
0 0 0
0 0 0
0 0 0
0 0 0
0 0 0
0 0 0
0 0 0
0 0 0
0 0 0
0 0 0
0 0 0
0 0 0
0 0 0
0 0 0
0 0 0
0 0 0
0 0 0
0 0 0
0 0 0
0 0 0
0 0 0
0 0 0
0 0 0
0 0 0
0 0 0
0 0 0
0 0 0
0 0 0
0 0 0
0 0 0
0 0 0
0 0 0
0 0 0
0 0 0
0 0 0
0 0 0
0 0 0
0 0 0
0 0 0
0 0 0
0 0 0
0 0 0
0 0 0
0 0 0
0 0 0
0 0 0
0 0 0
0 0 0
0 0 0
0 0 0
0 0 0
0 0 0
0 0 0
0 0 0
0 0 0
0 0 0
0 0 0
0 0 0
0 0 0
0 0 0
0 0 0
0 0 0
0 0 0
0 0 0
0 0 0
0 0 0
0 0 0
0 0 0
0 0 0
0 0 0
0 0 0
0 0 0
0 0 0
0 0 0
0 0 0
0 0 0
0 0 0
0 0 0
0 0 0
0 0 0
0 0 0
0 0 0
0 0 0
0 0 0
0 0 0
0 0 0
0 0 0
0 0 0
0 0 0
0 0 0
0 0 0
0 0 0
0 0 0
0 0 0
0 0 0
0 0 0
0 0 0
0 0 0
0 0 0
0 0 0
0 0 0
0 0 0
0 0 0
0 0 0
0 0 0
0 0 0
0 0 0
0 0 0
0 0 0
0 0 0
0 0 0
0 0 0
0 0 0
0 0 0
0 0 0
0 0 0
0 0 0
0 0 0
0 0 0
0 0 0
0 0 0
0 0 0
0 0 0
0 0 0
0 0 0
0 0 0
0 0 0
0 0 0
0 0 0
0 0 0
0 0 0
0 0 0
0 0 0
0 0 0
0 0 0
0 0 0
0 0 0
0 0 0
0 0 0
0 0 0
0 0 0
0 0 0
0 0 0
0 0 0
0 0 0
0 0 0
0 0 0
0 0 0
0 0 0
0 0 0
0 0 0
0 0 0
0 0 0
0 0 0
0 0 0
0 0 0
0 0 0
0 0 0
0 0 0
0 0 0
0 0 0
0 0 0
0 0 0
0 0 0
0 0 0
0 0 0
0 0 0
0 0 0
0 0 0
0 0 0
0 0 0
0 0 0
0 0 0
0 0 0
0 0 0
0 0 0
0 0 0
0 0 0
0 0 0
0 0 0
0 0 0
0 0 0
0 0 0
0 0 0
0 0 0
0 0 0
0 0 0
0 0 0
0 0 0
0 0 0
0 0 0
0 0 0
0 0 0
0 0 0
0 0 0
0 0 0
0 0 0
0 0 0
0 0 0
0 0 0
0 0 0
0 0 0
0 0 0
0 0 0
0 0 0
0 0 0
0 0 0
0 0 0
0 0 0
0 0 0
0 0 0
0 0 0
0 0 0
0 0 0
0 0 0
0 0 0
0 0 0
0 0 0
0 0 0
0 0 0
0 0 0
0 0 0
0 0 0
0 0 0
0 0 0
0 0 0
0 0 0
0 0 0
0 0 0
0 0 0
0 0 0
0 0 0
0 0 0
0 0 0
0 0 0
0 0 0
0 0 0
0 0 0
0 0 0
0 0 0
0 0 0
0 0 0
0 0 0
0 0 0
0 0 0
0 0 0
0 0 0
0 0 0
0 0 0
0 0 0
0 0 0
0 0 0
0 0 0
0 0 0
0 0 0
0 0 0
0 0 0
0 0 0
0 0 0
0 0 0
0 0 0
0 0 0
0 0 0
0 0 0
0 0 0
0 0 0
0 0 0
0 0 0
0 0 0
0 0 0
0 0 0
0 0 0
0 0 0
0 0 0
0 0 0
0 0 0
0 0 0
0 0 0
0 0 0
0 0 0
0 0 0
0 0 0
0 0 0
0 0 0
0 0 0
0 0 0
0 0 0
0 0 0
0 0 0
0 0 0
0 0 0
0 0 0
0 0 0
0 0 0
0 0 0
0 0 0
0 0 0
0 0 0
0 0 0
0 0 0
0 0 0
0 0 0
0 0 0
0 0 0
0 0 0
0 0 0
0 0 0
0 0 0
0 0 0
0 0 0
0 0 0
0 0 0
0 0 0
0 0 0
0 0 0
0 0 0
0 0 0
0 0 0
0 0 0
0 0 0
0 0 0
0 0 0
0 0 0
0 0 0
0 0 0
0 0 0
0 0 0
0 0 0
0 0 0
0 0 0
0 0 0
0 0 0
0 0 0
0 0 0
0 0 0
0 0 0
0 0 0
0 0 0
0 0 0
0 0 0
0 0 0
0 0 0
0 0 0
0 0 0
0 0 0
0 0 0
0 0 0
0 0 0
0 0 0
0 0 0
0 0 0
0 0 0
0 0 0
0 0 0
0 0 0
0 0 0
0 0 0
0 0 0
0 0 0
0 0 0
0 0 0
0 0 0
0 0 0
0 0 0
0 0 0
0 0 0
0 0 0
0 0 0
0 0 0
0 0 0
0 0 0
0 0 0
0 0 0
0 0 0
0 0 0
0 0 0
0 0 0
0 0 0
0 0 0
0 0 0
0 0 0
0 0 0
0 0 0
0 0 0
0 0 0
0 0 0
0 0 0
0 0 0
0 0 0
0 0 0
0 0 0
0 0 0
0 0 0
0 0 0
0 0 0
0 0 0
0 0 0
0 0 0
0 0 0
0 0 0
0 0 0
0 0 0
0 0 0
0 0 0
0 0 0
0 0 0
0 0 0
0 0 0
0 0 0
0 0 0
0 0 0
0 0 0
0 0 0
0 0 0
0 0 0
0 0 0
0 0 0
0 0 0
0 0 0
0 0 0
0 0 0
0 0 0
0 0 0
0 0 0
0 0 0
0 0 0
0 0 0
0 0 0
0 0 0
0 0 0
0 0 0
0 0 0
0 0 0
0 0 0
0 0 0
0 0 0
0 0 0
0 0 0
0 0 0
0 0 0
0 0 0
0 0 0
0 0 0
0 0 0
0 0 0
0 0 0
0 0 0
0 0 0
0 0 0
0 0 0
0 0 0
0 0 0
0 0 0
0 0 0
0 0 0
0 0 0
0 0 0
0 0 0
0 0 0
0 0 0
0 0 0
0 0 0
0 0 0
0 0 0
0 0 0
0 0 0
0 0 0
0 0 0
0 0 0
0 0 0
0 0 0
0 0 0
0 0 0
0 0 0
0 0 0
0 0 0
0 0 0
0 0 0
0 0 0
0 0 0
0 0 0
0 0 0
0 0 0
0 0 0
0 0 0
0 0 0
0 0 0
0 0 0
0 0 0
0 0 0
0 0 0
0 0 0
0 0 0
0 0 0
0 0 0
0 0 0
0 0 0
0 0 0
0 0 0
0 0 0
0 0 0
0 0 0
0 0 0
0 0 0
0 0 0
0 0 0
0 0 0
0 0 0
0 0 0
0 0 0
0 0 0
0 0 0
0 0 0
0 0 0
0 0 0
0 0 0
0 0 0
0 0 0
0 0 0
0 0 0
0 0 0
0 0 0
0 0 0
0 0 0
0 0 0
0 0 0
0 0 0
0 0 0
0 0 0
0 0 0
0 0 0
0 0 0
0 0 0
0 0 0
0 0 0
0 0 0
0 0 0
0 0 0
0 0 0
0 0 0
0 0 0
0 0 0
0 0 0
0 0 0
0 0 0
0 0 0
0 0 0
0 0 0
0 0 0
0 0 0
0 0 0
0 0 0
0 0 0
0 0 0
0 0 0
0 0 0
0 0 0
0 0 0
0 0 0
0 0 0
0 0 0
0 0 0
0 0 0
0 0 0
0 0 0
0 0 0
0 0 0
0 0 0
0 0 0
0 0 0
0 0 0
0 0 0
0 0 0
0 0 0
0 0 0
0 0 0
0 0 0
0 0 0
0 0 0
0 0 0
0 0 0
0 0 0
0 0 0
0 0 0
0 0 0
0 0 0
0 0 0
0 0 0
0 0 0
0 0 0
0 0 0
0 0 0
0 0 0
0 0 0
0 0 0
0 0 0
0 0 0
0 0 0
0 0 0
0 0 0
0 0 0
0 0 0
0 0 0
0 0 0
0 0 0
0 0 0
0 0 0
0 0 0
0 0 0
0 0 0
0 0 0
0 0 0
0 0 0
0 0 0
0 0 0
0 0 0
0 0 0
0 0 0
0 0 0
0 0 0
0 0 0
0 0 0
0 0 0
0 0 0
0 0 0
0 0 0
0 0 0
0 0 0
0 0 0
0 0 0
0 0 0
0 0 0
0 0 0
0 0 0
0 0 0
0 0 0
0 0 0
0 0 0
0 0 0
0 0 0
0 0 0
0 0 0
0 0 0
0 0 0
0 0 0
0 0 0
0 0 0
0 0 0
0 0 0
0 0 0
0 0 0
0 0 0
0 0 0
0 0 0
0 0 0
0 0 0
0 0 0
0 0 0
0 0 0
0 0 0
0 0 0
0 0 0
0 0 0
0 0 0
0 0 0
0 0 0
0 0 0
0 0 0
0 0 0
0 0 0
0 0 0
0 0 0
0 0 0
0 0 0
0 0 0
0 0 0
0 0 0
0 0 0
0 0 0
0 0 0
0 0 0
0 0 0
0 0 0
0 0 0
0 0 0
0 0 0
0 0 0
0 0 0
0 0 0
0 0 0
0 0 0
0 0 0
0 0 0
0 0 0
0 0 0
0 0 0
0 0 0
0 0 0
0 0 0
0 0 0
0 0 0
0 0 0
0 0 0
0 0 0
0 0 0
0 0 0
0 0 0
0 0 0
0 0 0
0 0 0
0 0 0
0 0 0
0 0 0
0 0 0
0 0 0
0 0 0
0 0 0
0 0 0
0 0 0
0 0 0
0 0 0
0 0 0
0 0 0
0 0 0
0 0 0
0 0 0
0 0 0
0 0 0
0 0 0
0 0 0
0 0 0
0 0 0
0 0 0
0 0 0
0 0 0
0 0 0
0 0 0
0 0 0
0 0 0
0 0 0
0 0 0
0 0 0
0 0 0
0 0 0
0 0 0
0 0 0
0 0 0
0 0 0
0 0 0
0 0 0
0 0 0
0 0 0
0 0 0
0 0 0
0 0 0
0 0 0
0 0 0
0 0 0
0 0 0
0 0 0
0 0 0
0 0 0
0 0 0
0 0 0
0 0 0
0 0 0
0 0 0
0 0 0
0 0 0
0 0 0
0 0 0
0 0 0
0 0 0
0 0 0
0 0 0
0 0 0
0 0 0
0 0 0
0 0 0
0 0 0
0 0 0
0 0 0
0 0 0
0 0 0
0 0 0
0 0 0
0 0 0
0 0 0
0 0 0
0 0 0
0 0 0
0 0 0
0 0 0
0 0 0
0 0 0
0 0 0
0 0 0
0 0 0
0 0 0
0 0 0
0 0 0
0 0 0
0 0 0
0 0 0
0 0 0
0 0 0
0 0 0
0 0 0
0 0 0
0 0 0
0 0 0
0 0 0
0 0 0
0 0 0
0 0 0
0 0 0
0 0 0
0 0 0
0 0 0
0 0 0
0 0 0
0 0 0
0 0 0
0 0 0
0 0 0
0 0 0
0 0 0
0 0 0
0 0 0
0 0 0
0 0 0
0 0 0
0 0 0
0 0 0
0 0 0
0 0 0
0 0 0
0 0 0
0 0 0
0 0 0
0 0 0
0 0 0
0 0 0
0 0 0
0 0 0
0 0 0
0 0 0
0 0 0
0 0 0
0 0 0
0 0 0
0 0 0
0 0 0
0 0 0
0 0 0
0 0 0
0 0 0
0 0 0
0 0 0
0 0 0
0 0 0
0 0 0
0 0 0
0 0 0
0 0 0
0 0 0
0 0 0
0 0 0
0 0 0
0 0 0
0 0 0
0 0 0
0 0 0
0 0 0
0 0 0
0 0 0
0 0 0
0 0 0
0 0 0
0 0 0
0 0 0
0 0 0
0 0 0
0 0 0
0 0 0
0 0 0
0 0 0
0 0 0
0 0 0
0 0 0
0 0 0
0 0 0
0 0 0
0 0 0
0 0 0
0 0 0
0 0 0
0 0 0
0 0 0
0 0 0
0 0 0
0 0 0
0 0 0
0 0 0
0 0 0
0 0 0
0 0 0
0 0 0
0 0 0
0 0 0
0 0 0
0 0 0
0 0 0
0 0 0
0 0 0
0 0 0
0 0 0
0 0 0
0 0 0
0 0 0
0 0 0
0 0 0
0 0 0
0 0 0
0 0 0
0 0 0
0 0 0
0 0 0
0 0 0
0 0 0
0 0 0
0 0 0
0 0 0
0 0 0
0 0 0
0 0 0
0 0 0
0 0 0
0 0 0
0 0 0
0 0 0
0 0 0
0 0 0
0 0 0
0 0 0
0 0 0
0 0 0
0 0 0
0 0 0
0 0 0
0 0 0
0 0 0
0 0 0
0 0 0
0 0 0
0 0 0
0 0 0
0 0 0
0 0 0
0 0 0
0 0 0
0 0 0
0 0 0
0 0 0
0 0 0
0 0 0
0 0 0
0 0 0
0 0 0
0 0 0
0 0 0
0 0 0
0 0 0
0 0 0
0 0 0
0 0 0
0 0 0
0 0 0
0 0 0
0 0 0
0 0 0
0 0 0
0 0 0
0 0 0
0 0 0
0 0 0
0 0 0
0 0 0
0 0 0
0 0 0
0 0 0
0 0 0
0 0 0
0 0 0
0 0 0
0 0 0
0 0 0
0 0 0
0 0 0
0 0 0
0 0 0
0 0 0
0 0 0
0 0 0
0 0 0
0 0 0
0 0 0
0 0 0
0 0 0
0 0 0
0 0 0
0 0 0
0 0 0
0 0 0
0 0 0
0 0 0
0 0 0
0 0 0
0 0 0
0 0 0
0 0 0
0 0 0
0 0 0
0 0 0
0 0 0
0 0 0
0 0 0
0 0 0
0 0 0
0 0 0
0 0 0
0 0 0
0 0 0
0 0 0
0 0 0
0 0 0
0 0 0
0 0 0
0 0 0
0 0 0
0 0 0
0 0 0
0 0 0
0 0 0
0 0 0
0 0 0
0 0 0
0 0 0
0 0 0
0 0 0
0 0 0
0 0 0
0 0 0
0 0 0
0 0 0
0 0 0
0 0 0
0 0 0
0 0 0
0 0 0
0 0 0
0 0 0
0 0 0
0 0 0
0 0 0
0 0 0
0 0 0
0 0 0
0 0 0
0 0 0
0 0 0
0 0 0
0 0 0
0 0 0
0 0 0
0 0 0
0 0 0
0 0 0
0 0 0
0 0 0
0 0 0
0 0 0
0 0 0
0 0 0
0 0 0
0 0 0
0 0 0
0 0 0
0 0 0
0 0 0
0 0 0
0 0 0
0 0 0
0 0 0
0 0 0
0 0 0
0 0 0
0 0 0
0 0 0
0 0 0
0 0 0
0 0 0
0 0 0
0 0 0
0 0 0
0 0 0
0 0 0
0 0 0
0 0 0
0 0 0
0 0 0
0 0 0
0 0 0
0 0 0
0 0 0
0 0 0
0 0 0
0 0 0
0 0 0
0 0 0
0 0 0
0 0 0
0 0 0
0 0 0
0 0 0
0 0 0
0 0 0
0 0 0
0 0 0
0 0 0
0 0 0
0 0 0
0 0 0
0 0 0
0 0 0
0 0 0
0 0 0
0 0 0
0 0 0
0 0 0
0 0 0
0 0 0
0 0 0
0 0 0
0 0 0
0 0 0
0 0 0
0 0 0
0 0 0
0 0 0
0 0 0
0 0 0
0 0 0
0 0 0
0 0 0
0 0 0
0 0 0
0 0 0
0 0 0
0 0 0
0 0 0
0 0 0
0 0 0
0 0 0
0 0 0
0 0 0
0 0 0
0 0 0
0 0 0
0 0 0
0 0 0
0 0 0
0 0 0
0 0 0
0 0 0
0 0 0
0 0 0
0 0 0
0 0 0
0 0 0
0 0 0
0 0 0
0 0 0
0 0 0
0 0 0
0 0 0
0 0 0
0 0 0
0 0 0
0 0 0
0 0 0
0 0 0
0 0 0
0 0 0
0 0 0
0 0 0
0 0 0
0 0 0
0 0 0
0 0 0
0 0 0
0 0 0
0 0 0
0 0 0
0 0 0
0 0 0
0 0 0
0 0 0
0 0 0
0 0 0
0 0 0
0 0 0
0 0 0
0 0 0
0 0 0
0 0 0
0 0 0
0 0 0
0 0 0
0 0 0
0 0 0
0 0 0
0 0 0
0 0 0
0 0 0
0 0 0
0 0 0
0 0 0
0 0 0
0 0 0
0 0 0
0 0 0
0 0 0
0 0 0
0 0 0
0 0 0
0 0 0
0 0 0
0 0 0
0 0 0
0 0 0
0 0 0
0 0 0
0 0 0
0 0 0
0 0 0
0 0 0
0 0 0
0 0 0
0 0 0
0 0 0
0 0 0
0 0 0
0 0 0
0 0 0
0 0 0
0 0 0
0 0 0
0 0 0
0 0 0
0 0 0
0 0 0
0 0 0
0 0 0
0 0 0
0 0 0
0 0 0
0 0 0
0 0 0
0 0 0
0 0 0
0 0 0
0 0 0
0 0 0
0 0 0
0 0 0
0 0 0
0 0 0
0 0 0
0 0 0
0 0 0
0 0 0
0 0 0
0 0 0
0 0 0
0 0 0
0 0 0
0 0 0
0 0 0
0 0 0
0 0 0
0 0 0
0 0 0
0 0 0
0 0 0
0 0 0
0 0 0
0 0 0
0 0 0
0 0 0
0 0 0
0 0 0
0 0 0
0 0 0
0 0 0
0 0 0
0 0 0
0 0 0
0 0 0
0 0 0
0 0 0
0 0 0
0 0 0
0 0 0
0 0 0
0 0 0
0 0 0
0 0 0
0 0 0
0 0 0
0 0 0
0 0 0
0 0 0
0 0 0
0 0 0
0 0 0
0 0 0
0 0 0
0 0 0
0 0 0
0 0 0
0 0 0
0 0 0
0 0 0
0 0 0
0 0 0
0 0 0
0 0 0
0 0 0
0 0 0
0 0 0
0 0 0
0 0 0
0 0 0
0 0 0
0 0 0
0 0 0
0 0 0
0 0 0
0 0 0
0 0 0
0 0 0
0 0 0
0 0 0
0 0 0
0 0 0
0 0 0
0 0 0
0 0 0
0 0 0
0 0 0
0 0 0
0 0 0
0 0 0
0 0 0
0 0 0
0 0 0
0 0 0
0 0 0
0 0 0
0 0 0
0 0 0
0 0 0
0 0 0
0 0 0
0 0 0
0 0 0
0 0 0
0 0 0
0 0 0
0 0 0
0 0 0
0 0 0
0 0 0
0 0 0
0 0 0
0 0 0
0 0 0
0 0 0
0 0 0
0 0 0
0 0 0
0 0 0
0 0 0
0 0 0
0 0 0
0 0 0
0 0 0
0 0 0
0 0 0
0 0 0
0 0 0
0 0 0
0 0 0
0 0 0
0 0 0
0 0 0
0 0 0
0 0 0
0 0 0
0 0 0
0 0 0
0 0 0
0 0 0
0 0 0
0 0 0
0 0 0
0 0 0
0 0 0
0 0 0
0 0 0
0 0 0
0 0 0
0 0 0
0 0 0
0 0 0
0 0 0
0 0 0
0 0 0
0 0 0
0 0 0
0 0 0
0 0 0
0 0 0
0 0 0
0 0 0
0 0 0
0 0 0
0 0 0
0 0 0
0 0 0
0 0 0
0 0 0
0 0 0
0 0 0
0 0 0
0 0 0
0 0 0
0 0 0
0 0 0
0 0 0
0 0 0
0 0 0
0 0 0
0 0 0
0 0 0
0 0 0
0 0 0
0 0 0
0 0 0
0 0 0
0 0 0
0 0 0
0 0 0
0 0 0
0 0 0
0 0 0
0 0 0
0 0 0
0 0 0
0 0 0
0 0 0
0 0 0
0 0 0
0 0 0
0 0 0
0 0 0
0 0 0
0 0 0
0 0 0
0 0 0
0 0 0
0 0 0
0 0 0
0 0 0
0 0 0
0 0 0
0 0 0
0 0 0
0 0 0
0 0 0
0 0 0
0 0 0
0 0 0
0 0 0
0 0 0
0 0 0
0 0 0
0 0 0
0 0 0
0 0 0
0 0 0
0 0 0
0 0 0
0 0 0
0 0 0
0 0 0
0 0 0
0 0 0
0 0 0
0 0 0
0 0 0
0 0 0
0 0 0
0 0 0
0 0 0
0 0 0
0 0 0
0 0 0
0 0 0
0 0 0
0 0 0
0 0 0
0 0 0
0 0 0
0 0 0
0 0 0
0 0 0
0 0 0
0 0 0
0 0 0
0 0 0
0 0 0
0 0 0
0 0 0
0 0 0
0 0 0
0 0 0
0 0 0
0 0 0
0 0 0
0 0 0
0 0 0
0 0 0
0 0 0
0 0 0
0 0 0
0 0 0
0 0 0
0 0 0
0 0 0
0 0 0
0 0 0
0 0 0
0 0 0
0 0 0
0 0 0
0 0 0
0 0 0
0 0 0
0 0 0
0 0 0
0 0 0
0 0 0
0 0 0
0 0 0
0 0 0
0 0 0
0 0 0
0 0 0
0 0 0
0 0 0
0 0 0
0 0 0
0 0 0
0 0 0
0 0 0
0 0 0
0 0 0
0 0 0
0 0 0
0 0 0
0 0 0
0 0 0
0 0 0
0 0 0
0 0 0
0 0 0
0 0 0
0 0 0
0 0 0
0 0 0
0 0 0
0 0 0
0 0 0
0 0 0
0 0 0
0 0 0
0 0 0
0 0 0
0 0 0
0 0 0
0 0 0
0 0 0
0 0 0
0 0 0
0 0 0
0 0 0
0 0 0
0 0 0
0 0 0
0 0 0
0 0 0
0 0 0
0 0 0
0 0 0
0 0 0
0 0 0
0 0 0
0 0 0
0 0 0
0 0 0
0 0 0
0 0 0
0 0 0
0 0 0
0 0 0
0 0 0
0 0 0
0 0 0
0 0 0
0 0 0
0 0 0
0 0 0
0 0 0
0 0 0
0 0 0
0 0 0
0 0 0
0 0 0
0 0 0
0 0 0
0 0 0
0 0 0
0 0 0
0 0 0
0 0 0
0 0 0
0 0 0
0 0 0
0 0 0
0 0 0
0 0 0
0 0 0
0 0 0
0 0 0
0 0 0
0 0 0
0 0 0
0 0 0
0 0 0
0 0 0
0 0 0
0 0 0
0 0 0
0 0 0
0 0 0
0 0 0
0 0 0
0 0 0
0 0 0
0 0 0
0 0 0
0 0 0
0 0 0
0 0 0
0 0 0
0 0 0
0 0 0
0 0 0
0 0 0
0 0 0
0 0 0
0 0 0
0 0 0
0 0 0
0 0 0
0 0 0
0 0 0
0 0 0
0 0 0
0 0 0
0 0 0
0 0 0
0 0 0
0 0 0
0 0 0
0 0 0
0 0 0
0 0 0
0 0 0
0 0 0
0 0 0
0 0 0
0 0 0
0 0 0
0 0 0
0 0 0
0 0 0
0 0 0
0 0 0
0 0 0
0 0 0
0 0 0
0 0 0
0 0 0
0 0 0
0 0 0
0 0 0
0 0 0
0 0 0
0 0 0
0 0 0
0 0 0
0 0 0
0 0 0
0 0 0
0 0 0
0 0 0
0 0 0
0 0 0
0 0 0
0 0 0
0 0 0
0 0 0
0 0 0
0 0 0
0 0 0
0 0 0
0 0 0
0 0 0
0 0 0
0 0 0
0 0 0
0 0 0
0 0 0
0 0 0
0 0 0
0 0 0
0 0 0
0 0 0
0 0 0
0 0 0
0 0 0
0 0 0
0 0 0
0 0 0
0 0 0
0 0 0
0 0 0
0 0 0
0 0 0
0 0 0
0 0 0
0 0 0
0 0 0
0 0 0
0 0 0
0 0 0
0 0 0
0 0 0
0 0 0
0 0 0
0 0 0
0 0 0
0 0 0
0 0 0
0 0 0
0 0 0
0 0 0
0 0 0
0 0 0
0 0 0
0 0 0
0 0 0
0 0 0
0 0 0
0 0 0
0 0 0
0 0 0
0 0 0
0 0 0
0 0 0
0 0 0
0 0 0
0 0 0
0 0 0
0 0 0
0 0 0
0 0 0
0 0 0
0 0 0
0 0 0
0 0 0
0 0 0
0 0 0
0 0 0
0 0 0
0 0 0
0 0 0
0 0 0
0 0 0
0 0 0
0 0 0
0 0 0
0 0 0
0 0 0
0 0 0
0 0 0
0 0 0
0 0 0
0 0 0
0 0 0
0 0 0
0 0 0
0 0 0
0 0 0
0 0 0
0 0 0
0 0 0
0 0 0
0 0 0
0 0 0
0 0 0
0 0 0
0 0 0
0 0 0
0 0 0
0 0 0
0 0 0
0 0 0
0 0 0
0 0 0
0 0 0
0 0 0
0 0 0
0 0 0
0 0 0
0 0 0
0 0 0
0 0 0
0 0 0
0 0 0
0 0 0
0 0 0
0 0 0
0 0 0
0 0 0
0 0 0
0 0 0
0 0 0
0 0 0
0 0 0
0 0 0
0 0 0
0 0 0
0 0 0
0 0 0
0 0 0
0 0 0
0 0 0
0 0 0
0 0 0
0 0 0
0 0 0
0 0 0
0 0 0
0 0 0
0 0 0
0 0 0
0 0 0
0 0 0
0 0 0
0 0 0
0 0 0
0 0 0
0 0 0
0 0 0
0 0 0
0 0 0
0 0 0
0 0 0
0 0 0
0 0 0
0 0 0
0 0 0
0 0 0
0 0 0
0 0 0
0 0 0
0 0 0
0 0 0
0 0 0
0 0 0
0 0 0
0 0 0
0 0 0
0 0 0
0 0 0
0 0 0
0 0 0
0 0 0
0 0 0
0 0 0
0 0 0
0 0 0
0 0 0
0 0 0
0 0 0
0 0 0
0 0 0
0 0 0
0 0 0
0 0 0
0 0 0
0 0 0
0 0 0
0 0 0
0 0 0
0 0 0
0 0 0
0 0 0
0 0 0
0 0 0
0 0 0
0 0 0
0 0 0
0 0 0
0 0 0
0 0 0
0 0 0
0 0 0
0 0 0
0 0 0
0 0 0
0 0 0
0 0 0
0 0 0
0 0 0
0 0 0
0 0 0
0 0 0
0 0 0
0 0 0
0 0 0
0 0 0
0 0 0
0 0 0
0 0 0
0 0 0
0 0 0
0 0 0
0 0 0
0 0 0
0 0 0
0 0 0
0 0 0
0 0 0
0 0 0
0 0 0
0 0 0
0 0 0
0 0 0
0 0 0
0 0 0
0 0 0
0 0 0
0 0 0
0 0 0
0 0 0
0 0 0
0 0 0
0 0 0
0 0 0
0 0 0
0 0 0
0 0 0
0 0 0
0 0 0
0 0 0
0 0 0
0 0 0
0 0 0
0 0 0
0 0 0
0 0 0
0 0 0
0 0 0
0 0 0
0 0 0
0 0 0
0 0 0
0 0 0
0 0 0
0 0 0
0 0 0
0 0 0
0 0 0
0 0 0
0 0 0
0 0 0
0 0 0
0 0 0
0 0 0
0 0 0
0 0 0
0 0 0
0 0 0
0 0 0
0 0 0
0 0 0
0 0 0
0 0 0
0 0 0
0 0 0
0 0 0
0 0 0
0 0 0
0 0 0
0 0 0
0 0 0
0 0 0
0 0 0
0 0 0
0 0 0
0 0 0
0 0 0
0 0 0
0 0 0
0 0 0
0 0 0
0 0 0
0 0 0
0 0 0
0 0 0
0 0 0
0 0 0
0 0 0
0 0 0
0 0 0
0 0 0
0 0 0
0 0 0
0 0 0
0 0 0
0 0 0
0 0 0
0 0 0
0 0 0
0 0 0
0 0 0
0 0 0
0 0 0
0 0 0
0 0 0
0 0 0
0 0 0
0 0 0
0 0 0
0 0 0
0 0 0
0 0 0
0 0 0
0 0 0
0 0 0
0 0 0
0 0 0
0 0 0
0 0 0
0 0 0
0 0 0
0 0 0
0 0 0
0 0 0
0 0 0
0 0 0
0 0 0
0 0 0
0 0 0
0 0 0
0 0 0
0 0 0
0 0 0
0 0 0
0 0 0
0 0 0
0 0 0
0 0 0
0 0 0
0 0 0
0 0 0
0 0 0
0 0 0
0 0 0
0 0 0
0 0 0
0 0 0
0 0 0
0 0 0
0 0 0
0 0 0
0 0 0
0 0 0
0 0 0
0 0 0
0 0 0
0 0 0
0 0 0
0 0 0
0 0 0
0 0 0
0 0 0
0 0 0
0 0 0
0 0 0
0 0 0
0 0 0
0 0 0
0 0 0
0 0 0
0 0 0
0 0 0
0 0 0
0 0 0
0 0 0
0 0 0
0 0 0
0 0 0
0 0 0
0 0 0
0 0 0
0 0 0
0 0 0
0 0 0
0 0 0
0 0 0
0 0 0
0 0 0
0 0 0
0 0 0
0 0 0
0 0 0
0 0 0
0 0 0
0 0 0
0 0 0
0 0 0
0 0 0
0 0 0
0 0 0
0 0 0
0 0 0
0 0 0
0 0 0
0 0 0
0 0 0
0 0 0
0 0 0
0 0 0
0 0 0
0 0 0
0 0 0
0 0 0
0 0 0
0 0 0
0 0 0
0 0 0
0 0 0
0 0 0
0 0 0
0 0 0
0 0 0
0 0 0
0 0 0
0 0 0
0 0 0
0 0 0
0 0 0
0 0 0
0 0 0
0 0 0
0 0 0
0 0 0
0 0 0
0 0 0
0 0 0
0 0 0
0 0 0
0 0 0
0 0 0
0 0 0
0 0 0
0 0 0
0 0 0
0 0 0
0 0 0
0 0 0
0 0 0
0 0 0
0 0 0
0 0 0
0 0 0
0 0 0
0 0 0
0 0 0
0 0 0
0 0 0
0 0 0
0 0 0
0 0 0
0 0 0
0 0 0
0 0 0
0 0 0
0 0 0
0 0 0
0 0 0
0 0 0
0 0 0
0 0 0
0 0 0
0 0 0
0 0 0
0 0 0
0 0 0
0 0 0
0 0 0
0 0 0
0 0 0
0 0 0
0 0 0
0 0 0
0 0 0
0 0 0
0 0 0
0 0 0
0 0 0
0 0 0
0 0 0
0 0 0
0 0 0
0 0 0
0 0 0
0 0 0
0 0 0
0 0 0
0 0 0
0 0 0
0 0 0
0 0 0
0 0 0
0 0 0
0 0 0
0 0 0
0 0 0
0 0 0
0 0 0
0 0 0
0 0 0
0 0 0
0 0 0
0 0 0
0 0 0
0 0 0
0 0 0
0 0 0
0 0 0
0 0 0
0 0 0
0 0 0
0 0 0
0 0 0
0 0 0
0 0 0
0 0 0
0 0 0
0 0 0
0 0 0
0 0 0
0 0 0
0 0 0
0 0 0
0 0 0
0 0 0
0 0 0
0 0 0
0 0 0
0 0 0
0 0 0
0 0 0
0 0 0
0 0 0
0 0 0
0 0 0
0 0 0
0 0 0
0 0 0
0 0 0
0 0 0
0 0 0
0 0 0
0 0 0
0 0 0
0 0 0
0 0 0
0 0 0
0 0 0
0 0 0
0 0 0
0 0 0
0 0 0
0 0 0
0 0 0
0 0 0
0 0 0
0 0 0
0 0 0
0 0 0
0 0 0
0 0 0
0 0 0
0 0 0
0 0 0
0 0 0
0 0 0
0 0 0
0 0 0
0 0 0
0 0 0
0 0 0
0 0 0
0 0 0
0 0 0
0 0 0
0 0 0
0 0 0
0 0 0
0 0 0
0 0 0
0 0 0
0 0 0
0 0 0
0 0 0
0 0 0
0 0 0
0 0 0
0 0 0
0 0 0
0 0 0
0 0 0
0 0 0
0 0 0
0 0 0
0 0 0
0 0 0
0 0 0
0 0 0
0 0 0
0 0 0
0 0 0
0 0 0
0 0 0
0 0 0
0 0 0
0 0 0
0 0 0
0 0 0
0 0 0
0 0 0
0 0 0
0 0 0
0 0 0
0 0 0
0 0 0
0 0 0
0 0 0
0 0 0
0 0 0
0 0 0
0 0 0
0 0 0
0 0 0
0 0 0
0 0 0
0 0 0
0 0 0
0 0 0
0 0 0
0 0 0
0 0 0
0 0 0
0 0 0
0 0 0
0 0 0
0 0 0
0 0 0
0 0 0
0 0 0
0 0 0
0 0 0
0 0 0
0 0 0
0 0 0
0 0 0
0 0 0
0 0 0
0 0 0
0 0 0
0 0 0
0 0 0
0 0 0
0 0 0
0 0 0
0 0 0
0 0 0
0 0 0
0 0 0
0 0 0
0 0 0
0 0 0
0 0 0
0 0 0
0 0 0
0 0 0
0 0 0
0 0 0
0 0 0
0 0 0
0 0 0
0 0 0
0 0 0
0 0 0
0 0 0
0 0 0
0 0 0
0 0 0
0 0 0
0 0 0
0 0 0
0 0 0
0 0 0
0 0 0
0 0 0
0 0 0
0 0 0
0 0 0
0 0 0
0 0 0
0 0 0
0 0 0
0 0 0
0 0 0
0 0 0
0 0 0
0 0 0
0 0 0
0 0 0
0 0 0
0 0 0
0 0 0
0 0 0
0 0 0
0 0 0
0 0 0
0 0 0
0 0 0
0 0 0
0 0 0
0 0 0
0 0 0
0 0 0
0 0 0
0 0 0
0 0 0
0 0 0
0 0 0
0 0 0
0 0 0
0 0 0
0 0 0
0 0 0
0 0 0
0 0 0
0 0 0
0 0 0
0 0 0
0 0 0
0 0 0
0 0 0
0 0 0
0 0 0
0 0 0
0 0 0
0 0 0
0 0 0
0 0 0
0 0 0
0 0 0
0 0 0
0 0 0
0 0 0
0 0 0
0 0 0
0 0 0
0 0 0
0 0 0
0 0 0
0 0 0
0 0 0
0 0 0
0 0 0
0 0 0
0 0 0
0 0 0
0 0 0
0 0 0
0 0 0
0 0 0
0 0 0
0 0 0
0 0 0
0 0 0
0 0 0
0 0 0
0 0 0
0 0 0
0 0 0
0 0 0
0 0 0
0 0 0
0 0 0
0 0 0
0 0 0
0 0 0
0 0 0
0 0 0
0 0 0
0 0 0
0 0 0
0 0 0
0 0 0
0 0 0
0 0 0
0 0 0
0 0 0
0 0 0
0 0 0
0 0 0
0 0 0
0 0 0
0 0 0
0 0 0
0 0 0
0 0 0
0 0 0
0 0 0
0 0 0
0 0 0
0 0 0
0 0 0
0 0 0
0 0 0
0 0 0
0 0 0
0 0 0
0 0 0
0 0 0
0 0 0
0 0 0
0 0 0
0 0 0
0 0 0
0 0 0
0 0 0
0 0 0
0 0 0
0 0 0
0 0 0
0 0 0
0 0 0
0 0 0
0 0 0
0 0 0
0 0 0
0 0 0
0 0 0
0 0 0
0 0 0
0 0 0
0 0 0
0 0 0
0 0 0
0 0 0
0 0 0
0 0 0
0 0 0
0 0 0
0 0 0
0 0 0
0 0 0
0 0 0
0 0 0
0 0 0
0 0 0
0 0 0
0 0 0
0 0 0
0 0 0
0 0 0
0 0 0
0 0 0
0 0 0
0 0 0
0 0 0
0 0 0
0 0 0
0 0 0
0 0 0
0 0 0
0 0 0
0 0 0
0 0 0
0 0 0
0 0 0
0 0 0
0 0 0
0 0 0
0 0 0
0 0 0
0 0 0
0 0 0
0 0 0
0 0 0
0 0 0
0 0 0
0 0 0
0 0 0
0 0 0
0 0 0
0 0 0
0 0 0
0 0 0
0 0 0
0 0 0
0 0 0
0 0 0
0 0 0
0 0 0
0 0 0
0 0 0
0 0 0
0 0 0
0 0 0
0 0 0
0 0 0
0 0 0
0 0 0
0 0 0
0 0 0
0 0 0
0 0 0
0 0 0
0 0 0
0 0 0
0 0 0
0 0 0
0 0 0
0 0 0
0 0 0
0 0 0
0 0 0
0 0 0
0 0 0
0 0 0
0 0 0
0 0 0
0 0 0
0 0 0
0 0 0
0 0 0
0 0 0
0 0 0
0 0 0
0 0 0
0 0 0
0 0 0
0 0 0
0 0 0
0 0 0
0 0 0
0 0 0
0 0 0
0 0 0
0 0 0
0 0 0
0 0 0
0 0 0
0 0 0
0 0 0
0 0 0
0 0 0
0 0 0
0 0 0
0 0 0
0 0 0
0 0 0
0 0 0
0 0 0
0 0 0
0 0 0
0 0 0
0 0 0
0 0 0
0 0 0
0 0 0
0 0 0
0 0 0
0 0 0
0 0 0
0 0 0
0 0 0
0 0 0
0 0 0
0 0 0
0 0 0
0 0 0
0 0 0
0 0 0
0 0 0
0 0 0
0 0 0
0 0 0
0 0 0
0 0 0
0 0 0
0 0 0
0 0 0
0 0 0
0 0 0
0 0 0
0 0 0
0 0 0
0 0 0
0 0 0
0 0 0
0 0 0
0 0 0
0 0 0
0 0 0
0 0 0
0 0 0
0 0 0
0 0 0
0 0 0
0 0 0
0 0 0
0 0 0
0 0 0
0 0 0
0 0 0
0 0 0
0 0 0
0 0 0
0 0 0
0 0 0
0 0 0
0 0 0
0 0 0
0 0 0
0 0 0
0 0 0
0 0 0
0 0 0
0 0 0
0 0 0
0 0 0
0 0 0
0 0 0
0 0 0
0 0 0
0 0 0
0 0 0
0 0 0
0 0 0
0 0 0
0 0 0
0 0 0
0 0 0
0 0 0
0 0 0
0 0 0
0 0 0
0 0 0
0 0 0
0 0 0
0 0 0
0 0 0
0 0 0
0 0 0
0 0 0
0 0 0
0 0 0
0 0 0
0 0 0
0 0 0
0 0 0
0 0 0
0 0 0
0 0 0
0 0 0
0 0 0
0 0 0
0 0 0
0 0 0
0 0 0
0 0 0
0 0 0
0 0 0
0 0 0
0 0 0
0 0 0
0 0 0
0 0 0
0 0 0
0 0 0
0 0 0
0 0 0
0 0 0
0 0 0
0 0 0
0 0 0
0 0 0
0 0 0
0 0 0
0 0 0
0 0 0
0 0 0
0 0 0
0 0 0
0 0 0
0 0 0
0 0 0
0 0 0
0 0 0
0 0 0
0 0 0
0 0 0
0 0 0
0 0 0
0 0 0
0 0 0
0 0 0
0 0 0
0 0 0
0 0 0
0 0 0
0 0 0
0 0 0
0 0 0
0 0 0
0 0 0
0 0 0
0 0 0
0 0 0
0 0 0
0 0 0
0 0 0
0 0 0
0 0 0
0 0 0
0 0 0
0 0 0
0 0 0
0 0 0
0 0 0
0 0 0
0 0 0
0 0 0
0 0 0
0 0 0
0 0 0
0 0 0
0 0 0
0 0 0
0 0 0
0 0 0
0 0 0
0 0 0
0 0 0
0 0 0
0 0 0
0 0 0
0 0 0
0 0 0
0 0 0
0 0 0
0 0 0
0 0 0
0 0 0
0 0 0
0 0 0
0 0 0
0 0 0
0 0 0
0 0 0
0 0 0
0 0 0
0 0 0
0 0 0
0 0 0
0 0 0
0 0 0
0 0 0
0 0 0
0 0 0
0 0 0
0 0 0
0 0 0
0 0 0
0 0 0
0 0 0
0 0 0
0 0 0
0 0 0
0 0 0
0 0 0
0 0 0
0 0 0
0 0 0
0 0 0
0 0 0
0 0 0
0 0 0
0 0 0
0 0 0
0 0 0
0 0 0
0 0 0
0 0 0
0 0 0
0 0 0
0 0 0
0 0 0
0 0 0
0 0 0
0 0 0
0 0 0
0 0 0
0 0 0
0 0 0
0 0 0
0 0 0
0 0 0
0 0 0
0 0 0
0 0 0
0 0 0
0 0 0
0 0 0
0 0 0
0 0 0
0 0 0
0 0 0
0 0 0
0 0 0
0 0 0
0 0 0
0 0 0
0 0 0
0 0 0
0 0 0
0 0 0
0 0 0
0 0 0
0 0 0
0 0 0
0 0 0
0 0 0
0 0 0
0 0 0
0 0 0
0 0 0
0 0 0
0 0 0
0 0 0
0 0 0
0 0 0
0 0 0
0 0 0
0 0 0
0 0 0
0 0 0
0 0 0
0 0 0
0 0 0
0 0 0
0 0 0
0 0 0
0 0 0
0 0 0
0 0 0
0 0 0
0 0 0
0 0 0
0 0 0
0 0 0
0 0 0
0 0 0
0 0 0
0 0 0
0 0 0
0 0 0
0 0 0
0 0 0
0 0 0
0 0 0
0 0 0
0 0 0
0 0 0
0 0 0
0 0 0
0 0 0
0 0 0
0 0 0
0 0 0
0 0 0
0 0 0
0 0 0
0 0 0
0 0 0
0 0 0
0 0 0
0 0 0
0 0 0
0 0 0
0 0 0
0 0 0
0 0 0
0 0 0
0 0 0
0 0 0
0 0 0
0 0 0
0 0 0
0 0 0
0 0 0
0 0 0
0 0 0
0 0 0
0 0 0
0 0 0
0 0 0
0 0 0
0 0 0
0 0 0
0 0 0
0 0 0
0 0 0
0 0 0
0 0 0
0 0 0
0 0 0
0 0 0
0 0 0
0 0 0
0 0 0
0 0 0
0 0 0
0 0 0
0 0 0
0 0 0
0 0 0
0 0 0
0 0 0
0 0 0
0 0 0
0 0 0
0 0 0
0 0 0
0 0 0
0 0 0
0 0 0
0 0 0
0 0 0
0 0 0
0 0 0
0 0 0
0 0 0
0 0 0
0 0 0
0 0 0
0 0 0
0 0 0
0 0 0
0 0 0
0 0 0
0 0 0
0 0 0
0 0 0
0 0 0
0 0 0
0 0 0
0 0 0
0 0 0
0 0 0
0 0 0
0 0 0
0 0 0
0 0 0
0 0 0
0 0 0
0 0 0
0 0 0
0 0 0
0 0 0
0 0 0
0 0 0
0 0 0
0 0 0
0 0 0
0 0 0
0 0 0
0 0 0
0 0 0
0 0 0
0 0 0
0 0 0
0 0 0
0 0 0
0 0 0
0 0 0
0 0 0
0 0 0
0 0 0
0 0 0
0 0 0
0 0 0
0 0 0
0 0 0
0 0 0
0 0 0
0 0 0
0 0 0
0 0 0
0 0 0
0 0 0
0 0 0
0 0 0
0 0 0
0 0 0
0 0 0
0 0 0
0 0 0
0 0 0
0 0 0
0 0 0
0 0 0
0 0 0
0 0 0
0 0 0
0 0 0
0 0 0
0 0 0
0 0 0
0 0 0
0 0 0
0 0 0
0 0 0
0 0 0
0 0 0
0 0 0
0 0 0
0 0 0
0 0 0
0 0 0
0 0 0
0 0 0
0 0 0
0 0 0
0 0 0
0 0 0
0 0 0
0 0 0
0 0 0
0 0 0
0 0 0
0 0 0
0 0 0
0 0 0
0 0 0
0 0 0
0 0 0
0 0 0
0 0 0
0 0 0
0 0 0
0 0 0
0 0 0
0 0 0
0 0 0
0 0 0
0 0 0
0 0 0
0 0 0
0 0 0
0 0 0
0 0 0
0 0 0
0 0 0
0 0 0
0 0 0
0 0 0
0 0 0
0 0 0
0 0 0
0 0 0
0 0 0
0 0 0
0 0 0
0 0 0
0 0 0
0 0 0
0 0 0
0 0 0
0 0 0
0 0 0
0 0 0
0 0 0
0 0 0
0 0 0
0 0 0
0 0 0
0 0 0
0 0 0
0 0 0
0 0 0
0 0 0
0 0 0
0 0 0
0 0 0
0 0 0
0 0 0
0 0 0
0 0 0
0 0 0
0 0 0
0 0 0
0 0 0
0 0 0
0 0 0
0 0 0
0 0 0
0 0 0
0 0 0
0 0 0
0 0 0
0 0 0
0 0 0
0 0 0
0 0 0
0 0 0
0 0 0
0 0 0
0 0 0
0 0 0
0 0 0
0 0 0
0 0 0
0 0 0
0 0 0
0 0 0
0 0 0
0 0 0
0 0 0
0 0 0
0 0 0
0 0 0
0 0 0
0 0 0
0 0 0
0 0 0
0 0 0
0 0 0
0 0 0
0 0 0
0 0 0
0 0 0
0 0 0
0 0 0
0 0 0
0 0 0
0 0 0
0 0 0
0 0 0
0 0 0
0 0 0
0 0 0
0 0 0
0 0 0
0 0 0
0 0 0
0 0 0
0 0 0
0 0 0
0 0 0
0 0 0
0 0 0
0 0 0
0 0 0
0 0 0
0 0 0
0 0 0
0 0 0
0 0 0
0 0 0
0 0 0
0 0 0
0 0 0
0 0 0
0 0 0
0 0 0
0 0 0
0 0 0
0 0 0
0 0 0
0 0 0
0 0 0
0 0 0
0 0 0
0 0 0
0 0 0
0 0 0
0 0 0
0 0 0
0 0 0
0 0 0
0 0 0
0 0 0
0 0 0
0 0 0
0 0 0
0 0 0
0 0 0
0 0 0
0 0 0
0 0 0
0 0 0
0 0 0
0 0 0
0 0 0
0 0 0
0 0 0
0 0 0
0 0 0
0 0 0
0 0 0
0 0 0
0 0 0
0 0 0
0 0 0
0 0 0
0 0 0
0 0 0
0 0 0
0 0 0
0 0 0
0 0 0
0 0 0
0 0 0
0 0 0
0 0 0
0 0 0
0 0 0
0 0 0
0 0 0
0 0 0
0 0 0
0 0 0
0 0 0
0 0 0
0 0 0
0 0 0
0 0 0
0 0 0
0 0 0
0 0 0
0 0 0
0 0 0
0 0 0
0 0 0
0 0 0
0 0 0
0 0 0
0 0 0
0 0 0
0 0 0
0 0 0
0 0 0
0 0 0
0 0 0
0 0 0
0 0 0
0 0 0
0 0 0
0 0 0
0 0 0
0 0 0
0 0 0
0 0 0
0 0 0
0 0 0
0 0 0
0 0 0
0 0 0
0 0 0
0 0 0
0 0 0
0 0 0
0 0 0
0 0 0
0 0 0
0 0 0
0 0 0
0 0 0
0 0 0
0 0 0
0 0 0
0 0 0
0 0 0
0 0 0
0 0 0
0 0 0
0 0 0
0 0 0
0 0 0
0 0 0
0 0 0
0 0 0
0 0 0
0 0 0
0 0 0
0 0 0
0 0 0
0 0 0
0 0 0
0 0 0
0 0 0
0 0 0
0 0 0
0 0 0
0 0 0
0 0 0
0 0 0
0 0 0
0 0 0
0 0 0
0 0 0
0 0 0
0 0 0
0 0 0
0 0 0
0 0 0
0 0 0
0 0 0
0 0 0
0 0 0
0 0 0
0 0 0
0 0 0
0 0 0
0 0 0
0 0 0
0 0 0
0 0 0
0 0 0
0 0 0
0 0 0
0 0 0
0 0 0
0 0 0
0 0 0
0 0 0
0 0 0
0 0 0
0 0 0
0 0 0
0 0 0
0 0 0
0 0 0
0 0 0
0 0 0
0 0 0
0 0 0
0 0 0
0 0 0
0 0 0
0 0 0
0 0 0
0 0 0
0 0 0
0 0 0
0 0 0
0 0 0
0 0 0
0 0 0
0 0 0
0 0 0
0 0 0
0 0 0
0 0 0
0 0 0
0 0 0
0 0 0
0 0 0
0 0 0
0 0 0
0 0 0
0 0 0
0 0 0
0 0 0
0 0 0
0 0 0
0 0 0
0 0 0
0 0 0
0 0 0
0 0 0
0 0 0
0 0 0
0 0 0
0 0 0
0 0 0
0 0 0
0 0 0
0 0 0
0 0 0
0 0 0
0 0 0
0 0 0
0 0 0
0 0 0
0 0 0
0 0 0
0 0 0
0 0 0
0 0 0
0 0 0
0 0 0
0 0 0
0 0 0
0 0 0
0 0 0
0 0 0
0 0 0
0 0 0
0 0 0
0 0 0
0 0 0
0 0 0
0 0 0
0 0 0
0 0 0
0 0 0
0 0 0
0 0 0
0 0 0
0 0 0
0 0 0
0 0 0
0 0 0
0 0 0
0 0 0
0 0 0
0 0 0
0 0 0
0 0 0
0 0 0
0 0 0
0 0 0
0 0 0
0 0 0
0 0 0
0 0 0
0 0 0
0 0 0
0 0 0
0 0 0
0 0 0
0 0 0
0 0 0
0 0 0
0 0 0
0 0 0
0 0 0
0 0 0
0 0 0
0 0 0
0 0 0
0 0 0
0 0 0
0 0 0
0 0 0
0 0 0
0 0 0
0 0 0
0 0 0
0 0 0
0 0 0
0 0 0
0 0 0
0 0 0
0 0 0
0 0 0
0 0 0
0 0 0
0 0 0
0 0 0
0 0 0
0 0 0
0 0 0
0 0 0
0 0 0
0 0 0
0 0 0
0 0 0
0 0 0
0 0 0
0 0 0
0 0 0
0 0 0
0 0 0
0 0 0
0 0 0
0 0 0
0 0 0
0 0 0
0 0 0
0 0 0
0 0 0
0 0 0
0 0 0
0 0 0
0 0 0
0 0 0
0 0 0
0 0 0
0 0 0
0 0 0
0 0 0
0 0 0
0 0 0
0 0 0
0 0 0
0 0 0
0 0 0
0 0 0
0 0 0
0 0 0
0 0 0
0 0 0
0 0 0
0 0 0
0 0 0
0 0 0
0 0 0
0 0 0
0 0 0
0 0 0
0 0 0
0 0 0
0 0 0
0 0 0
0 0 0
0 0 0
0 0 0
0 0 0
0 0 0
0 0 0
0 0 0
0 0 0
0 0 0
0 0 0
0 0 0
0 0 0
0 0 0
0 0 0
0 0 0
0 0 0
0 0 0
0 0 0
0 0 0
0 0 0
0 0 0
0 0 0
0 0 0
0 0 0
0 0 0
0 0 0
0 0 0
0 0 0
0 0 0
0 0 0
0 0 0
0 0 0
0 0 0
0 0 0
0 0 0
0 0 0
0 0 0
0 0 0
0 0 0
0 0 0
0 0 0
0 0 0
0 0 0
0 0 0
0 0 0
0 0 0
0 0 0
0 0 0
0 0 0
0 0 0
0 0 0
0 0 0
0 0 0
0 0 0
0 0 0
0 0 0
0 0 0
0 0 0
0 0 0
0 0 0
0 0 0
0 0 0
0 0 0
0 0 0
0 0 0
0 0 0
0 0 0
0 0 0
0 0 0
0 0 0
0 0 0
0 0 0
0 0 0
0 0 0
0 0 0
0 0 0
0 0 0
0 0 0
0 0 0
0 0 0
0 0 0
0 0 0
0 0 0
0 0 0
0 0 0
0 0 0
0 0 0
0 0 0
0 0 0
0 0 0
0 0 0
0 0 0
0 0 0
0 0 0
0 0 0
0 0 0
0 0 0
0 0 0
0 0 0
0 0 0
0 0 0
0 0 0
0 0 0
0 0 0
0 0 0
0 0 0
0 0 0
0 0 0
0 0 0
0 0 0
0 0 0
0 0 0
0 0 0
0 0 0
0 0 0
0 0 0
0 0 0
0 0 0
0 0 0
0 0 0
0 0 0
0 0 0
0 0 0
0 0 0
0 0 0
0 0 0
0 0 0
0 0 0
0 0 0
0 0 0
0 0 0
0 0 0
0 0 0
0 0 0
0 0 0
0 0 0
0 0 0
0 0 0
0 0 0
0 0 0
0 0 0
0 0 0
0 0 0
0 0 0
0 0 0
0 0 0
0 0 0
0 0 0
0 0 0
0 0 0
0 0 0
0 0 0
0 0 0
0 0 0
0 0 0
0 0 0
0 0 0
0 0 0
0 0 0
0 0 0
0 0 0
0 0 0
0 0 0
0 0 0
0 0 0
0 0 0
0 0 0
0 0 0
0 0 0
0 0 0
0 0 0
0 0 0
0 0 0
0 0 0
0 0 0
0 0 0
0 0 0
0 0 0
0 0 0
0 0 0
0 0 0
0 0 0
0 0 0
0 0 0
0 0 0
0 0 0
0 0 0
0 0 0
0 0 0
0 0 0
0 0 0
0 0 0
0 0 0
0 0 0
0 0 0
0 0 0
0 0 0
0 0 0
0 0 0
0 0 0
0 0 0
0 0 0
0 0 0
0 0 0
0 0 0
0 0 0
0 0 0
0 0 0
0 0 0
0 0 0
0 0 0
0 0 0
0 0 0
0 0 0
0 0 0
0 0 0
0 0 0
0 0 0
0 0 0
0 0 0
0 0 0
0 0 0
0 0 0
0 0 0
0 0 0
0 0 0
0 0 0
0 0 0
0 0 0
0 0 0
0 0 0
0 0 0
0 0 0
0 0 0
0 0 0
0 0 0
0 0 0
0 0 0
0 0 0
0 0 0
0 0 0
0 0 0
0 0 0
0 0 0
0 0 0
0 0 0
0 0 0
0 0 0
0 0 0
0 0 0
0 0 0
0 0 0
0 0 0
0 0 0
0 0 0
0 0 0
0 0 0
0 0 0
0 0 0
0 0 0
0 0 0
0 0 0
0 0 0
0 0 0
0 0 0
0 0 0
0 0 0
0 0 0
0 0 0
0 0 0
0 0 0
0 0 0
0 0 0
0 0 0
0 0 0
0 0 0
0 0 0
0 0 0
0 0 0
0 0 0
0 0 0
0 0 0
0 0 0
0 0 0
0 0 0
0 0 0
0 0 0
0 0 0
0 0 0
0 0 0
0 0 0
0 0 0
0 0 0
0 0 0
0 0 0
0 0 0
0 0 0
0 0 0
0 0 0
0 0 0
0 0 0
0 0 0
0 0 0
0 0 0
0 0 0
0 0 0
0 0 0
0 0 0
0 0 0
0 0 0
0 0 0
0 0 0
0 0 0
0 0 0
0 0 0
0 0 0
0 0 0
0 0 0
0 0 0
0 0 0
0 0 0
0 0 0
0 0 0
0 0 0
0 0 0
0 0 0
0 0 0
0 0 0
0 0 0
0 0 0
0 0 0
0 0 0
0 0 0
0 0 0
0 0 0
0 0 0
0 0 0
0 0 0
0 0 0
0 0 0
0 0 0
0 0 0
0 0 0
0 0 0
0 0 0
0 0 0
0 0 0
0 0 0
0 0 0
0 0 0
0 0 0
0 0 0
0 0 0
0 0 0
0 0 0
0 0 0
0 0 0
0 0 0
0 0 0
0 0 0
0 0 0
0 0 0
0 0 0
0 0 0
0 0 0
0 0 0
0 0 0
0 0 0
0 0 0
0 0 0
0 0 0
0 0 0
0 0 0
0 0 0
0 0 0
0 0 0
0 0 0
0 0 0
0 0 0
0 0 0
0 0 0
0 0 0
0 0 0
0 0 0
0 0 0
0 0 0
0 0 0
0 0 0
0 0 0
0 0 0
0 0 0
0 0 0
0 0 0
0 0 0
0 0 0
0 0 0
0 0 0
0 0 0
0 0 0
0 0 0
0 0 0
0 0 0
0 0 0
0 0 0
0 0 0
0 0 0
0 0 0
0 0 0
0 0 0
0 0 0
0 0 0
0 0 0
0 0 0
0 0 0
0 0 0
0 0 0
0 0 0
0 0 0
0 0 0
0 0 0
0 0 0
0 0 0
0 0 0
0 0 0
0 0 0
0 0 0
0 0 0
0 0 0
0 0 0
0 0 0
0 0 0
0 0 0
0 0 0
0 0 0
0 0 0
0 0 0
0 0 0
0 0 0
0 0 0
0 0 0
0 0 0
0 0 0
0 0 0
0 0 0
0 0 0
0 0 0
0 0 0
0 0 0
0 0 0
0 0 0
0 0 0
0 0 0
0 0 0
0 0 0
0 0 0
0 0 0
0 0 0
0 0 0
0 0 0
0 0 0
0 0 0
0 0 0
0 0 0
0 0 0
0 0 0
0 0 0
0 0 0
0 0 0
0 0 0
0 0 0
0 0 0
0 0 0
0 0 0
0 0 0
0 0 0
0 0 0
0 0 0
0 0 0
0 0 0
0 0 0
0 0 0
0 0 0
0 0 0
0 0 0
0 0 0
0 0 0
0 0 0
0 0 0
0 0 0
0 0 0
0 0 0
0 0 0
0 0 0
0 0 0
0 0 0
0 0 0
0 0 0
0 0 0
0 0 0
0 0 0
0 0 0
0 0 0
0 0 0
0 0 0
0 0 0
0 0 0
0 0 0
0 0 0
0 0 0
0 0 0
0 0 0
0 0 0
0 0 0
0 0 0
0 0 0
0 0 0
0 0 0
0 0 0
0 0 0
0 0 0
0 0 0
0 0 0
0 0 0
0 0 0
0 0 0
0 0 0
0 0 0
0 0 0
0 0 0
0 0 0
0 0 0
0 0 0
0 0 0
0 0 0
0 0 0
0 0 0
0 0 0
0 0 0
0 0 0
0 0 0
0 0 0
0 0 0
0 0 0
0 0 0
0 0 0
0 0 0
0 0 0
0 0 0
0 0 0
0 0 0
0 0 0
0 0 0
0 0 0
0 0 0
0 0 0
0 0 0
0 0 0
0 0 0
0 0 0
0 0 0
0 0 0
0 0 0
0 0 0
0 0 0
0 0 0
0 0 0
0 0 0
0 0 0
0 0 0
0 0 0
0 0 0
0 0 0
0 0 0
0 0 0
0 0 0
0 0 0
0 0 0
0 0 0
0 0 0
0 0 0
0 0 0
0 0 0
0 0 0
0 0 0
0 0 0
0 0 0
0 0 0
0 0 0
0 0 0
0 0 0
0 0 0
0 0 0
0 0 0
0 0 0
0 0 0
0 0 0
0 0 0
0 0 0
0 0 0
0 0 0
0 0 0
0 0 0
0 0 0
0 0 0
0 0 0
0 0 0
0 0 0
0 0 0
0 0 0
0 0 0
0 0 0
0 0 0
0 0 0
0 0 0
0 0 0
0 0 0
0 0 0
0 0 0
0 0 0
0 0 0
0 0 0
0 0 0
0 0 0
0 0 0
0 0 0
0 0 0
0 0 0
0 0 0
0 0 0
0 0 0
0 0 0
0 0 0
0 0 0
0 0 0
0 0 0
0 0 0
0 0 0
0 0 0
0 0 0
0 0 0
0 0 0
0 0 0
0 0 0
0 0 0
0 0 0
0 0 0
0 0 0
0 0 0
0 0 0
0 0 0
0 0 0
0 0 0
0 0 0
0 0 0
0 0 0
0 0 0
0 0 0
0 0 0
0 0 0
0 0 0
0 0 0
0 0 0
0 0 0
0 0 0
0 0 0
0 0 0
0 0 0
0 0 0
0 0 0
0 0 0
0 0 0
0 0 0
0 0 0
0 0 0
0 0 0
0 0 0
0 0 0
0 0 0
0 0 0
0 0 0
0 0 0
0 0 0
0 0 0
0 0 0
0 0 0
0 0 0
0 0 0
0 0 0
0 0 0
0 0 0
0 0 0
0 0 0
0 0 0
0 0 0
0 0 0
0 0 0
0 0 0
0 0 0
0 0 0
0 0 0
0 0 0
0 0 0
0 0 0
0 0 0
0 0 0
0 0 0
0 0 0
0 0 0
0 0 0
0 0 0
0 0 0
0 0 0
0 0 0
0 0 0
0 0 0
0 0 0
0 0 0
0 0 0
0 0 0
0 0 0
0 0 0
0 0 0
0 0 0
0 0 0
0 0 0
0 0 0
0 0 0
0 0 0
0 0 0
0 0 0
0 0 0
0 0 0
0 0 0
0 0 0
0 0 0
0 0 0
0 0 0
0 0 0
0 0 0
0 0 0
0 0 0
0 0 0
0 0 0
0 0 0
0 0 0
0 0 0
0 0 0
0 0 0
0 0 0
0 0 0
0 0 0
0 0 0
0 0 0
0 0 0
0 0 0
0 0 0
0 0 0
0 0 0
0 0 0
0 0 0
0 0 0
0 0 0
0 0 0
0 0 0
0 0 0
0 0 0
0 0 0
0 0 0
0 0 0
0 0 0
0 0 0
0 0 0
0 0 0
0 0 0
0 0 0
0 0 0
0 0 0
0 0 0
0 0 0
0 0 0
0 0 0
0 0 0
0 0 0
0 0 0
0 0 0
0 0 0
0 0 0
0 0 0
0 0 0
0 0 0
0 0 0
0 0 0
0 0 0
0 0 0
0 0 0
0 0 0
0 0 0
0 0 0
0 0 0
0 0 0
0 0 0
0 0 0
0 0 0
0 0 0
0 0 0
0 0 0
0 0 0
0 0 0
0 0 0
0 0 0
0 0 0
0 0 0
0 0 0
0 0 0
0 0 0
0 0 0
0 0 0
0 0 0
0 0 0
0 0 0
0 0 0
0 0 0
0 0 0
0 0 0
0 0 0
0 0 0
0 0 0
0 0 0
0 0 0
0 0 0
0 0 0
0 0 0
0 0 0
0 0 0
0 0 0
0 0 0
0 0 0
0 0 0
0 0 0
0 0 0
0 0 0
0 0 0
0 0 0
0 0 0
0 0 0
0 0 0
0 0 0
0 0 0
0 0 0
0 0 0
0 0 0
0 0 0
0 0 0
0 0 0
0 0 0
0 0 0
0 0 0
0 0 0
0 0 0
0 0 0
0 0 0
0 0 0
0 0 0
0 0 0
0 0 0
0 0 0
0 0 0
0 0 0
0 0 0
0 0 0
0 0 0
0 0 0
0 0 0
0 0 0
0 0 0
0 0 0
0 0 0
0 0 0
0 0 0
0 0 0
0 0 0
0 0 0
0 0 0
0 0 0
0 0 0
0 0 0
0 0 0
0 0 0
0 0 0
0 0 0
0 0 0
0 0 0
0 0 0
0 0 0
0 0 0
0 0 0
0 0 0
0 0 0
0 0 0
0 0 0
0 0 0
0 0 0
0 0 0
0 0 0
0 0 0
0 0 0
0 0 0
0 0 0
0 0 0
0 0 0
0 0 0
0 0 0
0 0 0
0 0 0
0 0 0
0 0 0
0 0 0
0 0 0
0 0 0
0 0 0
0 0 0
0 0 0
0 0 0
0 0 0
0 0 0
0 0 0
0 0 0
0 0 0
0 0 0
0 0 0
0 0 0
0 0 0
0 0 0
0 0 0
0 0 0
0 0 0
0 0 0
0 0 0
0 0 0
0 0 0
0 0 0
0 0 0
0 0 0
0 0 0
0 0 0
0 0 0
0 0 0
0 0 0
0 0 0
0 0 0
0 0 0
0 0 0
0 0 0
0 0 0
0 0 0
0 0 0
0 0 0
0 0 0
0 0 0
0 0 0
0 0 0
0 0 0
0 0 0
0 0 0
0 0 0
0 0 0
0 0 0
0 0 0
0 0 0
0 0 0
0 0 0
0 0 0
0 0 0
0 0 0
0 0 0
0 0 0
0 0 0
0 0 0
0 0 0
0 0 0
0 0 0
0 0 0
0 0 0
0 0 0
0 0 0
0 0 0
0 0 0
0 0 0
0 0 0
0 0 0
0 0 0
0 0 0
0 0 0
0 0 0
0 0 0
0 0 0
0 0 0
0 0 0
0 0 0
0 0 0
0 0 0
0 0 0
0 0 0
0 0 0
0 0 0
0 0 0
0 0 0
0 0 0
0 0 0
0 0 0
0 0 0
0 0 0
0 0 0
0 0 0
0 0 0
0 0 0
0 0 0
0 0 0
0 0 0
0 0 0
0 0 0
0 0 0
0 0 0
0 0 0
0 0 0
0 0 0
0 0 0
0 0 0
0 0 0
0 0 0
0 0 0
0 0 0
0 0 0
0 0 0
0 0 0
0 0 0
0 0 0
0 0 0
0 0 0
0 0 0
0 0 0
0 0 0
0 0 0
0 0 0
0 0 0
0 0 0
0 0 0
0 0 0
0 0 0
0 0 0
0 0 0
0 0 0
0 0 0
0 0 0
0 0 0
0 0 0
0 0 0
0 0 0
0 0 0
0 0 0
0 0 0
0 0 0
0 0 0
0 0 0
0 0 0
0 0 0
0 0 0
0 0 0
0 0 0
0 0 0
0 0 0
0 0 0
0 0 0
0 0 0
0 0 0
0 0 0
0 0 0
0 0 0
0 0 0
0 0 0
0 0 0
0 0 0
0 0 0
0 0 0
0 0 0
0 0 0
0 0 0
0 0 0
0 0 0
0 0 0
0 0 0
0 0 0
0 0 0
0 0 0
0 0 0
0 0 0
0 0 0
0 0 0
0 0 0
0 0 0
0 0 0
0 0 0
0 0 0
0 0 0
0 0 0
0 0 0
0 0 0
0 0 0
0 0 0
0 0 0
0 0 0
0 0 0
0 0 0
0 0 0
0 0 0
0 0 0
0 0 0
0 0 0
0 0 0
0 0 0
0 0 0
0 0 0
0 0 0
0 0 0
0 0 0
0 0 0
0 0 0
0 0 0
0 0 0
0 0 0
0 0 0
0 0 0
0 0 0
0 0 0
0 0 0
0 0 0
0 0 0
0 0 0
0 0 0
0 0 0
0 0 0
0 0 0
0 0 0
0 0 0
0 0 0
0 0 0
0 0 0
0 0 0
0 0 0
0 0 0
0 0 0
0 0 0
0 0 0
0 0 0
0 0 0
0 0 0
0 0 0
0 0 0
0 0 0
0 0 0
0 0 0
0 0 0
0 0 0
0 0 0
0 0 0
0 0 0
0 0 0
0 0 0
0 0 0
0 0 0
0 0 0
0 0 0
0 0 0
0 0 0
0 0 0
0 0 0
0 0 0
0 0 0
0 0 0
0 0 0
0 0 0
0 0 0
0 0 0
0 0 0
0 0 0
0 0 0
0 0 0
0 0 0
0 0 0
0 0 0
0 0 0
0 0 0
0 0 0
0 0 0
0 0 0
0 0 0
0 0 0
0 0 0
0 0 0
0 0 0
0 0 0
0 0 0
0 0 0
0 0 0
0 0 0
0 0 0
0 0 0
0 0 0
0 0 0
0 0 0
0 0 0
0 0 0
0 0 0
0 0 0
0 0 0
0 0 0
0 0 0
0 0 0
0 0 0
0 0 0
0 0 0
0 0 0
0 0 0
0 0 0
0 0 0
0 0 0
0 0 0
0 0 0
0 0 0
0 0 0
0 0 0
0 0 0
0 0 0
0 0 0
0 0 0
0 0 0
0 0 0
0 0 0
0 0 0
0 0 0
0 0 0
0 0 0
0 0 0
0 0 0
0 0 0
0 0 0
0 0 0
0 0 0
0 0 0
0 0 0
0 0 0
0 0 0
0 0 0
0 0 0
0 0 0
0 0 0
0 0 0
0 0 0
0 0 0
0 0 0
0 0 0
0 0 0
0 0 0
0 0 0
0 0 0
0 0 0
0 0 0
0 0 0
0 0 0
0 0 0
0 0 0
0 0 0
0 0 0
0 0 0
0 0 0
0 0 0
0 0 0
0 0 0
0 0 0
0 0 0
0 0 0
0 0 0
0 0 0
0 0 0
0 0 0
0 0 0
0 0 0
0 0 0
0 0 0
0 0 0
0 0 0
0 0 0
0 0 0
0 0 0
0 0 0
0 0 0
0 0 0
0 0 0
0 0 0
0 0 0
0 0 0
0 0 0
0 0 0
0 0 0
0 0 0
0 0 0
0 0 0
0 0 0
0 0 0
0 0 0
0 0 0
0 0 0
0 0 0
0 0 0
0 0 0
0 0 0
0 0 0
0 0 0
0 0 0
0 0 0
0 0 0
0 0 0
0 0 0
0 0 0
0 0 0
0 0 0
0 0 0
0 0 0
0 0 0
0 0 0
0 0 0
0 0 0
0 0 0
0 0 0
0 0 0
0 0 0
0 0 0
0 0 0
0 0 0
0 0 0
0 0 0
0 0 0
0 0 0
0 0 0
0 0 0
0 0 0
0 0 0
0 0 0
0 0 0
0 0 0
0 0 0
0 0 0
0 0 0
0 0 0
0 0 0
0 0 0
0 0 0
0 0 0
0 0 0
0 0 0
0 0 0
0 0 0
0 0 0
0 0 0
0 0 0
0 0 0
0 0 0
0 0 0
0 0 0
0 0 0
0 0 0
0 0 0
0 0 0
0 0 0
0 0 0
0 0 0
0 0 0
0 0 0
0 0 0
0 0 0
0 0 0
0 0 0
0 0 0
0 0 0
0 0 0
0 0 0
0 0 0
0 0 0
0 0 0
0 0 0
0 0 0
0 0 0
0 0 0
0 0 0
0 0 0
0 0 0
0 0 0
0 0 0
0 0 0
0 0 0
0 0 0
0 0 0
0 0 0
0 0 0
0 0 0
0 0 0
0 0 0
0 0 0
0 0 0
0 0 0
0 0 0
0 0 0
0 0 0
0 0 0
0 0 0
0 0 0
0 0 0
0 0 0
0 0 0
0 0 0
0 0 0
0 0 0
0 0 0
0 0 0
0 0 0
0 0 0
0 0 0
0 0 0
0 0 0
0 0 0
0 0 0
0 0 0
0 0 0
0 0 0
0 0 0
0 0 0
0 0 0
0 0 0
0 0 0
0 0 0
0 0 0
0 0 0
0 0 0
0 0 0
0 0 0
0 0 0
0 0 0
0 0 0
0 0 0
0 0 0
0 0 0
0 0 0
0 0 0
0 0 0
0 0 0
0 0 0
0 0 0
0 0 0
0 0 0
0 0 0
0 0 0
0 0 0
0 0 0
0 0 0
0 0 0
0 0 0
0 0 0
0 0 0
0 0 0
0 0 0
0 0 0
0 0 0
0 0 0
0 0 0
0 0 0
0 0 0
0 0 0
0 0 0
0 0 0
0 0 0
0 0 0
0 0 0
0 0 0
0 0 0
0 0 0
0 0 0
0 0 0
0 0 0
0 0 0
0 0 0
0 0 0
0 0 0
0 0 0
0 0 0
0 0 0
0 0 0
0 0 0
0 0 0
0 0 0
0 0 0
0 0 0
0 0 0
0 0 0
0 0 0
0 0 0
0 0 0
0 0 0
0 0 0
0 0 0
0 0 0
0 0 0
0 0 0
0 0 0
0 0 0
0 0 0
0 0 0
0 0 0
0 0 0
0 0 0
0 0 0
0 0 0
0 0 0
0 0 0
0 0 0
0 0 0
0 0 0
0 0 0
0 0 0
0 0 0
0 0 0
0 0 0
0 0 0
0 0 0
0 0 0
0 0 0
0 0 0
0 0 0
0 0 0
0 0 0
0 0 0
0 0 0
0 0 0
0 0 0
0 0 0
0 0 0
0 0 0
0 0 0
0 0 0
0 0 0
0 0 0
0 0 0
0 0 0
0 0 0
0 0 0
0 0 0
0 0 0
0 0 0
0 0 0
0 0 0
0 0 0
0 0 0
0 0 0
0 0 0
0 0 0
0 0 0
0 0 0
0 0 0
0 0 0
0 0 0
0 0 0
0 0 0
0 0 0
0 0 0
0 0 0
0 0 0
0 0 0
0 0 0
0 0 0
0 0 0
0 0 0
0 0 0
0 0 0
0 0 0
0 0 0
0 0 0
0 0 0
0 0 0
0 0 0
0 0 0
0 0 0
0 0 0
0 0 0
0 0 0
0 0 0
0 0 0
0 0 0
0 0 0
0 0 0
0 0 0
0 0 0
0 0 0
0 0 0
0 0 0
0 0 0
0 0 0
0 0 0
0 0 0
0 0 0
0 0 0
0 0 0
0 0 0
0 0 0
0 0 0
0 0 0
0 0 0
0 0 0
0 0 0
0 0 0
0 0 0
0 0 0
0 0 0
0 0 0
0 0 0
0 0 0
0 0 0
0 0 0
0 0 0
0 0 0
0 0 0
0 0 0
0 0 0
0 0 0
0 0 0
0 0 0
0 0 0
0 0 0
0 0 0
0 0 0
0 0 0
0 0 0
0 0 0
0 0 0
0 0 0
0 0 0
0 0 0
0 0 0
0 0 0
0 0 0
0 0 0
0 0 0
0 0 0
0 0 0
0 0 0
0 0 0
0 0 0
0 0 0
0 0 0
0 0 0
0 0 0
0 0 0
0 0 0
0 0 0
0 0 0
0 0 0
0 0 0
0 0 0
0 0 0
0 0 0
0 0 0
0 0 0
0 0 0
0 0 0
0 0 0
0 0 0
0 0 0
0 0 0
0 0 0
0 0 0
0 0 0
0 0 0
0 0 0
0 0 0
0 0 0
0 0 0
0 0 0
0 0 0
0 0 0
0 0 0
0 0 0
0 0 0
0 0 0
0 0 0
0 0 0
0 0 0
0 0 0
0 0 0
0 0 0
0 0 0
0 0 0
0 0 0
0 0 0
0 0 0
0 0 0
0 0 0
0 0 0
0 0 0
0 0 0
0 0 0
0 0 0
0 0 0
0 0 0
0 0 0
0 0 0
0 0 0
0 0 0
0 0 0
0 0 0
0 0 0
0 0 0
0 0 0
0 0 0
0 0 0
0 0 0
0 0 0
0 0 0
0 0 0
0 0 0
0 0 0
0 0 0
0 0 0
0 0 0
0 0 0
0 0 0
0 0 0
0 0 0
0 0 0
0 0 0
0 0 0
0 0 0
0 0 0
0 0 0
0 0 0
0 0 0
0 0 0
0 0 0
0 0 0
0 0 0
0 0 0
0 0 0
0 0 0
0 0 0
0 0 0
0 0 0
0 0 0
0 0 0
0 0 0
0 0 0
0 0 0
0 0 0
0 0 0
0 0 0
0 0 0
0 0 0
0 0 0
0 0 0
0 0 0
0 0 0
0 0 0
0 0 0
0 0 0
0 0 0
0 0 0
0 0 0
0 0 0
0 0 0
0 0 0
0 0 0
0 0 0
0 0 0
0 0 0
0 0 0
0 0 0
0 0 0
0 0 0
0 0 0
0 0 0
0 0 0
0 0 0
0 0 0
0 0 0
0 0 0
0 0 0
0 0 0
0 0 0
0 0 0
0 0 0
0 0 0
0 0 0
0 0 0
0 0 0
0 0 0
0 0 0
0 0 0
0 0 0
0 0 0
0 0 0
0 0 0
0 0 0
0 0 0
0 0 0
0 0 0
0 0 0
0 0 0
0 0 0
0 0 0
0 0 0
0 0 0
0 0 0
0 0 0
0 0 0
0 0 0
0 0 0
0 0 0
0 0 0
0 0 0
0 0 0
0 0 0
0 0 0
0 0 0
0 0 0
0 0 0
0 0 0
0 0 0
0 0 0
0 0 0
0 0 0
0 0 0
0 0 0
0 0 0
0 0 0
0 0 0
0 0 0
0 0 0
0 0 0
0 0 0
0 0 0
0 0 0
0 0 0
0 0 0
0 0 0
0 0 0
0 0 0
0 0 0
0 0 0
0 0 0
0 0 0
0 0 0
0 0 0
0 0 0
0 0 0
0 0 0
0 0 0
0 0 0
0 0 0
0 0 0
0 0 0
0 0 0
0 0 0
0 0 0
0 0 0
0 0 0
0 0 0
0 0 0
0 0 0
0 0 0
0 0 0
0 0 0
0 0 0
0 0 0
0 0 0
0 0 0
0 0 0
0 0 0
0 0 0
0 0 0
0 0 0
0 0 0
0 0 0
0 0 0
0 0 0
0 0 0
0 0 0
0 0 0
0 0 0
0 0 0
0 0 0
0 0 0
0 0 0
0 0 0
0 0 0
0 0 0
0 0 0
0 0 0
0 0 0
0 0 0
0 0 0
0 0 0
0 0 0
0 0 0
0 0 0
0 0 0
0 0 0
0 0 0
0 0 0
0 0 0
0 0 0
0 0 0
0 0 0
0 0 0
0 0 0
0 0 0
0 0 0
0 0 0
0 0 0
0 0 0
0 0 0
0 0 0
0 0 0
0 0 0
0 0 0
0 0 0
0 0 0
0 0 0
0 0 0
0 0 0
0 0 0
0 0 0
0 0 0
0 0 0
0 0 0
0 0 0
0 0 0
0 0 0
0 0 0
0 0 0
0 0 0
0 0 0
0 0 0
0 0 0
0 0 0
0 0 0
0 0 0
0 0 0
0 0 0
0 0 0
0 0 0
0 0 0
0 0 0
0 0 0
0 0 0
0 0 0
0 0 0
0 0 0
0 0 0
0 0 0
0 0 0
0 0 0
0 0 0
0 0 0
0 0 0
0 0 0
0 0 0
0 0 0
0 0 0
0 0 0
0 0 0
0 0 0
0 0 0
0 0 0
0 0 0
0 0 0
0 0 0
0 0 0
0 0 0
0 0 0
0 0 0
0 0 0
0 0 0
0 0 0
0 0 0
0 0 0
0 0 0
0 0 0
0 0 0
0 0 0
0 0 0
0 0 0
0 0 0
0 0 0
0 0 0
0 0 0
0 0 0
0 0 0
0 0 0
0 0 0
0 0 0
0 0 0
0 0 0
0 0 0
0 0 0
0 0 0
0 0 0
0 0 0
0 0 0
0 0 0
0 0 0
0 0 0
0 0 0
0 0 0
0 0 0
0 0 0
0 0 0
0 0 0
0 0 0
0 0 0
0 0 0
0 0 0
0 0 0
0 0 0
0 0 0
0 0 0
0 0 0
0 0 0
0 0 0
0 0 0
0 0 0
0 0 0
0 0 0
0 0 0
0 0 0
0 0 0
0 0 0
0 0 0
0 0 0
0 0 0
0 0 0
0 0 0
0 0 0
0 0 0
0 0 0
0 0 0
0 0 0
0 0 0
0 0 0
0 0 0
0 0 0
0 0 0
0 0 0
0 0 0
0 0 0
0 0 0
0 0 0
0 0 0
0 0 0
0 0 0
0 0 0
0 0 0
0 0 0
0 0 0
0 0 0
0 0 0
0 0 0
0 0 0
0 0 0
0 0 0
0 0 0
0 0 0
0 0 0
0 0 0
0 0 0
0 0 0
0 0 0
0 0 0
0 0 0
0 0 0
0 0 0
0 0 0
0 0 0
0 0 0
0 0 0
0 0 0
0 0 0
0 0 0
0 0 0
0 0 0
0 0 0
0 0 0
0 0 0
0 0 0
0 0 0
0 0 0
0 0 0
0 0 0
0 0 0
0 0 0
0 0 0
0 0 0
0 0 0
0 0 0
0 0 0
0 0 0
0 0 0
0 0 0
0 0 0
0 0 0
0 0 0
0 0 0
0 0 0
0 0 0
0 0 0
0 0 0
0 0 0
0 0 0
0 0 0
0 0 0
0 0 0
0 0 0
0 0 0
0 0 0
0 0 0
0 0 0
0 0 0
0 0 0
0 0 0
0 0 0
0 0 0
0 0 0
0 0 0
0 0 0
0 0 0
0 0 0
0 0 0
0 0 0
0 0 0
0 0 0
0 0 0
0 0 0
0 0 0
0 0 0
0 0 0
0 0 0
0 0 0
0 0 0
0 0 0
0 0 0
0 0 0
0 0 0
0 0 0
0 0 0
0 0 0
0 0 0
0 0 0
0 0 0
0 0 0
0 0 0
0 0 0
0 0 0
0 0 0
0 0 0
0 0 0
0 0 0
0 0 0
0 0 0
0 0 0
0 0 0
0 0 0
0 0 0
0 0 0
0 0 0
0 0 0
0 0 0
0 0 0
0 0 0
0 0 0
0 0 0
0 0 0
0 0 0
0 0 0
0 0 0
0 0 0
0 0 0
0 0 0
0 0 0
0 0 0
0 0 0
0 0 0
0 0 0
0 0 0
0 0 0
0 0 0
0 0 0
0 0 0
0 0 0
0 0 0
0 0 0
0 0 0
0 0 0
0 0 0
0 0 0
0 0 0
0 0 0
0 0 0
0 0 0
0 0 0
0 0 0
0 0 0
0 0 0
0 0 0
0 0 0
0 0 0
0 0 0
0 0 0
0 0 0
0 0 0
0 0 0
0 0 0
0 0 0
0 0 0
0 0 0
0 0 0
0 0 0
0 0 0
0 0 0
0 0 0
0 0 0
0 0 0
0 0 0
0 0 0
0 0 0
0 0 0
0 0 0
0 0 0
0 0 0
0 0 0
0 0 0
0 0 0
0 0 0
0 0 0
0 0 0
0 0 0
0 0 0
0 0 0
0 0 0
0 0 0
0 0 0
0 0 0
0 0 0
0 0 0
0 0 0
0 0 0
0 0 0
0 0 0
0 0 0
0 0 0
0 0 0
0 0 0
0 0 0
0 0 0
0 0 0
0 0 0
0 0 0
0 0 0
0 0 0
0 0 0
0 0 0
0 0 0
0 0 0
0 0 0
0 0 0
0 0 0
0 0 0
0 0 0
0 0 0
0 0 0
0 0 0
0 0 0
0 0 0
0 0 0
0 0 0
0 0 0
0 0 0
0 0 0
0 0 0
0 0 0
0 0 0
0 0 0
0 0 0
0 0 0
0 0 0
0 0 0
0 0 0
0 0 0
0 0 0
0 0 0
0 0 0
0 0 0
0 0 0
0 0 0
0 0 0
0 0 0
0 0 0
0 0 0
0 0 0
0 0 0
0 0 0
0 0 0
0 0 0
0 0 0
0 0 0
0 0 0
0 0 0
0 0 0
0 0 0
0 0 0
0 0 0
0 0 0
0 0 0
0 0 0
0 0 0
0 0 0
0 0 0
0 0 0
0 0 0
0 0 0
0 0 0
0 0 0
0 0 0
0 0 0
0 0 0
0 0 0
0 0 0
0 0 0
0 0 0
0 0 0
0 0 0
0 0 0
0 0 0
0 0 0
0 0 0
0 0 0
0 0 0
0 0 0
0 0 0
0 0 0
0 0 0
0 0 0
0 0 0
0 0 0
0 0 0
0 0 0
0 0 0
0 0 0
0 0 0
0 0 0
0 0 0
0 0 0
0 0 0
0 0 0
0 0 0
0 0 0
0 0 0
0 0 0
0 0 0
0 0 0
0 0 0
0 0 0
0 0 0
0 0 0
0 0 0
0 0 0
0 0 0
0 0 0
0 0 0
0 0 0
0 0 0
0 0 0
0 0 0
0 0 0
0 0 0
0 0 0
0 0 0
0 0 0
0 0 0
0 0 0
0 0 0
0 0 0
0 0 0
0 0 0
0 0 0
0 0 0
0 0 0
0 0 0
0 0 0
0 0 0
0 0 0
0 0 0
0 0 0
0 0 0
0 0 0
0 0 0
0 0 0
0 0 0
0 0 0
0 0 0
0 0 0
0 0 0
0 0 0
0 0 0
0 0 0
0 0 0
0 0 0
0 0 0
0 0 0
0 0 0
0 0 0
0 0 0
0 0 0
0 0 0
0 0 0
0 0 0
0 0 0
0 0 0
0 0 0
0 0 0
0 0 0
0 0 0
0 0 0
0 0 0
0 0 0
0 0 0
0 0 0
0 0 0
0 0 0
0 0 0
0 0 0
0 0 0
0 0 0
0 0 0
0 0 0
0 0 0
0 0 0
0 0 0
0 0 0
0 0 0
0 0 0
0 0 0
0 0 0
0 0 0
0 0 0
0 0 0
0 0 0
0 0 0
0 0 0
0 0 0
0 0 0
0 0 0
0 0 0
0 0 0
0 0 0
0 0 0
0 0 0
0 0 0
0 0 0
0 0 0
0 0 0
0 0 0
0 0 0
0 0 0
0 0 0
0 0 0
0 0 0
0 0 0
0 0 0
0 0 0
0 0 0
0 0 0
0 0 0
0 0 0
0 0 0
0 0 0
0 0 0
0 0 0
0 0 0
0 0 0
0 0 0
0 0 0
0 0 0
0 0 0
0 0 0
0 0 0
0 0 0
0 0 0
0 0 0
0 0 0
0 0 0
0 0 0
0 0 0
0 0 0
0 0 0
0 0 0
0 0 0
0 0 0
0 0 0
0 0 0
0 0 0
0 0 0
0 0 0
0 0 0
0 0 0
0 0 0
0 0 0
0 0 0
0 0 0
0 0 0
0 0 0
0 0 0
0 0 0
0 0 0
0 0 0
0 0 0
0 0 0
0 0 0
0 0 0
0 0 0
0 0 0
0 0 0
0 0 0
0 0 0
0 0 0
0 0 0
0 0 0
0 0 0
0 0 0
0 0 0
0 0 0
0 0 0
0 0 0
0 0 0
0 0 0
0 0 0
0 0 0
0 0 0
0 0 0
0 0 0
0 0 0
0 0 0
0 0 0
0 0 0
0 0 0
0 0 0
0 0 0
0 0 0
0 0 0
0 0 0
0 0 0
0 0 0
0 0 0
0 0 0
0 0 0
0 0 0
0 0 0
0 0 0
0 0 0
0 0 0
0 0 0
0 0 0
0 0 0
0 0 0
0 0 0
0 0 0
0 0 0
0 0 0
0 0 0
0 0 0
0 0 0
0 0 0
0 0 0
0 0 0
0 0 0
0 0 0
0 0 0
0 0 0
0 0 0
0 0 0
0 0 0
0 0 0
0 0 0
0 0 0
0 0 0
0 0 0
0 0 0
0 0 0
0 0 0
0 0 0
0 0 0
0 0 0
0 0 0
0 0 0
0 0 0
0 0 0
0 0 0
0 0 0
0 0 0
0 0 0
0 0 0
0 0 0
0 0 0
0 0 0
0 0 0
0 0 0
0 0 0
0 0 0
0 0 0
0 0 0
0 0 0
0 0 0
0 0 0
0 0 0
0 0 0
0 0 0
0 0 0
0 0 0
0 0 0
0 0 0
0 0 0
0 0 0
0 0 0
0 0 0
0 0 0
0 0 0
0 0 0
0 0 0
0 0 0
0 0 0
0 0 0
0 0 0
0 0 0
0 0 0
0 0 0
0 0 0
0 0 0
0 0 0
0 0 0
0 0 0
0 0 0
0 0 0
0 0 0
0 0 0
0 0 0
0 0 0
0 0 0
0 0 0
0 0 0
0 0 0
0 0 0
0 0 0
0 0 0
0 0 0
0 0 0
0 0 0
0 0 0
0 0 0
0 0 0
0 0 0
0 0 0
0 0 0
0 0 0
0 0 0
0 0 0
0 0 0
0 0 0
0 0 0
0 0 0
0 0 0
0 0 0
0 0 0
0 0 0
0 0 0
0 0 0
0 0 0
0 0 0
0 0 0
0 0 0
0 0 0
0 0 0
0 0 0
0 0 0
0 0 0
0 0 0
0 0 0
0 0 0
0 0 0
0 0 0
0 0 0
0 0 0
0 0 0
0 0 0
0 0 0
0 0 0
0 0 0
0 0 0
0 0 0
0 0 0
0 0 0
0 0 0
0 0 0
0 0 0
0 0 0
0 0 0
0 0 0
0 0 0
0 0 0
0 0 0
0 0 0
0 0 0
0 0 0
0 0 0
0 0 0
0 0 0
0 0 0
0 0 0
0 0 0
0 0 0
0 0 0
0 0 0
0 0 0
0 0 0
0 0 0
0 0 0
0 0 0
0 0 0
0 0 0
0 0 0
0 0 0
0 0 0
0 0 0
0 0 0
0 0 0
0 0 0
0 0 0
0 0 0
0 0 0
0 0 0
0 0 0
0 0 0
0 0 0
0 0 0
0 0 0
0 0 0
0 0 0
0 0 0
0 0 0
0 0 0
0 0 0
0 0 0
0 0 0
0 0 0
0 0 0
0 0 0
0 0 0
0 0 0
0 0 0
0 0 0
0 0 0
0 0 0
0 0 0
0 0 0
0 0 0
0 0 0
0 0 0
0 0 0
0 0 0
0 0 0
0 0 0
0 0 0
0 0 0
0 0 0
0 0 0
0 0 0
0 0 0
0 0 0
0 0 0
0 0 0
0 0 0
0 0 0
0 0 0
0 0 0
0 0 0
0 0 0
0 0 0
0 0 0
0 0 0
0 0 0
0 0 0
0 0 0
0 0 0
0 0 0
0 0 0
0 0 0
0 0 0
0 0 0
0 0 0
0 0 0
0 0 0
0 0 0
0 0 0
0 0 0
0 0 0
0 0 0
0 0 0
0 0 0
0 0 0
0 0 0
0 0 0
0 0 0
0 0 0
0 0 0
0 0 0
0 0 0
0 0 0
0 0 0
0 0 0
0 0 0
0 0 0
0 0 0
0 0 0
0 0 0
0 0 0
0 0 0
0 0 0
0 0 0
0 0 0
0 0 0
0 0 0
0 0 0
0 0 0
0 0 0
0 0 0
0 0 0
0 0 0
0 0 0
0 0 0
0 0 0
0 0 0
0 0 0
0 0 0
0 0 0
0 0 0
0 0 0
0 0 0
0 0 0
0 0 0
0 0 0
0 0 0
0 0 0
0 0 0
0 0 0
0 0 0
0 0 0
0 0 0
0 0 0
0 0 0
0 0 0
0 0 0
0 0 0
0 0 0
0 0 0
0 0 0
0 0 0
0 0 0
0 0 0
0 0 0
0 0 0
0 0 0
0 0 0
0 0 0
0 0 0
0 0 0
0 0 0
0 0 0
0 0 0
0 0 0
0 0 0
0 0 0
0 0 0
0 0 0
0 0 0
0 0 0
0 0 0
0 0 0
0 0 0
0 0 0
0 0 0
0 0 0
0 0 0
0 0 0
0 0 0
0 0 0
0 0 0
0 0 0
0 0 0
0 0 0
0 0 0
0 0 0
0 0 0
0 0 0
0 0 0
0 0 0
0 0 0
0 0 0
0 0 0
0 0 0
0 0 0
0 0 0
0 0 0
0 0 0
0 0 0
0 0 0
0 0 0
0 0 0
0 0 0
0 0 0
0 0 0
0 0 0
0 0 0
0 0 0
0 0 0
0 0 0
0 0 0
0 0 0
0 0 0
0 0 0
0 0 0
0 0 0
0 0 0
0 0 0
0 0 0
0 0 0
0 0 0
0 0 0
0 0 0
0 0 0
0 0 0
0 0 0
0 0 0
0 0 0
0 0 0
0 0 0
0 0 0
0 0 0
0 0 0
0 0 0
0 0 0
0 0 0
0 0 0
0 0 0
0 0 0
0 0 0
0 0 0
0 0 0
0 0 0
0 0 0
0 0 0
0 0 0
0 0 0
0 0 0
0 0 0
0 0 0
0 0 0
0 0 0
0 0 0
0 0 0
0 0 0
0 0 0
0 0 0
0 0 0
0 0 0
0 0 0
0 0 0
0 0 0
0 0 0
0 0 0
0 0 0
0 0 0
0 0 0
0 0 0
0 0 0
0 0 0
0 0 0
0 0 0
0 0 0
0 0 0
0 0 0
0 0 0
0 0 0
0 0 0
0 0 0
0 0 0
0 0 0
0 0 0
0 0 0
0 0 0
0 0 0
0 0 0
0 0 0
0 0 0
0 0 0
0 0 0
0 0 0
0 0 0
0 0 0
0 0 0
0 0 0
0 0 0
0 0 0
0 0 0
0 0 0
0 0 0
0 0 0
0 0 0
0 0 0
0 0 0
0 0 0
0 0 0
0 0 0
0 0 0
0 0 0
0 0 0
0 0 0
0 0 0
0 0 0
0 0 0
0 0 0
0 0 0
0 0 0
0 0 0
0 0 0
0 0 0
0 0 0
0 0 0
0 0 0
0 0 0
0 0 0
0 0 0
0 0 0
0 0 0
0 0 0
0 0 0
0 0 0
0 0 0
0 0 0
0 0 0
0 0 0
0 0 0
0 0 0
0 0 0
0 0 0
0 0 0
0 0 0
0 0 0
0 0 0
0 0 0
0 0 0
0 0 0
0 0 0
0 0 0
0 0 0
0 0 0
0 0 0
0 0 0
0 0 0
0 0 0
0 0 0
0 0 0
0 0 0
0 0 0
0 0 0
0 0 0
0 0 0
0 0 0
0 0 0
0 0 0
0 0 0
0 0 0
0 0 0
0 0 0
0 0 0
0 0 0
0 0 0
0 0 0
0 0 0
0 0 0
0 0 0
0 0 0
0 0 0
0 0 0
0 0 0
0 0 0
0 0 0
0 0 0
0 0 0
0 0 0
0 0 0
0 0 0
0 0 0
0 0 0
0 0 0
0 0 0
0 0 0
0 0 0
0 0 0
0 0 0
0 0 0
0 0 0
0 0 0
0 0 0
0 0 0
0 0 0
0 0 0
0 0 0
0 0 0
0 0 0
0 0 0
0 0 0
0 0 0
0 0 0
0 0 0
0 0 0
0 0 0
0 0 0
0 0 0
0 0 0
0 0 0
0 0 0
0 0 0
0 0 0
0 0 0
0 0 0
0 0 0
0 0 0
0 0 0
0 0 0
0 0 0
0 0 0
0 0 0
0 0 0
0 0 0
0 0 0
0 0 0
0 0 0
0 0 0
0 0 0
0 0 0
0 0 0
0 0 0
0 0 0
0 0 0
0 0 0
0 0 0
0 0 0
0 0 0
0 0 0
0 0 0
0 0 0
0 0 0
0 0 0
0 0 0
0 0 0
0 0 0
0 0 0
0 0 0
0 0 0
0 0 0
0 0 0
0 0 0
0 0 0
0 0 0
0 0 0
0 0 0
0 0 0
0 0 0
0 0 0
0 0 0
0 0 0
0 0 0
0 0 0
0 0 0
0 0 0
0 0 0
0 0 0
0 0 0
0 0 0
0 0 0
0 0 0
0 0 0
0 0 0
0 0 0
0 0 0
0 0 0
0 0 0
0 0 0
0 0 0
0 0 0
0 0 0
0 0 0
0 0 0
0 0 0
0 0 0
0 0 0
0 0 0
0 0 0
0 0 0
0 0 0
0 0 0
0 0 0
0 0 0
0 0 0
0 0 0
0 0 0
0 0 0
0 0 0
0 0 0
0 0 0
0 0 0
0 0 0
0 0 0
0 0 0
0 0 0
0 0 0
0 0 0
0 0 0
0 0 0
0 0 0
0 0 0
0 0 0
0 0 0
0 0 0
0 0 0
0 0 0
0 0 0
0 0 0
0 0 0
0 0 0
0 0 0
0 0 0
0 0 0
0 0 0
0 0 0
0 0 0
0 0 0
0 0 0
0 0 0
0 0 0
0 0 0
0 0 0
0 0 0
0 0 0
0 0 0
0 0 0
0 0 0
0 0 0
0 0 0
0 0 0
0 0 0
0 0 0
0 0 0
0 0 0
0 0 0
0 0 0
0 0 0
0 0 0
0 0 0
0 0 0
0 0 0
0 0 0
0 0 0
0 0 0
0 0 0
0 0 0
0 0 0
0 0 0
0 0 0
0 0 0
0 0 0
0 0 0
0 0 0
0 0 0
0 0 0
0 0 0
0 0 0
0 0 0
0 0 0
0 0 0
0 0 0
0 0 0
0 0 0
0 0 0
0 0 0
0 0 0
0 0 0
0 0 0
0 0 0
0 0 0
0 0 0
0 0 0
0 0 0
0 0 0
0 0 0
0 0 0
0 0 0
0 0 0
0 0 0
0 0 0
0 0 0
0 0 0
0 0 0
0 0 0
0 0 0
0 0 0
0 0 0
0 0 0
0 0 0
0 0 0
0 0 0
0 0 0
0 0 0
0 0 0
0 0 0
0 0 0
0 0 0
0 0 0
0 0 0
0 0 0
0 0 0
0 0 0
0 0 0
0 0 0
0 0 0
0 0 0
0 0 0
0 0 0
0 0 0
0 0 0
0 0 0
0 0 0
0 0 0
0 0 0
0 0 0
0 0 0
0 0 0
0 0 0
0 0 0
0 0 0
0 0 0
0 0 0
0 0 0
0 0 0
0 0 0
0 0 0
0 0 0
0 0 0
0 0 0
0 0 0
0 0 0
0 0 0
0 0 0
0 0 0
0 0 0
0 0 0
0 0 0
0 0 0
0 0 0
0 0 0
0 0 0
0 0 0
0 0 0
0 0 0
0 0 0
0 0 0
0 0 0
0 0 0
0 0 0
0 0 0
0 0 0
0 0 0
0 0 0
0 0 0
0 0 0
0 0 0
0 0 0
0 0 0
0 0 0
0 0 0
0 0 0
0 0 0
0 0 0
0 0 0
0 0 0
0 0 0
0 0 0
0 0 0
0 0 0
0 0 0
0 0 0
0 0 0
0 0 0
0 0 0
0 0 0
0 0 0
0 0 0
0 0 0
0 0 0
0 0 0
0 0 0
0 0 0
0 0 0
0 0 0
0 0 0
0 0 0
0 0 0
0 0 0
0 0 0
0 0 0
0 0 0
0 0 0
0 0 0
0 0 0
0 0 0
0 0 0
0 0 0
0 0 0
0 0 0
0 0 0
0 0 0
0 0 0
0 0 0
0 0 0
0 0 0
0 0 0
0 0 0
0 0 0
0 0 0
0 0 0
0 0 0
0 0 0
0 0 0
0 0 0
0 0 0
0 0 0
0 0 0
0 0 0
0 0 0
0 0 0
0 0 0
0 0 0
0 0 0
0 0 0
0 0 0
0 0 0
0 0 0
0 0 0
0 0 0
0 0 0
0 0 0
0 0 0
0 0 0
0 0 0
0 0 0
0 0 0
0 0 0
0 0 0
0 0 0
0 0 0
0 0 0
0 0 0
0 0 0
0 0 0
0 0 0
0 0 0
0 0 0
0 0 0
0 0 0
0 0 0
0 0 0
0 0 0
0 0 0
0 0 0
0 0 0
0 0 0
0 0 0
0 0 0
0 0 0
0 0 0
0 0 0
0 0 0
0 0 0
0 0 0
0 0 0
0 0 0
0 0 0
0 0 0
0 0 0
0 0 0
0 0 0
0 0 0
0 0 0
0 0 0
0 0 0
0 0 0
0 0 0
0 0 0
0 0 0
0 0 0
0 0 0
0 0 0
0 0 0
0 0 0
0 0 0
0 0 0
0 0 0
0 0 0
0 0 0
0 0 0
0 0 0
0 0 0
0 0 0
0 0 0
0 0 0
0 0 0
0 0 0
0 0 0
0 0 0
0 0 0
0 0 0
0 0 0
0 0 0
0 0 0
0 0 0
0 0 0
0 0 0
0 0 0
0 0 0
0 0 0
0 0 0
0 0 0
0 0 0
0 0 0
0 0 0
0 0 0
0 0 0
0 0 0
0 0 0
0 0 0
0 0 0
0 0 0
0 0 0
0 0 0
0 0 0
0 0 0
0 0 0
0 0 0
0 0 0
0 0 0
0 0 0
0 0 0
0 0 0
0 0 0
0 0 0
0 0 0
0 0 0
0 0 0
0 0 0
0 0 0
0 0 0
0 0 0
0 0 0
0 0 0
0 0 0
0 0 0
0 0 0
0 0 0
0 0 0
0 0 0
0 0 0
0 0 0
0 0 0
0 0 0
0 0 0
0 0 0
0 0 0
0 0 0
0 0 0
0 0 0
0 0 0
0 0 0
0 0 0
0 0 0
0 0 0
0 0 0
0 0 0
0 0 0
0 0 0
0 0 0
0 0 0
0 0 0
0 0 0
0 0 0
0 0 0
0 0 0
0 0 0
0 0 0
0 0 0
0 0 0
0 0 0
0 0 0
0 0 0
0 0 0
0 0 0
0 0 0
0 0 0
0 0 0
0 0 0
0 0 0
0 0 0
0 0 0
0 0 0
0 0 0
0 0 0
0 0 0
0 0 0
0 0 0
0 0 0
0 0 0
0 0 0
0 0 0
0 0 0
0 0 0
0 0 0
0 0 0
0 0 0
0 0 0
0 0 0
0 0 0
0 0 0
0 0 0
0 0 0
0 0 0
0 0 0
0 0 0
0 0 0
0 0 0
0 0 0
0 0 0
0 0 0
0 0 0
0 0 0
0 0 0
0 0 0
0 0 0
0 0 0
0 0 0
0 0 0
0 0 0
0 0 0
0 0 0
0 0 0
0 0 0
0 0 0
0 0 0
0 0 0
0 0 0
0 0 0
0 0 0
0 0 0
0 0 0
0 0 0
0 0 0
0 0 0
0 0 0
0 0 0
0 0 0
0 0 0
0 0 0
0 0 0
0 0 0
0 0 0
0 0 0
0 0 0
0 0 0
0 0 0
0 0 0
0 0 0
0 0 0
0 0 0
0 0 0
0 0 0
0 0 0
0 0 0
0 0 0
0 0 0
0 0 0
0 0 0
0 0 0
0 0 0
0 0 0
0 0 0
0 0 0
0 0 0
0 0 0
0 0 0
0 0 0
0 0 0
0 0 0
0 0 0
0 0 0
0 0 0
0 0 0
0 0 0
0 0 0
0 0 0
0 0 0
0 0 0
0 0 0
0 0 0
0 0 0
0 0 0
0 0 0
0 0 0
0 0 0
0 0 0
0 0 0
0 0 0
0 0 0
0 0 0
0 0 0
0 0 0
0 0 0
0 0 0
0 0 0
0 0 0
0 0 0
0 0 0
0 0 0
0 0 0
0 0 0
0 0 0
0 0 0
0 0 0
0 0 0
0 0 0
0 0 0
0 0 0
0 0 0
0 0 0
0 0 0
0 0 0
0 0 0
0 0 0
0 0 0
0 0 0
0 0 0
0 0 0
0 0 0
0 0 0
0 0 0
0 0 0
0 0 0
0 0 0
0 0 0
0 0 0
0 0 0
0 0 0
0 0 0
0 0 0
0 0 0
0 0 0
0 0 0
0 0 0
0 0 0
0 0 0
0 0 0
0 0 0
0 0 0
0 0 0
0 0 0
0 0 0
0 0 0
0 0 0
0 0 0
0 0 0
0 0 0
0 0 0
0 0 0
0 0 0
0 0 0
0 0 0
0 0 0
0 0 0
0 0 0
0 0 0
0 0 0
0 0 0
0 0 0
0 0 0
0 0 0
0 0 0
0 0 0
0 0 0
0 0 0
0 0 0
0 0 0
0 0 0
0 0 0
0 0 0
0 0 0
0 0 0
0 0 0
0 0 0
0 0 0
0 0 0
0 0 0
0 0 0
0 0 0
0 0 0
0 0 0
0 0 0
0 0 0
0 0 0
0 0 0
0 0 0
0 0 0
0 0 0
0 0 0
0 0 0
0 0 0
0 0 0
0 0 0
0 0 0
0 0 0
0 0 0
0 0 0
0 0 0
0 0 0
0 0 0
0 0 0
0 0 0
0 0 0
0 0 0
0 0 0
0 0 0
0 0 0
0 0 0
0 0 0
0 0 0
0 0 0
0 0 0
0 0 0
0 0 0
0 0 0
0 0 0
0 0 0
0 0 0
0 0 0
0 0 0
0 0 0
0 0 0
0 0 0
0 0 0
0 0 0
0 0 0
0 0 0
0 0 0
0 0 0
0 0 0
0 0 0
0 0 0
0 0 0
0 0 0
0 0 0
0 0 0
0 0 0
0 0 0
0 0 0
0 0 0
0 0 0
0 0 0
0 0 0
0 0 0
0 0 0
0 0 0
0 0 0
0 0 0
0 0 0
0 0 0
0 0 0
0 0 0
0 0 0
0 0 0
0 0 0
0 0 0
0 0 0
0 0 0
0 0 0
0 0 0
0 0 0
0 0 0
0 0 0
0 0 0
0 0 0
0 0 0
0 0 0
0 0 0
0 0 0
0 0 0
0 0 0
0 0 0
0 0 0
0 0 0
0 0 0
0 0 0
0 0 0
0 0 0
0 0 0
0 0 0
0 0 0
0 0 0
0 0 0
0 0 0
0 0 0
0 0 0
0 0 0
0 0 0
0 0 0
0 0 0
0 0 0
0 0 0
0 0 0
0 0 0
0 0 0
0 0 0
0 0 0
0 0 0
0 0 0
0 0 0
0 0 0
0 0 0
0 0 0
0 0 0
0 0 0
0 0 0
0 0 0
0 0 0
0 0 0
0 0 0
0 0 0
0 0 0
0 0 0
0 0 0
0 0 0
0 0 0
207 154 104
207 154 104
207 154 104
207 154 104
207 154 104
207 154 104
207 154 104
207 154 104
207 154 104
207 154 104
207 154 104
207 154 104
207 154 104
207 154 104
207 154 104
207 154 104
207 154 104
207 154 104
207 154 104
207 154 104
207 154 104
207 154 104
207 154 104
207 154 104
207 154 104
207 154 104
207 154 104
207 154 104
207 154 104
207 154 104
207 154 104
207 154 104
207 154 104
207 154 104
207 154 104
207 154 104
207 154 104
207 154 104
207 154 104
207 154 104
207 154 104
207 154 104
207 154 104
207 154 104
207 154 104
207 154 104
207 154 104
210 157 108
226 180 142
226 180 142
226 180 142
226 180 142
226 180 142
226 180 142
226 180 142
226 180 142
226 180 142
226 180 142
226 180 142
226 180 142
226 180 142
226 180 142
226 180 142
226 180 142
226 180 142
226 180 142
226 180 142
226 180 142
226 180 142
226 180 142
226 180 142
226 180 142
226 180 142
226 180 142
226 180 142
226 180 142
226 180 142
226 180 142
226 180 142
226 180 142
226 180 142
226 180 142
226 180 142
226 180 142
226 180 142
226 180 142
226 180 142
226 180 142
226 180 142
226 180 142
226 180 142
226 180 142
226 180 142
226 180 142
226 180 142
229 184 148
193 144 99
193 144 99
193 144 99
193 144 99
193 144 99
193 144 99
193 144 99
193 144 99
193 144 99
193 144 99
193 144 99
193 144 99
193 144 99
193 144 99
193 144 99
193 144 99
193 144 99
193 144 99
193 144 99
193 144 99
193 144 99
193 144 99
193 144 99
193 144 99
193 144 99
193 144 99
193 144 99
193 144 99
193 144 99
193 144 99
193 144 99
193 144 99
193 144 99
193 144 99
193 144 99
193 144 99
193 144 99
193 144 99
193 144 99
193 144 99
193 144 99
193 144 99
193 144 99
193 144 99
193 144 99
193 144 99
193 144 99
195 146 100
149 111 76
149 111 76
149 111 76
149 111 76
149 111 76
149 111 76
149 111 76
149 111 76
149 111 76
149 111 76
149 111 76
149 111 76
149 111 76
149 111 76
149 111 76
149 111 76
149 111 76
149 111 76
149 111 76
149 111 76
149 111 76
149 111 76
149 111 76
149 111 76
149 111 76
149 111 76
149 111 76
149 111 76
149 111 76
149 111 76
149 111 76
149 111 76
149 111 76
149 111 76
149 111 76
149 111 76
149 111 76
149 111 76
149 111 76
149 111 76
149 111 76
149 111 76
149 111 76
149 111 76
149 111 76
149 111 76
149 111 76
165 123 83
0 0 0
0 0 0
0 0 0
0 0 0
0 0 0
0 0 0
0 0 0
0 0 0
0 0 0
0 0 0
0 0 0
0 0 0
0 0 0
0 0 0
0 0 0
0 0 0
0 0 0
0 0 0
0 0 0
0 0 0
0 0 0
0 0 0
0 0 0
0 0 0
0 0 0
0 0 0
0 0 0
0 0 0
0 0 0
0 0 0
0 0 0
0 0 0
0 0 0
0 0 0
0 0 0
0 0 0
0 0 0
0 0 0
0 0 0
0 0 0
0 0 0
0 0 0
0 0 0
0 0 0
0 0 0
0 0 0
0 0 0
0 0 0
0 0 0
0 0 0
0 0 0
0 0 0
0 0 0
0 0 0
0 0 0
0 0 0
0 0 0
0 0 0
0 0 0
0 0 0
0 0 0
0 0 0
0 0 0
0 0 0
207 154 104
207 154 104
207 154 104
207 154 104
207 154 104
207 154 104
207 154 104
207 154 104
207 154 104
207 154 104
207 154 104
207 154 104
207 154 104
207 154 104
207 154 104
207 154 104
207 154 104
207 154 104
207 154 104
207 154 104
207 154 104
207 154 104
207 154 104
207 154 104
207 154 104
207 154 104
207 154 104
207 154 104
207 154 104
207 154 104
207 154 104
207 154 104
207 154 104
207 154 104
207 154 104
207 154 104
207 154 104
207 154 104
207 154 104
207 154 104
207 154 104
207 154 104
207 154 104
207 154 104
207 154 104
207 154 104
210 157 108
210 157 108
226 180 142
226 180 142
226 180 142
226 180 142
226 180 142
226 180 142
226 180 142
226 180 142
226 180 142
226 180 142
226 180 142
226 180 142
226 180 142
226 180 142
226 180 142
226 180 142
226 180 142
226 180 142
226 180 142
226 180 142
226 180 142
226 180 142
226 180 142
226 180 142
226 180 142
226 180 142
226 180 142
226 180 142
226 180 142
226 180 142
226 180 142
226 180 142
226 180 142
226 180 142
226 180 142
226 180 142
226 180 142
226 180 142
226 180 142
226 180 142
226 180 142
226 180 142
226 180 142
226 180 142
226 180 142
226 180 142
229 184 148
229 184 148
193 144 99
193 144 99
193 144 99
193 144 99
193 144 99
193 144 99
193 144 99
193 144 99
193 144 99
193 144 99
193 144 99
193 144 99
193 144 99
193 144 99
193 144 99
193 144 99
193 144 99
193 144 99
193 144 99
193 144 99
193 144 99
193 144 99
193 144 99
193 144 99
193 144 99
193 144 99
193 144 99
193 144 99
193 144 99
193 144 99
193 144 99
193 144 99
193 144 99
193 144 99
193 144 99
193 144 99
193 144 99
193 144 99
193 144 99
193 144 99
193 144 99
193 144 99
193 144 99
193 144 99
193 144 99
193 144 99
195 146 100
195 146 100
149 111 76
149 111 76
149 111 76
149 111 76
149 111 76
149 111 76
149 111 76
149 111 76
149 111 76
149 111 76
149 111 76
149 111 76
149 111 76
149 111 76
149 111 76
149 111 76
149 111 76
149 111 76
149 111 76
149 111 76
149 111 76
149 111 76
149 111 76
149 111 76
149 111 76
149 111 76
149 111 76
149 111 76
149 111 76
149 111 76
149 111 76
149 111 76
149 111 76
149 111 76
149 111 76
149 111 76
149 111 76
149 111 76
149 111 76
149 111 76
149 111 76
149 111 76
149 111 76
149 111 76
149 111 76
149 111 76
165 123 83
165 123 83
0 0 0
0 0 0
0 0 0
0 0 0
0 0 0
0 0 0
0 0 0
0 0 0
0 0 0
0 0 0
0 0 0
0 0 0
0 0 0
0 0 0
0 0 0
0 0 0
0 0 0
0 0 0
0 0 0
0 0 0
0 0 0
0 0 0
0 0 0
0 0 0
0 0 0
0 0 0
0 0 0
0 0 0
0 0 0
0 0 0
0 0 0
0 0 0
0 0 0
0 0 0
0 0 0
0 0 0
0 0 0
0 0 0
0 0 0
0 0 0
0 0 0
0 0 0
0 0 0
0 0 0
0 0 0
0 0 0
0 0 0
0 0 0
0 0 0
0 0 0
0 0 0
0 0 0
0 0 0
0 0 0
0 0 0
0 0 0
0 0 0
0 0 0
0 0 0
0 0 0
0 0 0
0 0 0
0 0 0
0 0 0
207 154 104
207 154 104
207 154 104
207 154 104
207 154 104
207 154 104
207 154 104
207 154 104
207 154 104
207 154 104
207 154 104
207 154 104
207 154 104
207 154 104
207 154 104
207 154 104
207 154 104
207 154 104
207 154 104
207 154 104
207 154 104
207 154 104
207 154 104
207 154 104
207 154 104
207 154 104
207 154 104
207 154 104
207 154 104
207 154 104
207 154 104
207 154 104
207 154 104
207 154 104
207 154 104
207 154 104
207 154 104
207 154 104
207 154 104
207 154 104
207 154 104
207 154 104
207 154 104
207 154 104
210 157 108
210 157 108
210 157 108
210 157 108
226 180 142
226 180 142
226 180 142
226 180 142
226 180 142
226 180 142
226 180 142
226 180 142
226 180 142
226 180 142
226 180 142
226 180 142
226 180 142
226 180 142
226 180 142
226 180 142
226 180 142
226 180 142
226 180 142
226 180 142
226 180 142
226 180 142
226 180 142
226 180 142
226 180 142
226 180 142
226 180 142
226 180 142
226 180 142
226 180 142
226 180 142
226 180 142
226 180 142
226 180 142
226 180 142
226 180 142
226 180 142
226 180 142
226 180 142
226 180 142
226 180 142
226 180 142
226 180 142
226 180 142
229 184 148
229 184 148
229 184 148
229 184 148
193 144 99
193 144 99
193 144 99
193 144 99
193 144 99
193 144 99
193 144 99
193 144 99
193 144 99
193 144 99
193 144 99
193 144 99
193 144 99
193 144 99
193 144 99
193 144 99
193 144 99
193 144 99
193 144 99
193 144 99
193 144 99
193 144 99
193 144 99
193 144 99
193 144 99
193 144 99
193 144 99
193 144 99
193 144 99
193 144 99
193 144 99
193 144 99
193 144 99
193 144 99
193 144 99
193 144 99
193 144 99
193 144 99
193 144 99
193 144 99
193 144 99
193 144 99
193 144 99
193 144 99
195 146 100
195 146 100
195 146 100
195 146 100
149 111 76
149 111 76
149 111 76
149 111 76
149 111 76
149 111 76
149 111 76
149 111 76
149 111 76
149 111 76
149 111 76
149 111 76
149 111 76
149 111 76
149 111 76
149 111 76
149 111 76
149 111 76
149 111 76
149 111 76
149 111 76
149 111 76
149 111 76
149 111 76
149 111 76
149 111 76
149 111 76
149 111 76
149 111 76
149 111 76
149 111 76
149 111 76
149 111 76
149 111 76
149 111 76
149 111 76
149 111 76
149 111 76
149 111 76
149 111 76
149 111 76
149 111 76
149 111 76
149 111 76
165 123 83
165 123 83
165 123 83
165 123 83
0 0 0
0 0 0
0 0 0
0 0 0
0 0 0
0 0 0
0 0 0
0 0 0
0 0 0
0 0 0
0 0 0
0 0 0
0 0 0
0 0 0
0 0 0
0 0 0
0 0 0
0 0 0
0 0 0
0 0 0
0 0 0
0 0 0
0 0 0
0 0 0
0 0 0
0 0 0
0 0 0
0 0 0
0 0 0
0 0 0
0 0 0
0 0 0
0 0 0
0 0 0
0 0 0
0 0 0
0 0 0
0 0 0
0 0 0
0 0 0
0 0 0
0 0 0
0 0 0
0 0 0
0 0 0
0 0 0
0 0 0
0 0 0
0 0 0
0 0 0
0 0 0
0 0 0
0 0 0
0 0 0
0 0 0
0 0 0
0 0 0
0 0 0
0 0 0
0 0 0
0 0 0
0 0 0
0 0 0
0 0 0
207 154 104
207 154 104
207 154 104
207 154 104
207 154 104
207 154 104
207 154 104
207 154 104
207 154 104
207 154 104
207 154 104
207 154 104
207 154 104
207 154 104
207 154 104
207 154 104
207 154 104
207 154 104
207 154 104
207 154 104
207 154 104
207 154 104
207 154 104
207 154 104
207 154 104
207 154 104
207 154 104
207 154 104
207 154 104
207 154 104
207 154 104
207 154 104
207 154 104
207 154 104
207 154 104
207 154 104
207 154 104
207 154 104
207 154 104
207 154 104
207 154 104
207 154 104
207 154 104
210 157 108
210 157 108
210 157 108
210 157 108
210 157 108
226 180 142
226 180 142
226 180 142
226 180 142
226 180 142
226 180 142
226 180 142
226 180 142
226 180 142
226 180 142
226 180 142
226 180 142
226 180 142
226 180 142
226 180 142
226 180 142
226 180 142
226 180 142
226 180 142
226 180 142
226 180 142
226 180 142
226 180 142
226 180 142
226 180 142
226 180 142
226 180 142
226 180 142
226 180 142
226 180 142
226 180 142
226 180 142
226 180 142
226 180 142
226 180 142
226 180 142
226 180 142
226 180 142
226 180 142
226 180 142
226 180 142
226 180 142
226 180 142
229 184 148
229 184 148
229 184 148
229 184 148
229 184 148
193 144 99
193 144 99
193 144 99
193 144 99
193 144 99
193 144 99
193 144 99
193 144 99
193 144 99
193 144 99
193 144 99
193 144 99
193 144 99
193 144 99
193 144 99
193 144 99
193 144 99
193 144 99
193 144 99
193 144 99
193 144 99
193 144 99
193 144 99
193 144 99
193 144 99
193 144 99
193 144 99
193 144 99
193 144 99
193 144 99
193 144 99
193 144 99
193 144 99
193 144 99
193 144 99
193 144 99
193 144 99
193 144 99
193 144 99
193 144 99
193 144 99
193 144 99
193 144 99
195 146 100
195 146 100
195 146 100
195 146 100
195 146 100
149 111 76
149 111 76
149 111 76
149 111 76
149 111 76
149 111 76
149 111 76
149 111 76
149 111 76
149 111 76
149 111 76
149 111 76
149 111 76
149 111 76
149 111 76
149 111 76
149 111 76
149 111 76
149 111 76
149 111 76
149 111 76
149 111 76
149 111 76
149 111 76
149 111 76
149 111 76
149 111 76
149 111 76
149 111 76
149 111 76
149 111 76
149 111 76
149 111 76
149 111 76
149 111 76
149 111 76
149 111 76
149 111 76
149 111 76
149 111 76
149 111 76
149 111 76
149 111 76
165 123 83
165 123 83
165 123 83
165 123 83
165 123 83
0 0 0
0 0 0
0 0 0
0 0 0
0 0 0
0 0 0
0 0 0
0 0 0
0 0 0
0 0 0
0 0 0
0 0 0
0 0 0
0 0 0
0 0 0
0 0 0
0 0 0
0 0 0
0 0 0
0 0 0
0 0 0
0 0 0
0 0 0
0 0 0
0 0 0
0 0 0
0 0 0
0 0 0
0 0 0
0 0 0
0 0 0
0 0 0
0 0 0
0 0 0
0 0 0
0 0 0
0 0 0
0 0 0
0 0 0
0 0 0
0 0 0
0 0 0
0 0 0
0 0 0
0 0 0
0 0 0
0 0 0
0 0 0
0 0 0
0 0 0
0 0 0
0 0 0
0 0 0
0 0 0
0 0 0
0 0 0
0 0 0
0 0 0
0 0 0
0 0 0
0 0 0
0 0 0
0 0 0
0 0 0
207 154 104
207 154 104
207 154 104
207 154 104
207 154 104
207 154 104
207 154 104
207 154 104
207 154 104
207 154 104
207 154 104
207 154 104
207 154 104
207 154 104
207 154 104
207 154 104
207 154 104
207 154 104
207 154 104
207 154 104
207 154 104
207 154 104
207 154 104
207 154 104
207 154 104
207 154 104
207 154 104
207 154 104
207 154 104
207 154 104
207 154 104
207 154 104
207 154 104
207 154 104
207 154 104
207 154 104
207 154 104
207 154 104
207 154 104
207 154 104
207 154 104
210 157 108
210 157 108
210 157 108
210 157 108
210 157 108
210 157 108
210 157 108
226 180 142
226 180 142
226 180 142
226 180 142
226 180 142
226 180 142
226 180 142
226 180 142
226 180 142
226 180 142
226 180 142
226 180 142
226 180 142
226 180 142
226 180 142
226 180 142
226 180 142
226 180 142
226 180 142
226 180 142
226 180 142
226 180 142
226 180 142
226 180 142
226 180 142
226 180 142
226 180 142
226 180 142
226 180 142
226 180 142
226 180 142
226 180 142
226 180 142
226 180 142
226 180 142
226 180 142
226 180 142
226 180 142
226 180 142
226 180 142
226 180 142
229 184 148
229 184 148
229 184 148
229 184 148
229 184 148
229 184 148
229 184 148
193 144 99
193 144 99
193 144 99
193 144 99
193 144 99
193 144 99
193 144 99
193 144 99
193 144 99
193 144 99
193 144 99
193 144 99
193 144 99
193 144 99
193 144 99
193 144 99
193 144 99
193 144 99
193 144 99
193 144 99
193 144 99
193 144 99
193 144 99
193 144 99
193 144 99
193 144 99
193 144 99
193 144 99
193 144 99
193 144 99
193 144 99
193 144 99
193 144 99
193 144 99
193 144 99
193 144 99
193 144 99
193 144 99
193 144 99
193 144 99
193 144 99
195 146 100
195 146 100
195 146 100
195 146 100
195 146 100
195 146 100
195 146 100
149 111 76
149 111 76
149 111 76
149 111 76
149 111 76
149 111 76
149 111 76
149 111 76
149 111 76
149 111 76
149 111 76
149 111 76
149 111 76
149 111 76
149 111 76
149 111 76
149 111 76
149 111 76
149 111 76
149 111 76
149 111 76
149 111 76
149 111 76
149 111 76
149 111 76
149 111 76
149 111 76
149 111 76
149 111 76
149 111 76
149 111 76
149 111 76
149 111 76
149 111 76
149 111 76
149 111 76
149 111 76
149 111 76
149 111 76
149 111 76
149 111 76
165 123 83
165 123 83
165 123 83
165 123 83
165 123 83
165 123 83
165 123 83
0 0 0
0 0 0
0 0 0
0 0 0
0 0 0
0 0 0
0 0 0
0 0 0
0 0 0
0 0 0
0 0 0
0 0 0
0 0 0
0 0 0
0 0 0
0 0 0
0 0 0
0 0 0
0 0 0
0 0 0
0 0 0
0 0 0
0 0 0
0 0 0
0 0 0
0 0 0
0 0 0
0 0 0
0 0 0
0 0 0
0 0 0
0 0 0
0 0 0
0 0 0
0 0 0
0 0 0
0 0 0
0 0 0
0 0 0
0 0 0
0 0 0
0 0 0
0 0 0
0 0 0
0 0 0
0 0 0
0 0 0
0 0 0
0 0 0
0 0 0
0 0 0
0 0 0
0 0 0
0 0 0
0 0 0
0 0 0
0 0 0
0 0 0
0 0 0
0 0 0
0 0 0
0 0 0
0 0 0
0 0 0
207 154 104
207 154 104
207 154 104
207 154 104
207 154 104
207 154 104
207 154 104
207 154 104
207 154 104
207 154 104
207 154 104
207 154 104
207 154 104
207 154 104
207 154 104
207 154 104
207 154 104
207 154 104
207 154 104
207 154 104
207 154 104
207 154 104
207 154 104
207 154 104
207 154 104
207 154 104
207 154 104
207 154 104
207 154 104
207 154 104
207 154 104
207 154 104
207 154 104
207 154 104
207 154 104
207 154 104
207 154 104
207 154 104
207 154 104
207 154 104
210 157 108
210 157 108
210 157 108
210 157 108
210 157 108
210 157 108
210 157 108
210 157 108
226 180 142
226 180 142
226 180 142
226 180 142
226 180 142
226 180 142
226 180 142
226 180 142
226 180 142
226 180 142
226 180 142
226 180 142
226 180 142
226 180 142
226 180 142
226 180 142
226 180 142
226 180 142
226 180 142
226 180 142
226 180 142
226 180 142
226 180 142
226 180 142
226 180 142
226 180 142
226 180 142
226 180 142
226 180 142
226 180 142
226 180 142
226 180 142
226 180 142
226 180 142
226 180 142
226 180 142
226 180 142
226 180 142
226 180 142
226 180 142
229 184 148
229 184 148
229 184 148
229 184 148
229 184 148
229 184 148
229 184 148
229 184 148
193 144 99
193 144 99
193 144 99
193 144 99
193 144 99
193 144 99
193 144 99
193 144 99
193 144 99
193 144 99
193 144 99
193 144 99
193 144 99
193 144 99
193 144 99
193 144 99
193 144 99
193 144 99
193 144 99
193 144 99
193 144 99
193 144 99
193 144 99
193 144 99
193 144 99
193 144 99
193 144 99
193 144 99
193 144 99
193 144 99
193 144 99
193 144 99
193 144 99
193 144 99
193 144 99
193 144 99
193 144 99
193 144 99
193 144 99
193 144 99
195 146 100
195 146 100
195 146 100
195 146 100
195 146 100
195 146 100
195 146 100
195 146 100
149 111 76
149 111 76
149 111 76
149 111 76
149 111 76
149 111 76
149 111 76
149 111 76
149 111 76
149 111 76
149 111 76
149 111 76
149 111 76
149 111 76
149 111 76
149 111 76
149 111 76
149 111 76
149 111 76
149 111 76
149 111 76
149 111 76
149 111 76
149 111 76
149 111 76
149 111 76
149 111 76
149 111 76
149 111 76
149 111 76
149 111 76
149 111 76
149 111 76
149 111 76
149 111 76
149 111 76
149 111 76
149 111 76
149 111 76
149 111 76
165 123 83
165 123 83
165 123 83
165 123 83
165 123 83
165 123 83
165 123 83
165 123 83
0 0 0
0 0 0
0 0 0
0 0 0
0 0 0
0 0 0
0 0 0
0 0 0
0 0 0
0 0 0
0 0 0
0 0 0
0 0 0
0 0 0
0 0 0
0 0 0
0 0 0
0 0 0
0 0 0
0 0 0
0 0 0
0 0 0
0 0 0
0 0 0
0 0 0
0 0 0
0 0 0
0 0 0
0 0 0
0 0 0
0 0 0
0 0 0
0 0 0
0 0 0
0 0 0
0 0 0
0 0 0
0 0 0
0 0 0
0 0 0
0 0 0
0 0 0
0 0 0
0 0 0
0 0 0
0 0 0
0 0 0
0 0 0
0 0 0
0 0 0
0 0 0
0 0 0
0 0 0
0 0 0
0 0 0
0 0 0
0 0 0
0 0 0
0 0 0
0 0 0
0 0 0
0 0 0
0 0 0
0 0 0
207 154 104
207 154 104
207 154 104
207 154 104
207 154 104
207 154 104
207 154 104
207 154 104
207 154 104
207 154 104
207 154 104
207 154 104
207 154 104
207 154 104
207 154 104
207 154 104
207 154 104
207 154 104
207 154 104
207 154 104
207 154 104
207 154 104
207 154 104
207 154 104
207 154 104
207 154 104
207 154 104
207 154 104
207 154 104
207 154 104
207 154 104
207 154 104
207 154 104
207 154 104
207 154 104
207 154 104
207 154 104
207 154 104
210 157 108
210 157 108
210 157 108
210 157 108
210 157 108
210 157 108
210 157 108
210 157 108
210 157 108
210 157 108
226 180 142
226 180 142
226 180 142
226 180 142
226 180 142
226 180 142
226 180 142
226 180 142
226 180 142
226 180 142
226 180 142
226 180 142
226 180 142
226 180 142
226 180 142
226 180 142
226 180 142
226 180 142
226 180 142
226 180 142
226 180 142
226 180 142
226 180 142
226 180 142
226 180 142
226 180 142
226 180 142
226 180 142
226 180 142
226 180 142
226 180 142
226 180 142
226 180 142
226 180 142
226 180 142
226 180 142
226 180 142
226 180 142
229 184 148
229 184 148
229 184 148
229 184 148
229 184 148
229 184 148
229 184 148
229 184 148
229 184 148
229 184 148
193 144 99
193 144 99
193 144 99
193 144 99
193 144 99
193 144 99
193 144 99
193 144 99
193 144 99
193 144 99
193 144 99
193 144 99
193 144 99
193 144 99
193 144 99
193 144 99
193 144 99
193 144 99
193 144 99
193 144 99
193 144 99
193 144 99
193 144 99
193 144 99
193 144 99
193 144 99
193 144 99
193 144 99
193 144 99
193 144 99
193 144 99
193 144 99
193 144 99
193 144 99
193 144 99
193 144 99
193 144 99
193 144 99
195 146 100
195 146 100
195 146 100
195 146 100
195 146 100
195 146 100
195 146 100
195 146 100
195 146 100
195 146 100
149 111 76
149 111 76
149 111 76
149 111 76
149 111 76
149 111 76
149 111 76
149 111 76
149 111 76
149 111 76
149 111 76
149 111 76
149 111 76
149 111 76
149 111 76
149 111 76
149 111 76
149 111 76
149 111 76
149 111 76
149 111 76
149 111 76
149 111 76
149 111 76
149 111 76
149 111 76
149 111 76
149 111 76
149 111 76
149 111 76
149 111 76
149 111 76
149 111 76
149 111 76
149 111 76
149 111 76
149 111 76
149 111 76
165 123 83
165 123 83
165 123 83
165 123 83
165 123 83
165 123 83
165 123 83
165 123 83
165 123 83
165 123 83
0 0 0
0 0 0
0 0 0
0 0 0
0 0 0
0 0 0
0 0 0
0 0 0
0 0 0
0 0 0
0 0 0
0 0 0
0 0 0
0 0 0
0 0 0
0 0 0
0 0 0
0 0 0
0 0 0
0 0 0
0 0 0
0 0 0
0 0 0
0 0 0
0 0 0
0 0 0
0 0 0
0 0 0
0 0 0
0 0 0
0 0 0
0 0 0
0 0 0
0 0 0
0 0 0
0 0 0
0 0 0
0 0 0
0 0 0
0 0 0
0 0 0
0 0 0
0 0 0
0 0 0
0 0 0
0 0 0
0 0 0
0 0 0
0 0 0
0 0 0
0 0 0
0 0 0
0 0 0
0 0 0
0 0 0
0 0 0
0 0 0
0 0 0
0 0 0
0 0 0
0 0 0
0 0 0
0 0 0
0 0 0
207 154 104
207 154 104
207 154 104
207 154 104
207 154 104
207 154 104
207 154 104
207 154 104
207 154 104
207 154 104
207 154 104
207 154 104
207 154 104
207 154 104
207 154 104
207 154 104
207 154 104
207 154 104
207 154 104
207 154 104
207 154 104
207 154 104
207 154 104
207 154 104
207 154 104
207 154 104
207 154 104
207 154 104
207 154 104
207 154 104
207 154 104
207 154 104
207 154 104
207 154 104
207 154 104
207 154 104
207 154 104
210 157 108
210 157 108
210 157 108
210 157 108
210 157 108
210 157 108
210 157 108
210 157 108
210 157 108
210 157 108
210 157 108
226 180 142
226 180 142
226 180 142
226 180 142
226 180 142
226 180 142
226 180 142
226 180 142
226 180 142
226 180 142
226 180 142
226 180 142
226 180 142
226 180 142
226 180 142
226 180 142
226 180 142
226 180 142
226 180 142
226 180 142
226 180 142
226 180 142
226 180 142
226 180 142
226 180 142
226 180 142
226 180 142
226 180 142
226 180 142
226 180 142
226 180 142
226 180 142
226 180 142
226 180 142
226 180 142
226 180 142
226 180 142
229 184 148
229 184 148
229 184 148
229 184 148
229 184 148
229 184 148
229 184 148
229 184 148
229 184 148
229 184 148
229 184 148
193 144 99
193 144 99
193 144 99
193 144 99
193 144 99
193 144 99
193 144 99
193 144 99
193 144 99
193 144 99
193 144 99
193 144 99
193 144 99
193 144 99
193 144 99
193 144 99
193 144 99
193 144 99
193 144 99
193 144 99
193 144 99
193 144 99
193 144 99
193 144 99
193 144 99
193 144 99
193 144 99
193 144 99
193 144 99
193 144 99
193 144 99
193 144 99
193 144 99
193 144 99
193 144 99
193 144 99
193 144 99
195 146 100
195 146 100
195 146 100
195 146 100
195 146 100
195 146 100
195 146 100
195 146 100
195 146 100
195 146 100
195 146 100
149 111 76
149 111 76
149 111 76
149 111 76
149 111 76
149 111 76
149 111 76
149 111 76
149 111 76
149 111 76
149 111 76
149 111 76
149 111 76
149 111 76
149 111 76
149 111 76
149 111 76
149 111 76
149 111 76
149 111 76
149 111 76
149 111 76
149 111 76
149 111 76
149 111 76
149 111 76
149 111 76
149 111 76
149 111 76
149 111 76
149 111 76
149 111 76
149 111 76
149 111 76
149 111 76
149 111 76
149 111 76
165 123 83
165 123 83
165 123 83
165 123 83
165 123 83
165 123 83
165 123 83
165 123 83
165 123 83
165 123 83
165 123 83
0 0 0
0 0 0
0 0 0
0 0 0
0 0 0
0 0 0
0 0 0
0 0 0
0 0 0
0 0 0
0 0 0
0 0 0
0 0 0
0 0 0
0 0 0
0 0 0
0 0 0
0 0 0
0 0 0
0 0 0
0 0 0
0 0 0
0 0 0
0 0 0
0 0 0
0 0 0
0 0 0
0 0 0
0 0 0
0 0 0
0 0 0
0 0 0
0 0 0
0 0 0
0 0 0
0 0 0
0 0 0
0 0 0
0 0 0
0 0 0
0 0 0
0 0 0
0 0 0
0 0 0
0 0 0
0 0 0
0 0 0
0 0 0
0 0 0
0 0 0
0 0 0
0 0 0
0 0 0
0 0 0
0 0 0
0 0 0
0 0 0
0 0 0
0 0 0
0 0 0
0 0 0
0 0 0
0 0 0
0 0 0
207 154 104
207 154 104
207 154 104
207 154 104
207 154 104
207 154 104
207 154 104
207 154 104
207 154 104
207 154 104
207 154 104
207 154 104
207 154 104
207 154 104
207 154 104
207 154 104
207 154 104
207 154 104
207 154 104
207 154 104
207 154 104
207 154 104
207 154 104
207 154 104
207 154 104
207 154 104
207 154 104
207 154 104
207 154 104
207 154 104
207 154 104
207 154 104
207 154 104
207 154 104
207 154 104
210 157 108
210 157 108
210 157 108
210 157 108
210 157 108
210 157 108
210 157 108
210 157 108
210 157 108
210 157 108
210 157 108
210 157 108
210 157 108
226 180 142
226 180 142
226 180 142
226 180 142
226 180 142
226 180 142
226 180 142
226 180 142
226 180 142
226 180 142
226 180 142
226 180 142
226 180 142
226 180 142
226 180 142
226 180 142
226 180 142
226 180 142
226 180 142
226 180 142
226 180 142
226 180 142
226 180 142
226 180 142
226 180 142
226 180 142
226 180 142
226 180 142
226 180 142
226 180 142
226 180 142
226 180 142
226 180 142
226 180 142
226 180 142
229 184 148
229 184 148
229 184 148
229 184 148
229 184 148
229 184 148
229 184 148
229 184 148
229 184 148
229 184 148
229 184 148
229 184 148
229 184 148
193 144 99
193 144 99
193 144 99
193 144 99
193 144 99
193 144 99
193 144 99
193 144 99
193 144 99
193 144 99
193 144 99
193 144 99
193 144 99
193 144 99
193 144 99
193 144 99
193 144 99
193 144 99
193 144 99
193 144 99
193 144 99
193 144 99
193 144 99
193 144 99
193 144 99
193 144 99
193 144 99
193 144 99
193 144 99
193 144 99
193 144 99
193 144 99
193 144 99
193 144 99
193 144 99
195 146 100
195 146 100
195 146 100
195 146 100
195 146 100
195 146 100
195 146 100
195 146 100
195 146 100
195 146 100
195 146 100
195 146 100
195 146 100
149 111 76
149 111 76
149 111 76
149 111 76
149 111 76
149 111 76
149 111 76
149 111 76
149 111 76
149 111 76
149 111 76
149 111 76
149 111 76
149 111 76
149 111 76
149 111 76
149 111 76
149 111 76
149 111 76
149 111 76
149 111 76
149 111 76
149 111 76
149 111 76
149 111 76
149 111 76
149 111 76
149 111 76
149 111 76
149 111 76
149 111 76
149 111 76
149 111 76
149 111 76
149 111 76
165 123 83
165 123 83
165 123 83
165 123 83
165 123 83
165 123 83
165 123 83
165 123 83
165 123 83
165 123 83
165 123 83
165 123 83
165 123 83
0 0 0
0 0 0
0 0 0
0 0 0
0 0 0
0 0 0
0 0 0
0 0 0
0 0 0
0 0 0
0 0 0
0 0 0
0 0 0
0 0 0
0 0 0
0 0 0
0 0 0
0 0 0
0 0 0
0 0 0
0 0 0
0 0 0
0 0 0
0 0 0
0 0 0
0 0 0
0 0 0
0 0 0
0 0 0
0 0 0
0 0 0
0 0 0
0 0 0
0 0 0
0 0 0
0 0 0
0 0 0
0 0 0
0 0 0
0 0 0
0 0 0
0 0 0
0 0 0
0 0 0
0 0 0
0 0 0
0 0 0
0 0 0
0 0 0
0 0 0
0 0 0
0 0 0
0 0 0
0 0 0
0 0 0
0 0 0
0 0 0
0 0 0
0 0 0
0 0 0
0 0 0
0 0 0
0 0 0
0 0 0
207 154 104
207 154 104
207 154 104
207 154 104
207 154 104
207 154 104
207 154 104
207 154 104
207 154 104
207 154 104
207 154 104
207 154 104
207 154 104
207 154 104
207 154 104
207 154 104
207 154 104
207 154 104
207 154 104
207 154 104
207 154 104
207 154 104
207 154 104
207 154 104
207 154 104
207 154 104
207 154 104
207 154 104
207 154 104
207 154 104
207 154 104
207 154 104
207 154 104
207 154 104
210 157 108
210 157 108
210 157 108
210 157 108
210 157 108
210 157 108
210 157 108
210 157 108
210 157 108
210 157 108
210 157 108
210 157 108
210 157 108
210 157 108
226 180 142
226 180 142
226 180 142
226 180 142
226 180 142
226 180 142
226 180 142
226 180 142
226 180 142
226 180 142
226 180 142
226 180 142
226 180 142
226 180 142
226 180 142
226 180 142
226 180 142
226 180 142
226 180 142
226 180 142
226 180 142
226 180 142
226 180 142
226 180 142
226 180 142
226 180 142
226 180 142
226 180 142
226 180 142
226 180 142
226 180 142
226 180 142
226 180 142
226 180 142
229 184 148
229 184 148
229 184 148
229 184 148
229 184 148
229 184 148
229 184 148
229 184 148
229 184 148
229 184 148
229 184 148
229 184 148
229 184 148
229 184 148
193 144 99
193 144 99
193 144 99
193 144 99
193 144 99
193 144 99
193 144 99
193 144 99
193 144 99
193 144 99
193 144 99
193 144 99
193 144 99
193 144 99
193 144 99
193 144 99
193 144 99
193 144 99
193 144 99
193 144 99
193 144 99
193 144 99
193 144 99
193 144 99
193 144 99
193 144 99
193 144 99
193 144 99
193 144 99
193 144 99
193 144 99
193 144 99
193 144 99
193 144 99
195 146 100
195 146 100
195 146 100
195 146 100
195 146 100
195 146 100
195 146 100
195 146 100
195 146 100
195 146 100
195 146 100
195 146 100
195 146 100
195 146 100
149 111 76
149 111 76
149 111 76
149 111 76
149 111 76
149 111 76
149 111 76
149 111 76
149 111 76
149 111 76
149 111 76
149 111 76
149 111 76
149 111 76
149 111 76
149 111 76
149 111 76
149 111 76
149 111 76
149 111 76
149 111 76
149 111 76
149 111 76
149 111 76
149 111 76
149 111 76
149 111 76
149 111 76
149 111 76
149 111 76
149 111 76
149 111 76
149 111 76
149 111 76
165 123 83
165 123 83
165 123 83
165 123 83
165 123 83
165 123 83
165 123 83
165 123 83
165 123 83
165 123 83
165 123 83
165 123 83
165 123 83
165 123 83
0 0 0
0 0 0
0 0 0
0 0 0
0 0 0
0 0 0
0 0 0
0 0 0
0 0 0
0 0 0
0 0 0
0 0 0
0 0 0
0 0 0
0 0 0
0 0 0
0 0 0
0 0 0
0 0 0
0 0 0
0 0 0
0 0 0
0 0 0
0 0 0
0 0 0
0 0 0
0 0 0
0 0 0
0 0 0
0 0 0
0 0 0
0 0 0
0 0 0
0 0 0
0 0 0
0 0 0
0 0 0
0 0 0
0 0 0
0 0 0
0 0 0
0 0 0
0 0 0
0 0 0
0 0 0
0 0 0
0 0 0
0 0 0
0 0 0
0 0 0
0 0 0
0 0 0
0 0 0
0 0 0
0 0 0
0 0 0
0 0 0
0 0 0
0 0 0
0 0 0
0 0 0
0 0 0
0 0 0
0 0 0
207 154 104
207 154 104
207 154 104
207 154 104
207 154 104
207 154 104
207 154 104
207 154 104
207 154 104
207 154 104
207 154 104
207 154 104
207 154 104
207 154 104
207 154 104
207 154 104
207 154 104
207 154 104
207 154 104
207 154 104
207 154 104
207 154 104
207 154 104
207 154 104
207 154 104
207 154 104
207 154 104
207 154 104
207 154 104
207 154 104
207 154 104
207 154 104
210 157 108
210 157 108
210 157 108
210 157 108
210 157 108
210 157 108
210 157 108
210 157 108
210 157 108
210 157 108
210 157 108
210 157 108
210 157 108
210 157 108
210 157 108
210 157 108
226 180 142
226 180 142
226 180 142
226 180 142
226 180 142
226 180 142
226 180 142
226 180 142
226 180 142
226 180 142
226 180 142
226 180 142
226 180 142
226 180 142
226 180 142
226 180 142
226 180 142
226 180 142
226 180 142
226 180 142
226 180 142
226 180 142
226 180 142
226 180 142
226 180 142
226 180 142
226 180 142
226 180 142
226 180 142
226 180 142
226 180 142
226 180 142
229 184 148
229 184 148
229 184 148
229 184 148
229 184 148
229 184 148
229 184 148
229 184 148
229 184 148
229 184 148
229 184 148
229 184 148
229 184 148
229 184 148
229 184 148
229 184 148
193 144 99
193 144 99
193 144 99
193 144 99
193 144 99
193 144 99
193 144 99
193 144 99
193 144 99
193 144 99
193 144 99
193 144 99
193 144 99
193 144 99
193 144 99
193 144 99
193 144 99
193 144 99
193 144 99
193 144 99
193 144 99
193 144 99
193 144 99
193 144 99
193 144 99
193 144 99
193 144 99
193 144 99
193 144 99
193 144 99
193 144 99
193 144 99
195 146 100
195 146 100
195 146 100
195 146 100
195 146 100
195 146 100
195 146 100
195 146 100
195 146 100
195 146 100
195 146 100
195 146 100
195 146 100
195 146 100
195 146 100
195 146 100
149 111 76
149 111 76
149 111 76
149 111 76
149 111 76
149 111 76
149 111 76
149 111 76
149 111 76
149 111 76
149 111 76
149 111 76
149 111 76
149 111 76
149 111 76
149 111 76
149 111 76
149 111 76
149 111 76
149 111 76
149 111 76
149 111 76
149 111 76
149 111 76
149 111 76
149 111 76
149 111 76
149 111 76
149 111 76
149 111 76
149 111 76
149 111 76
165 123 83
165 123 83
165 123 83
165 123 83
165 123 83
165 123 83
165 123 83
165 123 83
165 123 83
165 123 83
165 123 83
165 123 83
165 123 83
165 123 83
165 123 83
165 123 83
0 0 0
0 0 0
0 0 0
0 0 0
0 0 0
0 0 0
0 0 0
0 0 0
0 0 0
0 0 0
0 0 0
0 0 0
0 0 0
0 0 0
0 0 0
0 0 0
0 0 0
0 0 0
0 0 0
0 0 0
0 0 0
0 0 0
0 0 0
0 0 0
0 0 0
0 0 0
0 0 0
0 0 0
0 0 0
0 0 0
0 0 0
0 0 0
0 0 0
0 0 0
0 0 0
0 0 0
0 0 0
0 0 0
0 0 0
0 0 0
0 0 0
0 0 0
0 0 0
0 0 0
0 0 0
0 0 0
0 0 0
0 0 0
0 0 0
0 0 0
0 0 0
0 0 0
0 0 0
0 0 0
0 0 0
0 0 0
0 0 0
0 0 0
0 0 0
0 0 0
0 0 0
0 0 0
0 0 0
0 0 0
207 154 104
207 154 104
207 154 104
207 154 104
207 154 104
207 154 104
207 154 104
207 154 104
207 154 104
207 154 104
207 154 104
207 154 104
207 154 104
207 154 104
207 154 104
207 154 104
207 154 104
207 154 104
207 154 104
207 154 104
207 154 104
207 154 104
207 154 104
207 154 104
207 154 104
207 154 104
207 154 104
207 154 104
207 154 104
207 154 104
207 154 104
210 157 108
210 157 108
210 157 108
210 157 108
210 157 108
210 157 108
210 157 108
210 157 108
210 157 108
210 157 108
210 157 108
210 157 108
210 157 108
210 157 108
210 157 108
210 157 108
210 157 108
226 180 142
226 180 142
226 180 142
226 180 142
226 180 142
226 180 142
226 180 142
226 180 142
226 180 142
226 180 142
226 180 142
226 180 142
226 180 142
226 180 142
226 180 142
226 180 142
226 180 142
226 180 142
226 180 142
226 180 142
226 180 142
226 180 142
226 180 142
226 180 142
226 180 142
226 180 142
226 180 142
226 180 142
226 180 142
226 180 142
226 180 142
229 184 148
229 184 148
229 184 148
229 184 148
229 184 148
229 184 148
229 184 148
229 184 148
229 184 148
229 184 148
229 184 148
229 184 148
229 184 148
229 184 148
229 184 148
229 184 148
229 184 148
193 144 99
193 144 99
193 144 99
193 144 99
193 144 99
193 144 99
193 144 99
193 144 99
193 144 99
193 144 99
193 144 99
193 144 99
193 144 99
193 144 99
193 144 99
193 144 99
193 144 99
193 144 99
193 144 99
193 144 99
193 144 99
193 144 99
193 144 99
193 144 99
193 144 99
193 144 99
193 144 99
193 144 99
193 144 99
193 144 99
193 144 99
195 146 100
195 146 100
195 146 100
195 146 100
195 146 100
195 146 100
195 146 100
195 146 100
195 146 100
195 146 100
195 146 100
195 146 100
195 146 100
195 146 100
195 146 100
195 146 100
195 146 100
149 111 76
149 111 76
149 111 76
149 111 76
149 111 76
149 111 76
149 111 76
149 111 76
149 111 76
149 111 76
149 111 76
149 111 76
149 111 76
149 111 76
149 111 76
149 111 76
149 111 76
149 111 76
149 111 76
149 111 76
149 111 76
149 111 76
149 111 76
149 111 76
149 111 76
149 111 76
149 111 76
149 111 76
149 111 76
149 111 76
149 111 76
165 123 83
165 123 83
165 123 83
165 123 83
165 123 83
165 123 83
165 123 83
165 123 83
165 123 83
165 123 83
165 123 83
165 123 83
165 123 83
165 123 83
165 123 83
165 123 83
165 123 83
0 0 0
0 0 0
0 0 0
0 0 0
0 0 0
0 0 0
0 0 0
0 0 0
0 0 0
0 0 0
0 0 0
0 0 0
0 0 0
0 0 0
0 0 0
0 0 0
0 0 0
0 0 0
0 0 0
0 0 0
0 0 0
0 0 0
0 0 0
0 0 0
0 0 0
0 0 0
0 0 0
0 0 0
0 0 0
0 0 0
0 0 0
0 0 0
0 0 0
0 0 0
0 0 0
0 0 0
0 0 0
0 0 0
0 0 0
0 0 0
0 0 0
0 0 0
0 0 0
0 0 0
0 0 0
0 0 0
0 0 0
0 0 0
0 0 0
0 0 0
0 0 0
0 0 0
0 0 0
0 0 0
0 0 0
0 0 0
0 0 0
0 0 0
0 0 0
0 0 0
0 0 0
0 0 0
0 0 0
0 0 0
207 154 104
207 154 104
207 154 104
207 154 104
207 154 104
207 154 104
207 154 104
207 154 104
207 154 104
207 154 104
207 154 104
207 154 104
207 154 104
207 154 104
207 154 104
207 154 104
207 154 104
207 154 104
207 154 104
207 154 104
207 154 104
207 154 104
207 154 104
207 154 104
207 154 104
207 154 104
207 154 104
207 154 104
207 154 104
210 157 108
210 157 108
210 157 108
210 157 108
210 157 108
210 157 108
210 157 108
210 157 108
210 157 108
210 157 108
210 157 108
210 157 108
210 157 108
210 157 108
210 157 108
210 157 108
210 157 108
210 157 108
210 157 108
226 180 142
226 180 142
226 180 142
226 180 142
226 180 142
226 180 142
226 180 142
226 180 142
226 180 142
226 180 142
226 180 142
226 180 142
226 180 142
226 180 142
226 180 142
226 180 142
226 180 142
226 180 142
226 180 142
226 180 142
226 180 142
226 180 142
226 180 142
226 180 142
226 180 142
226 180 142
226 180 142
226 180 142
226 180 142
229 184 148
229 184 148
229 184 148
229 184 148
229 184 148
229 184 148
229 184 148
229 184 148
229 184 148
229 184 148
229 184 148
229 184 148
229 184 148
229 184 148
229 184 148
229 184 148
229 184 148
229 184 148
229 184 148
193 144 99
193 144 99
193 144 99
193 144 99
193 144 99
193 144 99
193 144 99
193 144 99
193 144 99
193 144 99
193 144 99
193 144 99
193 144 99
193 144 99
193 144 99
193 144 99
193 144 99
193 144 99
193 144 99
193 144 99
193 144 99
193 144 99
193 144 99
193 144 99
193 144 99
193 144 99
193 144 99
193 144 99
193 144 99
195 146 100
195 146 100
195 146 100
195 146 100
195 146 100
195 146 100
195 146 100
195 146 100
195 146 100
195 146 100
195 146 100
195 146 100
195 146 100
195 146 100
195 146 100
195 146 100
195 146 100
195 146 100
195 146 100
149 111 76
149 111 76
149 111 76
149 111 76
149 111 76
149 111 76
149 111 76
149 111 76
149 111 76
149 111 76
149 111 76
149 111 76
149 111 76
149 111 76
149 111 76
149 111 76
149 111 76
149 111 76
149 111 76
149 111 76
149 111 76
149 111 76
149 111 76
149 111 76
149 111 76
149 111 76
149 111 76
149 111 76
149 111 76
165 123 83
165 123 83
165 123 83
165 123 83
165 123 83
165 123 83
165 123 83
165 123 83
165 123 83
165 123 83
165 123 83
165 123 83
165 123 83
165 123 83
165 123 83
165 123 83
165 123 83
165 123 83
165 123 83
0 0 0
0 0 0
0 0 0
0 0 0
0 0 0
0 0 0
0 0 0
0 0 0
0 0 0
0 0 0
0 0 0
0 0 0
0 0 0
0 0 0
0 0 0
0 0 0
0 0 0
0 0 0
0 0 0
0 0 0
0 0 0
0 0 0
0 0 0
0 0 0
0 0 0
0 0 0
0 0 0
0 0 0
0 0 0
0 0 0
0 0 0
0 0 0
0 0 0
0 0 0
0 0 0
0 0 0
0 0 0
0 0 0
0 0 0
0 0 0
0 0 0
0 0 0
0 0 0
0 0 0
0 0 0
0 0 0
0 0 0
0 0 0
0 0 0
0 0 0
0 0 0
0 0 0
0 0 0
0 0 0
0 0 0
0 0 0
0 0 0
0 0 0
0 0 0
0 0 0
0 0 0
0 0 0
0 0 0
0 0 0
207 154 104
207 154 104
207 154 104
207 154 104
207 154 104
207 154 104
207 154 104
207 154 104
207 154 104
207 154 104
207 154 104
207 154 104
207 154 104
207 154 104
207 154 104
207 154 104
207 154 104
207 154 104
207 154 104
207 154 104
207 154 104
207 154 104
207 154 104
207 154 104
207 154 104
207 154 104
207 154 104
207 154 104
210 157 108
210 157 108
210 157 108
210 157 108
210 157 108
210 157 108
210 157 108
210 157 108
210 157 108
210 157 108
210 157 108
210 157 108
210 157 108
210 157 108
210 157 108
210 157 108
210 157 108
210 157 108
210 157 108
210 157 108
226 180 142
226 180 142
226 180 142
226 180 142
226 180 142
226 180 142
226 180 142
226 180 142
226 180 142
226 180 142
226 180 142
226 180 142
226 180 142
226 180 142
226 180 142
226 180 142
226 180 142
226 180 142
226 180 142
226 180 142
226 180 142
226 180 142
226 180 142
226 180 142
226 180 142
226 180 142
226 180 142
226 180 142
229 184 148
229 184 148
229 184 148
229 184 148
229 184 148
229 184 148
229 184 148
229 184 148
229 184 148
229 184 148
229 184 148
229 184 148
229 184 148
229 184 148
229 184 148
229 184 148
229 184 148
229 184 148
229 184 148
229 184 148
193 144 99
193 144 99
193 144 99
193 144 99
193 144 99
193 144 99
193 144 99
193 144 99
193 144 99
193 144 99
193 144 99
193 144 99
193 144 99
193 144 99
193 144 99
193 144 99
193 144 99
193 144 99
193 144 99
193 144 99
193 144 99
193 144 99
193 144 99
193 144 99
193 144 99
193 144 99
193 144 99
193 144 99
195 146 100
195 146 100
195 146 100
195 146 100
195 146 100
195 146 100
195 146 100
195 146 100
195 146 100
195 146 100
195 146 100
195 146 100
195 146 100
195 146 100
195 146 100
195 146 100
195 146 100
195 146 100
195 146 100
195 146 100
149 111 76
149 111 76
149 111 76
149 111 76
149 111 76
149 111 76
149 111 76
149 111 76
149 111 76
149 111 76
149 111 76
149 111 76
149 111 76
149 111 76
149 111 76
149 111 76
149 111 76
149 111 76
149 111 76
149 111 76
149 111 76
149 111 76
149 111 76
149 111 76
149 111 76
149 111 76
149 111 76
149 111 76
165 123 83
165 123 83
165 123 83
165 123 83
165 123 83
165 123 83
165 123 83
165 123 83
165 123 83
165 123 83
165 123 83
165 123 83
165 123 83
165 123 83
165 123 83
165 123 83
165 123 83
165 123 83
165 123 83
165 123 83
0 0 0
0 0 0
0 0 0
0 0 0
0 0 0
0 0 0
0 0 0
0 0 0
0 0 0
0 0 0
0 0 0
0 0 0
0 0 0
0 0 0
0 0 0
0 0 0
0 0 0
0 0 0
0 0 0
0 0 0
0 0 0
0 0 0
0 0 0
0 0 0
0 0 0
0 0 0
0 0 0
0 0 0
0 0 0
0 0 0
0 0 0
0 0 0
0 0 0
0 0 0
0 0 0
0 0 0
0 0 0
0 0 0
0 0 0
0 0 0
0 0 0
0 0 0
0 0 0
0 0 0
0 0 0
0 0 0
0 0 0
0 0 0
0 0 0
0 0 0
0 0 0
0 0 0
0 0 0
0 0 0
0 0 0
0 0 0
0 0 0
0 0 0
0 0 0
0 0 0
0 0 0
0 0 0
0 0 0
0 0 0
207 154 104
207 154 104
207 154 104
207 154 104
207 154 104
207 154 104
207 154 104
207 154 104
207 154 104
207 154 104
207 154 104
207 154 104
207 154 104
207 154 104
207 154 104
207 154 104
207 154 104
207 154 104
207 154 104
207 154 104
207 154 104
207 154 104
207 154 104
207 154 104
207 154 104
207 154 104
210 157 108
210 157 108
210 157 108
210 157 108
210 157 108
210 157 108
210 157 108
210 157 108
210 157 108
210 157 108
210 157 108
210 157 108
210 157 108
210 157 108
210 157 108
210 157 108
210 157 108
210 157 108
210 157 108
210 157 108
210 157 108
210 157 108
226 180 142
226 180 142
226 180 142
226 180 142
226 180 142
226 180 142
226 180 142
226 180 142
226 180 142
226 180 142
226 180 142
226 180 142
226 180 142
226 180 142
226 180 142
226 180 142
226 180 142
226 180 142
226 180 142
226 180 142
226 180 142
226 180 142
226 180 142
226 180 142
226 180 142
226 180 142
229 184 148
229 184 148
229 184 148
229 184 148
229 184 148
229 184 148
229 184 148
229 184 148
229 184 148
229 184 148
229 184 148
229 184 148
229 184 148
229 184 148
229 184 148
229 184 148
229 184 148
229 184 148
229 184 148
229 184 148
229 184 148
229 184 148
193 144 99
193 144 99
193 144 99
193 144 99
193 144 99
193 144 99
193 144 99
193 144 99
193 144 99
193 144 99
193 144 99
193 144 99
193 144 99
193 144 99
193 144 99
193 144 99
193 144 99
193 144 99
193 144 99
193 144 99
193 144 99
193 144 99
193 144 99
193 144 99
193 144 99
193 144 99
195 146 100
195 146 100
195 146 100
195 146 100
195 146 100
195 146 100
195 146 100
195 146 100
195 146 100
195 146 100
195 146 100
195 146 100
195 146 100
195 146 100
195 146 100
195 146 100
195 146 100
195 146 100
195 146 100
195 146 100
195 146 100
195 146 100
149 111 76
149 111 76
149 111 76
149 111 76
149 111 76
149 111 76
149 111 76
149 111 76
149 111 76
149 111 76
149 111 76
149 111 76
149 111 76
149 111 76
149 111 76
149 111 76
149 111 76
149 111 76
149 111 76
149 111 76
149 111 76
149 111 76
149 111 76
149 111 76
149 111 76
149 111 76
165 123 83
165 123 83
165 123 83
165 123 83
165 123 83
165 123 83
165 123 83
165 123 83
165 123 83
165 123 83
165 123 83
165 123 83
165 123 83
165 123 83
165 123 83
165 123 83
165 123 83
165 123 83
165 123 83
165 123 83
165 123 83
165 123 83
0 0 0
0 0 0
0 0 0
0 0 0
0 0 0
0 0 0
0 0 0
0 0 0
0 0 0
0 0 0
0 0 0
0 0 0
0 0 0
0 0 0
0 0 0
0 0 0
0 0 0
0 0 0
0 0 0
0 0 0
0 0 0
0 0 0
0 0 0
0 0 0
0 0 0
0 0 0
0 0 0
0 0 0
0 0 0
0 0 0
0 0 0
0 0 0
0 0 0
0 0 0
0 0 0
0 0 0
0 0 0
0 0 0
0 0 0
0 0 0
0 0 0
0 0 0
0 0 0
0 0 0
0 0 0
0 0 0
0 0 0
0 0 0
0 0 0
0 0 0
0 0 0
0 0 0
0 0 0
0 0 0
0 0 0
0 0 0
0 0 0
0 0 0
0 0 0
0 0 0
0 0 0
0 0 0
0 0 0
0 0 0
207 154 104
207 154 104
207 154 104
207 154 104
207 154 104
207 154 104
207 154 104
207 154 104
207 154 104
207 154 104
207 154 104
207 154 104
207 154 104
207 154 104
207 154 104
207 154 104
207 154 104
207 154 104
207 154 104
207 154 104
207 154 104
207 154 104
207 154 104
207 154 104
207 154 104
210 157 108
210 157 108
210 157 108
210 157 108
210 157 108
210 157 108
210 157 108
210 157 108
210 157 108
210 157 108
210 157 108
210 157 108
210 157 108
210 157 108
210 157 108
210 157 108
210 157 108
210 157 108
210 157 108
210 157 108
210 157 108
210 157 108
210 157 108
226 180 142
226 180 142
226 180 142
226 180 142
226 180 142
226 180 142
226 180 142
226 180 142
226 180 142
226 180 142
226 180 142
226 180 142
226 180 142
226 180 142
226 180 142
226 180 142
226 180 142
226 180 142
226 180 142
226 180 142
226 180 142
226 180 142
226 180 142
226 180 142
226 180 142
229 184 148
229 184 148
229 184 148
229 184 148
229 184 148
229 184 148
229 184 148
229 184 148
229 184 148
229 184 148
229 184 148
229 184 148
229 184 148
229 184 148
229 184 148
229 184 148
229 184 148
229 184 148
229 184 148
229 184 148
229 184 148
229 184 148
229 184 148
193 144 99
193 144 99
193 144 99
193 144 99
193 144 99
193 144 99
193 144 99
193 144 99
193 144 99
193 144 99
193 144 99
193 144 99
193 144 99
193 144 99
193 144 99
193 144 99
193 144 99
193 144 99
193 144 99
193 144 99
193 144 99
193 144 99
193 144 99
193 144 99
193 144 99
195 146 100
195 146 100
195 146 100
195 146 100
195 146 100
195 146 100
195 146 100
195 146 100
195 146 100
195 146 100
195 146 100
195 146 100
195 146 100
195 146 100
195 146 100
195 146 100
195 146 100
195 146 100
195 146 100
195 146 100
195 146 100
195 146 100
195 146 100
149 111 76
149 111 76
149 111 76
149 111 76
149 111 76
149 111 76
149 111 76
149 111 76
149 111 76
149 111 76
149 111 76
149 111 76
149 111 76
149 111 76
149 111 76
149 111 76
149 111 76
149 111 76
149 111 76
149 111 76
149 111 76
149 111 76
149 111 76
149 111 76
149 111 76
165 123 83
165 123 83
165 123 83
165 123 83
165 123 83
165 123 83
165 123 83
165 123 83
165 123 83
165 123 83
165 123 83
165 123 83
165 123 83
165 123 83
165 123 83
165 123 83
165 123 83
165 123 83
165 123 83
165 123 83
165 123 83
165 123 83
165 123 83
0 0 0
0 0 0
0 0 0
0 0 0
0 0 0
0 0 0
0 0 0
0 0 0
0 0 0
0 0 0
0 0 0
0 0 0
0 0 0
0 0 0
0 0 0
0 0 0
0 0 0
0 0 0
0 0 0
0 0 0
0 0 0
0 0 0
0 0 0
0 0 0
0 0 0
0 0 0
0 0 0
0 0 0
0 0 0
0 0 0
0 0 0
0 0 0
0 0 0
0 0 0
0 0 0
0 0 0
0 0 0
0 0 0
0 0 0
0 0 0
0 0 0
0 0 0
0 0 0
0 0 0
0 0 0
0 0 0
0 0 0
0 0 0
0 0 0
0 0 0
0 0 0
0 0 0
0 0 0
0 0 0
0 0 0
0 0 0
0 0 0
0 0 0
0 0 0
0 0 0
0 0 0
0 0 0
0 0 0
0 0 0
207 154 104
207 154 104
207 154 104
207 154 104
207 154 104
207 154 104
207 154 104
207 154 104
207 154 104
207 154 104
207 154 104
207 154 104
207 154 104
207 154 104
207 154 104
207 154 104
207 154 104
207 154 104
207 154 104
207 154 104
207 154 104
207 154 104
207 154 104
210 157 108
210 157 108
210 157 108
210 157 108
210 157 108
210 157 108
210 157 108
210 157 108
210 157 108
210 157 108
210 157 108
210 157 108
210 157 108
210 157 108
210 157 108
210 157 108
210 157 108
210 157 108
210 157 108
210 157 108
210 157 108
210 157 108
210 157 108
210 157 108
210 157 108
226 180 142
226 180 142
226 180 142
226 180 142
226 180 142
226 180 142
226 180 142
226 180 142
226 180 142
226 180 142
226 180 142
226 180 142
226 180 142
226 180 142
226 180 142
226 180 142
226 180 142
226 180 142
226 180 142
226 180 142
226 180 142
226 180 142
226 180 142
229 184 148
229 184 148
229 184 148
229 184 148
229 184 148
229 184 148
229 184 148
229 184 148
229 184 148
229 184 148
229 184 148
229 184 148
229 184 148
229 184 148
229 184 148
229 184 148
229 184 148
229 184 148
229 184 148
229 184 148
229 184 148
229 184 148
229 184 148
229 184 148
229 184 148
193 144 99
193 144 99
193 144 99
193 144 99
193 144 99
193 144 99
193 144 99
193 144 99
193 144 99
193 144 99
193 144 99
193 144 99
193 144 99
193 144 99
193 144 99
193 144 99
193 144 99
193 144 99
193 144 99
193 144 99
193 144 99
193 144 99
193 144 99
195 146 100
195 146 100
195 146 100
195 146 100
195 146 100
195 146 100
195 146 100
195 146 100
195 146 100
195 146 100
195 146 100
195 146 100
195 146 100
195 146 100
195 146 100
195 146 100
195 146 100
195 146 100
195 146 100
195 146 100
195 146 100
195 146 100
195 146 100
195 146 100
195 146 100
149 111 76
149 111 76
149 111 76
149 111 76
149 111 76
149 111 76
149 111 76
149 111 76
149 111 76
149 111 76
149 111 76
149 111 76
149 111 76
149 111 76
149 111 76
149 111 76
149 111 76
149 111 76
149 111 76
149 111 76
149 111 76
149 111 76
149 111 76
165 123 83
165 123 83
165 123 83
165 123 83
165 123 83
165 123 83
165 123 83
165 123 83
165 123 83
165 123 83
165 123 83
165 123 83
165 123 83
165 123 83
165 123 83
165 123 83
165 123 83
165 123 83
165 123 83
165 123 83
165 123 83
165 123 83
165 123 83
165 123 83
165 123 83
0 0 0
0 0 0
0 0 0
0 0 0
0 0 0
0 0 0
0 0 0
0 0 0
0 0 0
0 0 0
0 0 0
0 0 0
0 0 0
0 0 0
0 0 0
0 0 0
0 0 0
0 0 0
0 0 0
0 0 0
0 0 0
0 0 0
0 0 0
0 0 0
0 0 0
0 0 0
0 0 0
0 0 0
0 0 0
0 0 0
0 0 0
0 0 0
0 0 0
0 0 0
0 0 0
0 0 0
0 0 0
0 0 0
0 0 0
0 0 0
0 0 0
0 0 0
0 0 0
0 0 0
0 0 0
0 0 0
0 0 0
0 0 0
0 0 0
0 0 0
0 0 0
0 0 0
0 0 0
0 0 0
0 0 0
0 0 0
0 0 0
0 0 0
0 0 0
0 0 0
0 0 0
0 0 0
0 0 0
0 0 0
207 154 104
207 154 104
207 154 104
207 154 104
207 154 104
207 154 104
207 154 104
207 154 104
207 154 104
207 154 104
207 154 104
207 154 104
207 154 104
207 154 104
207 154 104
207 154 104
207 154 104
207 154 104
207 154 104
207 154 104
207 154 104
207 154 104
210 157 108
210 157 108
210 157 108
210 157 108
210 157 108
210 157 108
210 157 108
210 157 108
210 157 108
210 157 108
210 157 108
210 157 108
210 157 108
210 157 108
210 157 108
210 157 108
210 157 108
210 157 108
210 157 108
210 157 108
210 157 108
210 157 108
210 157 108
210 157 108
210 157 108
210 157 108
226 180 142
226 180 142
226 180 142
226 180 142
226 180 142
226 180 142
226 180 142
226 180 142
226 180 142
226 180 142
226 180 142
226 180 142
226 180 142
226 180 142
226 180 142
226 180 142
226 180 142
226 180 142
226 180 142
226 180 142
226 180 142
226 180 142
229 184 148
229 184 148
229 184 148
229 184 148
229 184 148
229 184 148
229 184 148
229 184 148
229 184 148
229 184 148
229 184 148
229 184 148
229 184 148
229 184 148
229 184 148
229 184 148
229 184 148
229 184 148
229 184 148
229 184 148
229 184 148
229 184 148
229 184 148
229 184 148
229 184 148
229 184 148
193 144 99
193 144 99
193 144 99
193 144 99
193 144 99
193 144 99
193 144 99
193 144 99
193 144 99
193 144 99
193 144 99
193 144 99
193 144 99
193 144 99
193 144 99
193 144 99
193 144 99
193 144 99
193 144 99
193 144 99
193 144 99
193 144 99
195 146 100
195 146 100
195 146 100
195 146 100
195 146 100
195 146 100
195 146 100
195 146 100
195 146 100
195 146 100
195 146 100
195 146 100
195 146 100
195 146 100
195 146 100
195 146 100
195 146 100
195 146 100
195 146 100
195 146 100
195 146 100
195 146 100
195 146 100
195 146 100
195 146 100
195 146 100
149 111 76
149 111 76
149 111 76
149 111 76
149 111 76
149 111 76
149 111 76
149 111 76
149 111 76
149 111 76
149 111 76
149 111 76
149 111 76
149 111 76
149 111 76
149 111 76
149 111 76
149 111 76
149 111 76
149 111 76
149 111 76
149 111 76
165 123 83
165 123 83
165 123 83
165 123 83
165 123 83
165 123 83
165 123 83
165 123 83
165 123 83
165 123 83
165 123 83
165 123 83
165 123 83
165 123 83
165 123 83
165 123 83
165 123 83
165 123 83
165 123 83
165 123 83
165 123 83
165 123 83
165 123 83
165 123 83
165 123 83
165 123 83
0 0 0
0 0 0
0 0 0
0 0 0
0 0 0
0 0 0
0 0 0
0 0 0
0 0 0
0 0 0
0 0 0
0 0 0
0 0 0
0 0 0
0 0 0
0 0 0
0 0 0
0 0 0
0 0 0
0 0 0
0 0 0
0 0 0
0 0 0
0 0 0
0 0 0
0 0 0
0 0 0
0 0 0
0 0 0
0 0 0
0 0 0
0 0 0
0 0 0
0 0 0
0 0 0
0 0 0
0 0 0
0 0 0
0 0 0
0 0 0
0 0 0
0 0 0
0 0 0
0 0 0
0 0 0
0 0 0
0 0 0
0 0 0
0 0 0
0 0 0
0 0 0
0 0 0
0 0 0
0 0 0
0 0 0
0 0 0
0 0 0
0 0 0
0 0 0
0 0 0
0 0 0
0 0 0
0 0 0
0 0 0
207 154 104
207 154 104
207 154 104
207 154 104
207 154 104
207 154 104
207 154 104
207 154 104
207 154 104
207 154 104
207 154 104
207 154 104
207 154 104
207 154 104
207 154 104
207 154 104
207 154 104
207 154 104
207 154 104
207 154 104
210 157 108
210 157 108
210 157 108
210 157 108
210 157 108
210 157 108
210 157 108
210 157 108
210 157 108
210 157 108
210 157 108
210 157 108
210 157 108
210 157 108
210 157 108
210 157 108
210 157 108
210 157 108
210 157 108
210 157 108
210 157 108
210 157 108
210 157 108
210 157 108
210 157 108
210 157 108
210 157 108
210 157 108
226 180 142
226 180 142
226 180 142
226 180 142
226 180 142
226 180 142
226 180 142
226 180 142
226 180 142
226 180 142
226 180 142
226 180 142
226 180 142
226 180 142
226 180 142
226 180 142
226 180 142
226 180 142
226 180 142
226 180 142
229 184 148
229 184 148
229 184 148
229 184 148
229 184 148
229 184 148
229 184 148
229 184 148
229 184 148
229 184 148
229 184 148
229 184 148
229 184 148
229 184 148
229 184 148
229 184 148
229 184 148
229 184 148
229 184 148
229 184 148
229 184 148
229 184 148
229 184 148
229 184 148
229 184 148
229 184 148
229 184 148
229 184 148
193 144 99
193 144 99
193 144 99
193 144 99
193 144 99
193 144 99
193 144 99
193 144 99
193 144 99
193 144 99
193 144 99
193 144 99
193 144 99
193 144 99
193 144 99
193 144 99
193 144 99
193 144 99
193 144 99
193 144 99
195 146 100
195 146 100
195 146 100
195 146 100
195 146 100
195 146 100
195 146 100
195 146 100
195 146 100
195 146 100
195 146 100
195 146 100
195 146 100
195 146 100
195 146 100
195 146 100
195 146 100
195 146 100
195 146 100
195 146 100
195 146 100
195 146 100
195 146 100
195 146 100
195 146 100
195 146 100
195 146 100
195 146 100
149 111 76
149 111 76
149 111 76
149 111 76
149 111 76
149 111 76
149 111 76
149 111 76
149 111 76
149 111 76
149 111 76
149 111 76
149 111 76
149 111 76
149 111 76
149 111 76
149 111 76
149 111 76
149 111 76
149 111 76
165 123 83
165 123 83
165 123 83
165 123 83
165 123 83
165 123 83
165 123 83
165 123 83
165 123 83
165 123 83
165 123 83
165 123 83
165 123 83
165 123 83
165 123 83
165 123 83
165 123 83
165 123 83
165 123 83
165 123 83
165 123 83
165 123 83
165 123 83
165 123 83
165 123 83
165 123 83
165 123 83
165 123 83
0 0 0
0 0 0
0 0 0
0 0 0
0 0 0
0 0 0
0 0 0
0 0 0
0 0 0
0 0 0
0 0 0
0 0 0
0 0 0
0 0 0
0 0 0
0 0 0
0 0 0
0 0 0
0 0 0
0 0 0
0 0 0
0 0 0
0 0 0
0 0 0
0 0 0
0 0 0
0 0 0
0 0 0
0 0 0
0 0 0
0 0 0
0 0 0
0 0 0
0 0 0
0 0 0
0 0 0
0 0 0
0 0 0
0 0 0
0 0 0
0 0 0
0 0 0
0 0 0
0 0 0
0 0 0
0 0 0
0 0 0
0 0 0
0 0 0
0 0 0
0 0 0
0 0 0
0 0 0
0 0 0
0 0 0
0 0 0
0 0 0
0 0 0
0 0 0
0 0 0
0 0 0
0 0 0
0 0 0
0 0 0
207 154 104
207 154 104
207 154 104
207 154 104
207 154 104
207 154 104
207 154 104
207 154 104
207 154 104
207 154 104
207 154 104
207 154 104
207 154 104
207 154 104
207 154 104
207 154 104
207 154 104
207 154 104
207 154 104
210 157 108
210 157 108
210 157 108
210 157 108
210 157 108
210 157 108
210 157 108
210 157 108
210 157 108
210 157 108
210 157 108
210 157 108
210 157 108
210 157 108
210 157 108
210 157 108
210 157 108
210 157 108
210 157 108
210 157 108
210 157 108
210 157 108
210 157 108
210 157 108
210 157 108
210 157 108
210 157 108
210 157 108
210 157 108
226 180 142
226 180 142
226 180 142
226 180 142
226 180 142
226 180 142
226 180 142
226 180 142
226 180 142
226 180 142
226 180 142
226 180 142
226 180 142
226 180 142
226 180 142
226 180 142
226 180 142
226 180 142
226 180 142
229 184 148
229 184 148
229 184 148
229 184 148
229 184 148
229 184 148
229 184 148
229 184 148
229 184 148
229 184 148
229 184 148
229 184 148
229 184 148
229 184 148
229 184 148
229 184 148
229 184 148
229 184 148
229 184 148
229 184 148
229 184 148
229 184 148
229 184 148
229 184 148
229 184 148
229 184 148
229 184 148
229 184 148
229 184 148
193 144 99
193 144 99
193 144 99
193 144 99
193 144 99
193 144 99
193 144 99
193 144 99
193 144 99
193 144 99
193 144 99
193 144 99
193 144 99
193 144 99
193 144 99
193 144 99
193 144 99
193 144 99
193 144 99
195 146 100
195 146 100
195 146 100
195 146 100
195 146 100
195 146 100
195 146 100
195 146 100
195 146 100
195 146 100
195 146 100
195 146 100
195 146 100
195 146 100
195 146 100
195 146 100
195 146 100
195 146 100
195 146 100
195 146 100
195 146 100
195 146 100
195 146 100
195 146 100
195 146 100
195 146 100
195 146 100
195 146 100
195 146 100
149 111 76
149 111 76
149 111 76
149 111 76
149 111 76
149 111 76
149 111 76
149 111 76
149 111 76
149 111 76
149 111 76
149 111 76
149 111 76
149 111 76
149 111 76
149 111 76
149 111 76
149 111 76
149 111 76
165 123 83
165 123 83
165 123 83
165 123 83
165 123 83
165 123 83
165 123 83
165 123 83
165 123 83
165 123 83
165 123 83
165 123 83
165 123 83
165 123 83
165 123 83
165 123 83
165 123 83
165 123 83
165 123 83
165 123 83
165 123 83
165 123 83
165 123 83
165 123 83
165 123 83
165 123 83
165 123 83
165 123 83
165 123 83
0 0 0
0 0 0
0 0 0
0 0 0
0 0 0
0 0 0
0 0 0
0 0 0
0 0 0
0 0 0
0 0 0
0 0 0
0 0 0
0 0 0
0 0 0
0 0 0
0 0 0
0 0 0
0 0 0
0 0 0
0 0 0
0 0 0
0 0 0
0 0 0
0 0 0
0 0 0
0 0 0
0 0 0
0 0 0
0 0 0
0 0 0
0 0 0
0 0 0
0 0 0
0 0 0
0 0 0
0 0 0
0 0 0
0 0 0
0 0 0
0 0 0
0 0 0
0 0 0
0 0 0
0 0 0
0 0 0
0 0 0
0 0 0
0 0 0
0 0 0
0 0 0
0 0 0
0 0 0
0 0 0
0 0 0
0 0 0
0 0 0
0 0 0
0 0 0
0 0 0
0 0 0
0 0 0
0 0 0
0 0 0
207 154 104
207 154 104
207 154 104
207 154 104
207 154 104
207 154 104
207 154 104
207 154 104
207 154 104
207 154 104
207 154 104
207 154 104
207 154 104
207 154 104
207 154 104
207 154 104
207 154 104
210 157 108
210 157 108
210 157 108
210 157 108
210 157 108
210 157 108
210 157 108
210 157 108
210 157 108
210 157 108
210 157 108
210 157 108
210 157 108
210 157 108
210 157 108
210 157 108
210 157 108
210 157 108
210 157 108
210 157 108
210 157 108
210 157 108
210 157 108
210 157 108
210 157 108
210 157 108
210 157 108
210 157 108
210 157 108
210 157 108
210 157 108
226 180 142
226 180 142
226 180 142
226 180 142
226 180 142
226 180 142
226 180 142
226 180 142
226 180 142
226 180 142
226 180 142
226 180 142
226 180 142
226 180 142
226 180 142
226 180 142
226 180 142
229 184 148
229 184 148
229 184 148
229 184 148
229 184 148
229 184 148
229 184 148
229 184 148
229 184 148
229 184 148
229 184 148
229 184 148
229 184 148
229 184 148
229 184 148
229 184 148
229 184 148
229 184 148
229 184 148
229 184 148
229 184 148
229 184 148
229 184 148
229 184 148
229 184 148
229 184 148
229 184 148
229 184 148
229 184 148
229 184 148
229 184 148
193 144 99
193 144 99
193 144 99
193 144 99
193 144 99
193 144 99
193 144 99
193 144 99
193 144 99
193 144 99
193 144 99
193 144 99
193 144 99
193 144 99
193 144 99
193 144 99
193 144 99
195 146 100
195 146 100
195 146 100
195 146 100
195 146 100
195 146 100
195 146 100
195 146 100
195 146 100
195 146 100
195 146 100
195 146 100
195 146 100
195 146 100
195 146 100
195 146 100
195 146 100
195 146 100
195 146 100
195 146 100
195 146 100
195 146 100
195 146 100
195 146 100
195 146 100
195 146 100
195 146 100
195 146 100
195 146 100
195 146 100
195 146 100
149 111 76
149 111 76
149 111 76
149 111 76
149 111 76
149 111 76
149 111 76
149 111 76
149 111 76
149 111 76
149 111 76
149 111 76
149 111 76
149 111 76
149 111 76
149 111 76
149 111 76
165 123 83
165 123 83
165 123 83
165 123 83
165 123 83
165 123 83
165 123 83
165 123 83
165 123 83
165 123 83
165 123 83
165 123 83
165 123 83
165 123 83
165 123 83
165 123 83
165 123 83
165 123 83
165 123 83
165 123 83
165 123 83
165 123 83
165 123 83
165 123 83
165 123 83
165 123 83
165 123 83
165 123 83
165 123 83
165 123 83
165 123 83
0 0 0
0 0 0
0 0 0
0 0 0
0 0 0
0 0 0
0 0 0
0 0 0
0 0 0
0 0 0
0 0 0
0 0 0
0 0 0
0 0 0
0 0 0
0 0 0
0 0 0
0 0 0
0 0 0
0 0 0
0 0 0
0 0 0
0 0 0
0 0 0
0 0 0
0 0 0
0 0 0
0 0 0
0 0 0
0 0 0
0 0 0
0 0 0
0 0 0
0 0 0
0 0 0
0 0 0
0 0 0
0 0 0
0 0 0
0 0 0
0 0 0
0 0 0
0 0 0
0 0 0
0 0 0
0 0 0
0 0 0
0 0 0
0 0 0
0 0 0
0 0 0
0 0 0
0 0 0
0 0 0
0 0 0
0 0 0
0 0 0
0 0 0
0 0 0
0 0 0
0 0 0
0 0 0
0 0 0
0 0 0
207 154 104
207 154 104
207 154 104
207 154 104
207 154 104
207 154 104
207 154 104
207 154 104
207 154 104
207 154 104
207 154 104
207 154 104
207 154 104
207 154 104
207 154 104
207 154 104
210 157 108
210 157 108
210 157 108
210 157 108
210 157 108
210 157 108
210 157 108
210 157 108
210 157 108
210 157 108
210 157 108
210 157 108
210 157 108
210 157 108
210 157 108
210 157 108
210 157 108
210 157 108
210 157 108
210 157 108
210 157 108
210 157 108
210 157 108
210 157 108
210 157 108
210 157 108
210 157 108
210 157 108
210 157 108
210 157 108
210 157 108
210 157 108
226 180 142
226 180 142
226 180 142
226 180 142
226 180 142
226 180 142
226 180 142
226 180 142
226 180 142
226 180 142
226 180 142
226 180 142
226 180 142
226 180 142
226 180 142
226 180 142
229 184 148
229 184 148
229 184 148
229 184 148
229 184 148
229 184 148
229 184 148
229 184 148
229 184 148
229 184 148
229 184 148
229 184 148
229 184 148
229 184 148
229 184 148
229 184 148
229 184 148
229 184 148
229 184 148
229 184 148
229 184 148
229 184 148
229 184 148
229 184 148
229 184 148
229 184 148
229 184 148
229 184 148
229 184 148
229 184 148
229 184 148
229 184 148
193 144 99
193 144 99
193 144 99
193 144 99
193 144 99
193 144 99
193 144 99
193 144 99
193 144 99
193 144 99
193 144 99
193 144 99
193 144 99
193 144 99
193 144 99
193 144 99
195 146 100
195 146 100
195 146 100
195 146 100
195 146 100
195 146 100
195 146 100
195 146 100
195 146 100
195 146 100
195 146 100
195 146 100
195 146 100
195 146 100
195 146 100
195 146 100
195 146 100
195 146 100
195 146 100
195 146 100
195 146 100
195 146 100
195 146 100
195 146 100
195 146 100
195 146 100
195 146 100
195 146 100
195 146 100
195 146 100
195 146 100
195 146 100
149 111 76
149 111 76
149 111 76
149 111 76
149 111 76
149 111 76
149 111 76
149 111 76
149 111 76
149 111 76
149 111 76
149 111 76
149 111 76
149 111 76
149 111 76
149 111 76
165 123 83
165 123 83
165 123 83
165 123 83
165 123 83
165 123 83
165 123 83
165 123 83
165 123 83
165 123 83
165 123 83
165 123 83
165 123 83
165 123 83
165 123 83
165 123 83
165 123 83
165 123 83
165 123 83
165 123 83
165 123 83
165 123 83
165 123 83
165 123 83
165 123 83
165 123 83
165 123 83
165 123 83
165 123 83
165 123 83
165 123 83
165 123 83
0 0 0
0 0 0
0 0 0
0 0 0
0 0 0
0 0 0
0 0 0
0 0 0
0 0 0
0 0 0
0 0 0
0 0 0
0 0 0
0 0 0
0 0 0
0 0 0
0 0 0
0 0 0
0 0 0
0 0 0
0 0 0
0 0 0
0 0 0
0 0 0
0 0 0
0 0 0
0 0 0
0 0 0
0 0 0
0 0 0
0 0 0
0 0 0
0 0 0
0 0 0
0 0 0
0 0 0
0 0 0
0 0 0
0 0 0
0 0 0
0 0 0
0 0 0
0 0 0
0 0 0
0 0 0
0 0 0
0 0 0
0 0 0
0 0 0
0 0 0
0 0 0
0 0 0
0 0 0
0 0 0
0 0 0
0 0 0
0 0 0
0 0 0
0 0 0
0 0 0
0 0 0
0 0 0
0 0 0
0 0 0
207 154 104
207 154 104
207 154 104
207 154 104
207 154 104
207 154 104
207 154 104
207 154 104
207 154 104
207 154 104
207 154 104
207 154 104
207 154 104
207 154 104
210 157 108
210 157 108
210 157 108
210 157 108
210 157 108
210 157 108
210 157 108
210 157 108
210 157 108
210 157 108
210 157 108
210 157 108
210 157 108
210 157 108
210 157 108
210 157 108
210 157 108
210 157 108
210 157 108
210 157 108
210 157 108
210 157 108
210 157 108
210 157 108
210 157 108
210 157 108
210 157 108
210 157 108
210 157 108
210 157 108
210 157 108
210 157 108
210 157 108
210 157 108
226 180 142
226 180 142
226 180 142
226 180 142
226 180 142
226 180 142
226 180 142
226 180 142
226 180 142
226 180 142
226 180 142
226 180 142
226 180 142
226 180 142
229 184 148
229 184 148
229 184 148
229 184 148
229 184 148
229 184 148
229 184 148
229 184 148
229 184 148
229 184 148
229 184 148
229 184 148
229 184 148
229 184 148
229 184 148
229 184 148
229 184 148
229 184 148
229 184 148
229 184 148
229 184 148
229 184 148
229 184 148
229 184 148
229 184 148
229 184 148
229 184 148
229 184 148
229 184 148
229 184 148
229 184 148
229 184 148
229 184 148
229 184 148
193 144 99
193 144 99
193 144 99
193 144 99
193 144 99
193 144 99
193 144 99
193 144 99
193 144 99
193 144 99
193 144 99
193 144 99
193 144 99
193 144 99
195 146 100
195 146 100
195 146 100
195 146 100
195 146 100
195 146 100
195 146 100
195 146 100
195 146 100
195 146 100
195 146 100
195 146 100
195 146 100
195 146 100
195 146 100
195 146 100
195 146 100
195 146 100
195 146 100
195 146 100
195 146 100
195 146 100
195 146 100
195 146 100
195 146 100
195 146 100
195 146 100
195 146 100
195 146 100
195 146 100
195 146 100
195 146 100
195 146 100
195 146 100
149 111 76
149 111 76
149 111 76
149 111 76
149 111 76
149 111 76
149 111 76
149 111 76
149 111 76
149 111 76
149 111 76
149 111 76
149 111 76
149 111 76
165 123 83
165 123 83
165 123 83
165 123 83
165 123 83
165 123 83
165 123 83
165 123 83
165 123 83
165 123 83
165 123 83
165 123 83
165 123 83
165 123 83
165 123 83
165 123 83
165 123 83
165 123 83
165 123 83
165 123 83
165 123 83
165 123 83
165 123 83
165 123 83
165 123 83
165 123 83
165 123 83
165 123 83
165 123 83
165 123 83
165 123 83
165 123 83
165 123 83
165 123 83
0 0 0
0 0 0
0 0 0
0 0 0
0 0 0
0 0 0
0 0 0
0 0 0
0 0 0
0 0 0
0 0 0
0 0 0
0 0 0
0 0 0
0 0 0
0 0 0
0 0 0
0 0 0
0 0 0
0 0 0
0 0 0
0 0 0
0 0 0
0 0 0
0 0 0
0 0 0
0 0 0
0 0 0
0 0 0
0 0 0
0 0 0
0 0 0
0 0 0
0 0 0
0 0 0
0 0 0
0 0 0
0 0 0
0 0 0
0 0 0
0 0 0
0 0 0
0 0 0
0 0 0
0 0 0
0 0 0
0 0 0
0 0 0
0 0 0
0 0 0
0 0 0
0 0 0
0 0 0
0 0 0
0 0 0
0 0 0
0 0 0
0 0 0
0 0 0
0 0 0
0 0 0
0 0 0
0 0 0
0 0 0
207 154 104
207 154 104
207 154 104
207 154 104
207 154 104
207 154 104
207 154 104
207 154 104
207 154 104
207 154 104
207 154 104
207 154 104
207 154 104
210 157 108
210 157 108
210 157 108
210 157 108
210 157 108
210 157 108
210 157 108
210 157 108
210 157 108
210 157 108
210 157 108
210 157 108
210 157 108
210 157 108
210 157 108
210 157 108
210 157 108
210 157 108
210 157 108
210 157 108
210 157 108
210 157 108
210 157 108
210 157 108
210 157 108
210 157 108
210 157 108
210 157 108
210 157 108
210 157 108
210 157 108
210 157 108
210 157 108
210 157 108
210 157 108
226 180 142
226 180 142
226 180 142
226 180 142
226 180 142
226 180 142
226 180 142
226 180 142
226 180 142
226 180 142
226 180 142
226 180 142
226 180 142
229 184 148
229 184 148
229 184 148
229 184 148
229 184 148
229 184 148
229 184 148
229 184 148
229 184 148
229 184 148
229 184 148
229 184 148
229 184 148
229 184 148
229 184 148
229 184 148
229 184 148
229 184 148
229 184 148
229 184 148
229 184 148
229 184 148
229 184 148
229 184 148
229 184 148
229 184 148
229 184 148
229 184 148
229 184 148
229 184 148
229 184 148
229 184 148
229 184 148
229 184 148
229 184 148
193 144 99
193 144 99
193 144 99
193 144 99
193 144 99
193 144 99
193 144 99
193 144 99
193 144 99
193 144 99
193 144 99
193 144 99
193 144 99
195 146 100
195 146 100
195 146 100
195 146 100
195 146 100
195 146 100
195 146 100
195 146 100
195 146 100
195 146 100
195 146 100
195 146 100
195 146 100
195 146 100
195 146 100
195 146 100
195 146 100
195 146 100
195 146 100
195 146 100
195 146 100
195 146 100
195 146 100
195 146 100
195 146 100
195 146 100
195 146 100
195 146 100
195 146 100
195 146 100
195 146 100
195 146 100
195 146 100
195 146 100
195 146 100
149 111 76
149 111 76
149 111 76
149 111 76
149 111 76
149 111 76
149 111 76
149 111 76
149 111 76
149 111 76
149 111 76
149 111 76
149 111 76
165 123 83
165 123 83
165 123 83
165 123 83
165 123 83
165 123 83
165 123 83
165 123 83
165 123 83
165 123 83
165 123 83
165 123 83
165 123 83
165 123 83
165 123 83
165 123 83
165 123 83
165 123 83
165 123 83
165 123 83
165 123 83
165 123 83
165 123 83
165 123 83
165 123 83
165 123 83
165 123 83
165 123 83
165 123 83
165 123 83
165 123 83
165 123 83
165 123 83
165 123 83
165 123 83
0 0 0
0 0 0
0 0 0
0 0 0
0 0 0
0 0 0
0 0 0
0 0 0
0 0 0
0 0 0
0 0 0
0 0 0
0 0 0
0 0 0
0 0 0
0 0 0
0 0 0
0 0 0
0 0 0
0 0 0
0 0 0
0 0 0
0 0 0
0 0 0
0 0 0
0 0 0
0 0 0
0 0 0
0 0 0
0 0 0
0 0 0
0 0 0
0 0 0
0 0 0
0 0 0
0 0 0
0 0 0
0 0 0
0 0 0
0 0 0
0 0 0
0 0 0
0 0 0
0 0 0
0 0 0
0 0 0
0 0 0
0 0 0
0 0 0
0 0 0
0 0 0
0 0 0
0 0 0
0 0 0
0 0 0
0 0 0
0 0 0
0 0 0
0 0 0
0 0 0
0 0 0
0 0 0
0 0 0
0 0 0
207 154 104
207 154 104
207 154 104
207 154 104
207 154 104
207 154 104
207 154 104
207 154 104
207 154 104
207 154 104
207 154 104
210 157 108
210 157 108
210 157 108
210 157 108
210 157 108
210 157 108
210 157 108
210 157 108
210 157 108
210 157 108
210 157 108
210 157 108
210 157 108
210 157 108
210 157 108
210 157 108
210 157 108
210 157 108
210 157 108
210 157 108
210 157 108
210 157 108
210 157 108
210 157 108
210 157 108
210 157 108
210 157 108
210 157 108
210 157 108
210 157 108
210 157 108
210 157 108
210 157 108
210 157 108
210 157 108
210 157 108
210 157 108
226 180 142
226 180 142
226 180 142
226 180 142
226 180 142
226 180 142
226 180 142
226 180 142
226 180 142
226 180 142
226 180 142
229 184 148
229 184 148
229 184 148
229 184 148
229 184 148
229 184 148
229 184 148
229 184 148
229 184 148
229 184 148
229 184 148
229 184 148
229 184 148
229 184 148
229 184 148
229 184 148
229 184 148
229 184 148
229 184 148
229 184 148
229 184 148
229 184 148
229 184 148
229 184 148
229 184 148
229 184 148
229 184 148
229 184 148
229 184 148
229 184 148
229 184 148
229 184 148
229 184 148
229 184 148
229 184 148
229 184 148
229 184 148
193 144 99
193 144 99
193 144 99
193 144 99
193 144 99
193 144 99
193 144 99
193 144 99
193 144 99
193 144 99
193 144 99
195 146 100
195 146 100
195 146 100
195 146 100
195 146 100
195 146 100
195 146 100
195 146 100
195 146 100
195 146 100
195 146 100
195 146 100
195 146 100
195 146 100
195 146 100
195 146 100
195 146 100
195 146 100
195 146 100
195 146 100
195 146 100
195 146 100
195 146 100
195 146 100
195 146 100
195 146 100
195 146 100
195 146 100
195 146 100
195 146 100
195 146 100
195 146 100
195 146 100
195 146 100
195 146 100
195 146 100
195 146 100
149 111 76
149 111 76
149 111 76
149 111 76
149 111 76
149 111 76
149 111 76
149 111 76
149 111 76
149 111 76
149 111 76
165 123 83
165 123 83
165 123 83
165 123 83
165 123 83
165 123 83
165 123 83
165 123 83
165 123 83
165 123 83
165 123 83
165 123 83
165 123 83
165 123 83
165 123 83
165 123 83
165 123 83
165 123 83
165 123 83
165 123 83
165 123 83
165 123 83
165 123 83
165 123 83
165 123 83
165 123 83
165 123 83
165 123 83
165 123 83
165 123 83
165 123 83
165 123 83
165 123 83
165 123 83
165 123 83
165 123 83
165 123 83
0 0 0
0 0 0
0 0 0
0 0 0
0 0 0
0 0 0
0 0 0
0 0 0
0 0 0
0 0 0
0 0 0
0 0 0
0 0 0
0 0 0
0 0 0
0 0 0
0 0 0
0 0 0
0 0 0
0 0 0
0 0 0
0 0 0
0 0 0
0 0 0
0 0 0
0 0 0
0 0 0
0 0 0
0 0 0
0 0 0
0 0 0
0 0 0
0 0 0
0 0 0
0 0 0
0 0 0
0 0 0
0 0 0
0 0 0
0 0 0
0 0 0
0 0 0
0 0 0
0 0 0
0 0 0
0 0 0
0 0 0
0 0 0
0 0 0
0 0 0
0 0 0
0 0 0
0 0 0
0 0 0
0 0 0
0 0 0
0 0 0
0 0 0
0 0 0
0 0 0
0 0 0
0 0 0
0 0 0
0 0 0
207 154 104
207 154 104
207 154 104
207 154 104
207 154 104
207 154 104
207 154 104
207 154 104
207 154 104
207 154 104
210 157 108
210 157 108
210 157 108
210 157 108
210 157 108
210 157 108
210 157 108
210 157 108
210 157 108
210 157 108
210 157 108
210 157 108
210 157 108
210 157 108
210 157 108
210 157 108
210 157 108
210 157 108
210 157 108
210 157 108
210 157 108
210 157 108
210 157 108
210 157 108
210 157 108
210 157 108
210 157 108
210 157 108
210 157 108
210 157 108
210 157 108
210 157 108
210 157 108
210 157 108
210 157 108
210 157 108
210 157 108
210 157 108
226 180 142
226 180 142
226 180 142
226 180 142
226 180 142
226 180 142
226 180 142
226 180 142
226 180 142
226 180 142
229 184 148
229 184 148
229 184 148
229 184 148
229 184 148
229 184 148
229 184 148
229 184 148
229 184 148
229 184 148
229 184 148
229 184 148
229 184 148
229 184 148
229 184 148
229 184 148
229 184 148
229 184 148
229 184 148
229 184 148
229 184 148
229 184 148
229 184 148
229 184 148
229 184 148
229 184 148
229 184 148
229 184 148
229 184 148
229 184 148
229 184 148
229 184 148
229 184 148
229 184 148
229 184 148
229 184 148
229 184 148
229 184 148
193 144 99
193 144 99
193 144 99
193 144 99
193 144 99
193 144 99
193 144 99
193 144 99
193 144 99
193 144 99
195 146 100
195 146 100
195 146 100
195 146 100
195 146 100
195 146 100
195 146 100
195 146 100
195 146 100
195 146 100
195 146 100
195 146 100
195 146 100
195 146 100
195 146 100
195 146 100
195 146 100
195 146 100
195 146 100
195 146 100
195 146 100
195 146 100
195 146 100
195 146 100
195 146 100
195 146 100
195 146 100
195 146 100
195 146 100
195 146 100
195 146 100
195 146 100
195 146 100
195 146 100
195 146 100
195 146 100
195 146 100
195 146 100
149 111 76
149 111 76
149 111 76
149 111 76
149 111 76
149 111 76
149 111 76
149 111 76
149 111 76
149 111 76
165 123 83
165 123 83
165 123 83
165 123 83
165 123 83
165 123 83
165 123 83
165 123 83
165 123 83
165 123 83
165 123 83
165 123 83
165 123 83
165 123 83
165 123 83
165 123 83
165 123 83
165 123 83
165 123 83
165 123 83
165 123 83
165 123 83
165 123 83
165 123 83
165 123 83
165 123 83
165 123 83
165 123 83
165 123 83
165 123 83
165 123 83
165 123 83
165 123 83
165 123 83
165 123 83
165 123 83
165 123 83
165 123 83
0 0 0
0 0 0
0 0 0
0 0 0
0 0 0
0 0 0
0 0 0
0 0 0
0 0 0
0 0 0
0 0 0
0 0 0
0 0 0
0 0 0
0 0 0
0 0 0
0 0 0
0 0 0
0 0 0
0 0 0
0 0 0
0 0 0
0 0 0
0 0 0
0 0 0
0 0 0
0 0 0
0 0 0
0 0 0
0 0 0
0 0 0
0 0 0
0 0 0
0 0 0
0 0 0
0 0 0
0 0 0
0 0 0
0 0 0
0 0 0
0 0 0
0 0 0
0 0 0
0 0 0
0 0 0
0 0 0
0 0 0
0 0 0
0 0 0
0 0 0
0 0 0
0 0 0
0 0 0
0 0 0
0 0 0
0 0 0
0 0 0
0 0 0
0 0 0
0 0 0
0 0 0
0 0 0
0 0 0
0 0 0
207 154 104
207 154 104
207 154 104
207 154 104
207 154 104
207 154 104
207 154 104
207 154 104
210 157 108
210 157 108
210 157 108
210 157 108
210 157 108
210 157 108
210 157 108
210 157 108
210 157 108
210 157 108
210 157 108
210 157 108
210 157 108
210 157 108
210 157 108
210 157 108
210 157 108
210 157 108
210 157 108
210 157 108
210 157 108
210 157 108
210 157 108
210 157 108
210 157 108
210 157 108
210 157 108
210 157 108
210 157 108
210 157 108
210 157 108
210 157 108
210 157 108
210 157 108
210 157 108
210 157 108
210 157 108
210 157 108
210 157 108
210 157 108
226 180 142
226 180 142
226 180 142
226 180 142
226 180 142
226 180 142
226 180 142
226 180 142
229 184 148
229 184 148
229 184 148
229 184 148
229 184 148
229 184 148
229 184 148
229 184 148
229 184 148
229 184 148
229 184 148
229 184 148
229 184 148
229 184 148
229 184 148
229 184 148
229 184 148
229 184 148
229 184 148
229 184 148
229 184 148
229 184 148
229 184 148
229 184 148
229 184 148
229 184 148
229 184 148
229 184 148
229 184 148
229 184 148
229 184 148
229 184 148
229 184 148
229 184 148
229 184 148
229 184 148
229 184 148
229 184 148
229 184 148
229 184 148
193 144 99
193 144 99
193 144 99
193 144 99
193 144 99
193 144 99
193 144 99
193 144 99
195 146 100
195 146 100
195 146 100
195 146 100
195 146 100
195 146 100
195 146 100
195 146 100
195 146 100
195 146 100
195 146 100
195 146 100
195 146 100
195 146 100
195 146 100
195 146 100
195 146 100
195 146 100
195 146 100
195 146 100
195 146 100
195 146 100
195 146 100
195 146 100
195 146 100
195 146 100
195 146 100
195 146 100
195 146 100
195 146 100
195 146 100
195 146 100
195 146 100
195 146 100
195 146 100
195 146 100
195 146 100
195 146 100
195 146 100
195 146 100
149 111 76
149 111 76
149 111 76
149 111 76
149 111 76
149 111 76
149 111 76
149 111 76
165 123 83
165 123 83
165 123 83
165 123 83
165 123 83
165 123 83
165 123 83
165 123 83
165 123 83
165 123 83
165 123 83
165 123 83
165 123 83
165 123 83
165 123 83
165 123 83
165 123 83
165 123 83
165 123 83
165 123 83
165 123 83
165 123 83
165 123 83
165 123 83
165 123 83
165 123 83
165 123 83
165 123 83
165 123 83
165 123 83
165 123 83
165 123 83
165 123 83
165 123 83
165 123 83
165 123 83
165 123 83
165 123 83
165 123 83
165 123 83
0 0 0
0 0 0
0 0 0
0 0 0
0 0 0
0 0 0
0 0 0
0 0 0
0 0 0
0 0 0
0 0 0
0 0 0
0 0 0
0 0 0
0 0 0
0 0 0
0 0 0
0 0 0
0 0 0
0 0 0
0 0 0
0 0 0
0 0 0
0 0 0
0 0 0
0 0 0
0 0 0
0 0 0
0 0 0
0 0 0
0 0 0
0 0 0
0 0 0
0 0 0
0 0 0
0 0 0
0 0 0
0 0 0
0 0 0
0 0 0
0 0 0
0 0 0
0 0 0
0 0 0
0 0 0
0 0 0
0 0 0
0 0 0
0 0 0
0 0 0
0 0 0
0 0 0
0 0 0
0 0 0
0 0 0
0 0 0
0 0 0
0 0 0
0 0 0
0 0 0
0 0 0
0 0 0
0 0 0
0 0 0
207 154 104
207 154 104
207 154 104
207 154 104
207 154 104
207 154 104
207 154 104
210 157 108
210 157 108
210 157 108
210 157 108
210 157 108
210 157 108
210 157 108
210 157 108
210 157 108
210 157 108
210 157 108
210 157 108
210 157 108
210 157 108
210 157 108
210 157 108
210 157 108
210 157 108
210 157 108
210 157 108
210 157 108
210 157 108
210 157 108
210 157 108
210 157 108
210 157 108
210 157 108
210 157 108
210 157 108
210 157 108
210 157 108
210 157 108
210 157 108
210 157 108
210 157 108
210 157 108
210 157 108
210 157 108
210 157 108
210 157 108
210 157 108
226 180 142
226 180 142
226 180 142
226 180 142
226 180 142
226 180 142
226 180 142
229 184 148
229 184 148
229 184 148
229 184 148
229 184 148
229 184 148
229 184 148
229 184 148
229 184 148
229 184 148
229 184 148
229 184 148
229 184 148
229 184 148
229 184 148
229 184 148
229 184 148
229 184 148
229 184 148
229 184 148
229 184 148
229 184 148
229 184 148
229 184 148
229 184 148
229 184 148
229 184 148
229 184 148
229 184 148
229 184 148
229 184 148
229 184 148
229 184 148
229 184 148
229 184 148
229 184 148
229 184 148
229 184 148
229 184 148
229 184 148
229 184 148
193 144 99
193 144 99
193 144 99
193 144 99
193 144 99
193 144 99
193 144 99
195 146 100
195 146 100
195 146 100
195 146 100
195 146 100
195 146 100
195 146 100
195 146 100
195 146 100
195 146 100
195 146 100
195 146 100
195 146 100
195 146 100
195 146 100
195 146 100
195 146 100
195 146 100
195 146 100
195 146 100
195 146 100
195 146 100
195 146 100
195 146 100
195 146 100
195 146 100
195 146 100
195 146 100
195 146 100
195 146 100
195 146 100
195 146 100
195 146 100
195 146 100
195 146 100
195 146 100
195 146 100
195 146 100
195 146 100
195 146 100
195 146 100
149 111 76
149 111 76
149 111 76
149 111 76
149 111 76
149 111 76
149 111 76
165 123 83
165 123 83
165 123 83
165 123 83
165 123 83
165 123 83
165 123 83
165 123 83
165 123 83
165 123 83
165 123 83
165 123 83
165 123 83
165 123 83
165 123 83
165 123 83
165 123 83
165 123 83
165 123 83
165 123 83
165 123 83
165 123 83
165 123 83
165 123 83
165 123 83
165 123 83
165 123 83
165 123 83
165 123 83
165 123 83
165 123 83
165 123 83
165 123 83
165 123 83
165 123 83
165 123 83
165 123 83
165 123 83
165 123 83
165 123 83
165 123 83
0 0 0
0 0 0
0 0 0
0 0 0
0 0 0
0 0 0
0 0 0
0 0 0
0 0 0
0 0 0
0 0 0
0 0 0
0 0 0
0 0 0
0 0 0
0 0 0
0 0 0
0 0 0
0 0 0
0 0 0
0 0 0
0 0 0
0 0 0
0 0 0
0 0 0
0 0 0
0 0 0
0 0 0
0 0 0
0 0 0
0 0 0
0 0 0
0 0 0
0 0 0
0 0 0
0 0 0
0 0 0
0 0 0
0 0 0
0 0 0
0 0 0
0 0 0
0 0 0
0 0 0
0 0 0
0 0 0
0 0 0
0 0 0
0 0 0
0 0 0
0 0 0
0 0 0
0 0 0
0 0 0
0 0 0
0 0 0
0 0 0
0 0 0
0 0 0
0 0 0
0 0 0
0 0 0
0 0 0
0 0 0
207 154 104
207 154 104
207 154 104
207 154 104
207 154 104
210 157 108
210 157 108
210 157 108
210 157 108
210 157 108
210 157 108
210 157 108
210 157 108
210 157 108
210 157 108
210 157 108
210 157 108
210 157 108
210 157 108
210 157 108
210 157 108
210 157 108
210 157 108
210 157 108
210 157 108
210 157 108
210 157 108
210 157 108
210 157 108
210 157 108
210 157 108
210 157 108
210 157 108
210 157 108
210 157 108
210 157 108
210 157 108
210 157 108
210 157 108
210 157 108
210 157 108
210 157 108
210 157 108
210 157 108
210 157 108
210 157 108
210 157 108
210 157 108
226 180 142
226 180 142
226 180 142
226 180 142
226 180 142
229 184 148
229 184 148
229 184 148
229 184 148
229 184 148
229 184 148
229 184 148
229 184 148
229 184 148
229 184 148
229 184 148
229 184 148
229 184 148
229 184 148
229 184 148
229 184 148
229 184 148
229 184 148
229 184 148
229 184 148
229 184 148
229 184 148
229 184 148
229 184 148
229 184 148
229 184 148
229 184 148
229 184 148
229 184 148
229 184 148
229 184 148
229 184 148
229 184 148
229 184 148
229 184 148
229 184 148
229 184 148
229 184 148
229 184 148
229 184 148
229 184 148
229 184 148
229 184 148
193 144 99
193 144 99
193 144 99
193 144 99
193 144 99
195 146 100
195 146 100
195 146 100
195 146 100
195 146 100
195 146 100
195 146 100
195 146 100
195 146 100
195 146 100
195 146 100
195 146 100
195 146 100
195 146 100
195 146 100
195 146 100
195 146 100
195 146 100
195 146 100
195 146 100
195 146 100
195 146 100
195 146 100
195 146 100
195 146 100
195 146 100
195 146 100
195 146 100
195 146 100
195 146 100
195 146 100
195 146 100
195 146 100
195 146 100
195 146 100
195 146 100
195 146 100
195 146 100
195 146 100
195 146 100
195 146 100
195 146 100
195 146 100
149 111 76
149 111 76
149 111 76
149 111 76
149 111 76
165 123 83
165 123 83
165 123 83
165 123 83
165 123 83
165 123 83
165 123 83
165 123 83
165 123 83
165 123 83
165 123 83
165 123 83
165 123 83
165 123 83
165 123 83
165 123 83
165 123 83
165 123 83
165 123 83
165 123 83
165 123 83
165 123 83
165 123 83
165 123 83
165 123 83
165 123 83
165 123 83
165 123 83
165 123 83
165 123 83
165 123 83
165 123 83
165 123 83
165 123 83
165 123 83
165 123 83
165 123 83
165 123 83
165 123 83
165 123 83
165 123 83
165 123 83
165 123 83
0 0 0
0 0 0
0 0 0
0 0 0
0 0 0
0 0 0
0 0 0
0 0 0
0 0 0
0 0 0
0 0 0
0 0 0
0 0 0
0 0 0
0 0 0
0 0 0
0 0 0
0 0 0
0 0 0
0 0 0
0 0 0
0 0 0
0 0 0
0 0 0
0 0 0
0 0 0
0 0 0
0 0 0
0 0 0
0 0 0
0 0 0
0 0 0
0 0 0
0 0 0
0 0 0
0 0 0
0 0 0
0 0 0
0 0 0
0 0 0
0 0 0
0 0 0
0 0 0
0 0 0
0 0 0
0 0 0
0 0 0
0 0 0
0 0 0
0 0 0
0 0 0
0 0 0
0 0 0
0 0 0
0 0 0
0 0 0
0 0 0
0 0 0
0 0 0
0 0 0
0 0 0
0 0 0
0 0 0
0 0 0
207 154 104
207 154 104
207 154 104
207 154 104
210 157 108
210 157 108
210 157 108
210 157 108
210 157 108
210 157 108
210 157 108
210 157 108
210 157 108
210 157 108
210 157 108
210 157 108
210 157 108
210 157 108
210 157 108
210 157 108
210 157 108
210 157 108
210 157 108
210 157 108
210 157 108
210 157 108
210 157 108
210 157 108
210 157 108
210 157 108
210 157 108
210 157 108
210 157 108
210 157 108
210 157 108
210 157 108
210 157 108
210 157 108
210 157 108
210 157 108
210 157 108
210 157 108
210 157 108
210 157 108
210 157 108
210 157 108
210 157 108
210 157 108
226 180 142
226 180 142
226 180 142
226 180 142
229 184 148
229 184 148
229 184 148
229 184 148
229 184 148
229 184 148
229 184 148
229 184 148
229 184 148
229 184 148
229 184 148
229 184 148
229 184 148
229 184 148
229 184 148
229 184 148
229 184 148
229 184 148
229 184 148
229 184 148
229 184 148
229 184 148
229 184 148
229 184 148
229 184 148
229 184 148
229 184 148
229 184 148
229 184 148
229 184 148
229 184 148
229 184 148
229 184 148
229 184 148
229 184 148
229 184 148
229 184 148
229 184 148
229 184 148
229 184 148
229 184 148
229 184 148
229 184 148
229 184 148
193 144 99
193 144 99
193 144 99
193 144 99
195 146 100
195 146 100
195 146 100
195 146 100
195 146 100
195 146 100
195 146 100
195 146 100
195 146 100
195 146 100
195 146 100
195 146 100
195 146 100
195 146 100
195 146 100
195 146 100
195 146 100
195 146 100
195 146 100
195 146 100
195 146 100
195 146 100
195 146 100
195 146 100
195 146 100
195 146 100
195 146 100
195 146 100
195 146 100
195 146 100
195 146 100
195 146 100
195 146 100
195 146 100
195 146 100
195 146 100
195 146 100
195 146 100
195 146 100
195 146 100
195 146 100
195 146 100
195 146 100
195 146 100
149 111 76
149 111 76
149 111 76
149 111 76
165 123 83
165 123 83
165 123 83
165 123 83
165 123 83
165 123 83
165 123 83
165 123 83
165 123 83
165 123 83
165 123 83
165 123 83
165 123 83
165 123 83
165 123 83
165 123 83
165 123 83
165 123 83
165 123 83
165 123 83
165 123 83
165 123 83
165 123 83
165 123 83
165 123 83
165 123 83
165 123 83
165 123 83
165 123 83
165 123 83
165 123 83
165 123 83
165 123 83
165 123 83
165 123 83
165 123 83
165 123 83
165 123 83
165 123 83
165 123 83
165 123 83
165 123 83
165 123 83
165 123 83
0 0 0
0 0 0
0 0 0
0 0 0
0 0 0
0 0 0
0 0 0
0 0 0
0 0 0
0 0 0
0 0 0
0 0 0
0 0 0
0 0 0
0 0 0
0 0 0
0 0 0
0 0 0
0 0 0
0 0 0
0 0 0
0 0 0
0 0 0
0 0 0
0 0 0
0 0 0
0 0 0
0 0 0
0 0 0
0 0 0
0 0 0
0 0 0
0 0 0
0 0 0
0 0 0
0 0 0
0 0 0
0 0 0
0 0 0
0 0 0
0 0 0
0 0 0
0 0 0
0 0 0
0 0 0
0 0 0
0 0 0
0 0 0
0 0 0
0 0 0
0 0 0
0 0 0
0 0 0
0 0 0
0 0 0
0 0 0
0 0 0
0 0 0
0 0 0
0 0 0
0 0 0
0 0 0
0 0 0
0 0 0
207 154 104
207 154 104
210 157 108
210 157 108
210 157 108
210 157 108
210 157 108
210 157 108
210 157 108
210 157 108
210 157 108
210 157 108
210 157 108
210 157 108
210 157 108
210 157 108
210 157 108
210 157 108
210 157 108
210 157 108
210 157 108
210 157 108
210 157 108
210 157 108
210 157 108
210 157 108
210 157 108
210 157 108
210 157 108
210 157 108
210 157 108
210 157 108
210 157 108
210 157 108
210 157 108
210 157 108
210 157 108
210 157 108
210 157 108
210 157 108
210 157 108
210 157 108
210 157 108
210 157 108
210 157 108
210 157 108
210 157 108
210 157 108
226 180 142
226 180 142
229 184 148
229 184 148
229 184 148
229 184 148
229 184 148
229 184 148
229 184 148
229 184 148
229 184 148
229 184 148
229 184 148
229 184 148
229 184 148
229 184 148
229 184 148
229 184 148
229 184 148
229 184 148
229 184 148
229 184 148
229 184 148
229 184 148
229 184 148
229 184 148
229 184 148
229 184 148
229 184 148
229 184 148
229 184 148
229 184 148
229 184 148
229 184 148
229 184 148
229 184 148
229 184 148
229 184 148
229 184 148
229 184 148
229 184 148
229 184 148
229 184 148
229 184 148
229 184 148
229 184 148
229 184 148
229 184 148
193 144 99
193 144 99
195 146 100
195 146 100
195 146 100
195 146 100
195 146 100
195 146 100
195 146 100
195 146 100
195 146 100
195 146 100
195 146 100
195 146 100
195 146 100
195 146 100
195 146 100
195 146 100
195 146 100
195 146 100
195 146 100
195 146 100
195 146 100
195 146 100
195 146 100
195 146 100
195 146 100
195 146 100
195 146 100
195 146 100
195 146 100
195 146 100
195 146 100
195 146 100
195 146 100
195 146 100
195 146 100
195 146 100
195 146 100
195 146 100
195 146 100
195 146 100
195 146 100
195 146 100
195 146 100
195 146 100
195 146 100
195 146 100
149 111 76
149 111 76
165 123 83
165 123 83
165 123 83
165 123 83
165 123 83
165 123 83
165 123 83
165 123 83
165 123 83
165 123 83
165 123 83
165 123 83
165 123 83
165 123 83
165 123 83
165 123 83
165 123 83
165 123 83
165 123 83
165 123 83
165 123 83
165 123 83
165 123 83
165 123 83
165 123 83
165 123 83
165 123 83
165 123 83
165 123 83
165 123 83
165 123 83
165 123 83
165 123 83
165 123 83
165 123 83
165 123 83
165 123 83
165 123 83
165 123 83
165 123 83
165 123 83
165 123 83
165 123 83
165 123 83
165 123 83
165 123 83
0 0 0
0 0 0
0 0 0
0 0 0
0 0 0
0 0 0
0 0 0
0 0 0
0 0 0
0 0 0
0 0 0
0 0 0
0 0 0
0 0 0
0 0 0
0 0 0
0 0 0
0 0 0
0 0 0
0 0 0
0 0 0
0 0 0
0 0 0
0 0 0
0 0 0
0 0 0
0 0 0
0 0 0
0 0 0
0 0 0
0 0 0
0 0 0
0 0 0
0 0 0
0 0 0
0 0 0
0 0 0
0 0 0
0 0 0
0 0 0
0 0 0
0 0 0
0 0 0
0 0 0
0 0 0
0 0 0
0 0 0
0 0 0
0 0 0
0 0 0
0 0 0
0 0 0
0 0 0
0 0 0
0 0 0
0 0 0
0 0 0
0 0 0
0 0 0
0 0 0
0 0 0
0 0 0
0 0 0
0 0 0
207 154 104
210 157 108
210 157 108
210 157 108
210 157 108
210 157 108
210 157 108
210 157 108
210 157 108
210 157 108
210 157 108
210 157 108
210 157 108
210 157 108
210 157 108
210 157 108
210 157 108
210 157 108
210 157 108
210 157 108
210 157 108
210 157 108
210 157 108
210 157 108
210 157 108
210 157 108
210 157 108
210 157 108
210 157 108
210 157 108
210 157 108
210 157 108
210 157 108
210 157 108
210 157 108
210 157 108
210 157 108
210 157 108
210 157 108
210 157 108
210 157 108
210 157 108
210 157 108
210 157 108
210 157 108
210 157 108
210 157 108
210 157 108
226 180 142
229 184 148
229 184 148
229 184 148
229 184 148
229 184 148
229 184 148
229 184 148
229 184 148
229 184 148
229 184 148
229 184 148
229 184 148
229 184 148
229 184 148
229 184 148
229 184 148
229 184 148
229 184 148
229 184 148
229 184 148
229 184 148
229 184 148
229 184 148
229 184 148
229 184 148
229 184 148
229 184 148
229 184 148
229 184 148
229 184 148
229 184 148
229 184 148
229 184 148
229 184 148
229 184 148
229 184 148
229 184 148
229 184 148
229 184 148
229 184 148
229 184 148
229 184 148
229 184 148
229 184 148
229 184 148
229 184 148
229 184 148
193 144 99
195 146 100
195 146 100
195 146 100
195 146 100
195 146 100
195 146 100
195 146 100
195 146 100
195 146 100
195 146 100
195 146 100
195 146 100
195 146 100
195 146 100
195 146 100
195 146 100
195 146 100
195 146 100
195 146 100
195 146 100
195 146 100
195 146 100
195 146 100
195 146 100
195 146 100
195 146 100
195 146 100
195 146 100
195 146 100
195 146 100
195 146 100
195 146 100
195 146 100
195 146 100
195 146 100
195 146 100
195 146 100
195 146 100
195 146 100
195 146 100
195 146 100
195 146 100
195 146 100
195 146 100
195 146 100
195 146 100
195 146 100
149 111 76
165 123 83
165 123 83
165 123 83
165 123 83
165 123 83
165 123 83
165 123 83
165 123 83
165 123 83
165 123 83
165 123 83
165 123 83
165 123 83
165 123 83
165 123 83
165 123 83
165 123 83
165 123 83
165 123 83
165 123 83
165 123 83
165 123 83
165 123 83
165 123 83
165 123 83
165 123 83
165 123 83
165 123 83
165 123 83
165 123 83
165 123 83
165 123 83
165 123 83
165 123 83
165 123 83
165 123 83
165 123 83
165 123 83
165 123 83
165 123 83
165 123 83
165 123 83
165 123 83
165 123 83
165 123 83
165 123 83
165 123 83
0 0 0
0 0 0
0 0 0
0 0 0
0 0 0
0 0 0
0 0 0
0 0 0
0 0 0
0 0 0
0 0 0
0 0 0
0 0 0
0 0 0
0 0 0
0 0 0
0 0 0
0 0 0
0 0 0
0 0 0
0 0 0
0 0 0
0 0 0
0 0 0
0 0 0
0 0 0
0 0 0
0 0 0
0 0 0
0 0 0
0 0 0
0 0 0
0 0 0
0 0 0
0 0 0
0 0 0
0 0 0
0 0 0
0 0 0
0 0 0
0 0 0
0 0 0
0 0 0
0 0 0
0 0 0
0 0 0
0 0 0
0 0 0
0 0 0
0 0 0
0 0 0
0 0 0
0 0 0
0 0 0
0 0 0
0 0 0
0 0 0
0 0 0
0 0 0
0 0 0
0 0 0
0 0 0
0 0 0
0 0 0
207 155 107
207 155 107
207 155 107
207 155 107
207 155 107
207 155 107
207 155 107
207 155 107
207 155 107
207 155 107
207 155 107
207 155 107
207 155 107
207 155 107
207 155 107
207 155 107
207 155 107
207 155 107
207 155 107
207 155 107
207 155 107
207 155 107
207 155 107
207 155 107
207 155 107
207 155 107
207 155 107
207 155 107
207 155 107
207 155 107
207 155 107
207 155 107
207 155 107
207 155 107
207 155 107
207 155 107
207 155 107
207 155 107
207 155 107
207 155 107
207 155 107
207 155 107
207 155 107
207 155 107
207 155 107
207 155 107
207 155 107
207 155 108
234 193 161
234 193 161
234 193 161
234 193 161
234 193 161
234 193 161
234 193 161
234 193 161
234 193 161
234 193 161
234 193 161
234 193 161
234 193 161
234 193 161
234 193 161
234 193 161
234 193 161
234 193 161
234 193 161
234 193 161
234 193 161
234 193 161
234 193 161
234 193 161
234 193 161
234 193 161
234 193 161
234 193 161
234 193 161
234 193 161
234 193 161
234 193 161
234 193 161
234 193 161
234 193 161
234 193 161
234 193 161
234 193 161
234 193 161
234 193 161
234 193 161
234 193 161
234 193 161
234 193 161
234 193 161
234 193 161
234 193 161
232 191 159
189 142 99
189 142 99
189 142 99
189 142 99
189 142 99
189 142 99
189 142 99
189 142 99
189 142 99
189 142 99
189 142 99
189 142 99
189 142 99
189 142 99
189 142 99
189 142 99
189 142 99
189 142 99
189 142 99
189 142 99
189 142 99
189 142 99
189 142 99
189 142 99
189 142 99
189 142 99
189 142 99
189 142 99
189 142 99
189 142 99
189 142 99
189 142 99
189 142 99
189 142 99
189 142 99
189 142 99
189 142 99
189 142 99
189 142 99
189 142 99
189 142 99
189 142 99
189 142 99
189 142 99
189 142 99
189 142 99
189 142 99
190 143 100
151 113 77
151 113 77
151 113 77
151 113 77
151 113 77
151 113 77
151 113 77
151 113 77
151 113 77
151 113 77
151 113 77
151 113 77
151 113 77
151 113 77
151 113 77
151 113 77
151 113 77
151 113 77
151 113 77
151 113 77
151 113 77
151 113 77
151 113 77
151 113 77
151 113 77
151 113 77
151 113 77
151 113 77
151 113 77
151 113 77
151 113 77
151 113 77
151 113 77
151 113 77
151 113 77
151 113 77
151 113 77
151 113 77
151 113 77
151 113 77
151 113 77
151 113 77
151 113 77
151 113 77
151 113 77
151 113 77
151 113 77
156 117 79
0 0 0
0 0 0
0 0 0
0 0 0
0 0 0
0 0 0
0 0 0
0 0 0
0 0 0
0 0 0
0 0 0
0 0 0
0 0 0
0 0 0
0 0 0
0 0 0
0 0 0
0 0 0
0 0 0
0 0 0
0 0 0
0 0 0
0 0 0
0 0 0
0 0 0
0 0 0
0 0 0
0 0 0
0 0 0
0 0 0
0 0 0
0 0 0
0 0 0
0 0 0
0 0 0
0 0 0
0 0 0
0 0 0
0 0 0
0 0 0
0 0 0
0 0 0
0 0 0
0 0 0
0 0 0
0 0 0
0 0 0
0 0 0
0 0 0
0 0 0
0 0 0
0 0 0
0 0 0
0 0 0
0 0 0
0 0 0
0 0 0
0 0 0
0 0 0
0 0 0
0 0 0
0 0 0
0 0 0
0 0 0
207 155 107
207 155 107
207 155 107
207 155 107
207 155 107
207 155 107
207 155 107
207 155 107
207 155 107
207 155 107
207 155 107
207 155 107
207 155 107
207 155 107
207 155 107
207 155 107
207 155 107
207 155 107
207 155 107
207 155 107
207 155 107
207 155 107
207 155 107
207 155 107
207 155 107
207 155 107
207 155 107
207 155 107
207 155 107
207 155 107
207 155 107
207 155 107
207 155 107
207 155 107
207 155 107
207 155 107
207 155 107
207 155 107
207 155 107
207 155 107
207 155 107
207 155 107
207 155 107
207 155 107
207 155 107
207 155 107
207 155 108
207 155 108
234 193 161
234 193 161
234 193 161
234 193 161
234 193 161
234 193 161
234 193 161
234 193 161
234 193 161
234 193 161
234 193 161
234 193 161
234 193 161
234 193 161
234 193 161
234 193 161
234 193 161
234 193 161
234 193 161
234 193 161
234 193 161
234 193 161
234 193 161
234 193 161
234 193 161
234 193 161
234 193 161
234 193 161
234 193 161
234 193 161
234 193 161
234 193 161
234 193 161
234 193 161
234 193 161
234 193 161
234 193 161
234 193 161
234 193 161
234 193 161
234 193 161
234 193 161
234 193 161
234 193 161
234 193 161
234 193 161
232 191 159
232 191 159
189 142 99
189 142 99
189 142 99
189 142 99
189 142 99
189 142 99
189 142 99
189 142 99
189 142 99
189 142 99
189 142 99
189 142 99
189 142 99
189 142 99
189 142 99
189 142 99
189 142 99
189 142 99
189 142 99
189 142 99
189 142 99
189 142 99
189 142 99
189 142 99
189 142 99
189 142 99
189 142 99
189 142 99
189 142 99
189 142 99
189 142 99
189 142 99
189 142 99
189 142 99
189 142 99
189 142 99
189 142 99
189 142 99
189 142 99
189 142 99
189 142 99
189 142 99
189 142 99
189 142 99
189 142 99
189 142 99
190 143 100
190 143 100
151 113 77
151 113 77
151 113 77
151 113 77
151 113 77
151 113 77
151 113 77
151 113 77
151 113 77
151 113 77
151 113 77
151 113 77
151 113 77
151 113 77
151 113 77
151 113 77
151 113 77
151 113 77
151 113 77
151 113 77
151 113 77
151 113 77
151 113 77
151 113 77
151 113 77
151 113 77
151 113 77
151 113 77
151 113 77
151 113 77
151 113 77
151 113 77
151 113 77
151 113 77
151 113 77
151 113 77
151 113 77
151 113 77
151 113 77
151 113 77
151 113 77
151 113 77
151 113 77
151 113 77
151 113 77
151 113 77
156 117 79
156 117 79
0 0 0
0 0 0
0 0 0
0 0 0
0 0 0
0 0 0
0 0 0
0 0 0
0 0 0
0 0 0
0 0 0
0 0 0
0 0 0
0 0 0
0 0 0
0 0 0
0 0 0
0 0 0
0 0 0
0 0 0
0 0 0
0 0 0
0 0 0
0 0 0
0 0 0
0 0 0
0 0 0
0 0 0
0 0 0
0 0 0
0 0 0
0 0 0
0 0 0
0 0 0
0 0 0
0 0 0
0 0 0
0 0 0
0 0 0
0 0 0
0 0 0
0 0 0
0 0 0
0 0 0
0 0 0
0 0 0
0 0 0
0 0 0
0 0 0
0 0 0
0 0 0
0 0 0
0 0 0
0 0 0
0 0 0
0 0 0
0 0 0
0 0 0
0 0 0
0 0 0
0 0 0
0 0 0
0 0 0
0 0 0
207 155 107
207 155 107
207 155 107
207 155 107
207 155 107
207 155 107
207 155 107
207 155 107
207 155 107
207 155 107
207 155 107
207 155 107
207 155 107
207 155 107
207 155 107
207 155 107
207 155 107
207 155 107
207 155 107
207 155 107
207 155 107
207 155 107
207 155 107
207 155 107
207 155 107
207 155 107
207 155 107
207 155 107
207 155 107
207 155 107
207 155 107
207 155 107
207 155 107
207 155 107
207 155 107
207 155 107
207 155 107
207 155 107
207 155 107
207 155 107
207 155 107
207 155 107
207 155 107
207 155 107
207 155 108
207 155 108
207 155 108
207 155 108
234 193 161
234 193 161
234 193 161
234 193 161
234 193 161
234 193 161
234 193 161
234 193 161
234 193 161
234 193 161
234 193 161
234 193 161
234 193 161
234 193 161
234 193 161
234 193 161
234 193 161
234 193 161
234 193 161
234 193 161
234 193 161
234 193 161
234 193 161
234 193 161
234 193 161
234 193 161
234 193 161
234 193 161
234 193 161
234 193 161
234 193 161
234 193 161
234 193 161
234 193 161
234 193 161
234 193 161
234 193 161
234 193 161
234 193 161
234 193 161
234 193 161
234 193 161
234 193 161
234 193 161
232 191 159
232 191 159
232 191 159
232 191 159
189 142 99
189 142 99
189 142 99
189 142 99
189 142 99
189 142 99
189 142 99
189 142 99
189 142 99
189 142 99
189 142 99
189 142 99
189 142 99
189 142 99
189 142 99
189 142 99
189 142 99
189 142 99
189 142 99
189 142 99
189 142 99
189 142 99
189 142 99
189 142 99
189 142 99
189 142 99
189 142 99
189 142 99
189 142 99
189 142 99
189 142 99
189 142 99
189 142 99
189 142 99
189 142 99
189 142 99
189 142 99
189 142 99
189 142 99
189 142 99
189 142 99
189 142 99
189 142 99
189 142 99
190 143 100
190 143 100
190 143 100
190 143 100
151 113 77
151 113 77
151 113 77
151 113 77
151 113 77
151 113 77
151 113 77
151 113 77
151 113 77
151 113 77
151 113 77
151 113 77
151 113 77
151 113 77
151 113 77
151 113 77
151 113 77
151 113 77
151 113 77
151 113 77
151 113 77
151 113 77
151 113 77
151 113 77
151 113 77
151 113 77
151 113 77
151 113 77
151 113 77
151 113 77
151 113 77
151 113 77
151 113 77
151 113 77
151 113 77
151 113 77
151 113 77
151 113 77
151 113 77
151 113 77
151 113 77
151 113 77
151 113 77
151 113 77
156 117 79
156 117 79
156 117 79
156 117 79
0 0 0
0 0 0
0 0 0
0 0 0
0 0 0
0 0 0
0 0 0
0 0 0
0 0 0
0 0 0
0 0 0
0 0 0
0 0 0
0 0 0
0 0 0
0 0 0
0 0 0
0 0 0
0 0 0
0 0 0
0 0 0
0 0 0
0 0 0
0 0 0
0 0 0
0 0 0
0 0 0
0 0 0
0 0 0
0 0 0
0 0 0
0 0 0
0 0 0
0 0 0
0 0 0
0 0 0
0 0 0
0 0 0
0 0 0
0 0 0
0 0 0
0 0 0
0 0 0
0 0 0
0 0 0
0 0 0
0 0 0
0 0 0
0 0 0
0 0 0
0 0 0
0 0 0
0 0 0
0 0 0
0 0 0
0 0 0
0 0 0
0 0 0
0 0 0
0 0 0
0 0 0
0 0 0
0 0 0
0 0 0
207 155 107
207 155 107
207 155 107
207 155 107
207 155 107
207 155 107
207 155 107
207 155 107
207 155 107
207 155 107
207 155 107
207 155 107
207 155 107
207 155 107
207 155 107
207 155 107
207 155 107
207 155 107
207 155 107
207 155 107
207 155 107
207 155 107
207 155 107
207 155 107
207 155 107
207 155 107
207 155 107
207 155 107
207 155 107
207 155 107
207 155 107
207 155 107
207 155 107
207 155 107
207 155 107
207 155 107
207 155 107
207 155 107
207 155 107
207 155 107
207 155 107
207 155 107
207 155 107
207 155 108
207 155 108
207 155 108
207 155 108
207 155 108
234 193 161
234 193 161
234 193 161
234 193 161
234 193 161
234 193 161
234 193 161
234 193 161
234 193 161
234 193 161
234 193 161
234 193 161
234 193 161
234 193 161
234 193 161
234 193 161
234 193 161
234 193 161
234 193 161
234 193 161
234 193 161
234 193 161
234 193 161
234 193 161
234 193 161
234 193 161
234 193 161
234 193 161
234 193 161
234 193 161
234 193 161
234 193 161
234 193 161
234 193 161
234 193 161
234 193 161
234 193 161
234 193 161
234 193 161
234 193 161
234 193 161
234 193 161
234 193 161
232 191 159
232 191 159
232 191 159
232 191 159
232 191 159
189 142 99
189 142 99
189 142 99
189 142 99
189 142 99
189 142 99
189 142 99
189 142 99
189 142 99
189 142 99
189 142 99
189 142 99
189 142 99
189 142 99
189 142 99
189 142 99
189 142 99
189 142 99
189 142 99
189 142 99
189 142 99
189 142 99
189 142 99
189 142 99
189 142 99
189 142 99
189 142 99
189 142 99
189 142 99
189 142 99
189 142 99
189 142 99
189 142 99
189 142 99
189 142 99
189 142 99
189 142 99
189 142 99
189 142 99
189 142 99
189 142 99
189 142 99
189 142 99
190 143 100
190 143 100
190 143 100
190 143 100
190 143 100
151 113 77
151 113 77
151 113 77
151 113 77
151 113 77
151 113 77
151 113 77
151 113 77
151 113 77
151 113 77
151 113 77
151 113 77
151 113 77
151 113 77
151 113 77
151 113 77
151 113 77
151 113 77
151 113 77
151 113 77
151 113 77
151 113 77
151 113 77
151 113 77
151 113 77
151 113 77
151 113 77
151 113 77
151 113 77
151 113 77
151 113 77
151 113 77
151 113 77
151 113 77
151 113 77
151 113 77
151 113 77
151 113 77
151 113 77
151 113 77
151 113 77
151 113 77
151 113 77
156 117 79
156 117 79
156 117 79
156 117 79
156 117 79
0 0 0
0 0 0
0 0 0
0 0 0
0 0 0
0 0 0
0 0 0
0 0 0
0 0 0
0 0 0
0 0 0
0 0 0
0 0 0
0 0 0
0 0 0
0 0 0
0 0 0
0 0 0
0 0 0
0 0 0
0 0 0
0 0 0
0 0 0
0 0 0
0 0 0
0 0 0
0 0 0
0 0 0
0 0 0
0 0 0
0 0 0
0 0 0
0 0 0
0 0 0
0 0 0
0 0 0
0 0 0
0 0 0
0 0 0
0 0 0
0 0 0
0 0 0
0 0 0
0 0 0
0 0 0
0 0 0
0 0 0
0 0 0
0 0 0
0 0 0
0 0 0
0 0 0
0 0 0
0 0 0
0 0 0
0 0 0
0 0 0
0 0 0
0 0 0
0 0 0
0 0 0
0 0 0
0 0 0
0 0 0
207 155 107
207 155 107
207 155 107
207 155 107
207 155 107
207 155 107
207 155 107
207 155 107
207 155 107
207 155 107
207 155 107
207 155 107
207 155 107
207 155 107
207 155 107
207 155 107
207 155 107
207 155 107
207 155 107
207 155 107
207 155 107
207 155 107
207 155 107
207 155 107
207 155 107
207 155 107
207 155 107
207 155 107
207 155 107
207 155 107
207 155 107
207 155 107
207 155 107
207 155 107
207 155 107
207 155 107
207 155 107
207 155 107
207 155 107
207 155 107
207 155 107
207 155 108
207 155 108
207 155 108
207 155 108
207 155 108
207 155 108
207 155 108
234 193 161
234 193 161
234 193 161
234 193 161
234 193 161
234 193 161
234 193 161
234 193 161
234 193 161
234 193 161
234 193 161
234 193 161
234 193 161
234 193 161
234 193 161
234 193 161
234 193 161
234 193 161
234 193 161
234 193 161
234 193 161
234 193 161
234 193 161
234 193 161
234 193 161
234 193 161
234 193 161
234 193 161
234 193 161
234 193 161
234 193 161
234 193 161
234 193 161
234 193 161
234 193 161
234 193 161
234 193 161
234 193 161
234 193 161
234 193 161
234 193 161
232 191 159
232 191 159
232 191 159
232 191 159
232 191 159
232 191 159
232 191 159
189 142 99
189 142 99
189 142 99
189 142 99
189 142 99
189 142 99
189 142 99
189 142 99
189 142 99
189 142 99
189 142 99
189 142 99
189 142 99
189 142 99
189 142 99
189 142 99
189 142 99
189 142 99
189 142 99
189 142 99
189 142 99
189 142 99
189 142 99
189 142 99
189 142 99
189 142 99
189 142 99
189 142 99
189 142 99
189 142 99
189 142 99
189 142 99
189 142 99
189 142 99
189 142 99
189 142 99
189 142 99
189 142 99
189 142 99
189 142 99
189 142 99
190 143 100
190 143 100
190 143 100
190 143 100
190 143 100
190 143 100
190 143 100
151 113 77
151 113 77
151 113 77
151 113 77
151 113 77
151 113 77
151 113 77
151 113 77
151 113 77
151 113 77
151 113 77
151 113 77
151 113 77
151 113 77
151 113 77
151 113 77
151 113 77
151 113 77
151 113 77
151 113 77
151 113 77
151 113 77
151 113 77
151 113 77
151 113 77
151 113 77
151 113 77
151 113 77
151 113 77
151 113 77
151 113 77
151 113 77
151 113 77
151 113 77
151 113 77
151 113 77
151 113 77
151 113 77
151 113 77
151 113 77
151 113 77
156 117 79
156 117 79
156 117 79
156 117 79
156 117 79
156 117 79
156 117 79
0 0 0
0 0 0
0 0 0
0 0 0
0 0 0
0 0 0
0 0 0
0 0 0
0 0 0
0 0 0
0 0 0
0 0 0
0 0 0
0 0 0
0 0 0
0 0 0
0 0 0
0 0 0
0 0 0
0 0 0
0 0 0
0 0 0
0 0 0
0 0 0
0 0 0
0 0 0
0 0 0
0 0 0
0 0 0
0 0 0
0 0 0
0 0 0
0 0 0
0 0 0
0 0 0
0 0 0
0 0 0
0 0 0
0 0 0
0 0 0
0 0 0
0 0 0
0 0 0
0 0 0
0 0 0
0 0 0
0 0 0
0 0 0
0 0 0
0 0 0
0 0 0
0 0 0
0 0 0
0 0 0
0 0 0
0 0 0
0 0 0
0 0 0
0 0 0
0 0 0
0 0 0
0 0 0
0 0 0
0 0 0
207 155 107
207 155 107
207 155 107
207 155 107
207 155 107
207 155 107
207 155 107
207 155 107
207 155 107
207 155 107
207 155 107
207 155 107
207 155 107
207 155 107
207 155 107
207 155 107
207 155 107
207 155 107
207 155 107
207 155 107
207 155 107
207 155 107
207 155 107
207 155 107
207 155 107
207 155 107
207 155 107
207 155 107
207 155 107
207 155 107
207 155 107
207 155 107
207 155 107
207 155 107
207 155 107
207 155 107
207 155 107
207 155 107
207 155 107
207 155 107
207 155 108
207 155 108
207 155 108
207 155 108
207 155 108
207 155 108
207 155 108
207 155 108
234 193 161
234 193 161
234 193 161
234 193 161
234 193 161
234 193 161
234 193 161
234 193 161
234 193 161
234 193 161
234 193 161
234 193 161
234 193 161
234 193 161
234 193 161
234 193 161
234 193 161
234 193 161
234 193 161
234 193 161
234 193 161
234 193 161
234 193 161
234 193 161
234 193 161
234 193 161
234 193 161
234 193 161
234 193 161
234 193 161
234 193 161
234 193 161
234 193 161
234 193 161
234 193 161
234 193 161
234 193 161
234 193 161
234 193 161
234 193 161
232 191 159
232 191 159
232 191 159
232 191 159
232 191 159
232 191 159
232 191 159
232 191 159
189 142 99
189 142 99
189 142 99
189 142 99
189 142 99
189 142 99
189 142 99
189 142 99
189 142 99
189 142 99
189 142 99
189 142 99
189 142 99
189 142 99
189 142 99
189 142 99
189 142 99
189 142 99
189 142 99
189 142 99
189 142 99
189 142 99
189 142 99
189 142 99
189 142 99
189 142 99
189 142 99
189 142 99
189 142 99
189 142 99
189 142 99
189 142 99
189 142 99
189 142 99
189 142 99
189 142 99
189 142 99
189 142 99
189 142 99
189 142 99
190 143 100
190 143 100
190 143 100
190 143 100
190 143 100
190 143 100
190 143 100
190 143 100
151 113 77
151 113 77
151 113 77
151 113 77
151 113 77
151 113 77
151 113 77
151 113 77
151 113 77
151 113 77
151 113 77
151 113 77
151 113 77
151 113 77
151 113 77
151 113 77
151 113 77
151 113 77
151 113 77
151 113 77
151 113 77
151 113 77
151 113 77
151 113 77
151 113 77
151 113 77
151 113 77
151 113 77
151 113 77
151 113 77
151 113 77
151 113 77
151 113 77
151 113 77
151 113 77
151 113 77
151 113 77
151 113 77
151 113 77
151 113 77
156 117 79
156 117 79
156 117 79
156 117 79
156 117 79
156 117 79
156 117 79
156 117 79
0 0 0
0 0 0
0 0 0
0 0 0
0 0 0
0 0 0
0 0 0
0 0 0
0 0 0
0 0 0
0 0 0
0 0 0
0 0 0
0 0 0
0 0 0
0 0 0
0 0 0
0 0 0
0 0 0
0 0 0
0 0 0
0 0 0
0 0 0
0 0 0
0 0 0
0 0 0
0 0 0
0 0 0
0 0 0
0 0 0
0 0 0
0 0 0
0 0 0
0 0 0
0 0 0
0 0 0
0 0 0
0 0 0
0 0 0
0 0 0
0 0 0
0 0 0
0 0 0
0 0 0
0 0 0
0 0 0
0 0 0
0 0 0
0 0 0
0 0 0
0 0 0
0 0 0
0 0 0
0 0 0
0 0 0
0 0 0
0 0 0
0 0 0
0 0 0
0 0 0
0 0 0
0 0 0
0 0 0
0 0 0
207 155 107
207 155 107
207 155 107
207 155 107
207 155 107
207 155 107
207 155 107
207 155 107
207 155 107
207 155 107
207 155 107
207 155 107
207 155 107
207 155 107
207 155 107
207 155 107
207 155 107
207 155 107
207 155 107
207 155 107
207 155 107
207 155 107
207 155 107
207 155 107
207 155 107
207 155 107
207 155 107
207 155 107
207 155 107
207 155 107
207 155 107
207 155 107
207 155 107
207 155 107
207 155 107
207 155 107
207 155 107
207 155 107
207 155 108
207 155 108
207 155 108
207 155 108
207 155 108
207 155 108
207 155 108
207 155 108
207 155 108
207 155 108
234 193 161
234 193 161
234 193 161
234 193 161
234 193 161
234 193 161
234 193 161
234 193 161
234 193 161
234 193 161
234 193 161
234 193 161
234 193 161
234 193 161
234 193 161
234 193 161
234 193 161
234 193 161
234 193 161
234 193 161
234 193 161
234 193 161
234 193 161
234 193 161
234 193 161
234 193 161
234 193 161
234 193 161
234 193 161
234 193 161
234 193 161
234 193 161
234 193 161
234 193 161
234 193 161
234 193 161
234 193 161
234 193 161
232 191 159
232 191 159
232 191 159
232 191 159
232 191 159
232 191 159
232 191 159
232 191 159
232 191 159
232 191 159
189 142 99
189 142 99
189 142 99
189 142 99
189 142 99
189 142 99
189 142 99
189 142 99
189 142 99
189 142 99
189 142 99
189 142 99
189 142 99
189 142 99
189 142 99
189 142 99
189 142 99
189 142 99
189 142 99
189 142 99
189 142 99
189 142 99
189 142 99
189 142 99
189 142 99
189 142 99
189 142 99
189 142 99
189 142 99
189 142 99
189 142 99
189 142 99
189 142 99
189 142 99
189 142 99
189 142 99
189 142 99
189 142 99
190 143 100
190 143 100
190 143 100
190 143 100
190 143 100
190 143 100
190 143 100
190 143 100
190 143 100
190 143 100
151 113 77
151 113 77
151 113 77
151 113 77
151 113 77
151 113 77
151 113 77
151 113 77
151 113 77
151 113 77
151 113 77
151 113 77
151 113 77
151 113 77
151 113 77
151 113 77
151 113 77
151 113 77
151 113 77
151 113 77
151 113 77
151 113 77
151 113 77
151 113 77
151 113 77
151 113 77
151 113 77
151 113 77
151 113 77
151 113 77
151 113 77
151 113 77
151 113 77
151 113 77
151 113 77
151 113 77
151 113 77
151 113 77
156 117 79
156 117 79
156 117 79
156 117 79
156 117 79
156 117 79
156 117 79
156 117 79
156 117 79
156 117 79
0 0 0
0 0 0
0 0 0
0 0 0
0 0 0
0 0 0
0 0 0
0 0 0
0 0 0
0 0 0
0 0 0
0 0 0
0 0 0
0 0 0
0 0 0
0 0 0
0 0 0
0 0 0
0 0 0
0 0 0
0 0 0
0 0 0
0 0 0
0 0 0
0 0 0
0 0 0
0 0 0
0 0 0
0 0 0
0 0 0
0 0 0
0 0 0
0 0 0
0 0 0
0 0 0
0 0 0
0 0 0
0 0 0
0 0 0
0 0 0
0 0 0
0 0 0
0 0 0
0 0 0
0 0 0
0 0 0
0 0 0
0 0 0
0 0 0
0 0 0
0 0 0
0 0 0
0 0 0
0 0 0
0 0 0
0 0 0
0 0 0
0 0 0
0 0 0
0 0 0
0 0 0
0 0 0
0 0 0
0 0 0
207 155 107
207 155 107
207 155 107
207 155 107
207 155 107
207 155 107
207 155 107
207 155 107
207 155 107
207 155 107
207 155 107
207 155 107
207 155 107
207 155 107
207 155 107
207 155 107
207 155 107
207 155 107
207 155 107
207 155 107
207 155 107
207 155 107
207 155 107
207 155 107
207 155 107
207 155 107
207 155 107
207 155 107
207 155 107
207 155 107
207 155 107
207 155 107
207 155 107
207 155 107
207 155 107
207 155 107
207 155 107
207 155 108
207 155 108
207 155 108
207 155 108
207 155 108
207 155 108
207 155 108
207 155 108
207 155 108
207 155 108
207 155 108
234 193 161
234 193 161
234 193 161
234 193 161
234 193 161
234 193 161
234 193 161
234 193 161
234 193 161
234 193 161
234 193 161
234 193 161
234 193 161
234 193 161
234 193 161
234 193 161
234 193 161
234 193 161
234 193 161
234 193 161
234 193 161
234 193 161
234 193 161
234 193 161
234 193 161
234 193 161
234 193 161
234 193 161
234 193 161
234 193 161
234 193 161
234 193 161
234 193 161
234 193 161
234 193 161
234 193 161
234 193 161
232 191 159
232 191 159
232 191 159
232 191 159
232 191 159
232 191 159
232 191 159
232 191 159
232 191 159
232 191 159
232 191 159
189 142 99
189 142 99
189 142 99
189 142 99
189 142 99
189 142 99
189 142 99
189 142 99
189 142 99
189 142 99
189 142 99
189 142 99
189 142 99
189 142 99
189 142 99
189 142 99
189 142 99
189 142 99
189 142 99
189 142 99
189 142 99
189 142 99
189 142 99
189 142 99
189 142 99
189 142 99
189 142 99
189 142 99
189 142 99
189 142 99
189 142 99
189 142 99
189 142 99
189 142 99
189 142 99
189 142 99
189 142 99
190 143 100
190 143 100
190 143 100
190 143 100
190 143 100
190 143 100
190 143 100
190 143 100
190 143 100
190 143 100
190 143 100
151 113 77
151 113 77
151 113 77
151 113 77
151 113 77
151 113 77
151 113 77
151 113 77
151 113 77
151 113 77
151 113 77
151 113 77
151 113 77
151 113 77
151 113 77
151 113 77
151 113 77
151 113 77
151 113 77
151 113 77
151 113 77
151 113 77
151 113 77
151 113 77
151 113 77
151 113 77
151 113 77
151 113 77
151 113 77
151 113 77
151 113 77
151 113 77
151 113 77
151 113 77
151 113 77
151 113 77
151 113 77
156 117 79
156 117 79
156 117 79
156 117 79
156 117 79
156 117 79
156 117 79
156 117 79
156 117 79
156 117 79
156 117 79
0 0 0
0 0 0
0 0 0
0 0 0
0 0 0
0 0 0
0 0 0
0 0 0
0 0 0
0 0 0
0 0 0
0 0 0
0 0 0
0 0 0
0 0 0
0 0 0
0 0 0
0 0 0
0 0 0
0 0 0
0 0 0
0 0 0
0 0 0
0 0 0
0 0 0
0 0 0
0 0 0
0 0 0
0 0 0
0 0 0
0 0 0
0 0 0
0 0 0
0 0 0
0 0 0
0 0 0
0 0 0
0 0 0
0 0 0
0 0 0
0 0 0
0 0 0
0 0 0
0 0 0
0 0 0
0 0 0
0 0 0
0 0 0
0 0 0
0 0 0
0 0 0
0 0 0
0 0 0
0 0 0
0 0 0
0 0 0
0 0 0
0 0 0
0 0 0
0 0 0
0 0 0
0 0 0
0 0 0
0 0 0
207 155 107
207 155 107
207 155 107
207 155 107
207 155 107
207 155 107
207 155 107
207 155 107
207 155 107
207 155 107
207 155 107
207 155 107
207 155 107
207 155 107
207 155 107
207 155 107
207 155 107
207 155 107
207 155 107
207 155 107
207 155 107
207 155 107
207 155 107
207 155 107
207 155 107
207 155 107
207 155 107
207 155 107
207 155 107
207 155 107
207 155 107
207 155 107
207 155 107
207 155 107
207 155 107
207 155 108
207 155 108
207 155 108
207 155 108
207 155 108
207 155 108
207 155 108
207 155 108
207 155 108
207 155 108
207 155 108
207 155 108
207 155 108
234 193 161
234 193 161
234 193 161
234 193 161
234 193 161
234 193 161
234 193 161
234 193 161
234 193 161
234 193 161
234 193 161
234 193 161
234 193 161
234 193 161
234 193 161
234 193 161
234 193 161
234 193 161
234 193 161
234 193 161
234 193 161
234 193 161
234 193 161
234 193 161
234 193 161
234 193 161
234 193 161
234 193 161
234 193 161
234 193 161
234 193 161
234 193 161
234 193 161
234 193 161
234 193 161
232 191 159
232 191 159
232 191 159
232 191 159
232 191 159
232 191 159
232 191 159
232 191 159
232 191 159
232 191 159
232 191 159
232 191 159
232 191 159
189 142 99
189 142 99
189 142 99
189 142 99
189 142 99
189 142 99
189 142 99
189 142 99
189 142 99
189 142 99
189 142 99
189 142 99
189 142 99
189 142 99
189 142 99
189 142 99
189 142 99
189 142 99
189 142 99
189 142 99
189 142 99
189 142 99
189 142 99
189 142 99
189 142 99
189 142 99
189 142 99
189 142 99
189 142 99
189 142 99
189 142 99
189 142 99
189 142 99
189 142 99
189 142 99
190 143 100
190 143 100
190 143 100
190 143 100
190 143 100
190 143 100
190 143 100
190 143 100
190 143 100
190 143 100
190 143 100
190 143 100
190 143 100
151 113 77
151 113 77
151 113 77
151 113 77
151 113 77
151 113 77
151 113 77
151 113 77
151 113 77
151 113 77
151 113 77
151 113 77
151 113 77
151 113 77
151 113 77
151 113 77
151 113 77
151 113 77
151 113 77
151 113 77
151 113 77
151 113 77
151 113 77
151 113 77
151 113 77
151 113 77
151 113 77
151 113 77
151 113 77
151 113 77
151 113 77
151 113 77
151 113 77
151 113 77
151 113 77
156 117 79
156 117 79
156 117 79
156 117 79
156 117 79
156 117 79
156 117 79
156 117 79
156 117 79
156 117 79
156 117 79
156 117 79
156 117 79
0 0 0
0 0 0
0 0 0
0 0 0
0 0 0
0 0 0
0 0 0
0 0 0
0 0 0
0 0 0
0 0 0
0 0 0
0 0 0
0 0 0
0 0 0
0 0 0
0 0 0
0 0 0
0 0 0
0 0 0
0 0 0
0 0 0
0 0 0
0 0 0
0 0 0
0 0 0
0 0 0
0 0 0
0 0 0
0 0 0
0 0 0
0 0 0
0 0 0
0 0 0
0 0 0
0 0 0
0 0 0
0 0 0
0 0 0
0 0 0
0 0 0
0 0 0
0 0 0
0 0 0
0 0 0
0 0 0
0 0 0
0 0 0
0 0 0
0 0 0
0 0 0
0 0 0
0 0 0
0 0 0
0 0 0
0 0 0
0 0 0
0 0 0
0 0 0
0 0 0
0 0 0
0 0 0
0 0 0
0 0 0
207 155 107
207 155 107
207 155 107
207 155 107
207 155 107
207 155 107
207 155 107
207 155 107
207 155 107
207 155 107
207 155 107
207 155 107
207 155 107
207 155 107
207 155 107
207 155 107
207 155 107
207 155 107
207 155 107
207 155 107
207 155 107
207 155 107
207 155 107
207 155 107
207 155 107
207 155 107
207 155 107
207 155 107
207 155 107
207 155 107
207 155 107
207 155 107
207 155 107
207 155 107
207 155 108
207 155 108
207 155 108
207 155 108
207 155 108
207 155 108
207 155 108
207 155 108
207 155 108
207 155 108
207 155 108
207 155 108
207 155 108
207 155 108
234 193 161
234 193 161
234 193 161
234 193 161
234 193 161
234 193 161
234 193 161
234 193 161
234 193 161
234 193 161
234 193 161
234 193 161
234 193 161
234 193 161
234 193 161
234 193 161
234 193 161
234 193 161
234 193 161
234 193 161
234 193 161
234 193 161
234 193 161
234 193 161
234 193 161
234 193 161
234 193 161
234 193 161
234 193 161
234 193 161
234 193 161
234 193 161
234 193 161
234 193 161
232 191 159
232 191 159
232 191 159
232 191 159
232 191 159
232 191 159
232 191 159
232 191 159
232 191 159
232 191 159
232 191 159
232 191 159
232 191 159
232 191 159
189 142 99
189 142 99
189 142 99
189 142 99
189 142 99
189 142 99
189 142 99
189 142 99
189 142 99
189 142 99
189 142 99
189 142 99
189 142 99
189 142 99
189 142 99
189 142 99
189 142 99
189 142 99
189 142 99
189 142 99
189 142 99
189 142 99
189 142 99
189 142 99
189 142 99
189 142 99
189 142 99
189 142 99
189 142 99
189 142 99
189 142 99
189 142 99
189 142 99
189 142 99
190 143 100
190 143 100
190 143 100
190 143 100
190 143 100
190 143 100
190 143 100
190 143 100
190 143 100
190 143 100
190 143 100
190 143 100
190 143 100
190 143 100
151 113 77
151 113 77
151 113 77
151 113 77
151 113 77
151 113 77
151 113 77
151 113 77
151 113 77
151 113 77
151 113 77
151 113 77
151 113 77
151 113 77
151 113 77
151 113 77
151 113 77
151 113 77
151 113 77
151 113 77
151 113 77
151 113 77
151 113 77
151 113 77
151 113 77
151 113 77
151 113 77
151 113 77
151 113 77
151 113 77
151 113 77
151 113 77
151 113 77
151 113 77
156 117 79
156 117 79
156 117 79
156 117 79
156 117 79
156 117 79
156 117 79
156 117 79
156 117 79
156 117 79
156 117 79
156 117 79
156 117 79
156 117 79
0 0 0
0 0 0
0 0 0
0 0 0
0 0 0
0 0 0
0 0 0
0 0 0
0 0 0
0 0 0
0 0 0
0 0 0
0 0 0
0 0 0
0 0 0
0 0 0
0 0 0
0 0 0
0 0 0
0 0 0
0 0 0
0 0 0
0 0 0
0 0 0
0 0 0
0 0 0
0 0 0
0 0 0
0 0 0
0 0 0
0 0 0
0 0 0
0 0 0
0 0 0
0 0 0
0 0 0
0 0 0
0 0 0
0 0 0
0 0 0
0 0 0
0 0 0
0 0 0
0 0 0
0 0 0
0 0 0
0 0 0
0 0 0
0 0 0
0 0 0
0 0 0
0 0 0
0 0 0
0 0 0
0 0 0
0 0 0
0 0 0
0 0 0
0 0 0
0 0 0
0 0 0
0 0 0
0 0 0
0 0 0
207 155 107
207 155 107
207 155 107
207 155 107
207 155 107
207 155 107
207 155 107
207 155 107
207 155 107
207 155 107
207 155 107
207 155 107
207 155 107
207 155 107
207 155 107
207 155 107
207 155 107
207 155 107
207 155 107
207 155 107
207 155 107
207 155 107
207 155 107
207 155 107
207 155 107
207 155 107
207 155 107
207 155 107
207 155 107
207 155 107
207 155 107
207 155 107
207 155 108
207 155 108
207 155 108
207 155 108
207 155 108
207 155 108
207 155 108
207 155 108
207 155 108
207 155 108
207 155 108
207 155 108
207 155 108
207 155 108
207 155 108
207 155 108
234 193 161
234 193 161
234 193 161
234 193 161
234 193 161
234 193 161
234 193 161
234 193 161
234 193 161
234 193 161
234 193 161
234 193 161
234 193 161
234 193 161
234 193 161
234 193 161
234 193 161
234 193 161
234 193 161
234 193 161
234 193 161
234 193 161
234 193 161
234 193 161
234 193 161
234 193 161
234 193 161
234 193 161
234 193 161
234 193 161
234 193 161
234 193 161
232 191 159
232 191 159
232 191 159
232 191 159
232 191 159
232 191 159
232 191 159
232 191 159
232 191 159
232 191 159
232 191 159
232 191 159
232 191 159
232 191 159
232 191 159
232 191 159
189 142 99
189 142 99
189 142 99
189 142 99
189 142 99
189 142 99
189 142 99
189 142 99
189 142 99
189 142 99
189 142 99
189 142 99
189 142 99
189 142 99
189 142 99
189 142 99
189 142 99
189 142 99
189 142 99
189 142 99
189 142 99
189 142 99
189 142 99
189 142 99
189 142 99
189 142 99
189 142 99
189 142 99
189 142 99
189 142 99
189 142 99
189 142 99
190 143 100
190 143 100
190 143 100
190 143 100
190 143 100
190 143 100
190 143 100
190 143 100
190 143 100
190 143 100
190 143 100
190 143 100
190 143 100
190 143 100
190 143 100
190 143 100
151 113 77
151 113 77
151 113 77
151 113 77
151 113 77
151 113 77
151 113 77
151 113 77
151 113 77
151 113 77
151 113 77
151 113 77
151 113 77
151 113 77
151 113 77
151 113 77
151 113 77
151 113 77
151 113 77
151 113 77
151 113 77
151 113 77
151 113 77
151 113 77
151 113 77
151 113 77
151 113 77
151 113 77
151 113 77
151 113 77
151 113 77
151 113 77
156 117 79
156 117 79
156 117 79
156 117 79
156 117 79
156 117 79
156 117 79
156 117 79
156 117 79
156 117 79
156 117 79
156 117 79
156 117 79
156 117 79
156 117 79
156 117 79
0 0 0
0 0 0
0 0 0
0 0 0
0 0 0
0 0 0
0 0 0
0 0 0
0 0 0
0 0 0
0 0 0
0 0 0
0 0 0
0 0 0
0 0 0
0 0 0
0 0 0
0 0 0
0 0 0
0 0 0
0 0 0
0 0 0
0 0 0
0 0 0
0 0 0
0 0 0
0 0 0
0 0 0
0 0 0
0 0 0
0 0 0
0 0 0
0 0 0
0 0 0
0 0 0
0 0 0
0 0 0
0 0 0
0 0 0
0 0 0
0 0 0
0 0 0
0 0 0
0 0 0
0 0 0
0 0 0
0 0 0
0 0 0
0 0 0
0 0 0
0 0 0
0 0 0
0 0 0
0 0 0
0 0 0
0 0 0
0 0 0
0 0 0
0 0 0
0 0 0
0 0 0
0 0 0
0 0 0
0 0 0
207 155 107
207 155 107
207 155 107
207 155 107
207 155 107
207 155 107
207 155 107
207 155 107
207 155 107
207 155 107
207 155 107
207 155 107
207 155 107
207 155 107
207 155 107
207 155 107
207 155 107
207 155 107
207 155 107
207 155 107
207 155 107
207 155 107
207 155 107
207 155 107
207 155 107
207 155 107
207 155 107
207 155 107
207 155 107
207 155 107
207 155 107
207 155 108
207 155 108
207 155 108
207 155 108
207 155 108
207 155 108
207 155 108
207 155 108
207 155 108
207 155 108
207 155 108
207 155 108
207 155 108
207 155 108
207 155 108
207 155 108
207 155 108
234 193 161
234 193 161
234 193 161
234 193 161
234 193 161
234 193 161
234 193 161
234 193 161
234 193 161
234 193 161
234 193 161
234 193 161
234 193 161
234 193 161
234 193 161
234 193 161
234 193 161
234 193 161
234 193 161
234 193 161
234 193 161
234 193 161
234 193 161
234 193 161
234 193 161
234 193 161
234 193 161
234 193 161
234 193 161
234 193 161
234 193 161
232 191 159
232 191 159
232 191 159
232 191 159
232 191 159
232 191 159
232 191 159
232 191 159
232 191 159
232 191 159
232 191 159
232 191 159
232 191 159
232 191 159
232 191 159
232 191 159
232 191 159
189 142 99
189 142 99
189 142 99
189 142 99
189 142 99
189 142 99
189 142 99
189 142 99
189 142 99
189 142 99
189 142 99
189 142 99
189 142 99
189 142 99
189 142 99
189 142 99
189 142 99
189 142 99
189 142 99
189 142 99
189 142 99
189 142 99
189 142 99
189 142 99
189 142 99
189 142 99
189 142 99
189 142 99
189 142 99
189 142 99
189 142 99
190 143 100
190 143 100
190 143 100
190 143 100
190 143 100
190 143 100
190 143 100
190 143 100
190 143 100
190 143 100
190 143 100
190 143 100
190 143 100
190 143 100
190 143 100
190 143 100
190 143 100
151 113 77
151 113 77
151 113 77
151 113 77
151 113 77
151 113 77
151 113 77
151 113 77
151 113 77
151 113 77
151 113 77
151 113 77
151 113 77
151 113 77
151 113 77
151 113 77
151 113 77
151 113 77
151 113 77
151 113 77
151 113 77
151 113 77
151 113 77
151 113 77
151 113 77
151 113 77
151 113 77
151 113 77
151 113 77
151 113 77
151 113 77
156 117 79
156 117 79
156 117 79
156 117 79
156 117 79
156 117 79
156 117 79
156 117 79
156 117 79
156 117 79
156 117 79
156 117 79
156 117 79
156 117 79
156 117 79
156 117 79
156 117 79
0 0 0
0 0 0
0 0 0
0 0 0
0 0 0
0 0 0
0 0 0
0 0 0
0 0 0
0 0 0
0 0 0
0 0 0
0 0 0
0 0 0
0 0 0
0 0 0
0 0 0
0 0 0
0 0 0
0 0 0
0 0 0
0 0 0
0 0 0
0 0 0
0 0 0
0 0 0
0 0 0
0 0 0
0 0 0
0 0 0
0 0 0
0 0 0
0 0 0
0 0 0
0 0 0
0 0 0
0 0 0
0 0 0
0 0 0
0 0 0
0 0 0
0 0 0
0 0 0
0 0 0
0 0 0
0 0 0
0 0 0
0 0 0
0 0 0
0 0 0
0 0 0
0 0 0
0 0 0
0 0 0
0 0 0
0 0 0
0 0 0
0 0 0
0 0 0
0 0 0
0 0 0
0 0 0
0 0 0
0 0 0
207 155 107
207 155 107
207 155 107
207 155 107
207 155 107
207 155 107
207 155 107
207 155 107
207 155 107
207 155 107
207 155 107
207 155 107
207 155 107
207 155 107
207 155 107
207 155 107
207 155 107
207 155 107
207 155 107
207 155 107
207 155 107
207 155 107
207 155 107
207 155 107
207 155 107
207 155 107
207 155 107
207 155 107
207 155 107
207 155 108
207 155 108
207 155 108
207 155 108
207 155 108
207 155 108
207 155 108
207 155 108
207 155 108
207 155 108
207 155 108
207 155 108
207 155 108
207 155 108
207 155 108
207 155 108
207 155 108
207 155 108
207 155 108
234 193 161
234 193 161
234 193 161
234 193 161
234 193 161
234 193 161
234 193 161
234 193 161
234 193 161
234 193 161
234 193 161
234 193 161
234 193 161
234 193 161
234 193 161
234 193 161
234 193 161
234 193 161
234 193 161
234 193 161
234 193 161
234 193 161
234 193 161
234 193 161
234 193 161
234 193 161
234 193 161
234 193 161
234 193 161
232 191 159
232 191 159
232 191 159
232 191 159
232 191 159
232 191 159
232 191 159
232 191 159
232 191 159
232 191 159
232 191 159
232 191 159
232 191 159
232 191 159
232 191 159
232 191 159
232 191 159
232 191 159
232 191 159
189 142 99
189 142 99
189 142 99
189 142 99
189 142 99
189 142 99
189 142 99
189 142 99
189 142 99
189 142 99
189 142 99
189 142 99
189 142 99
189 142 99
189 142 99
189 142 99
189 142 99
189 142 99
189 142 99
189 142 99
189 142 99
189 142 99
189 142 99
189 142 99
189 142 99
189 142 99
189 142 99
189 142 99
189 142 99
190 143 100
190 143 100
190 143 100
190 143 100
190 143 100
190 143 100
190 143 100
190 143 100
190 143 100
190 143 100
190 143 100
190 143 100
190 143 100
190 143 100
190 143 100
190 143 100
190 143 100
190 143 100
190 143 100
151 113 77
151 113 77
151 113 77
151 113 77
151 113 77
151 113 77
151 113 77
151 113 77
151 113 77
151 113 77
151 113 77
151 113 77
151 113 77
151 113 77
151 113 77
151 113 77
151 113 77
151 113 77
151 113 77
151 113 77
151 113 77
151 113 77
151 113 77
151 113 77
151 113 77
151 113 77
151 113 77
151 113 77
151 113 77
156 117 79
156 117 79
156 117 79
156 117 79
156 117 79
156 117 79
156 117 79
156 117 79
156 117 79
156 117 79
156 117 79
156 117 79
156 117 79
156 117 79
156 117 79
156 117 79
156 117 79
156 117 79
156 117 79
0 0 0
0 0 0
0 0 0
0 0 0
0 0 0
0 0 0
0 0 0
0 0 0
0 0 0
0 0 0
0 0 0
0 0 0
0 0 0
0 0 0
0 0 0
0 0 0
0 0 0
0 0 0
0 0 0
0 0 0
0 0 0
0 0 0
0 0 0
0 0 0
0 0 0
0 0 0
0 0 0
0 0 0
0 0 0
0 0 0
0 0 0
0 0 0
0 0 0
0 0 0
0 0 0
0 0 0
0 0 0
0 0 0
0 0 0
0 0 0
0 0 0
0 0 0
0 0 0
0 0 0
0 0 0
0 0 0
0 0 0
0 0 0
0 0 0
0 0 0
0 0 0
0 0 0
0 0 0
0 0 0
0 0 0
0 0 0
0 0 0
0 0 0
0 0 0
0 0 0
0 0 0
0 0 0
0 0 0
0 0 0
207 155 107
207 155 107
207 155 107
207 155 107
207 155 107
207 155 107
207 155 107
207 155 107
207 155 107
207 155 107
207 155 107
207 155 107
207 155 107
207 155 107
207 155 107
207 155 107
207 155 107
207 155 107
207 155 107
207 155 107
207 155 107
207 155 107
207 155 107
207 155 107
207 155 107
207 155 107
207 155 107
207 155 107
207 155 108
207 155 108
207 155 108
207 155 108
207 155 108
207 155 108
207 155 108
207 155 108
207 155 108
207 155 108
207 155 108
207 155 108
207 155 108
207 155 108
207 155 108
207 155 108
207 155 108
207 155 108
207 155 108
207 155 108
234 193 161
234 193 161
234 193 161
234 193 161
234 193 161
234 193 161
234 193 161
234 193 161
234 193 161
234 193 161
234 193 161
234 193 161
234 193 161
234 193 161
234 193 161
234 193 161
234 193 161
234 193 161
234 193 161
234 193 161
234 193 161
234 193 161
234 193 161
234 193 161
234 193 161
234 193 161
234 193 161
234 193 161
232 191 159
232 191 159
232 191 159
232 191 159
232 191 159
232 191 159
232 191 159
232 191 159
232 191 159
232 191 159
232 191 159
232 191 159
232 191 159
232 191 159
232 191 159
232 191 159
232 191 159
232 191 159
232 191 159
232 191 159
189 142 99
189 142 99
189 142 99
189 142 99
189 142 99
189 142 99
189 142 99
189 142 99
189 142 99
189 142 99
189 142 99
189 142 99
189 142 99
189 142 99
189 142 99
189 142 99
189 142 99
189 142 99
189 142 99
189 142 99
189 142 99
189 142 99
189 142 99
189 142 99
189 142 99
189 142 99
189 142 99
189 142 99
190 143 100
190 143 100
190 143 100
190 143 100
190 143 100
190 143 100
190 143 100
190 143 100
190 143 100
190 143 100
190 143 100
190 143 100
190 143 100
190 143 100
190 143 100
190 143 100
190 143 100
190 143 100
190 143 100
190 143 100
151 113 77
151 113 77
151 113 77
151 113 77
151 113 77
151 113 77
151 113 77
151 113 77
151 113 77
151 113 77
151 113 77
151 113 77
151 113 77
151 113 77
151 113 77
151 113 77
151 113 77
151 113 77
151 113 77
151 113 77
151 113 77
151 113 77
151 113 77
151 113 77
151 113 77
151 113 77
151 113 77
151 113 77
156 117 79
156 117 79
156 117 79
156 117 79
156 117 79
156 117 79
156 117 79
156 117 79
156 117 79
156 117 79
156 117 79
156 117 79
156 117 79
156 117 79
156 117 79
156 117 79
156 117 79
156 117 79
156 117 79
156 117 79
0 0 0
0 0 0
0 0 0
0 0 0
0 0 0
0 0 0
0 0 0
0 0 0
0 0 0
0 0 0
0 0 0
0 0 0
0 0 0
0 0 0
0 0 0
0 0 0
0 0 0
0 0 0
0 0 0
0 0 0
0 0 0
0 0 0
0 0 0
0 0 0
0 0 0
0 0 0
0 0 0
0 0 0
0 0 0
0 0 0
0 0 0
0 0 0
0 0 0
0 0 0
0 0 0
0 0 0
0 0 0
0 0 0
0 0 0
0 0 0
0 0 0
0 0 0
0 0 0
0 0 0
0 0 0
0 0 0
0 0 0
0 0 0
0 0 0
0 0 0
0 0 0
0 0 0
0 0 0
0 0 0
0 0 0
0 0 0
0 0 0
0 0 0
0 0 0
0 0 0
0 0 0
0 0 0
0 0 0
0 0 0
207 155 107
207 155 107
207 155 107
207 155 107
207 155 107
207 155 107
207 155 107
207 155 107
207 155 107
207 155 107
207 155 107
207 155 107
207 155 107
207 155 107
207 155 107
207 155 107
207 155 107
207 155 107
207 155 107
207 155 107
207 155 107
207 155 107
207 155 107
207 155 107
207 155 107
207 155 107
207 155 108
207 155 108
207 155 108
207 155 108
207 155 108
207 155 108
207 155 108
207 155 108
207 155 108
207 155 108
207 155 108
207 155 108
207 155 108
207 155 108
207 155 108
207 155 108
207 155 108
207 155 108
207 155 108
207 155 108
207 155 108
207 155 108
234 193 161
234 193 161
234 193 161
234 193 161
234 193 161
234 193 161
234 193 161
234 193 161
234 193 161
234 193 161
234 193 161
234 193 161
234 193 161
234 193 161
234 193 161
234 193 161
234 193 161
234 193 161
234 193 161
234 193 161
234 193 161
234 193 161
234 193 161
234 193 161
234 193 161
234 193 161
232 191 159
232 191 159
232 191 159
232 191 159
232 191 159
232 191 159
232 191 159
232 191 159
232 191 159
232 191 159
232 191 159
232 191 159
232 191 159
232 191 159
232 191 159
232 191 159
232 191 159
232 191 159
232 191 159
232 191 159
232 191 159
232 191 159
189 142 99
189 142 99
189 142 99
189 142 99
189 142 99
189 142 99
189 142 99
189 142 99
189 142 99
189 142 99
189 142 99
189 142 99
189 142 99
189 142 99
189 142 99
189 142 99
189 142 99
189 142 99
189 142 99
189 142 99
189 142 99
189 142 99
189 142 99
189 142 99
189 142 99
189 142 99
190 143 100
190 143 100
190 143 100
190 143 100
190 143 100
190 143 100
190 143 100
190 143 100
190 143 100
190 143 100
190 143 100
190 143 100
190 143 100
190 143 100
190 143 100
190 143 100
190 143 100
190 143 100
190 143 100
190 143 100
190 143 100
190 143 100
151 113 77
151 113 77
151 113 77
151 113 77
151 113 77
151 113 77
151 113 77
151 113 77
151 113 77
151 113 77
151 113 77
151 113 77
151 113 77
151 113 77
151 113 77
151 113 77
151 113 77
151 113 77
151 113 77
151 113 77
151 113 77
151 113 77
151 113 77
151 113 77
151 113 77
151 113 77
156 117 79
156 117 79
156 117 79
156 117 79
156 117 79
156 117 79
156 117 79
156 117 79
156 117 79
156 117 79
156 117 79
156 117 79
156 117 79
156 117 79
156 117 79
156 117 79
156 117 79
156 117 79
156 117 79
156 117 79
156 117 79
156 117 79
0 0 0
0 0 0
0 0 0
0 0 0
0 0 0
0 0 0
0 0 0
0 0 0
0 0 0
0 0 0
0 0 0
0 0 0
0 0 0
0 0 0
0 0 0
0 0 0
0 0 0
0 0 0
0 0 0
0 0 0
0 0 0
0 0 0
0 0 0
0 0 0
0 0 0
0 0 0
0 0 0
0 0 0
0 0 0
0 0 0
0 0 0
0 0 0
0 0 0
0 0 0
0 0 0
0 0 0
0 0 0
0 0 0
0 0 0
0 0 0
0 0 0
0 0 0
0 0 0
0 0 0
0 0 0
0 0 0
0 0 0
0 0 0
0 0 0
0 0 0
0 0 0
0 0 0
0 0 0
0 0 0
0 0 0
0 0 0
0 0 0
0 0 0
0 0 0
0 0 0
0 0 0
0 0 0
0 0 0
0 0 0
207 155 107
207 155 107
207 155 107
207 155 107
207 155 107
207 155 107
207 155 107
207 155 107
207 155 107
207 155 107
207 155 107
207 155 107
207 155 107
207 155 107
207 155 107
207 155 107
207 155 107
207 155 107
207 155 107
207 155 107
207 155 107
207 155 107
207 155 107
207 155 107
207 155 107
207 155 108
207 155 108
207 155 108
207 155 108
207 155 108
207 155 108
207 155 108
207 155 108
207 155 108
207 155 108
207 155 108
207 155 108
207 155 108
207 155 108
207 155 108
207 155 108
207 155 108
207 155 108
207 155 108
207 155 108
207 155 108
207 155 108
207 155 108
234 193 161
234 193 161
234 193 161
234 193 161
234 193 161
234 193 161
234 193 161
234 193 161
234 193 161
234 193 161
234 193 161
234 193 161
234 193 161
234 193 161
234 193 161
234 193 161
234 193 161
234 193 161
234 193 161
234 193 161
234 193 161
234 193 161
234 193 161
234 193 161
234 193 161
232 191 159
232 191 159
232 191 159
232 191 159
232 191 159
232 191 159
232 191 159
232 191 159
232 191 159
232 191 159
232 191 159
232 191 159
232 191 159
232 191 159
232 191 159
232 191 159
232 191 159
232 191 159
232 191 159
232 191 159
232 191 159
232 191 159
232 191 159
189 142 99
189 142 99
189 142 99
189 142 99
189 142 99
189 142 99
189 142 99
189 142 99
189 142 99
189 142 99
189 142 99
189 142 99
189 142 99
189 142 99
189 142 99
189 142 99
189 142 99
189 142 99
189 142 99
189 142 99
189 142 99
189 142 99
189 142 99
189 142 99
189 142 99
190 143 100
190 143 100
190 143 100
190 143 100
190 143 100
190 143 100
190 143 100
190 143 100
190 143 100
190 143 100
190 143 100
190 143 100
190 143 100
190 143 100
190 143 100
190 143 100
190 143 100
190 143 100
190 143 100
190 143 100
190 143 100
190 143 100
190 143 100
151 113 77
151 113 77
151 113 77
151 113 77
151 113 77
151 113 77
151 113 77
151 113 77
151 113 77
151 113 77
151 113 77
151 113 77
151 113 77
151 113 77
151 113 77
151 113 77
151 113 77
151 113 77
151 113 77
151 113 77
151 113 77
151 113 77
151 113 77
151 113 77
151 113 77
156 117 79
156 117 79
156 117 79
156 117 79
156 117 79
156 117 79
156 117 79
156 117 79
156 117 79
156 117 79
156 117 79
156 117 79
156 117 79
156 117 79
156 117 79
156 117 79
156 117 79
156 117 79
156 117 79
156 117 79
156 117 79
156 117 79
156 117 79
0 0 0
0 0 0
0 0 0
0 0 0
0 0 0
0 0 0
0 0 0
0 0 0
0 0 0
0 0 0
0 0 0
0 0 0
0 0 0
0 0 0
0 0 0
0 0 0
0 0 0
0 0 0
0 0 0
0 0 0
0 0 0
0 0 0
0 0 0
0 0 0
0 0 0
0 0 0
0 0 0
0 0 0
0 0 0
0 0 0
0 0 0
0 0 0
0 0 0
0 0 0
0 0 0
0 0 0
0 0 0
0 0 0
0 0 0
0 0 0
0 0 0
0 0 0
0 0 0
0 0 0
0 0 0
0 0 0
0 0 0
0 0 0
0 0 0
0 0 0
0 0 0
0 0 0
0 0 0
0 0 0
0 0 0
0 0 0
0 0 0
0 0 0
0 0 0
0 0 0
0 0 0
0 0 0
0 0 0
0 0 0
207 155 107
207 155 107
207 155 107
207 155 107
207 155 107
207 155 107
207 155 107
207 155 107
207 155 107
207 155 107
207 155 107
207 155 107
207 155 107
207 155 107
207 155 107
207 155 107
207 155 107
207 155 107
207 155 107
207 155 107
207 155 107
207 155 107
207 155 107
207 155 108
207 155 108
207 155 108
207 155 108
207 155 108
207 155 108
207 155 108
207 155 108
207 155 108
207 155 108
207 155 108
207 155 108
207 155 108
207 155 108
207 155 108
207 155 108
207 155 108
207 155 108
207 155 108
207 155 108
207 155 108
207 155 108
207 155 108
207 155 108
207 155 108
234 193 161
234 193 161
234 193 161
234 193 161
234 193 161
234 193 161
234 193 161
234 193 161
234 193 161
234 193 161
234 193 161
234 193 161
234 193 161
234 193 161
234 193 161
234 193 161
234 193 161
234 193 161
234 193 161
234 193 161
234 193 161
234 193 161
234 193 161
232 191 159
232 191 159
232 191 159
232 191 159
232 191 159
232 191 159
232 191 159
232 191 159
232 191 159
232 191 159
232 191 159
232 191 159
232 191 159
232 191 159
232 191 159
232 191 159
232 191 159
232 191 159
232 191 159
232 191 159
232 191 159
232 191 159
232 191 159
232 191 159
232 191 159
189 142 99
189 142 99
189 142 99
189 142 99
189 142 99
189 142 99
189 142 99
189 142 99
189 142 99
189 142 99
189 142 99
189 142 99
189 142 99
189 142 99
189 142 99
189 142 99
189 142 99
189 142 99
189 142 99
189 142 99
189 142 99
189 142 99
189 142 99
190 143 100
190 143 100
190 143 100
190 143 100
190 143 100
190 143 100
190 143 100
190 143 100
190 143 100
190 143 100
190 143 100
190 143 100
190 143 100
190 143 100
190 143 100
190 143 100
190 143 100
190 143 100
190 143 100
190 143 100
190 143 100
190 143 100
190 143 100
190 143 100
190 143 100
151 113 77
151 113 77
151 113 77
151 113 77
151 113 77
151 113 77
151 113 77
151 113 77
151 113 77
151 113 77
151 113 77
151 113 77
151 113 77
151 113 77
151 113 77
151 113 77
151 113 77
151 113 77
151 113 77
151 113 77
151 113 77
151 113 77
151 113 77
156 117 79
156 117 79
156 117 79
156 117 79
156 117 79
156 117 79
156 117 79
156 117 79
156 117 79
156 117 79
156 117 79
156 117 79
156 117 79
156 117 79
156 117 79
156 117 79
156 117 79
156 117 79
156 117 79
156 117 79
156 117 79
156 117 79
156 117 79
156 117 79
156 117 79
0 0 0
0 0 0
0 0 0
0 0 0
0 0 0
0 0 0
0 0 0
0 0 0
0 0 0
0 0 0
0 0 0
0 0 0
0 0 0
0 0 0
0 0 0
0 0 0
0 0 0
0 0 0
0 0 0
0 0 0
0 0 0
0 0 0
0 0 0
0 0 0
0 0 0
0 0 0
0 0 0
0 0 0
0 0 0
0 0 0
0 0 0
0 0 0
0 0 0
0 0 0
0 0 0
0 0 0
0 0 0
0 0 0
0 0 0
0 0 0
0 0 0
0 0 0
0 0 0
0 0 0
0 0 0
0 0 0
0 0 0
0 0 0
0 0 0
0 0 0
0 0 0
0 0 0
0 0 0
0 0 0
0 0 0
0 0 0
0 0 0
0 0 0
0 0 0
0 0 0
0 0 0
0 0 0
0 0 0
0 0 0
207 155 107
207 155 107
207 155 107
207 155 107
207 155 107
207 155 107
207 155 107
207 155 107
207 155 107
207 155 107
207 155 107
207 155 107
207 155 107
207 155 107
207 155 107
207 155 107
207 155 107
207 155 107
207 155 107
207 155 107
207 155 107
207 155 107
207 155 108
207 155 108
207 155 108
207 155 108
207 155 108
207 155 108
207 155 108
207 155 108
207 155 108
207 155 108
207 155 108
207 155 108
207 155 108
207 155 108
207 155 108
207 155 108
207 155 108
207 155 108
207 155 108
207 155 108
207 155 108
207 155 108
207 155 108
207 155 108
207 155 108
207 155 108
234 193 161
234 193 161
234 193 161
234 193 161
234 193 161
234 193 161
234 193 161
234 193 161
234 193 161
234 193 161
234 193 161
234 193 161
234 193 161
234 193 161
234 193 161
234 193 161
234 193 161
234 193 161
234 193 161
234 193 161
234 193 161
234 193 161
232 191 159
232 191 159
232 191 159
232 191 159
232 191 159
232 191 159
232 191 159
232 191 159
232 191 159
232 191 159
232 191 159
232 191 159
232 191 159
232 191 159
232 191 159
232 191 159
232 191 159
232 191 159
232 191 159
232 191 159
232 191 159
232 191 159
232 191 159
232 191 159
232 191 159
232 191 159
189 142 99
189 142 99
189 142 99
189 142 99
189 142 99
189 142 99
189 142 99
189 142 99
189 142 99
189 142 99
189 142 99
189 142 99
189 142 99
189 142 99
189 142 99
189 142 99
189 142 99
189 142 99
189 142 99
189 142 99
189 142 99
189 142 99
190 143 100
190 143 100
190 143 100
190 143 100
190 143 100
190 143 100
190 143 100
190 143 100
190 143 100
190 143 100
190 143 100
190 143 100
190 143 100
190 143 100
190 143 100
190 143 100
190 143 100
190 143 100
190 143 100
190 143 100
190 143 100
190 143 100
190 143 100
190 143 100
190 143 100
190 143 100
151 113 77
151 113 77
151 113 77
151 113 77
151 113 77
151 113 77
151 113 77
151 113 77
151 113 77
151 113 77
151 113 77
151 113 77
151 113 77
151 113 77
151 113 77
151 113 77
151 113 77
151 113 77
151 113 77
151 113 77
151 113 77
151 113 77
156 117 79
156 117 79
156 117 79
156 117 79
156 117 79
156 117 79
156 117 79
156 117 79
156 117 79
156 117 79
156 117 79
156 117 79
156 117 79
156 117 79
156 117 79
156 117 79
156 117 79
156 117 79
156 117 79
156 117 79
156 117 79
156 117 79
156 117 79
156 117 79
156 117 79
156 117 79
0 0 0
0 0 0
0 0 0
0 0 0
0 0 0
0 0 0
0 0 0
0 0 0
0 0 0
0 0 0
0 0 0
0 0 0
0 0 0
0 0 0
0 0 0
0 0 0
0 0 0
0 0 0
0 0 0
0 0 0
0 0 0
0 0 0
0 0 0
0 0 0
0 0 0
0 0 0
0 0 0
0 0 0
0 0 0
0 0 0
0 0 0
0 0 0
0 0 0
0 0 0
0 0 0
0 0 0
0 0 0
0 0 0
0 0 0
0 0 0
0 0 0
0 0 0
0 0 0
0 0 0
0 0 0
0 0 0
0 0 0
0 0 0
0 0 0
0 0 0
0 0 0
0 0 0
0 0 0
0 0 0
0 0 0
0 0 0
0 0 0
0 0 0
0 0 0
0 0 0
0 0 0
0 0 0
0 0 0
0 0 0
207 155 107
207 155 107
207 155 107
207 155 107
207 155 107
207 155 107
207 155 107
207 155 107
207 155 107
207 155 107
207 155 107
207 155 107
207 155 107
207 155 107
207 155 107
207 155 107
207 155 107
207 155 107
207 155 107
207 155 107
207 155 108
207 155 108
207 155 108
207 155 108
207 155 108
207 155 108
207 155 108
207 155 108
207 155 108
207 155 108
207 155 108
207 155 108
207 155 108
207 155 108
207 155 108
207 155 108
207 155 108
207 155 108
207 155 108
207 155 108
207 155 108
207 155 108
207 155 108
207 155 108
207 155 108
207 155 108
207 155 108
207 155 108
234 193 161
234 193 161
234 193 161
234 193 161
234 193 161
234 193 161
234 193 161
234 193 161
234 193 161
234 193 161
234 193 161
234 193 161
234 193 161
234 193 161
234 193 161
234 193 161
234 193 161
234 193 161
234 193 161
234 193 161
232 191 159
232 191 159
232 191 159
232 191 159
232 191 159
232 191 159
232 191 159
232 191 159
232 191 159
232 191 159
232 191 159
232 191 159
232 191 159
232 191 159
232 191 159
232 191 159
232 191 159
232 191 159
232 191 159
232 191 159
232 191 159
232 191 159
232 191 159
232 191 159
232 191 159
232 191 159
232 191 159
232 191 159
189 142 99
189 142 99
189 142 99
189 142 99
189 142 99
189 142 99
189 142 99
189 142 99
189 142 99
189 142 99
189 142 99
189 142 99
189 142 99
189 142 99
189 142 99
189 142 99
189 142 99
189 142 99
189 142 99
189 142 99
190 143 100
190 143 100
190 143 100
190 143 100
190 143 100
190 143 100
190 143 100
190 143 100
190 143 100
190 143 100
190 143 100
190 143 100
190 143 100
190 143 100
190 143 100
190 143 100
190 143 100
190 143 100
190 143 100
190 143 100
190 143 100
190 143 100
190 143 100
190 143 100
190 143 100
190 143 100
190 143 100
190 143 100
151 113 77
151 113 77
151 113 77
151 113 77
151 113 77
151 113 77
151 113 77
151 113 77
151 113 77
151 113 77
151 113 77
151 113 77
151 113 77
151 113 77
151 113 77
151 113 77
151 113 77
151 113 77
151 113 77
151 113 77
156 117 79
156 117 79
156 117 79
156 117 79
156 117 79
156 117 79
156 117 79
156 117 79
156 117 79
156 117 79
156 117 79
156 117 79
156 117 79
156 117 79
156 117 79
156 117 79
156 117 79
156 117 79
156 117 79
156 117 79
156 117 79
156 117 79
156 117 79
156 117 79
156 117 79
156 117 79
156 117 79
156 117 79
0 0 0
0 0 0
0 0 0
0 0 0
0 0 0
0 0 0
0 0 0
0 0 0
0 0 0
0 0 0
0 0 0
0 0 0
0 0 0
0 0 0
0 0 0
0 0 0
0 0 0
0 0 0
0 0 0
0 0 0
0 0 0
0 0 0
0 0 0
0 0 0
0 0 0
0 0 0
0 0 0
0 0 0
0 0 0
0 0 0
0 0 0
0 0 0
0 0 0
0 0 0
0 0 0
0 0 0
0 0 0
0 0 0
0 0 0
0 0 0
0 0 0
0 0 0
0 0 0
0 0 0
0 0 0
0 0 0
0 0 0
0 0 0
0 0 0
0 0 0
0 0 0
0 0 0
0 0 0
0 0 0
0 0 0
0 0 0
0 0 0
0 0 0
0 0 0
0 0 0
0 0 0
0 0 0
0 0 0
0 0 0
207 155 107
207 155 107
207 155 107
207 155 107
207 155 107
207 155 107
207 155 107
207 155 107
207 155 107
207 155 107
207 155 107
207 155 107
207 155 107
207 155 107
207 155 107
207 155 107
207 155 107
207 155 107
207 155 107
207 155 108
207 155 108
207 155 108
207 155 108
207 155 108
207 155 108
207 155 108
207 155 108
207 155 108
207 155 108
207 155 108
207 155 108
207 155 108
207 155 108
207 155 108
207 155 108
207 155 108
207 155 108
207 155 108
207 155 108
207 155 108
207 155 108
207 155 108
207 155 108
207 155 108
207 155 108
207 155 108
207 155 108
207 155 108
234 193 161
234 193 161
234 193 161
234 193 161
234 193 161
234 193 161
234 193 161
234 193 161
234 193 161
234 193 161
234 193 161
234 193 161
234 193 161
234 193 161
234 193 161
234 193 161
234 193 161
234 193 161
234 193 161
232 191 159
232 191 159
232 191 159
232 191 159
232 191 159
232 191 159
232 191 159
232 191 159
232 191 159
232 191 159
232 191 159
232 191 159
232 191 159
232 191 159
232 191 159
232 191 159
232 191 159
232 191 159
232 191 159
232 191 159
232 191 159
232 191 159
232 191 159
232 191 159
232 191 159
232 191 159
232 191 159
232 191 159
232 191 159
189 142 99
189 142 99
189 142 99
189 142 99
189 142 99
189 142 99
189 142 99
189 142 99
189 142 99
189 142 99
189 142 99
189 142 99
189 142 99
189 142 99
189 142 99
189 142 99
189 142 99
189 142 99
189 142 99
190 143 100
190 143 100
190 143 100
190 143 100
190 143 100
190 143 100
190 143 100
190 143 100
190 143 100
190 143 100
190 143 100
190 143 100
190 143 100
190 143 100
190 143 100
190 143 100
190 143 100
190 143 100
190 143 100
190 143 100
190 143 100
190 143 100
190 143 100
190 143 100
190 143 100
190 143 100
190 143 100
190 143 100
190 143 100
151 113 77
151 113 77
151 113 77
151 113 77
151 113 77
151 113 77
151 113 77
151 113 77
151 113 77
151 113 77
151 113 77
151 113 77
151 113 77
151 113 77
151 113 77
151 113 77
151 113 77
151 113 77
151 113 77
156 117 79
156 117 79
156 117 79
156 117 79
156 117 79
156 117 79
156 117 79
156 117 79
156 117 79
156 117 79
156 117 79
156 117 79
156 117 79
156 117 79
156 117 79
156 117 79
156 117 79
156 117 79
156 117 79
156 117 79
156 117 79
156 117 79
156 117 79
156 117 79
156 117 79
156 117 79
156 117 79
156 117 79
156 117 79
0 0 0
0 0 0
0 0 0
0 0 0
0 0 0
0 0 0
0 0 0
0 0 0
0 0 0
0 0 0
0 0 0
0 0 0
0 0 0
0 0 0
0 0 0
0 0 0
0 0 0
0 0 0
0 0 0
0 0 0
0 0 0
0 0 0
0 0 0
0 0 0
0 0 0
0 0 0
0 0 0
0 0 0
0 0 0
0 0 0
0 0 0
0 0 0
0 0 0
0 0 0
0 0 0
0 0 0
0 0 0
0 0 0
0 0 0
0 0 0
0 0 0
0 0 0
0 0 0
0 0 0
0 0 0
0 0 0
0 0 0
0 0 0
0 0 0
0 0 0
0 0 0
0 0 0
0 0 0
0 0 0
0 0 0
0 0 0
0 0 0
0 0 0
0 0 0
0 0 0
0 0 0
0 0 0
0 0 0
0 0 0
207 155 107
207 155 107
207 155 107
207 155 107
207 155 107
207 155 107
207 155 107
207 155 107
207 155 107
207 155 107
207 155 107
207 155 107
207 155 107
207 155 107
207 155 107
207 155 107
207 155 107
207 155 108
207 155 108
207 155 108
207 155 108
207 155 108
207 155 108
207 155 108
207 155 108
207 155 108
207 155 108
207 155 108
207 155 108
207 155 108
207 155 108
207 155 108
207 155 108
207 155 108
207 155 108
207 155 108
207 155 108
207 155 108
207 155 108
207 155 108
207 155 108
207 155 108
207 155 108
207 155 108
207 155 108
207 155 108
207 155 108
207 155 108
234 193 161
234 193 161
234 193 161
234 193 161
234 193 161
234 193 161
234 193 161
234 193 161
234 193 161
234 193 161
234 193 161
234 193 161
234 193 161
234 193 161
234 193 161
234 193 161
234 193 161
232 191 159
232 191 159
232 191 159
232 191 159
232 191 159
232 191 159
232 191 159
232 191 159
232 191 159
232 191 159
232 191 159
232 191 159
232 191 159
232 191 159
232 191 159
232 191 159
232 191 159
232 191 159
232 191 159
232 191 159
232 191 159
232 191 159
232 191 159
232 191 159
232 191 159
232 191 159
232 191 159
232 191 159
232 191 159
232 191 159
232 191 159
189 142 99
189 142 99
189 142 99
189 142 99
189 142 99
189 142 99
189 142 99
189 142 99
189 142 99
189 142 99
189 142 99
189 142 99
189 142 99
189 142 99
189 142 99
189 142 99
189 142 99
190 143 100
190 143 100
190 143 100
190 143 100
190 143 100
190 143 100
190 143 100
190 143 100
190 143 100
190 143 100
190 143 100
190 143 100
190 143 100
190 143 100
190 143 100
190 143 100
190 143 100
190 143 100
190 143 100
190 143 100
190 143 100
190 143 100
190 143 100
190 143 100
190 143 100
190 143 100
190 143 100
190 143 100
190 143 100
190 143 100
190 143 100
151 113 77
151 113 77
151 113 77
151 113 77
151 113 77
151 113 77
151 113 77
151 113 77
151 113 77
151 113 77
151 113 77
151 113 77
151 113 77
151 113 77
151 113 77
151 113 77
151 113 77
156 117 79
156 117 79
156 117 79
156 117 79
156 117 79
156 117 79
156 117 79
156 117 79
156 117 79
156 117 79
156 117 79
156 117 79
156 117 79
156 117 79
156 117 79
156 117 79
156 117 79
156 117 79
156 117 79
156 117 79
156 117 79
156 117 79
156 117 79
156 117 79
156 117 79
156 117 79
156 117 79
156 117 79
156 117 79
156 117 79
156 117 79
0 0 0
0 0 0
0 0 0
0 0 0
0 0 0
0 0 0
0 0 0
0 0 0
0 0 0
0 0 0
0 0 0
0 0 0
0 0 0
0 0 0
0 0 0
0 0 0
0 0 0
0 0 0
0 0 0
0 0 0
0 0 0
0 0 0
0 0 0
0 0 0
0 0 0
0 0 0
0 0 0
0 0 0
0 0 0
0 0 0
0 0 0
0 0 0
0 0 0
0 0 0
0 0 0
0 0 0
0 0 0
0 0 0
0 0 0
0 0 0
0 0 0
0 0 0
0 0 0
0 0 0
0 0 0
0 0 0
0 0 0
0 0 0
0 0 0
0 0 0
0 0 0
0 0 0
0 0 0
0 0 0
0 0 0
0 0 0
0 0 0
0 0 0
0 0 0
0 0 0
0 0 0
0 0 0
0 0 0
0 0 0
207 155 107
207 155 107
207 155 107
207 155 107
207 155 107
207 155 107
207 155 107
207 155 107
207 155 107
207 155 107
207 155 107
207 155 107
207 155 107
207 155 107
207 155 107
207 155 107
207 155 108
207 155 108
207 155 108
207 155 108
207 155 108
207 155 108
207 155 108
207 155 108
207 155 108
207 155 108
207 155 108
207 155 108
207 155 108
207 155 108
207 155 108
207 155 108
207 155 108
207 155 108
207 155 108
207 155 108
207 155 108
207 155 108
207 155 108
207 155 108
207 155 108
207 155 108
207 155 108
207 155 108
207 155 108
207 155 108
207 155 108
207 155 108
234 193 161
234 193 161
234 193 161
234 193 161
234 193 161
234 193 161
234 193 161
234 193 161
234 193 161
234 193 161
234 193 161
234 193 161
234 193 161
234 193 161
234 193 161
234 193 161
232 191 159
232 191 159
232 191 159
232 191 159
232 191 159
232 191 159
232 191 159
232 191 159
232 191 159
232 191 159
232 191 159
232 191 159
232 191 159
232 191 159
232 191 159
232 191 159
232 191 159
232 191 159
232 191 159
232 191 159
232 191 159
232 191 159
232 191 159
232 191 159
232 191 159
232 191 159
232 191 159
232 191 159
232 191 159
232 191 159
232 191 159
232 191 159
189 142 99
189 142 99
189 142 99
189 142 99
189 142 99
189 142 99
189 142 99
189 142 99
189 142 99
189 142 99
189 142 99
189 142 99
189 142 99
189 142 99
189 142 99
189 142 99
190 143 100
190 143 100
190 143 100
190 143 100
190 143 100
190 143 100
190 143 100
190 143 100
190 143 100
190 143 100
190 143 100
190 143 100
190 143 100
190 143 100
190 143 100
190 143 100
190 143 100
190 143 100
190 143 100
190 143 100
190 143 100
190 143 100
190 143 100
190 143 100
190 143 100
190 143 100
190 143 100
190 143 100
190 143 100
190 143 100
190 143 100
190 143 100
151 113 77
151 113 77
151 113 77
151 113 77
151 113 77
151 113 77
151 113 77
151 113 77
151 113 77
151 113 77
151 113 77
151 113 77
151 113 77
151 113 77
151 113 77
151 113 77
156 117 79
156 117 79
156 117 79
156 117 79
156 117 79
156 117 79
156 117 79
156 117 79
156 117 79
156 117 79
156 117 79
156 117 79
156 117 79
156 117 79
156 117 79
156 117 79
156 117 79
156 117 79
156 117 79
156 117 79
156 117 79
156 117 79
156 117 79
156 117 79
156 117 79
156 117 79
156 117 79
156 117 79
156 117 79
156 117 79
156 117 79
156 117 79
0 0 0
0 0 0
0 0 0
0 0 0
0 0 0
0 0 0
0 0 0
0 0 0
0 0 0
0 0 0
0 0 0
0 0 0
0 0 0
0 0 0
0 0 0
0 0 0
0 0 0
0 0 0
0 0 0
0 0 0
0 0 0
0 0 0
0 0 0
0 0 0
0 0 0
0 0 0
0 0 0
0 0 0
0 0 0
0 0 0
0 0 0
0 0 0
0 0 0
0 0 0
0 0 0
0 0 0
0 0 0
0 0 0
0 0 0
0 0 0
0 0 0
0 0 0
0 0 0
0 0 0
0 0 0
0 0 0
0 0 0
0 0 0
0 0 0
0 0 0
0 0 0
0 0 0
0 0 0
0 0 0
0 0 0
0 0 0
0 0 0
0 0 0
0 0 0
0 0 0
0 0 0
0 0 0
0 0 0
0 0 0
207 155 107
207 155 107
207 155 107
207 155 107
207 155 107
207 155 107
207 155 107
207 155 107
207 155 107
207 155 107
207 155 107
207 155 107
207 155 107
207 155 107
207 155 108
207 155 108
207 155 108
207 155 108
207 155 108
207 155 108
207 155 108
207 155 108
207 155 108
207 155 108
207 155 108
207 155 108
207 155 108
207 155 108
207 155 108
207 155 108
207 155 108
207 155 108
207 155 108
207 155 108
207 155 108
207 155 108
207 155 108
207 155 108
207 155 108
207 155 108
207 155 108
207 155 108
207 155 108
207 155 108
207 155 108
207 155 108
207 155 108
207 155 108
234 193 161
234 193 161
234 193 161
234 193 161
234 193 161
234 193 161
234 193 161
234 193 161
234 193 161
234 193 161
234 193 161
234 193 161
234 193 161
234 193 161
232 191 159
232 191 159
232 191 159
232 191 159
232 191 159
232 191 159
232 191 159
232 191 159
232 191 159
232 191 159
232 191 159
232 191 159
232 191 159
232 191 159
232 191 159
232 191 159
232 191 159
232 191 159
232 191 159
232 191 159
232 191 159
232 191 159
232 191 159
232 191 159
232 191 159
232 191 159
232 191 159
232 191 159
232 191 159
232 191 159
232 191 159
232 191 159
232 191 159
232 191 159
189 142 99
189 142 99
189 142 99
189 142 99
189 142 99
189 142 99
189 142 99
189 142 99
189 142 99
189 142 99
189 142 99
189 142 99
189 142 99
189 142 99
190 143 100
190 143 100
190 143 100
190 143 100
190 143 100
190 143 100
190 143 100
190 143 100
190 143 100
190 143 100
190 143 100
190 143 100
190 143 100
190 143 100
190 143 100
190 143 100
190 143 100
190 143 100
190 143 100
190 143 100
190 143 100
190 143 100
190 143 100
190 143 100
190 143 100
190 143 100
190 143 100
190 143 100
190 143 100
190 143 100
190 143 100
190 143 100
190 143 100
190 143 100
151 113 77
151 113 77
151 113 77
151 113 77
151 113 77
151 113 77
151 113 77
151 113 77
151 113 77
151 113 77
151 113 77
151 113 77
151 113 77
151 113 77
156 117 79
156 117 79
156 117 79
156 117 79
156 117 79
156 117 79
156 117 79
156 117 79
156 117 79
156 117 79
156 117 79
156 117 79
156 117 79
156 117 79
156 117 79
156 117 79
156 117 79
156 117 79
156 117 79
156 117 79
156 117 79
156 117 79
156 117 79
156 117 79
156 117 79
156 117 79
156 117 79
156 117 79
156 117 79
156 117 79
156 117 79
156 117 79
156 117 79
156 117 79
0 0 0
0 0 0
0 0 0
0 0 0
0 0 0
0 0 0
0 0 0
0 0 0
0 0 0
0 0 0
0 0 0
0 0 0
0 0 0
0 0 0
0 0 0
0 0 0
0 0 0
0 0 0
0 0 0
0 0 0
0 0 0
0 0 0
0 0 0
0 0 0
0 0 0
0 0 0
0 0 0
0 0 0
0 0 0
0 0 0
0 0 0
0 0 0
0 0 0
0 0 0
0 0 0
0 0 0
0 0 0
0 0 0
0 0 0
0 0 0
0 0 0
0 0 0
0 0 0
0 0 0
0 0 0
0 0 0
0 0 0
0 0 0
0 0 0
0 0 0
0 0 0
0 0 0
0 0 0
0 0 0
0 0 0
0 0 0
0 0 0
0 0 0
0 0 0
0 0 0
0 0 0
0 0 0
0 0 0
0 0 0
207 155 107
207 155 107
207 155 107
207 155 107
207 155 107
207 155 107
207 155 107
207 155 107
207 155 107
207 155 107
207 155 107
207 155 107
207 155 107
207 155 108
207 155 108
207 155 108
207 155 108
207 155 108
207 155 108
207 155 108
207 155 108
207 155 108
207 155 108
207 155 108
207 155 108
207 155 108
207 155 108
207 155 108
207 155 108
207 155 108
207 155 108
207 155 108
207 155 108
207 155 108
207 155 108
207 155 108
207 155 108
207 155 108
207 155 108
207 155 108
207 155 108
207 155 108
207 155 108
207 155 108
207 155 108
207 155 108
207 155 108
207 155 108
234 193 161
234 193 161
234 193 161
234 193 161
234 193 161
234 193 161
234 193 161
234 193 161
234 193 161
234 193 161
234 193 161
234 193 161
234 193 161
232 191 159
232 191 159
232 191 159
232 191 159
232 191 159
232 191 159
232 191 159
232 191 159
232 191 159
232 191 159
232 191 159
232 191 159
232 191 159
232 191 159
232 191 159
232 191 159
232 191 159
232 191 159
232 191 159
232 191 159
232 191 159
232 191 159
232 191 159
232 191 159
232 191 159
232 191 159
232 191 159
232 191 159
232 191 159
232 191 159
232 191 159
232 191 159
232 191 159
232 191 159
232 191 159
189 142 99
189 142 99
189 142 99
189 142 99
189 142 99
189 142 99
189 142 99
189 142 99
189 142 99
189 142 99
189 142 99
189 142 99
189 142 99
190 143 100
190 143 100
190 143 100
190 143 100
190 143 100
190 143 100
190 143 100
190 143 100
190 143 100
190 143 100
190 143 100
190 143 100
190 143 100
190 143 100
190 143 100
190 143 100
190 143 100
190 143 100
190 143 100
190 143 100
190 143 100
190 143 100
190 143 100
190 143 100
190 143 100
190 143 100
190 143 100
190 143 100
190 143 100
190 143 100
190 143 100
190 143 100
190 143 100
190 143 100
190 143 100
151 113 77
151 113 77
151 113 77
151 113 77
151 113 77
151 113 77
151 113 77
151 113 77
151 113 77
151 113 77
151 113 77
151 113 77
151 113 77
156 117 79
156 117 79
156 117 79
156 117 79
156 117 79
156 117 79
156 117 79
156 117 79
156 117 79
156 117 79
156 117 79
156 117 79
156 117 79
156 117 79
156 117 79
156 117 79
156 117 79
156 117 79
156 117 79
156 117 79
156 117 79
156 117 79
156 117 79
156 117 79
156 117 79
156 117 79
156 117 79
156 117 79
156 117 79
156 117 79
156 117 79
156 117 79
156 117 79
156 117 79
156 117 79
0 0 0
0 0 0
0 0 0
0 0 0
0 0 0
0 0 0
0 0 0
0 0 0
0 0 0
0 0 0
0 0 0
0 0 0
0 0 0
0 0 0
0 0 0
0 0 0
0 0 0
0 0 0
0 0 0
0 0 0
0 0 0
0 0 0
0 0 0
0 0 0
0 0 0
0 0 0
0 0 0
0 0 0
0 0 0
0 0 0
0 0 0
0 0 0
0 0 0
0 0 0
0 0 0
0 0 0
0 0 0
0 0 0
0 0 0
0 0 0
0 0 0
0 0 0
0 0 0
0 0 0
0 0 0
0 0 0
0 0 0
0 0 0
0 0 0
0 0 0
0 0 0
0 0 0
0 0 0
0 0 0
0 0 0
0 0 0
0 0 0
0 0 0
0 0 0
0 0 0
0 0 0
0 0 0
0 0 0
0 0 0
207 155 107
207 155 107
207 155 107
207 155 107
207 155 107
207 155 107
207 155 107
207 155 107
207 155 107
207 155 107
207 155 107
207 155 108
207 155 108
207 155 108
207 155 108
207 155 108
207 155 108
207 155 108
207 155 108
207 155 108
207 155 108
207 155 108
207 155 108
207 155 108
207 155 108
207 155 108
207 155 108
207 155 108
207 155 108
207 155 108
207 155 108
207 155 108
207 155 108
207 155 108
207 155 108
207 155 108
207 155 108
207 155 108
207 155 108
207 155 108
207 155 108
207 155 108
207 155 108
207 155 108
207 155 108
207 155 108
207 155 108
207 155 108
234 193 161
234 193 161
234 193 161
234 193 161
234 193 161
234 193 161
234 193 161
234 193 161
234 193 161
234 193 161
234 193 161
232 191 159
232 191 159
232 191 159
232 191 159
232 191 159
232 191 159
232 191 159
232 191 159
232 191 159
232 191 159
232 191 159
232 191 159
232 191 159
232 191 159
232 191 159
232 191 159
232 191 159
232 191 159
232 191 159
232 191 159
232 191 159
232 191 159
232 191 159
232 191 159
232 191 159
232 191 159
232 191 159
232 191 159
232 191 159
232 191 159
232 191 159
232 191 159
232 191 159
232 191 159
232 191 159
232 191 159
232 191 159
189 142 99
189 142 99
189 142 99
189 142 99
189 142 99
189 142 99
189 142 99
189 142 99
189 142 99
189 142 99
189 142 99
190 143 100
190 143 100
190 143 100
190 143 100
190 143 100
190 143 100
190 143 100
190 143 100
190 143 100
190 143 100
190 143 100
190 143 100
190 143 100
190 143 100
190 143 100
190 143 100
190 143 100
190 143 100
190 143 100
190 143 100
190 143 100
190 143 100
190 143 100
190 143 100
190 143 100
190 143 100
190 143 100
190 143 100
190 143 100
190 143 100
190 143 100
190 143 100
190 143 100
190 143 100
190 143 100
190 143 100
190 143 100
151 113 77
151 113 77
151 113 77
151 113 77
151 113 77
151 113 77
151 113 77
151 113 77
151 113 77
151 113 77
151 113 77
156 117 79
156 117 79
156 117 79
156 117 79
156 117 79
156 117 79
156 117 79
156 117 79
156 117 79
156 117 79
156 117 79
156 117 79
156 117 79
156 117 79
156 117 79
156 117 79
156 117 79
156 117 79
156 117 79
156 117 79
156 117 79
156 117 79
156 117 79
156 117 79
156 117 79
156 117 79
156 117 79
156 117 79
156 117 79
156 117 79
156 117 79
156 117 79
156 117 79
156 117 79
156 117 79
156 117 79
156 117 79
0 0 0
0 0 0
0 0 0
0 0 0
0 0 0
0 0 0
0 0 0
0 0 0
0 0 0
0 0 0
0 0 0
0 0 0
0 0 0
0 0 0
0 0 0
0 0 0
0 0 0
0 0 0
0 0 0
0 0 0
0 0 0
0 0 0
0 0 0
0 0 0
0 0 0
0 0 0
0 0 0
0 0 0
0 0 0
0 0 0
0 0 0
0 0 0
0 0 0
0 0 0
0 0 0
0 0 0
0 0 0
0 0 0
0 0 0
0 0 0
0 0 0
0 0 0
0 0 0
0 0 0
0 0 0
0 0 0
0 0 0
0 0 0
0 0 0
0 0 0
0 0 0
0 0 0
0 0 0
0 0 0
0 0 0
0 0 0
0 0 0
0 0 0
0 0 0
0 0 0
0 0 0
0 0 0
0 0 0
0 0 0
207 155 107
207 155 107
207 155 107
207 155 107
207 155 107
207 155 107
207 155 107
207 155 107
207 155 107
207 155 107
207 155 108
207 155 108
207 155 108
207 155 108
207 155 108
207 155 108
207 155 108
207 155 108
207 155 108
207 155 108
207 155 108
207 155 108
207 155 108
207 155 108
207 155 108
207 155 108
207 155 108
207 155 108
207 155 108
207 155 108
207 155 108
207 155 108
207 155 108
207 155 108
207 155 108
207 155 108
207 155 108
207 155 108
207 155 108
207 155 108
207 155 108
207 155 108
207 155 108
207 155 108
207 155 108
207 155 108
207 155 108
207 155 108
234 193 161
234 193 161
234 193 161
234 193 161
234 193 161
234 193 161
234 193 161
234 193 161
234 193 161
234 193 161
232 191 159
232 191 159
232 191 159
232 191 159
232 191 159
232 191 159
232 191 159
232 191 159
232 191 159
232 191 159
232 191 159
232 191 159
232 191 159
232 191 159
232 191 159
232 191 159
232 191 159
232 191 159
232 191 159
232 191 159
232 191 159
232 191 159
232 191 159
232 191 159
232 191 159
232 191 159
232 191 159
232 191 159
232 191 159
232 191 159
232 191 159
232 191 159
232 191 159
232 191 159
232 191 159
232 191 159
232 191 159
232 191 159
189 142 99
189 142 99
189 142 99
189 142 99
189 142 99
189 142 99
189 142 99
189 142 99
189 142 99
189 142 99
190 143 100
190 143 100
190 143 100
190 143 100
190 143 100
190 143 100
190 143 100
190 143 100
190 143 100
190 143 100
190 143 100
190 143 100
190 143 100
190 143 100
190 143 100
190 143 100
190 143 100
190 143 100
190 143 100
190 143 100
190 143 100
190 143 100
190 143 100
190 143 100
190 143 100
190 143 100
190 143 100
190 143 100
190 143 100
190 143 100
190 143 100
190 143 100
190 143 100
190 143 100
190 143 100
190 143 100
190 143 100
190 143 100
151 113 77
151 113 77
151 113 77
151 113 77
151 113 77
151 113 77
151 113 77
151 113 77
151 113 77
151 113 77
156 117 79
156 117 79
156 117 79
156 117 79
156 117 79
156 117 79
156 117 79
156 117 79
156 117 79
156 117 79
156 117 79
156 117 79
156 117 79
156 117 79
156 117 79
156 117 79
156 117 79
156 117 79
156 117 79
156 117 79
156 117 79
156 117 79
156 117 79
156 117 79
156 117 79
156 117 79
156 117 79
156 117 79
156 117 79
156 117 79
156 117 79
156 117 79
156 117 79
156 117 79
156 117 79
156 117 79
156 117 79
156 117 79
0 0 0
0 0 0
0 0 0
0 0 0
0 0 0
0 0 0
0 0 0
0 0 0
0 0 0
0 0 0
0 0 0
0 0 0
0 0 0
0 0 0
0 0 0
0 0 0
0 0 0
0 0 0
0 0 0
0 0 0
0 0 0
0 0 0
0 0 0
0 0 0
0 0 0
0 0 0
0 0 0
0 0 0
0 0 0
0 0 0
0 0 0
0 0 0
0 0 0
0 0 0
0 0 0
0 0 0
0 0 0
0 0 0
0 0 0
0 0 0
0 0 0
0 0 0
0 0 0
0 0 0
0 0 0
0 0 0
0 0 0
0 0 0
0 0 0
0 0 0
0 0 0
0 0 0
0 0 0
0 0 0
0 0 0
0 0 0
0 0 0
0 0 0
0 0 0
0 0 0
0 0 0
0 0 0
0 0 0
0 0 0
207 155 107
207 155 107
207 155 107
207 155 107
207 155 107
207 155 107
207 155 107
207 155 107
207 155 108
207 155 108
207 155 108
207 155 108
207 155 108
207 155 108
207 155 108
207 155 108
207 155 108
207 155 108
207 155 108
207 155 108
207 155 108
207 155 108
207 155 108
207 155 108
207 155 108
207 155 108
207 155 108
207 155 108
207 155 108
207 155 108
207 155 108
207 155 108
207 155 108
207 155 108
207 155 108
207 155 108
207 155 108
207 155 108
207 155 108
207 155 108
207 155 108
207 155 108
207 155 108
207 155 108
207 155 108
207 155 108
207 155 108
207 155 108
234 193 161
234 193 161
234 193 161
234 193 161
234 193 161
234 193 161
234 193 161
234 193 161
232 191 159
232 191 159
232 191 159
232 191 159
232 191 159
232 191 159
232 191 159
232 191 159
232 191 159
232 191 159
232 191 159
232 191 159
232 191 159
232 191 159
232 191 159
232 191 159
232 191 159
232 191 159
232 191 159
232 191 159
232 191 159
232 191 159
232 191 159
232 191 159
232 191 159
232 191 159
232 191 159
232 191 159
232 191 159
232 191 159
232 191 159
232 191 159
232 191 159
232 191 159
232 191 159
232 191 159
232 191 159
232 191 159
232 191 159
232 191 159
189 142 99
189 142 99
189 142 99
189 142 99
189 142 99
189 142 99
189 142 99
189 142 99
190 143 100
190 143 100
190 143 100
190 143 100
190 143 100
190 143 100
190 143 100
190 143 100
190 143 100
190 143 100
190 143 100
190 143 100
190 143 100
190 143 100
190 143 100
190 143 100
190 143 100
190 143 100
190 143 100
190 143 100
190 143 100
190 143 100
190 143 100
190 143 100
190 143 100
190 143 100
190 143 100
190 143 100
190 143 100
190 143 100
190 143 100
190 143 100
190 143 100
190 143 100
190 143 100
190 143 100
190 143 100
190 143 100
190 143 100
190 143 100
151 113 77
151 113 77
151 113 77
151 113 77
151 113 77
151 113 77
151 113 77
151 113 77
156 117 79
156 117 79
156 117 79
156 117 79
156 117 79
156 117 79
156 117 79
156 117 79
156 117 79
156 117 79
156 117 79
156 117 79
156 117 79
156 117 79
156 117 79
156 117 79
156 117 79
156 117 79
156 117 79
156 117 79
156 117 79
156 117 79
156 117 79
156 117 79
156 117 79
156 117 79
156 117 79
156 117 79
156 117 79
156 117 79
156 117 79
156 117 79
156 117 79
156 117 79
156 117 79
156 117 79
156 117 79
156 117 79
156 117 79
156 117 79
0 0 0
0 0 0
0 0 0
0 0 0
0 0 0
0 0 0
0 0 0
0 0 0
0 0 0
0 0 0
0 0 0
0 0 0
0 0 0
0 0 0
0 0 0
0 0 0
0 0 0
0 0 0
0 0 0
0 0 0
0 0 0
0 0 0
0 0 0
0 0 0
0 0 0
0 0 0
0 0 0
0 0 0
0 0 0
0 0 0
0 0 0
0 0 0
0 0 0
0 0 0
0 0 0
0 0 0
0 0 0
0 0 0
0 0 0
0 0 0
0 0 0
0 0 0
0 0 0
0 0 0
0 0 0
0 0 0
0 0 0
0 0 0
0 0 0
0 0 0
0 0 0
0 0 0
0 0 0
0 0 0
0 0 0
0 0 0
0 0 0
0 0 0
0 0 0
0 0 0
0 0 0
0 0 0
0 0 0
0 0 0
207 155 107
207 155 107
207 155 107
207 155 107
207 155 107
207 155 107
207 155 107
207 155 108
207 155 108
207 155 108
207 155 108
207 155 108
207 155 108
207 155 108
207 155 108
207 155 108
207 155 108
207 155 108
207 155 108
207 155 108
207 155 108
207 155 108
207 155 108
207 155 108
207 155 108
207 155 108
207 155 108
207 155 108
207 155 108
207 155 108
207 155 108
207 155 108
207 155 108
207 155 108
207 155 108
207 155 108
207 155 108
207 155 108
207 155 108
207 155 108
207 155 108
207 155 108
207 155 108
207 155 108
207 155 108
207 155 108
207 155 108
207 155 108
234 193 161
234 193 161
234 193 161
234 193 161
234 193 161
234 193 161
234 193 161
232 191 159
232 191 159
232 191 159
232 191 159
232 191 159
232 191 159
232 191 159
232 191 159
232 191 159
232 191 159
232 191 159
232 191 159
232 191 159
232 191 159
232 191 159
232 191 159
232 191 159
232 191 159
232 191 159
232 191 159
232 191 159
232 191 159
232 191 159
232 191 159
232 191 159
232 191 159
232 191 159
232 191 159
232 191 159
232 191 159
232 191 159
232 191 159
232 191 159
232 191 159
232 191 159
232 191 159
232 191 159
232 191 159
232 191 159
232 191 159
232 191 159
189 142 99
189 142 99
189 142 99
189 142 99
189 142 99
189 142 99
189 142 99
190 143 100
190 143 100
190 143 100
190 143 100
190 143 100
190 143 100
190 143 100
190 143 100
190 143 100
190 143 100
190 143 100
190 143 100
190 143 100
190 143 100
190 143 100
190 143 100
190 143 100
190 143 100
190 143 100
190 143 100
190 143 100
190 143 100
190 143 100
190 143 100
190 143 100
190 143 100
190 143 100
190 143 100
190 143 100
190 143 100
190 143 100
190 143 100
190 143 100
190 143 100
190 143 100
190 143 100
190 143 100
190 143 100
190 143 100
190 143 100
190 143 100
151 113 77
151 113 77
151 113 77
151 113 77
151 113 77
151 113 77
151 113 77
156 117 79
156 117 79
156 117 79
156 117 79
156 117 79
156 117 79
156 117 79
156 117 79
156 117 79
156 117 79
156 117 79
156 117 79
156 117 79
156 117 79
156 117 79
156 117 79
156 117 79
156 117 79
156 117 79
156 117 79
156 117 79
156 117 79
156 117 79
156 117 79
156 117 79
156 117 79
156 117 79
156 117 79
156 117 79
156 117 79
156 117 79
156 117 79
156 117 79
156 117 79
156 117 79
156 117 79
156 117 79
156 117 79
156 117 79
156 117 79
156 117 79
0 0 0
0 0 0
0 0 0
0 0 0
0 0 0
0 0 0
0 0 0
0 0 0
0 0 0
0 0 0
0 0 0
0 0 0
0 0 0
0 0 0
0 0 0
0 0 0
0 0 0
0 0 0
0 0 0
0 0 0
0 0 0
0 0 0
0 0 0
0 0 0
0 0 0
0 0 0
0 0 0
0 0 0
0 0 0
0 0 0
0 0 0
0 0 0
0 0 0
0 0 0
0 0 0
0 0 0
0 0 0
0 0 0
0 0 0
0 0 0
0 0 0
0 0 0
0 0 0
0 0 0
0 0 0
0 0 0
0 0 0
0 0 0
0 0 0
0 0 0
0 0 0
0 0 0
0 0 0
0 0 0
0 0 0
0 0 0
0 0 0
0 0 0
0 0 0
0 0 0
0 0 0
0 0 0
0 0 0
0 0 0
207 155 107
207 155 107
207 155 107
207 155 107
207 155 107
207 155 108
207 155 108
207 155 108
207 155 108
207 155 108
207 155 108
207 155 108
207 155 108
207 155 108
207 155 108
207 155 108
207 155 108
207 155 108
207 155 108
207 155 108
207 155 108
207 155 108
207 155 108
207 155 108
207 155 108
207 155 108
207 155 108
207 155 108
207 155 108
207 155 108
207 155 108
207 155 108
207 155 108
207 155 108
207 155 108
207 155 108
207 155 108
207 155 108
207 155 108
207 155 108
207 155 108
207 155 108
207 155 108
207 155 108
207 155 108
207 155 108
207 155 108
207 155 108
234 193 161
234 193 161
234 193 161
234 193 161
234 193 161
232 191 159
232 191 159
232 191 159
232 191 159
232 191 159
232 191 159
232 191 159
232 191 159
232 191 159
232 191 159
232 191 159
232 191 159
232 191 159
232 191 159
232 191 159
232 191 159
232 191 159
232 191 159
232 191 159
232 191 159
232 191 159
232 191 159
232 191 159
232 191 159
232 191 159
232 191 159
232 191 159
232 191 159
232 191 159
232 191 159
232 191 159
232 191 159
232 191 159
232 191 159
232 191 159
232 191 159
232 191 159
232 191 159
232 191 159
232 191 159
232 191 159
232 191 159
232 191 159
189 142 99
189 142 99
189 142 99
189 142 99
189 142 99
190 143 100
190 143 100
190 143 100
190 143 100
190 143 100
190 143 100
190 143 100
190 143 100
190 143 100
190 143 100
190 143 100
190 143 100
190 143 100
190 143 100
190 143 100
190 143 100
190 143 100
190 143 100
190 143 100
190 143 100
190 143 100
190 143 100
190 143 100
190 143 100
190 143 100
190 143 100
190 143 100
190 143 100
190 143 100
190 143 100
190 143 100
190 143 100
190 143 100
190 143 100
190 143 100
190 143 100
190 143 100
190 143 100
190 143 100
190 143 100
190 143 100
190 143 100
190 143 100
151 113 77
151 113 77
151 113 77
151 113 77
151 113 77
156 117 79
156 117 79
156 117 79
156 117 79
156 117 79
156 117 79
156 117 79
156 117 79
156 117 79
156 117 79
156 117 79
156 117 79
156 117 79
156 117 79
156 117 79
156 117 79
156 117 79
156 117 79
156 117 79
156 117 79
156 117 79
156 117 79
156 117 79
156 117 79
156 117 79
156 117 79
156 117 79
156 117 79
156 117 79
156 117 79
156 117 79
156 117 79
156 117 79
156 117 79
156 117 79
156 117 79
156 117 79
156 117 79
156 117 79
156 117 79
156 117 79
156 117 79
156 117 79
0 0 0
0 0 0
0 0 0
0 0 0
0 0 0
0 0 0
0 0 0
0 0 0
0 0 0
0 0 0
0 0 0
0 0 0
0 0 0
0 0 0
0 0 0
0 0 0
0 0 0
0 0 0
0 0 0
0 0 0
0 0 0
0 0 0
0 0 0
0 0 0
0 0 0
0 0 0
0 0 0
0 0 0
0 0 0
0 0 0
0 0 0
0 0 0
0 0 0
0 0 0
0 0 0
0 0 0
0 0 0
0 0 0
0 0 0
0 0 0
0 0 0
0 0 0
0 0 0
0 0 0
0 0 0
0 0 0
0 0 0
0 0 0
0 0 0
0 0 0
0 0 0
0 0 0
0 0 0
0 0 0
0 0 0
0 0 0
0 0 0
0 0 0
0 0 0
0 0 0
0 0 0
0 0 0
0 0 0
0 0 0
207 155 107
207 155 107
207 155 107
207 155 107
207 155 108
207 155 108
207 155 108
207 155 108
207 155 108
207 155 108
207 155 108
207 155 108
207 155 108
207 155 108
207 155 108
207 155 108
207 155 108
207 155 108
207 155 108
207 155 108
207 155 108
207 155 108
207 155 108
207 155 108
207 155 108
207 155 108
207 155 108
207 155 108
207 155 108
207 155 108
207 155 108
207 155 108
207 155 108
207 155 108
207 155 108
207 155 108
207 155 108
207 155 108
207 155 108
207 155 108
207 155 108
207 155 108
207 155 108
207 155 108
207 155 108
207 155 108
207 155 108
207 155 108
234 193 161
234 193 161
234 193 161
234 193 161
232 191 159
232 191 159
232 191 159
232 191 159
232 191 159
232 191 159
232 191 159
232 191 159
232 191 159
232 191 159
232 191 159
232 191 159
232 191 159
232 191 159
232 191 159
232 191 159
232 191 159
232 191 159
232 191 159
232 191 159
232 191 159
232 191 159
232 191 159
232 191 159
232 191 159
232 191 159
232 191 159
232 191 159
232 191 159
232 191 159
232 191 159
232 191 159
232 191 159
232 191 159
232 191 159
232 191 159
232 191 159
232 191 159
232 191 159
232 191 159
232 191 159
232 191 159
232 191 159
232 191 159
189 142 99
189 142 99
189 142 99
189 142 99
190 143 100
190 143 100
190 143 100
190 143 100
190 143 100
190 143 100
190 143 100
190 143 100
190 143 100
190 143 100
190 143 100
190 143 100
190 143 100
190 143 100
190 143 100
190 143 100
190 143 100
190 143 100
190 143 100
190 143 100
190 143 100
190 143 100
190 143 100
190 143 100
190 143 100
190 143 100
190 143 100
190 143 100
190 143 100
190 143 100
190 143 100
190 143 100
190 143 100
190 143 100
190 143 100
190 143 100
190 143 100
190 143 100
190 143 100
190 143 100
190 143 100
190 143 100
190 143 100
190 143 100
151 113 77
151 113 77
151 113 77
151 113 77
156 117 79
156 117 79
156 117 79
156 117 79
156 117 79
156 117 79
156 117 79
156 117 79
156 117 79
156 117 79
156 117 79
156 117 79
156 117 79
156 117 79
156 117 79
156 117 79
156 117 79
156 117 79
156 117 79
156 117 79
156 117 79
156 117 79
156 117 79
156 117 79
156 117 79
156 117 79
156 117 79
156 117 79
156 117 79
156 117 79
156 117 79
156 117 79
156 117 79
156 117 79
156 117 79
156 117 79
156 117 79
156 117 79
156 117 79
156 117 79
156 117 79
156 117 79
156 117 79
156 117 79
0 0 0
0 0 0
0 0 0
0 0 0
0 0 0
0 0 0
0 0 0
0 0 0
0 0 0
0 0 0
0 0 0
0 0 0
0 0 0
0 0 0
0 0 0
0 0 0
0 0 0
0 0 0
0 0 0
0 0 0
0 0 0
0 0 0
0 0 0
0 0 0
0 0 0
0 0 0
0 0 0
0 0 0
0 0 0
0 0 0
0 0 0
0 0 0
0 0 0
0 0 0
0 0 0
0 0 0
0 0 0
0 0 0
0 0 0
0 0 0
0 0 0
0 0 0
0 0 0
0 0 0
0 0 0
0 0 0
0 0 0
0 0 0
0 0 0
0 0 0
0 0 0
0 0 0
0 0 0
0 0 0
0 0 0
0 0 0
0 0 0
0 0 0
0 0 0
0 0 0
0 0 0
0 0 0
0 0 0
0 0 0
207 155 107
207 155 107
207 155 108
207 155 108
207 155 108
207 155 108
207 155 108
207 155 108
207 155 108
207 155 108
207 155 108
207 155 108
207 155 108
207 155 108
207 155 108
207 155 108
207 155 108
207 155 108
207 155 108
207 155 108
207 155 108
207 155 108
207 155 108
207 155 108
207 155 108
207 155 108
207 155 108
207 155 108
207 155 108
207 155 108
207 155 108
207 155 108
207 155 108
207 155 108
207 155 108
207 155 108
207 155 108
207 155 108
207 155 108
207 155 108
207 155 108
207 155 108
207 155 108
207 155 108
207 155 108
207 155 108
207 155 108
207 155 108
234 193 161
234 193 161
232 191 159
232 191 159
232 191 159
232 191 159
232 191 159
232 191 159
232 191 159
232 191 159
232 191 159
232 191 159
232 191 159
232 191 159
232 191 159
232 191 159
232 191 159
232 191 159
232 191 159
232 191 159
232 191 159
232 191 159
232 191 159
232 191 159
232 191 159
232 191 159
232 191 159
232 191 159
232 191 159
232 191 159
232 191 159
232 191 159
232 191 159
232 191 159
232 191 159
232 191 159
232 191 159
232 191 159
232 191 159
232 191 159
232 191 159
232 191 159
232 191 159
232 191 159
232 191 159
232 191 159
232 191 159
232 191 159
189 142 99
189 142 99
190 143 100
190 143 100
190 143 100
190 143 100
190 143 100
190 143 100
190 143 100
190 143 100
190 143 100
190 143 100
190 143 100
190 143 100
190 143 100
190 143 100
190 143 100
190 143 100
190 143 100
190 143 100
190 143 100
190 143 100
190 143 100
190 143 100
190 143 100
190 143 100
190 143 100
190 143 100
190 143 100
190 143 100
190 143 100
190 143 100
190 143 100
190 143 100
190 143 100
190 143 100
190 143 100
190 143 100
190 143 100
190 143 100
190 143 100
190 143 100
190 143 100
190 143 100
190 143 100
190 143 100
190 143 100
190 143 100
151 113 77
151 113 77
156 117 79
156 117 79
156 117 79
156 117 79
156 117 79
156 117 79
156 117 79
156 117 79
156 117 79
156 117 79
156 117 79
156 117 79
156 117 79
156 117 79
156 117 79
156 117 79
156 117 79
156 117 79
156 117 79
156 117 79
156 117 79
156 117 79
156 117 79
156 117 79
156 117 79
156 117 79
156 117 79
156 117 79
156 117 79
156 117 79
156 117 79
156 117 79
156 117 79
156 117 79
156 117 79
156 117 79
156 117 79
156 117 79
156 117 79
156 117 79
156 117 79
156 117 79
156 117 79
156 117 79
156 117 79
156 117 79
0 0 0
0 0 0
0 0 0
0 0 0
0 0 0
0 0 0
0 0 0
0 0 0
0 0 0
0 0 0
0 0 0
0 0 0
0 0 0
0 0 0
0 0 0
0 0 0
0 0 0
0 0 0
0 0 0
0 0 0
0 0 0
0 0 0
0 0 0
0 0 0
0 0 0
0 0 0
0 0 0
0 0 0
0 0 0
0 0 0
0 0 0
0 0 0
0 0 0
0 0 0
0 0 0
0 0 0
0 0 0
0 0 0
0 0 0
0 0 0
0 0 0
0 0 0
0 0 0
0 0 0
0 0 0
0 0 0
0 0 0
0 0 0
0 0 0
0 0 0
0 0 0
0 0 0
0 0 0
0 0 0
0 0 0
0 0 0
0 0 0
0 0 0
0 0 0
0 0 0
0 0 0
0 0 0
0 0 0
0 0 0
207 155 107
207 155 108
207 155 108
207 155 108
207 155 108
207 155 108
207 155 108
207 155 108
207 155 108
207 155 108
207 155 108
207 155 108
207 155 108
207 155 108
207 155 108
207 155 108
207 155 108
207 155 108
207 155 108
207 155 108
207 155 108
207 155 108
207 155 108
207 155 108
207 155 108
207 155 108
207 155 108
207 155 108
207 155 108
207 155 108
207 155 108
207 155 108
207 155 108
207 155 108
207 155 108
207 155 108
207 155 108
207 155 108
207 155 108
207 155 108
207 155 108
207 155 108
207 155 108
207 155 108
207 155 108
207 155 108
207 155 108
207 155 108
234 193 161
232 191 159
232 191 159
232 191 159
232 191 159
232 191 159
232 191 159
232 191 159
232 191 159
232 191 159
232 191 159
232 191 159
232 191 159
232 191 159
232 191 159
232 191 159
232 191 159
232 191 159
232 191 159
232 191 159
232 191 159
232 191 159
232 191 159
232 191 159
232 191 159
232 191 159
232 191 159
232 191 159
232 191 159
232 191 159
232 191 159
232 191 159
232 191 159
232 191 159
232 191 159
232 191 159
232 191 159
232 191 159
232 191 159
232 191 159
232 191 159
232 191 159
232 191 159
232 191 159
232 191 159
232 191 159
232 191 159
232 191 159
189 142 99
190 143 100
190 143 100
190 143 100
190 143 100
190 143 100
190 143 100
190 143 100
190 143 100
190 143 100
190 143 100
190 143 100
190 143 100
190 143 100
190 143 100
190 143 100
190 143 100
190 143 100
190 143 100
190 143 100
190 143 100
190 143 100
190 143 100
190 143 100
190 143 100
190 143 100
190 143 100
190 143 100
190 143 100
190 143 100
190 143 100
190 143 100
190 143 100
190 143 100
190 143 100
190 143 100
190 143 100
190 143 100
190 143 100
190 143 100
190 143 100
190 143 100
190 143 100
190 143 100
190 143 100
190 143 100
190 143 100
190 143 100
151 113 77
156 117 79
156 117 79
156 117 79
156 117 79
156 117 79
156 117 79
156 117 79
156 117 79
156 117 79
156 117 79
156 117 79
156 117 79
156 117 79
156 117 79
156 117 79
156 117 79
156 117 79
156 117 79
156 117 79
156 117 79
156 117 79
156 117 79
156 117 79
156 117 79
156 117 79
156 117 79
156 117 79
156 117 79
156 117 79
156 117 79
156 117 79
156 117 79
156 117 79
156 117 79
156 117 79
156 117 79
156 117 79
156 117 79
156 117 79
156 117 79
156 117 79
156 117 79
156 117 79
156 117 79
156 117 79
156 117 79
156 117 79
0 0 0
0 0 0
0 0 0
0 0 0
0 0 0
0 0 0
0 0 0
0 0 0
0 0 0
0 0 0
0 0 0
0 0 0
0 0 0
0 0 0
0 0 0
0 0 0
0 0 0
0 0 0
0 0 0
0 0 0
0 0 0
0 0 0
0 0 0
0 0 0
0 0 0
0 0 0
0 0 0
0 0 0
0 0 0
0 0 0
0 0 0
0 0 0
0 0 0
0 0 0
0 0 0
0 0 0
0 0 0
0 0 0
0 0 0
0 0 0
0 0 0
0 0 0
0 0 0
0 0 0
0 0 0
0 0 0
0 0 0
0 0 0
0 0 0
0 0 0
0 0 0
0 0 0
0 0 0
0 0 0
0 0 0
0 0 0
0 0 0
0 0 0
0 0 0
0 0 0
0 0 0
0 0 0
0 0 0
0 0 0
194 144 98
194 144 98
194 144 98
194 144 98
194 144 98
194 144 98
194 144 98
194 144 98
194 144 98
194 144 98
194 144 98
194 144 98
194 144 98
194 144 98
194 144 98
194 144 98
194 144 98
194 144 98
194 144 98
194 144 98
194 144 98
194 144 98
194 144 98
194 144 98
194 144 98
194 144 98
194 144 98
194 144 98
194 144 98
194 144 98
194 144 98
194 144 98
194 144 98
194 144 98
194 144 98
194 144 98
194 144 98
194 144 98
194 144 98
194 144 98
194 144 98
194 144 98
194 144 98
194 144 98
194 144 98
194 144 98
194 144 98
196 146 99
198 151 108
198 151 108
198 151 108
198 151 108
198 151 108
198 151 108
198 151 108
198 151 108
198 151 108
198 151 108
198 151 108
198 151 108
198 151 108
198 151 108
198 151 108
198 151 108
198 151 108
198 151 108
198 151 108
198 151 108
198 151 108
198 151 108
198 151 108
198 151 108
198 151 108
198 151 108
198 151 108
198 151 108
198 151 108
198 151 108
198 151 108
198 151 108
198 151 108
198 151 108
198 151 108
198 151 108
198 151 108
198 151 108
198 151 108
198 151 108
198 151 108
198 151 108
198 151 108
198 151 108
198 151 108
198 151 108
198 151 108
199 152 110
178 132 90
178 132 90
178 132 90
178 132 90
178 132 90
178 132 90
178 132 90
178 132 90
178 132 90
178 132 90
178 132 90
178 132 90
178 132 90
178 132 90
178 132 90
178 132 90
178 132 90
178 132 90
178 132 90
178 132 90
178 132 90
178 132 90
178 132 90
178 132 90
178 132 90
178 132 90
178 132 90
178 132 90
178 132 90
178 132 90
178 132 90
178 132 90
178 132 90
178 132 90
178 132 90
178 132 90
178 132 90
178 132 90
178 132 90
178 132 90
178 132 90
178 132 90
178 132 90
178 132 90
178 132 90
178 132 90
178 132 90
177 132 89
142 106 73
142 106 73
142 106 73
142 106 73
142 106 73
142 106 73
142 106 73
142 106 73
142 106 73
142 106 73
142 106 73
142 106 73
142 106 73
142 106 73
142 106 73
142 106 73
142 106 73
142 106 73
142 106 73
142 106 73
142 106 73
142 106 73
142 106 73
142 106 73
142 106 73
142 106 73
142 106 73
142 106 73
142 106 73
142 106 73
142 106 73
142 106 73
142 106 73
142 106 73
142 106 73
142 106 73
142 106 73
142 106 73
142 106 73
142 106 73
142 106 73
142 106 73
142 106 73
142 106 73
142 106 73
142 106 73
142 106 73
136 102 70
0 0 0
0 0 0
0 0 0
0 0 0
0 0 0
0 0 0
0 0 0
0 0 0
0 0 0
0 0 0
0 0 0
0 0 0
0 0 0
0 0 0
0 0 0
0 0 0
0 0 0
0 0 0
0 0 0
0 0 0
0 0 0
0 0 0
0 0 0
0 0 0
0 0 0
0 0 0
0 0 0
0 0 0
0 0 0
0 0 0
0 0 0
0 0 0
0 0 0
0 0 0
0 0 0
0 0 0
0 0 0
0 0 0
0 0 0
0 0 0
0 0 0
0 0 0
0 0 0
0 0 0
0 0 0
0 0 0
0 0 0
0 0 0
0 0 0
0 0 0
0 0 0
0 0 0
0 0 0
0 0 0
0 0 0
0 0 0
0 0 0
0 0 0
0 0 0
0 0 0
0 0 0
0 0 0
0 0 0
0 0 0
194 144 98
194 144 98
194 144 98
194 144 98
194 144 98
194 144 98
194 144 98
194 144 98
194 144 98
194 144 98
194 144 98
194 144 98
194 144 98
194 144 98
194 144 98
194 144 98
194 144 98
194 144 98
194 144 98
194 144 98
194 144 98
194 144 98
194 144 98
194 144 98
194 144 98
194 144 98
194 144 98
194 144 98
194 144 98
194 144 98
194 144 98
194 144 98
194 144 98
194 144 98
194 144 98
194 144 98
194 144 98
194 144 98
194 144 98
194 144 98
194 144 98
194 144 98
194 144 98
194 144 98
194 144 98
194 144 98
196 146 99
196 146 99
198 151 108
198 151 108
198 151 108
198 151 108
198 151 108
198 151 108
198 151 108
198 151 108
198 151 108
198 151 108
198 151 108
198 151 108
198 151 108
198 151 108
198 151 108
198 151 108
198 151 108
198 151 108
198 151 108
198 151 108
198 151 108
198 151 108
198 151 108
198 151 108
198 151 108
198 151 108
198 151 108
198 151 108
198 151 108
198 151 108
198 151 108
198 151 108
198 151 108
198 151 108
198 151 108
198 151 108
198 151 108
198 151 108
198 151 108
198 151 108
198 151 108
198 151 108
198 151 108
198 151 108
198 151 108
198 151 108
199 152 110
199 152 110
178 132 90
178 132 90
178 132 90
178 132 90
178 132 90
178 132 90
178 132 90
178 132 90
178 132 90
178 132 90
178 132 90
178 132 90
178 132 90
178 132 90
178 132 90
178 132 90
178 132 90
178 132 90
178 132 90
178 132 90
178 132 90
178 132 90
178 132 90
178 132 90
178 132 90
178 132 90
178 132 90
178 132 90
178 132 90
178 132 90
178 132 90
178 132 90
178 132 90
178 132 90
178 132 90
178 132 90
178 132 90
178 132 90
178 132 90
178 132 90
178 132 90
178 132 90
178 132 90
178 132 90
178 132 90
178 132 90
177 132 89
177 132 89
142 106 73
142 106 73
142 106 73
142 106 73
142 106 73
142 106 73
142 106 73
142 106 73
142 106 73
142 106 73
142 106 73
142 106 73
142 106 73
142 106 73
142 106 73
142 106 73
142 106 73
142 106 73
142 106 73
142 106 73
142 106 73
142 106 73
142 106 73
142 106 73
142 106 73
142 106 73
142 106 73
142 106 73
142 106 73
142 106 73
142 106 73
142 106 73
142 106 73
142 106 73
142 106 73
142 106 73
142 106 73
142 106 73
142 106 73
142 106 73
142 106 73
142 106 73
142 106 73
142 106 73
142 106 73
142 106 73
136 102 70
136 102 70
0 0 0
0 0 0
0 0 0
0 0 0
0 0 0
0 0 0
0 0 0
0 0 0
0 0 0
0 0 0
0 0 0
0 0 0
0 0 0
0 0 0
0 0 0
0 0 0
0 0 0
0 0 0
0 0 0
0 0 0
0 0 0
0 0 0
0 0 0
0 0 0
0 0 0
0 0 0
0 0 0
0 0 0
0 0 0
0 0 0
0 0 0
0 0 0
0 0 0
0 0 0
0 0 0
0 0 0
0 0 0
0 0 0
0 0 0
0 0 0
0 0 0
0 0 0
0 0 0
0 0 0
0 0 0
0 0 0
0 0 0
0 0 0
0 0 0
0 0 0
0 0 0
0 0 0
0 0 0
0 0 0
0 0 0
0 0 0
0 0 0
0 0 0
0 0 0
0 0 0
0 0 0
0 0 0
0 0 0
0 0 0
194 144 98
194 144 98
194 144 98
194 144 98
194 144 98
194 144 98
194 144 98
194 144 98
194 144 98
194 144 98
194 144 98
194 144 98
194 144 98
194 144 98
194 144 98
194 144 98
194 144 98
194 144 98
194 144 98
194 144 98
194 144 98
194 144 98
194 144 98
194 144 98
194 144 98
194 144 98
194 144 98
194 144 98
194 144 98
194 144 98
194 144 98
194 144 98
194 144 98
194 144 98
194 144 98
194 144 98
194 144 98
194 144 98
194 144 98
194 144 98
194 144 98
194 144 98
194 144 98
194 144 98
196 146 99
196 146 99
196 146 99
196 146 99
198 151 108
198 151 108
198 151 108
198 151 108
198 151 108
198 151 108
198 151 108
198 151 108
198 151 108
198 151 108
198 151 108
198 151 108
198 151 108
198 151 108
198 151 108
198 151 108
198 151 108
198 151 108
198 151 108
198 151 108
198 151 108
198 151 108
198 151 108
198 151 108
198 151 108
198 151 108
198 151 108
198 151 108
198 151 108
198 151 108
198 151 108
198 151 108
198 151 108
198 151 108
198 151 108
198 151 108
198 151 108
198 151 108
198 151 108
198 151 108
198 151 108
198 151 108
198 151 108
198 151 108
199 152 110
199 152 110
199 152 110
199 152 110
178 132 90
178 132 90
178 132 90
178 132 90
178 132 90
178 132 90
178 132 90
178 132 90
178 132 90
178 132 90
178 132 90
178 132 90
178 132 90
178 132 90
178 132 90
178 132 90
178 132 90
178 132 90
178 132 90
178 132 90
178 132 90
178 132 90
178 132 90
178 132 90
178 132 90
178 132 90
178 132 90
178 132 90
178 132 90
178 132 90
178 132 90
178 132 90
178 132 90
178 132 90
178 132 90
178 132 90
178 132 90
178 132 90
178 132 90
178 132 90
178 132 90
178 132 90
178 132 90
178 132 90
177 132 89
177 132 89
177 132 89
177 132 89
142 106 73
142 106 73
142 106 73
142 106 73
142 106 73
142 106 73
142 106 73
142 106 73
142 106 73
142 106 73
142 106 73
142 106 73
142 106 73
142 106 73
142 106 73
142 106 73
142 106 73
142 106 73
142 106 73
142 106 73
142 106 73
142 106 73
142 106 73
142 106 73
142 106 73
142 106 73
142 106 73
142 106 73
142 106 73
142 106 73
142 106 73
142 106 73
142 106 73
142 106 73
142 106 73
142 106 73
142 106 73
142 106 73
142 106 73
142 106 73
142 106 73
142 106 73
142 106 73
142 106 73
136 102 70
136 102 70
136 102 70
136 102 70
0 0 0
0 0 0
0 0 0
0 0 0
0 0 0
0 0 0
0 0 0
0 0 0
0 0 0
0 0 0
0 0 0
0 0 0
0 0 0
0 0 0
0 0 0
0 0 0
0 0 0
0 0 0
0 0 0
0 0 0
0 0 0
0 0 0
0 0 0
0 0 0
0 0 0
0 0 0
0 0 0
0 0 0
0 0 0
0 0 0
0 0 0
0 0 0
0 0 0
0 0 0
0 0 0
0 0 0
0 0 0
0 0 0
0 0 0
0 0 0
0 0 0
0 0 0
0 0 0
0 0 0
0 0 0
0 0 0
0 0 0
0 0 0
0 0 0
0 0 0
0 0 0
0 0 0
0 0 0
0 0 0
0 0 0
0 0 0
0 0 0
0 0 0
0 0 0
0 0 0
0 0 0
0 0 0
0 0 0
0 0 0
194 144 98
194 144 98
194 144 98
194 144 98
194 144 98
194 144 98
194 144 98
194 144 98
194 144 98
194 144 98
194 144 98
194 144 98
194 144 98
194 144 98
194 144 98
194 144 98
194 144 98
194 144 98
194 144 98
194 144 98
194 144 98
194 144 98
194 144 98
194 144 98
194 144 98
194 144 98
194 144 98
194 144 98
194 144 98
194 144 98
194 144 98
194 144 98
194 144 98
194 144 98
194 144 98
194 144 98
194 144 98
194 144 98
194 144 98
194 144 98
194 144 98
194 144 98
194 144 98
196 146 99
196 146 99
196 146 99
196 146 99
196 146 99
198 151 108
198 151 108
198 151 108
198 151 108
198 151 108
198 151 108
198 151 108
198 151 108
198 151 108
198 151 108
198 151 108
198 151 108
198 151 108
198 151 108
198 151 108
198 151 108
198 151 108
198 151 108
198 151 108
198 151 108
198 151 108
198 151 108
198 151 108
198 151 108
198 151 108
198 151 108
198 151 108
198 151 108
198 151 108
198 151 108
198 151 108
198 151 108
198 151 108
198 151 108
198 151 108
198 151 108
198 151 108
198 151 108
198 151 108
198 151 108
198 151 108
198 151 108
198 151 108
199 152 110
199 152 110
199 152 110
199 152 110
199 152 110
178 132 90
178 132 90
178 132 90
178 132 90
178 132 90
178 132 90
178 132 90
178 132 90
178 132 90
178 132 90
178 132 90
178 132 90
178 132 90
178 132 90
178 132 90
178 132 90
178 132 90
178 132 90
178 132 90
178 132 90
178 132 90
178 132 90
178 132 90
178 132 90
178 132 90
178 132 90
178 132 90
178 132 90
178 132 90
178 132 90
178 132 90
178 132 90
178 132 90
178 132 90
178 132 90
178 132 90
178 132 90
178 132 90
178 132 90
178 132 90
178 132 90
178 132 90
178 132 90
177 132 89
177 132 89
177 132 89
177 132 89
177 132 89
142 106 73
142 106 73
142 106 73
142 106 73
142 106 73
142 106 73
142 106 73
142 106 73
142 106 73
142 106 73
142 106 73
142 106 73
142 106 73
142 106 73
142 106 73
142 106 73
142 106 73
142 106 73
142 106 73
142 106 73
142 106 73
142 106 73
142 106 73
142 106 73
142 106 73
142 106 73
142 106 73
142 106 73
142 106 73
142 106 73
142 106 73
142 106 73
142 106 73
142 106 73
142 106 73
142 106 73
142 106 73
142 106 73
142 106 73
142 106 73
142 106 73
142 106 73
142 106 73
136 102 70
136 102 70
136 102 70
136 102 70
136 102 70
0 0 0
0 0 0
0 0 0
0 0 0
0 0 0
0 0 0
0 0 0
0 0 0
0 0 0
0 0 0
0 0 0
0 0 0
0 0 0
0 0 0
0 0 0
0 0 0
0 0 0
0 0 0
0 0 0
0 0 0
0 0 0
0 0 0
0 0 0
0 0 0
0 0 0
0 0 0
0 0 0
0 0 0
0 0 0
0 0 0
0 0 0
0 0 0
0 0 0
0 0 0
0 0 0
0 0 0
0 0 0
0 0 0
0 0 0
0 0 0
0 0 0
0 0 0
0 0 0
0 0 0
0 0 0
0 0 0
0 0 0
0 0 0
0 0 0
0 0 0
0 0 0
0 0 0
0 0 0
0 0 0
0 0 0
0 0 0
0 0 0
0 0 0
0 0 0
0 0 0
0 0 0
0 0 0
0 0 0
0 0 0
194 144 98
194 144 98
194 144 98
194 144 98
194 144 98
194 144 98
194 144 98
194 144 98
194 144 98
194 144 98
194 144 98
194 144 98
194 144 98
194 144 98
194 144 98
194 144 98
194 144 98
194 144 98
194 144 98
194 144 98
194 144 98
194 144 98
194 144 98
194 144 98
194 144 98
194 144 98
194 144 98
194 144 98
194 144 98
194 144 98
194 144 98
194 144 98
194 144 98
194 144 98
194 144 98
194 144 98
194 144 98
194 144 98
194 144 98
194 144 98
194 144 98
196 146 99
196 146 99
196 146 99
196 146 99
196 146 99
196 146 99
196 146 99
198 151 108
198 151 108
198 151 108
198 151 108
198 151 108
198 151 108
198 151 108
198 151 108
198 151 108
198 151 108
198 151 108
198 151 108
198 151 108
198 151 108
198 151 108
198 151 108
198 151 108
198 151 108
198 151 108
198 151 108
198 151 108
198 151 108
198 151 108
198 151 108
198 151 108
198 151 108
198 151 108
198 151 108
198 151 108
198 151 108
198 151 108
198 151 108
198 151 108
198 151 108
198 151 108
198 151 108
198 151 108
198 151 108
198 151 108
198 151 108
198 151 108
199 152 110
199 152 110
199 152 110
199 152 110
199 152 110
199 152 110
199 152 110
178 132 90
178 132 90
178 132 90
178 132 90
178 132 90
178 132 90
178 132 90
178 132 90
178 132 90
178 132 90
178 132 90
178 132 90
178 132 90
178 132 90
178 132 90
178 132 90
178 132 90
178 132 90
178 132 90
178 132 90
178 132 90
178 132 90
178 132 90
178 132 90
178 132 90
178 132 90
178 132 90
178 132 90
178 132 90
178 132 90
178 132 90
178 132 90
178 132 90
178 132 90
178 132 90
178 132 90
178 132 90
178 132 90
178 132 90
178 132 90
178 132 90
177 132 89
177 132 89
177 132 89
177 132 89
177 132 89
177 132 89
177 132 89
142 106 73
142 106 73
142 106 73
142 106 73
142 106 73
142 106 73
142 106 73
142 106 73
142 106 73
142 106 73
142 106 73
142 106 73
142 106 73
142 106 73
142 106 73
142 106 73
142 106 73
142 106 73
142 106 73
142 106 73
142 106 73
142 106 73
142 106 73
142 106 73
142 106 73
142 106 73
142 106 73
142 106 73
142 106 73
142 106 73
142 106 73
142 106 73
142 106 73
142 106 73
142 106 73
142 106 73
142 106 73
142 106 73
142 106 73
142 106 73
142 106 73
136 102 70
136 102 70
136 102 70
136 102 70
136 102 70
136 102 70
136 102 70
0 0 0
0 0 0
0 0 0
0 0 0
0 0 0
0 0 0
0 0 0
0 0 0
0 0 0
0 0 0
0 0 0
0 0 0
0 0 0
0 0 0
0 0 0
0 0 0
0 0 0
0 0 0
0 0 0
0 0 0
0 0 0
0 0 0
0 0 0
0 0 0
0 0 0
0 0 0
0 0 0
0 0 0
0 0 0
0 0 0
0 0 0
0 0 0
0 0 0
0 0 0
0 0 0
0 0 0
0 0 0
0 0 0
0 0 0
0 0 0
0 0 0
0 0 0
0 0 0
0 0 0
0 0 0
0 0 0
0 0 0
0 0 0
0 0 0
0 0 0
0 0 0
0 0 0
0 0 0
0 0 0
0 0 0
0 0 0
0 0 0
0 0 0
0 0 0
0 0 0
0 0 0
0 0 0
0 0 0
0 0 0
194 144 98
194 144 98
194 144 98
194 144 98
194 144 98
194 144 98
194 144 98
194 144 98
194 144 98
194 144 98
194 144 98
194 144 98
194 144 98
194 144 98
194 144 98
194 144 98
194 144 98
194 144 98
194 144 98
194 144 98
194 144 98
194 144 98
194 144 98
194 144 98
194 144 98
194 144 98
194 144 98
194 144 98
194 144 98
194 144 98
194 144 98
194 144 98
194 144 98
194 144 98
194 144 98
194 144 98
194 144 98
194 144 98
194 144 98
194 144 98
196 146 99
196 146 99
196 146 99
196 146 99
196 146 99
196 146 99
196 146 99
196 146 99
198 151 108
198 151 108
198 151 108
198 151 108
198 151 108
198 151 108
198 151 108
198 151 108
198 151 108
198 151 108
198 151 108
198 151 108
198 151 108
198 151 108
198 151 108
198 151 108
198 151 108
198 151 108
198 151 108
198 151 108
198 151 108
198 151 108
198 151 108
198 151 108
198 151 108
198 151 108
198 151 108
198 151 108
198 151 108
198 151 108
198 151 108
198 151 108
198 151 108
198 151 108
198 151 108
198 151 108
198 151 108
198 151 108
198 151 108
198 151 108
199 152 110
199 152 110
199 152 110
199 152 110
199 152 110
199 152 110
199 152 110
199 152 110
178 132 90
178 132 90
178 132 90
178 132 90
178 132 90
178 132 90
178 132 90
178 132 90
178 132 90
178 132 90
178 132 90
178 132 90
178 132 90
178 132 90
178 132 90
178 132 90
178 132 90
178 132 90
178 132 90
178 132 90
178 132 90
178 132 90
178 132 90
178 132 90
178 132 90
178 132 90
178 132 90
178 132 90
178 132 90
178 132 90
178 132 90
178 132 90
178 132 90
178 132 90
178 132 90
178 132 90
178 132 90
178 132 90
178 132 90
178 132 90
177 132 89
177 132 89
177 132 89
177 132 89
177 132 89
177 132 89
177 132 89
177 132 89
142 106 73
142 106 73
142 106 73
142 106 73
142 106 73
142 106 73
142 106 73
142 106 73
142 106 73
142 106 73
142 106 73
142 106 73
142 106 73
142 106 73
142 106 73
142 106 73
142 106 73
142 106 73
142 106 73
142 106 73
142 106 73
142 106 73
142 106 73
142 106 73
142 106 73
142 106 73
142 106 73
142 106 73
142 106 73
142 106 73
142 106 73
142 106 73
142 106 73
142 106 73
142 106 73
142 106 73
142 106 73
142 106 73
142 106 73
142 106 73
136 102 70
136 102 70
136 102 70
136 102 70
136 102 70
136 102 70
136 102 70
136 102 70
0 0 0
0 0 0
0 0 0
0 0 0
0 0 0
0 0 0
0 0 0
0 0 0
0 0 0
0 0 0
0 0 0
0 0 0
0 0 0
0 0 0
0 0 0
0 0 0
0 0 0
0 0 0
0 0 0
0 0 0
0 0 0
0 0 0
0 0 0
0 0 0
0 0 0
0 0 0
0 0 0
0 0 0
0 0 0
0 0 0
0 0 0
0 0 0
0 0 0
0 0 0
0 0 0
0 0 0
0 0 0
0 0 0
0 0 0
0 0 0
0 0 0
0 0 0
0 0 0
0 0 0
0 0 0
0 0 0
0 0 0
0 0 0
0 0 0
0 0 0
0 0 0
0 0 0
0 0 0
0 0 0
0 0 0
0 0 0
0 0 0
0 0 0
0 0 0
0 0 0
0 0 0
0 0 0
0 0 0
0 0 0
194 144 98
194 144 98
194 144 98
194 144 98
194 144 98
194 144 98
194 144 98
194 144 98
194 144 98
194 144 98
194 144 98
194 144 98
194 144 98
194 144 98
194 144 98
194 144 98
194 144 98
194 144 98
194 144 98
194 144 98
194 144 98
194 144 98
194 144 98
194 144 98
194 144 98
194 144 98
194 144 98
194 144 98
194 144 98
194 144 98
194 144 98
194 144 98
194 144 98
194 144 98
194 144 98
194 144 98
194 144 98
194 144 98
196 146 99
196 146 99
196 146 99
196 146 99
196 146 99
196 146 99
196 146 99
196 146 99
196 146 99
196 146 99
198 151 108
198 151 108
198 151 108
198 151 108
198 151 108
198 151 108
198 151 108
198 151 108
198 151 108
198 151 108
198 151 108
198 151 108
198 151 108
198 151 108
198 151 108
198 151 108
198 151 108
198 151 108
198 151 108
198 151 108
198 151 108
198 151 108
198 151 108
198 151 108
198 151 108
198 151 108
198 151 108
198 151 108
198 151 108
198 151 108
198 151 108
198 151 108
198 151 108
198 151 108
198 151 108
198 151 108
198 151 108
198 151 108
199 152 110
199 152 110
199 152 110
199 152 110
199 152 110
199 152 110
199 152 110
199 152 110
199 152 110
199 152 110
178 132 90
178 132 90
178 132 90
178 132 90
178 132 90
178 132 90
178 132 90
178 132 90
178 132 90
178 132 90
178 132 90
178 132 90
178 132 90
178 132 90
178 132 90
178 132 90
178 132 90
178 132 90
178 132 90
178 132 90
178 132 90
178 132 90
178 132 90
178 132 90
178 132 90
178 132 90
178 132 90
178 132 90
178 132 90
178 132 90
178 132 90
178 132 90
178 132 90
178 132 90
178 132 90
178 132 90
178 132 90
178 132 90
177 132 89
177 132 89
177 132 89
177 132 89
177 132 89
177 132 89
177 132 89
177 132 89
177 132 89
177 132 89
142 106 73
142 106 73
142 106 73
142 106 73
142 106 73
142 106 73
142 106 73
142 106 73
142 106 73
142 106 73
142 106 73
142 106 73
142 106 73
142 106 73
142 106 73
142 106 73
142 106 73
142 106 73
142 106 73
142 106 73
142 106 73
142 106 73
142 106 73
142 106 73
142 106 73
142 106 73
142 106 73
142 106 73
142 106 73
142 106 73
142 106 73
142 106 73
142 106 73
142 106 73
142 106 73
142 106 73
142 106 73
142 106 73
136 102 70
136 102 70
136 102 70
136 102 70
136 102 70
136 102 70
136 102 70
136 102 70
136 102 70
136 102 70
0 0 0
0 0 0
0 0 0
0 0 0
0 0 0
0 0 0
0 0 0
0 0 0
0 0 0
0 0 0
0 0 0
0 0 0
0 0 0
0 0 0
0 0 0
0 0 0
0 0 0
0 0 0
0 0 0
0 0 0
0 0 0
0 0 0
0 0 0
0 0 0
0 0 0
0 0 0
0 0 0
0 0 0
0 0 0
0 0 0
0 0 0
0 0 0
0 0 0
0 0 0
0 0 0
0 0 0
0 0 0
0 0 0
0 0 0
0 0 0
0 0 0
0 0 0
0 0 0
0 0 0
0 0 0
0 0 0
0 0 0
0 0 0
0 0 0
0 0 0
0 0 0
0 0 0
0 0 0
0 0 0
0 0 0
0 0 0
0 0 0
0 0 0
0 0 0
0 0 0
0 0 0
0 0 0
0 0 0
0 0 0
194 144 98
194 144 98
194 144 98
194 144 98
194 144 98
194 144 98
194 144 98
194 144 98
194 144 98
194 144 98
194 144 98
194 144 98
194 144 98
194 144 98
194 144 98
194 144 98
194 144 98
194 144 98
194 144 98
194 144 98
194 144 98
194 144 98
194 144 98
194 144 98
194 144 98
194 144 98
194 144 98
194 144 98
194 144 98
194 144 98
194 144 98
194 144 98
194 144 98
194 144 98
194 144 98
194 144 98
194 144 98
196 146 99
196 146 99
196 146 99
196 146 99
196 146 99
196 146 99
196 146 99
196 146 99
196 146 99
196 146 99
196 146 99
198 151 108
198 151 108
198 151 108
198 151 108
198 151 108
198 151 108
198 151 108
198 151 108
198 151 108
198 151 108
198 151 108
198 151 108
198 151 108
198 151 108
198 151 108
198 151 108
198 151 108
198 151 108
198 151 108
198 151 108
198 151 108
198 151 108
198 151 108
198 151 108
198 151 108
198 151 108
198 151 108
198 151 108
198 151 108
198 151 108
198 151 108
198 151 108
198 151 108
198 151 108
198 151 108
198 151 108
198 151 108
199 152 110
199 152 110
199 152 110
199 152 110
199 152 110
199 152 110
199 152 110
199 152 110
199 152 110
199 152 110
199 152 110
178 132 90
178 132 90
178 132 90
178 132 90
178 132 90
178 132 90
178 132 90
178 132 90
178 132 90
178 132 90
178 132 90
178 132 90
178 132 90
178 132 90
178 132 90
178 132 90
178 132 90
178 132 90
178 132 90
178 132 90
178 132 90
178 132 90
178 132 90
178 132 90
178 132 90
178 132 90
178 132 90
178 132 90
178 132 90
178 132 90
178 132 90
178 132 90
178 132 90
178 132 90
178 132 90
178 132 90
178 132 90
177 132 89
177 132 89
177 132 89
177 132 89
177 132 89
177 132 89
177 132 89
177 132 89
177 132 89
177 132 89
177 132 89
142 106 73
142 106 73
142 106 73
142 106 73
142 106 73
142 106 73
142 106 73
142 106 73
142 106 73
142 106 73
142 106 73
142 106 73
142 106 73
142 106 73
142 106 73
142 106 73
142 106 73
142 106 73
142 106 73
142 106 73
142 106 73
142 106 73
142 106 73
142 106 73
142 106 73
142 106 73
142 106 73
142 106 73
142 106 73
142 106 73
142 106 73
142 106 73
142 106 73
142 106 73
142 106 73
142 106 73
142 106 73
136 102 70
136 102 70
136 102 70
136 102 70
136 102 70
136 102 70
136 102 70
136 102 70
136 102 70
136 102 70
136 102 70
0 0 0
0 0 0
0 0 0
0 0 0
0 0 0
0 0 0
0 0 0
0 0 0
0 0 0
0 0 0
0 0 0
0 0 0
0 0 0
0 0 0
0 0 0
0 0 0
0 0 0
0 0 0
0 0 0
0 0 0
0 0 0
0 0 0
0 0 0
0 0 0
0 0 0
0 0 0
0 0 0
0 0 0
0 0 0
0 0 0
0 0 0
0 0 0
0 0 0
0 0 0
0 0 0
0 0 0
0 0 0
0 0 0
0 0 0
0 0 0
0 0 0
0 0 0
0 0 0
0 0 0
0 0 0
0 0 0
0 0 0
0 0 0
0 0 0
0 0 0
0 0 0
0 0 0
0 0 0
0 0 0
0 0 0
0 0 0
0 0 0
0 0 0
0 0 0
0 0 0
0 0 0
0 0 0
0 0 0
0 0 0
194 144 98
194 144 98
194 144 98
194 144 98
194 144 98
194 144 98
194 144 98
194 144 98
194 144 98
194 144 98
194 144 98
194 144 98
194 144 98
194 144 98
194 144 98
194 144 98
194 144 98
194 144 98
194 144 98
194 144 98
194 144 98
194 144 98
194 144 98
194 144 98
194 144 98
194 144 98
194 144 98
194 144 98
194 144 98
194 144 98
194 144 98
194 144 98
194 144 98
194 144 98
194 144 98
196 146 99
196 146 99
196 146 99
196 146 99
196 146 99
196 146 99
196 146 99
196 146 99
196 146 99
196 146 99
196 146 99
196 146 99
196 146 99
198 151 108
198 151 108
198 151 108
198 151 108
198 151 108
198 151 108
198 151 108
198 151 108
198 151 108
198 151 108
198 151 108
198 151 108
198 151 108
198 151 108
198 151 108
198 151 108
198 151 108
198 151 108
198 151 108
198 151 108
198 151 108
198 151 108
198 151 108
198 151 108
198 151 108
198 151 108
198 151 108
198 151 108
198 151 108
198 151 108
198 151 108
198 151 108
198 151 108
198 151 108
198 151 108
199 152 110
199 152 110
199 152 110
199 152 110
199 152 110
199 152 110
199 152 110
199 152 110
199 152 110
199 152 110
199 152 110
199 152 110
199 152 110
178 132 90
178 132 90
178 132 90
178 132 90
178 132 90
178 132 90
178 132 90
178 132 90
178 132 90
178 132 90
178 132 90
178 132 90
178 132 90
178 132 90
178 132 90
178 132 90
178 132 90
178 132 90
178 132 90
178 132 90
178 132 90
178 132 90
178 132 90
178 132 90
178 132 90
178 132 90
178 132 90
178 132 90
178 132 90
178 132 90
178 132 90
178 132 90
178 132 90
178 132 90
178 132 90
177 132 89
177 132 89
177 132 89
177 132 89
177 132 89
177 132 89
177 132 89
177 132 89
177 132 89
177 132 89
177 132 89
177 132 89
177 132 89
142 106 73
142 106 73
142 106 73
142 106 73
142 106 73
142 106 73
142 106 73
142 106 73
142 106 73
142 106 73
142 106 73
142 106 73
142 106 73
142 106 73
142 106 73
142 106 73
142 106 73
142 106 73
142 106 73
142 106 73
142 106 73
142 106 73
142 106 73
142 106 73
142 106 73
142 106 73
142 106 73
142 106 73
142 106 73
142 106 73
142 106 73
142 106 73
142 106 73
142 106 73
142 106 73
136 102 70
136 102 70
136 102 70
136 102 70
136 102 70
136 102 70
136 102 70
136 102 70
136 102 70
136 102 70
136 102 70
136 102 70
136 102 70
0 0 0
0 0 0
0 0 0
0 0 0
0 0 0
0 0 0
0 0 0
0 0 0
0 0 0
0 0 0
0 0 0
0 0 0
0 0 0
0 0 0
0 0 0
0 0 0
0 0 0
0 0 0
0 0 0
0 0 0
0 0 0
0 0 0
0 0 0
0 0 0
0 0 0
0 0 0
0 0 0
0 0 0
0 0 0
0 0 0
0 0 0
0 0 0
0 0 0
0 0 0
0 0 0
0 0 0
0 0 0
0 0 0
0 0 0
0 0 0
0 0 0
0 0 0
0 0 0
0 0 0
0 0 0
0 0 0
0 0 0
0 0 0
0 0 0
0 0 0
0 0 0
0 0 0
0 0 0
0 0 0
0 0 0
0 0 0
0 0 0
0 0 0
0 0 0
0 0 0
0 0 0
0 0 0
0 0 0
0 0 0
194 144 98
194 144 98
194 144 98
194 144 98
194 144 98
194 144 98
194 144 98
194 144 98
194 144 98
194 144 98
194 144 98
194 144 98
194 144 98
194 144 98
194 144 98
194 144 98
194 144 98
194 144 98
194 144 98
194 144 98
194 144 98
194 144 98
194 144 98
194 144 98
194 144 98
194 144 98
194 144 98
194 144 98
194 144 98
194 144 98
194 144 98
194 144 98
194 144 98
194 144 98
196 146 99
196 146 99
196 146 99
196 146 99
196 146 99
196 146 99
196 146 99
196 146 99
196 146 99
196 146 99
196 146 99
196 146 99
196 146 99
196 146 99
198 151 108
198 151 108
198 151 108
198 151 108
198 151 108
198 151 108
198 151 108
198 151 108
198 151 108
198 151 108
198 151 108
198 151 108
198 151 108
198 151 108
198 151 108
198 151 108
198 151 108
198 151 108
198 151 108
198 151 108
198 151 108
198 151 108
198 151 108
198 151 108
198 151 108
198 151 108
198 151 108
198 151 108
198 151 108
198 151 108
198 151 108
198 151 108
198 151 108
198 151 108
199 152 110
199 152 110
199 152 110
199 152 110
199 152 110
199 152 110
199 152 110
199 152 110
199 152 110
199 152 110
199 152 110
199 152 110
199 152 110
199 152 110
178 132 90
178 132 90
178 132 90
178 132 90
178 132 90
178 132 90
178 132 90
178 132 90
178 132 90
178 132 90
178 132 90
178 132 90
178 132 90
178 132 90
178 132 90
178 132 90
178 132 90
178 132 90
178 132 90
178 132 90
178 132 90
178 132 90
178 132 90
178 132 90
178 132 90
178 132 90
178 132 90
178 132 90
178 132 90
178 132 90
178 132 90
178 132 90
178 132 90
178 132 90
177 132 89
177 132 89
177 132 89
177 132 89
177 132 89
177 132 89
177 132 89
177 132 89
177 132 89
177 132 89
177 132 89
177 132 89
177 132 89
177 132 89
142 106 73
142 106 73
142 106 73
142 106 73
142 106 73
142 106 73
142 106 73
142 106 73
142 106 73
142 106 73
142 106 73
142 106 73
142 106 73
142 106 73
142 106 73
142 106 73
142 106 73
142 106 73
142 106 73
142 106 73
142 106 73
142 106 73
142 106 73
142 106 73
142 106 73
142 106 73
142 106 73
142 106 73
142 106 73
142 106 73
142 106 73
142 106 73
142 106 73
142 106 73
136 102 70
136 102 70
136 102 70
136 102 70
136 102 70
136 102 70
136 102 70
136 102 70
136 102 70
136 102 70
136 102 70
136 102 70
136 102 70
136 102 70
0 0 0
0 0 0
0 0 0
0 0 0
0 0 0
0 0 0
0 0 0
0 0 0
0 0 0
0 0 0
0 0 0
0 0 0
0 0 0
0 0 0
0 0 0
0 0 0
0 0 0
0 0 0
0 0 0
0 0 0
0 0 0
0 0 0
0 0 0
0 0 0
0 0 0
0 0 0
0 0 0
0 0 0
0 0 0
0 0 0
0 0 0
0 0 0
0 0 0
0 0 0
0 0 0
0 0 0
0 0 0
0 0 0
0 0 0
0 0 0
0 0 0
0 0 0
0 0 0
0 0 0
0 0 0
0 0 0
0 0 0
0 0 0
0 0 0
0 0 0
0 0 0
0 0 0
0 0 0
0 0 0
0 0 0
0 0 0
0 0 0
0 0 0
0 0 0
0 0 0
0 0 0
0 0 0
0 0 0
0 0 0
194 144 98
194 144 98
194 144 98
194 144 98
194 144 98
194 144 98
194 144 98
194 144 98
194 144 98
194 144 98
194 144 98
194 144 98
194 144 98
194 144 98
194 144 98
194 144 98
194 144 98
194 144 98
194 144 98
194 144 98
194 144 98
194 144 98
194 144 98
194 144 98
194 144 98
194 144 98
194 144 98
194 144 98
194 144 98
194 144 98
194 144 98
194 144 98
196 146 99
196 146 99
196 146 99
196 146 99
196 146 99
196 146 99
196 146 99
196 146 99
196 146 99
196 146 99
196 146 99
196 146 99
196 146 99
196 146 99
196 146 99
196 146 99
198 151 108
198 151 108
198 151 108
198 151 108
198 151 108
198 151 108
198 151 108
198 151 108
198 151 108
198 151 108
198 151 108
198 151 108
198 151 108
198 151 108
198 151 108
198 151 108
198 151 108
198 151 108
198 151 108
198 151 108
198 151 108
198 151 108
198 151 108
198 151 108
198 151 108
198 151 108
198 151 108
198 151 108
198 151 108
198 151 108
198 151 108
198 151 108
199 152 110
199 152 110
199 152 110
199 152 110
199 152 110
199 152 110
199 152 110
199 152 110
199 152 110
199 152 110
199 152 110
199 152 110
199 152 110
199 152 110
199 152 110
199 152 110
178 132 90
178 132 90
178 132 90
178 132 90
178 132 90
178 132 90
178 132 90
178 132 90
178 132 90
178 132 90
178 132 90
178 132 90
178 132 90
178 132 90
178 132 90
178 132 90
178 132 90
178 132 90
178 132 90
178 132 90
178 132 90
178 132 90
178 132 90
178 132 90
178 132 90
178 132 90
178 132 90
178 132 90
178 132 90
178 132 90
178 132 90
178 132 90
177 132 89
177 132 89
177 132 89
177 132 89
177 132 89
177 132 89
177 132 89
177 132 89
177 132 89
177 132 89
177 132 89
177 132 89
177 132 89
177 132 89
177 132 89
177 132 89
142 106 73
142 106 73
142 106 73
142 106 73
142 106 73
142 106 73
142 106 73
142 106 73
142 106 73
142 106 73
142 106 73
142 106 73
142 106 73
142 106 73
142 106 73
142 106 73
142 106 73
142 106 73
142 106 73
142 106 73
142 106 73
142 106 73
142 106 73
142 106 73
142 106 73
142 106 73
142 106 73
142 106 73
142 106 73
142 106 73
142 106 73
142 106 73
136 102 70
136 102 70
136 102 70
136 102 70
136 102 70
136 102 70
136 102 70
136 102 70
136 102 70
136 102 70
136 102 70
136 102 70
136 102 70
136 102 70
136 102 70
136 102 70
0 0 0
0 0 0
0 0 0
0 0 0
0 0 0
0 0 0
0 0 0
0 0 0
0 0 0
0 0 0
0 0 0
0 0 0
0 0 0
0 0 0
0 0 0
0 0 0
0 0 0
0 0 0
0 0 0
0 0 0
0 0 0
0 0 0
0 0 0
0 0 0
0 0 0
0 0 0
0 0 0
0 0 0
0 0 0
0 0 0
0 0 0
0 0 0
0 0 0
0 0 0
0 0 0
0 0 0
0 0 0
0 0 0
0 0 0
0 0 0
0 0 0
0 0 0
0 0 0
0 0 0
0 0 0
0 0 0
0 0 0
0 0 0
0 0 0
0 0 0
0 0 0
0 0 0
0 0 0
0 0 0
0 0 0
0 0 0
0 0 0
0 0 0
0 0 0
0 0 0
0 0 0
0 0 0
0 0 0
0 0 0
194 144 98
194 144 98
194 144 98
194 144 98
194 144 98
194 144 98
194 144 98
194 144 98
194 144 98
194 144 98
194 144 98
194 144 98
194 144 98
194 144 98
194 144 98
194 144 98
194 144 98
194 144 98
194 144 98
194 144 98
194 144 98
194 144 98
194 144 98
194 144 98
194 144 98
194 144 98
194 144 98
194 144 98
194 144 98
194 144 98
194 144 98
196 146 99
196 146 99
196 146 99
196 146 99
196 146 99
196 146 99
196 146 99
196 146 99
196 146 99
196 146 99
196 146 99
196 146 99
196 146 99
196 146 99
196 146 99
196 146 99
196 146 99
198 151 108
198 151 108
198 151 108
198 151 108
198 151 108
198 151 108
198 151 108
198 151 108
198 151 108
198 151 108
198 151 108
198 151 108
198 151 108
198 151 108
198 151 108
198 151 108
198 151 108
198 151 108
198 151 108
198 151 108
198 151 108
198 151 108
198 151 108
198 151 108
198 151 108
198 151 108
198 151 108
198 151 108
198 151 108
198 151 108
198 151 108
199 152 110
199 152 110
199 152 110
199 152 110
199 152 110
199 152 110
199 152 110
199 152 110
199 152 110
199 152 110
199 152 110
199 152 110
199 152 110
199 152 110
199 152 110
199 152 110
199 152 110
178 132 90
178 132 90
178 132 90
178 132 90
178 132 90
178 132 90
178 132 90
178 132 90
178 132 90
178 132 90
178 132 90
178 132 90
178 132 90
178 132 90
178 132 90
178 132 90
178 132 90
178 132 90
178 132 90
178 132 90
178 132 90
178 132 90
178 132 90
178 132 90
178 132 90
178 132 90
178 132 90
178 132 90
178 132 90
178 132 90
178 132 90
177 132 89
177 132 89
177 132 89
177 132 89
177 132 89
177 132 89
177 132 89
177 132 89
177 132 89
177 132 89
177 132 89
177 132 89
177 132 89
177 132 89
177 132 89
177 132 89
177 132 89
142 106 73
142 106 73
142 106 73
142 106 73
142 106 73
142 106 73
142 106 73
142 106 73
142 106 73
142 106 73
142 106 73
142 106 73
142 106 73
142 106 73
142 106 73
142 106 73
142 106 73
142 106 73
142 106 73
142 106 73
142 106 73
142 106 73
142 106 73
142 106 73
142 106 73
142 106 73
142 106 73
142 106 73
142 106 73
142 106 73
142 106 73
136 102 70
136 102 70
136 102 70
136 102 70
136 102 70
136 102 70
136 102 70
136 102 70
136 102 70
136 102 70
136 102 70
136 102 70
136 102 70
136 102 70
136 102 70
136 102 70
136 102 70
0 0 0
0 0 0
0 0 0
0 0 0
0 0 0
0 0 0
0 0 0
0 0 0
0 0 0
0 0 0
0 0 0
0 0 0
0 0 0
0 0 0
0 0 0
0 0 0
0 0 0
0 0 0
0 0 0
0 0 0
0 0 0
0 0 0
0 0 0
0 0 0
0 0 0
0 0 0
0 0 0
0 0 0
0 0 0
0 0 0
0 0 0
0 0 0
0 0 0
0 0 0
0 0 0
0 0 0
0 0 0
0 0 0
0 0 0
0 0 0
0 0 0
0 0 0
0 0 0
0 0 0
0 0 0
0 0 0
0 0 0
0 0 0
0 0 0
0 0 0
0 0 0
0 0 0
0 0 0
0 0 0
0 0 0
0 0 0
0 0 0
0 0 0
0 0 0
0 0 0
0 0 0
0 0 0
0 0 0
0 0 0
194 144 98
194 144 98
194 144 98
194 144 98
194 144 98
194 144 98
194 144 98
194 144 98
194 144 98
194 144 98
194 144 98
194 144 98
194 144 98
194 144 98
194 144 98
194 144 98
194 144 98
194 144 98
194 144 98
194 144 98
194 144 98
194 144 98
194 144 98
194 144 98
194 144 98
194 144 98
194 144 98
194 144 98
194 144 98
196 146 99
196 146 99
196 146 99
196 146 99
196 146 99
196 146 99
196 146 99
196 146 99
196 146 99
196 146 99
196 146 99
196 146 99
196 146 99
196 146 99
196 146 99
196 146 99
196 146 99
196 146 99
196 146 99
198 151 108
198 151 108
198 151 108
198 151 108
198 151 108
198 151 108
198 151 108
198 151 108
198 151 108
198 151 108
198 151 108
198 151 108
198 151 108
198 151 108
198 151 108
198 151 108
198 151 108
198 151 108
198 151 108
198 151 108
198 151 108
198 151 108
198 151 108
198 151 108
198 151 108
198 151 108
198 151 108
198 151 108
198 151 108
199 152 110
199 152 110
199 152 110
199 152 110
199 152 110
199 152 110
199 152 110
199 152 110
199 152 110
199 152 110
199 152 110
199 152 110
199 152 110
199 152 110
199 152 110
199 152 110
199 152 110
199 152 110
199 152 110
178 132 90
178 132 90
178 132 90
178 132 90
178 132 90
178 132 90
178 132 90
178 132 90
178 132 90
178 132 90
178 132 90
178 132 90
178 132 90
178 132 90
178 132 90
178 132 90
178 132 90
178 132 90
178 132 90
178 132 90
178 132 90
178 132 90
178 132 90
178 132 90
178 132 90
178 132 90
178 132 90
178 132 90
178 132 90
177 132 89
177 132 89
177 132 89
177 132 89
177 132 89
177 132 89
177 132 89
177 132 89
177 132 89
177 132 89
177 132 89
177 132 89
177 132 89
177 132 89
177 132 89
177 132 89
177 132 89
177 132 89
177 132 89
142 106 73
142 106 73
142 106 73
142 106 73
142 106 73
142 106 73
142 106 73
142 106 73
142 106 73
142 106 73
142 106 73
142 106 73
142 106 73
142 106 73
142 106 73
142 106 73
142 106 73
142 106 73
142 106 73
142 106 73
142 106 73
142 106 73
142 106 73
142 106 73
142 106 73
142 106 73
142 106 73
142 106 73
142 106 73
136 102 70
136 102 70
136 102 70
136 102 70
136 102 70
136 102 70
136 102 70
136 102 70
136 102 70
136 102 70
136 102 70
136 102 70
136 102 70
136 102 70
136 102 70
136 102 70
136 102 70
136 102 70
136 102 70
0 0 0
0 0 0
0 0 0
0 0 0
0 0 0
0 0 0
0 0 0
0 0 0
0 0 0
0 0 0
0 0 0
0 0 0
0 0 0
0 0 0
0 0 0
0 0 0
0 0 0
0 0 0
0 0 0
0 0 0
0 0 0
0 0 0
0 0 0
0 0 0
0 0 0
0 0 0
0 0 0
0 0 0
0 0 0
0 0 0
0 0 0
0 0 0
0 0 0
0 0 0
0 0 0
0 0 0
0 0 0
0 0 0
0 0 0
0 0 0
0 0 0
0 0 0
0 0 0
0 0 0
0 0 0
0 0 0
0 0 0
0 0 0
0 0 0
0 0 0
0 0 0
0 0 0
0 0 0
0 0 0
0 0 0
0 0 0
0 0 0
0 0 0
0 0 0
0 0 0
0 0 0
0 0 0
0 0 0
0 0 0
194 144 98
194 144 98
194 144 98
194 144 98
194 144 98
194 144 98
194 144 98
194 144 98
194 144 98
194 144 98
194 144 98
194 144 98
194 144 98
194 144 98
194 144 98
194 144 98
194 144 98
194 144 98
194 144 98
194 144 98
194 144 98
194 144 98
194 144 98
194 144 98
194 144 98
194 144 98
194 144 98
194 144 98
196 146 99
196 146 99
196 146 99
196 146 99
196 146 99
196 146 99
196 146 99
196 146 99
196 146 99
196 146 99
196 146 99
196 146 99
196 146 99
196 146 99
196 146 99
196 146 99
196 146 99
196 146 99
196 146 99
196 146 99
198 151 108
198 151 108
198 151 108
198 151 108
198 151 108
198 151 108
198 151 108
198 151 108
198 151 108
198 151 108
198 151 108
198 151 108
198 151 108
198 151 108
198 151 108
198 151 108
198 151 108
198 151 108
198 151 108
198 151 108
198 151 108
198 151 108
198 151 108
198 151 108
198 151 108
198 151 108
198 151 108
198 151 108
199 152 110
199 152 110
199 152 110
199 152 110
199 152 110
199 152 110
199 152 110
199 152 110
199 152 110
199 152 110
199 152 110
199 152 110
199 152 110
199 152 110
199 152 110
199 152 110
199 152 110
199 152 110
199 152 110
199 152 110
178 132 90
178 132 90
178 132 90
178 132 90
178 132 90
178 132 90
178 132 90
178 132 90
178 132 90
178 132 90
178 132 90
178 132 90
178 132 90
178 132 90
178 132 90
178 132 90
178 132 90
178 132 90
178 132 90
178 132 90
178 132 90
178 132 90
178 132 90
178 132 90
178 132 90
178 132 90
178 132 90
178 132 90
177 132 89
177 132 89
177 132 89
177 132 89
177 132 89
177 132 89
177 132 89
177 132 89
177 132 89
177 132 89
177 132 89
177 132 89
177 132 89
177 132 89
177 132 89
177 132 89
177 132 89
177 132 89
177 132 89
177 132 89
142 106 73
142 106 73
142 106 73
142 106 73
142 106 73
142 106 73
142 106 73
142 106 73
142 106 73
142 106 73
142 106 73
142 106 73
142 106 73
142 106 73
142 106 73
142 106 73
142 106 73
142 106 73
142 106 73
142 106 73
142 106 73
142 106 73
142 106 73
142 106 73
142 106 73
142 106 73
142 106 73
142 106 73
136 102 70
136 102 70
136 102 70
136 102 70
136 102 70
136 102 70
136 102 70
136 102 70
136 102 70
136 102 70
136 102 70
136 102 70
136 102 70
136 102 70
136 102 70
136 102 70
136 102 70
136 102 70
136 102 70
136 102 70
0 0 0
0 0 0
0 0 0
0 0 0
0 0 0
0 0 0
0 0 0
0 0 0
0 0 0
0 0 0
0 0 0
0 0 0
0 0 0
0 0 0
0 0 0
0 0 0
0 0 0
0 0 0
0 0 0
0 0 0
0 0 0
0 0 0
0 0 0
0 0 0
0 0 0
0 0 0
0 0 0
0 0 0
0 0 0
0 0 0
0 0 0
0 0 0
0 0 0
0 0 0
0 0 0
0 0 0
0 0 0
0 0 0
0 0 0
0 0 0
0 0 0
0 0 0
0 0 0
0 0 0
0 0 0
0 0 0
0 0 0
0 0 0
0 0 0
0 0 0
0 0 0
0 0 0
0 0 0
0 0 0
0 0 0
0 0 0
0 0 0
0 0 0
0 0 0
0 0 0
0 0 0
0 0 0
0 0 0
0 0 0
194 144 98
194 144 98
194 144 98
194 144 98
194 144 98
194 144 98
194 144 98
194 144 98
194 144 98
194 144 98
194 144 98
194 144 98
194 144 98
194 144 98
194 144 98
194 144 98
194 144 98
194 144 98
194 144 98
194 144 98
194 144 98
194 144 98
194 144 98
194 144 98
194 144 98
194 144 98
196 146 99
196 146 99
196 146 99
196 146 99
196 146 99
196 146 99
196 146 99
196 146 99
196 146 99
196 146 99
196 146 99
196 146 99
196 146 99
196 146 99
196 146 99
196 146 99
196 146 99
196 146 99
196 146 99
196 146 99
196 146 99
196 146 99
198 151 108
198 151 108
198 151 108
198 151 108
198 151 108
198 151 108
198 151 108
198 151 108
198 151 108
198 151 108
198 151 108
198 151 108
198 151 108
198 151 108
198 151 108
198 151 108
198 151 108
198 151 108
198 151 108
198 151 108
198 151 108
198 151 108
198 151 108
198 151 108
198 151 108
198 151 108
199 152 110
199 152 110
199 152 110
199 152 110
199 152 110
199 152 110
199 152 110
199 152 110
199 152 110
199 152 110
199 152 110
199 152 110
199 152 110
199 152 110
199 152 110
199 152 110
199 152 110
199 152 110
199 152 110
199 152 110
199 152 110
199 152 110
178 132 90
178 132 90
178 132 90
178 132 90
178 132 90
178 132 90
178 132 90
178 132 90
178 132 90
178 132 90
178 132 90
178 132 90
178 132 90
178 132 90
178 132 90
178 132 90
178 132 90
178 132 90
178 132 90
178 132 90
178 132 90
178 132 90
178 132 90
178 132 90
178 132 90
178 132 90
177 132 89
177 132 89
177 132 89
177 132 89
177 132 89
177 132 89
177 132 89
177 132 89
177 132 89
177 132 89
177 132 89
177 132 89
177 132 89
177 132 89
177 132 89
177 132 89
177 132 89
177 132 89
177 132 89
177 132 89
177 132 89
177 132 89
142 106 73
142 106 73
142 106 73
142 106 73
142 106 73
142 106 73
142 106 73
142 106 73
142 106 73
142 106 73
142 106 73
142 106 73
142 106 73
142 106 73
142 106 73
142 106 73
142 106 73
142 106 73
142 106 73
142 106 73
142 106 73
142 106 73
142 106 73
142 106 73
142 106 73
142 106 73
136 102 70
136 102 70
136 102 70
136 102 70
136 102 70
136 102 70
136 102 70
136 102 70
136 102 70
136 102 70
136 102 70
136 102 70
136 102 70
136 102 70
136 102 70
136 102 70
136 102 70
136 102 70
136 102 70
136 102 70
136 102 70
136 102 70
0 0 0
0 0 0
0 0 0
0 0 0
0 0 0
0 0 0
0 0 0
0 0 0
0 0 0
0 0 0
0 0 0
0 0 0
0 0 0
0 0 0
0 0 0
0 0 0
0 0 0
0 0 0
0 0 0
0 0 0
0 0 0
0 0 0
0 0 0
0 0 0
0 0 0
0 0 0
0 0 0
0 0 0
0 0 0
0 0 0
0 0 0
0 0 0
0 0 0
0 0 0
0 0 0
0 0 0
0 0 0
0 0 0
0 0 0
0 0 0
0 0 0
0 0 0
0 0 0
0 0 0
0 0 0
0 0 0
0 0 0
0 0 0
0 0 0
0 0 0
0 0 0
0 0 0
0 0 0
0 0 0
0 0 0
0 0 0
0 0 0
0 0 0
0 0 0
0 0 0
0 0 0
0 0 0
0 0 0
0 0 0
194 144 98
194 144 98
194 144 98
194 144 98
194 144 98
194 144 98
194 144 98
194 144 98
194 144 98
194 144 98
194 144 98
194 144 98
194 144 98
194 144 98
194 144 98
194 144 98
194 144 98
194 144 98
194 144 98
194 144 98
194 144 98
194 144 98
194 144 98
194 144 98
194 144 98
196 146 99
196 146 99
196 146 99
196 146 99
196 146 99
196 146 99
196 146 99
196 146 99
196 146 99
196 146 99
196 146 99
196 146 99
196 146 99
196 146 99
196 146 99
196 146 99
196 146 99
196 146 99
196 146 99
196 146 99
196 146 99
196 146 99
196 146 99
198 151 108
198 151 108
198 151 108
198 151 108
198 151 108
198 151 108
198 151 108
198 151 108
198 151 108
198 151 108
198 151 108
198 151 108
198 151 108
198 151 108
198 151 108
198 151 108
198 151 108
198 151 108
198 151 108
198 151 108
198 151 108
198 151 108
198 151 108
198 151 108
198 151 108
199 152 110
199 152 110
199 152 110
199 152 110
199 152 110
199 152 110
199 152 110
199 152 110
199 152 110
199 152 110
199 152 110
199 152 110
199 152 110
199 152 110
199 152 110
199 152 110
199 152 110
199 152 110
199 152 110
199 152 110
199 152 110
199 152 110
199 152 110
178 132 90
178 132 90
178 132 90
178 132 90
178 132 90
178 132 90
178 132 90
178 132 90
178 132 90
178 132 90
178 132 90
178 132 90
178 132 90
178 132 90
178 132 90
178 132 90
178 132 90
178 132 90
178 132 90
178 132 90
178 132 90
178 132 90
178 132 90
178 132 90
178 132 90
177 132 89
177 132 89
177 132 89
177 132 89
177 132 89
177 132 89
177 132 89
177 132 89
177 132 89
177 132 89
177 132 89
177 132 89
177 132 89
177 132 89
177 132 89
177 132 89
177 132 89
177 132 89
177 132 89
177 132 89
177 132 89
177 132 89
177 132 89
142 106 73
142 106 73
142 106 73
142 106 73
142 106 73
142 106 73
142 106 73
142 106 73
142 106 73
142 106 73
142 106 73
142 106 73
142 106 73
142 106 73
142 106 73
142 106 73
142 106 73
142 106 73
142 106 73
142 106 73
142 106 73
142 106 73
142 106 73
142 106 73
142 106 73
136 102 70
136 102 70
136 102 70
136 102 70
136 102 70
136 102 70
136 102 70
136 102 70
136 102 70
136 102 70
136 102 70
136 102 70
136 102 70
136 102 70
136 102 70
136 102 70
136 102 70
136 102 70
136 102 70
136 102 70
136 102 70
136 102 70
136 102 70
0 0 0
0 0 0
0 0 0
0 0 0
0 0 0
0 0 0
0 0 0
0 0 0
0 0 0
0 0 0
0 0 0
0 0 0
0 0 0
0 0 0
0 0 0
0 0 0
0 0 0
0 0 0
0 0 0
0 0 0
0 0 0
0 0 0
0 0 0
0 0 0
0 0 0
0 0 0
0 0 0
0 0 0
0 0 0
0 0 0
0 0 0
0 0 0
0 0 0
0 0 0
0 0 0
0 0 0
0 0 0
0 0 0
0 0 0
0 0 0
0 0 0
0 0 0
0 0 0
0 0 0
0 0 0
0 0 0
0 0 0
0 0 0
0 0 0
0 0 0
0 0 0
0 0 0
0 0 0
0 0 0
0 0 0
0 0 0
0 0 0
0 0 0
0 0 0
0 0 0
0 0 0
0 0 0
0 0 0
0 0 0
194 144 98
194 144 98
194 144 98
194 144 98
194 144 98
194 144 98
194 144 98
194 144 98
194 144 98
194 144 98
194 144 98
194 144 98
194 144 98
194 144 98
194 144 98
194 144 98
194 144 98
194 144 98
194 144 98
194 144 98
194 144 98
194 144 98
194 144 98
196 146 99
196 146 99
196 146 99
196 146 99
196 146 99
196 146 99
196 146 99
196 146 99
196 146 99
196 146 99
196 146 99
196 146 99
196 146 99
196 146 99
196 146 99
196 146 99
196 146 99
196 146 99
196 146 99
196 146 99
196 146 99
196 146 99
196 146 99
196 146 99
196 146 99
198 151 108
198 151 108
198 151 108
198 151 108
198 151 108
198 151 108
198 151 108
198 151 108
198 151 108
198 151 108
198 151 108
198 151 108
198 151 108
198 151 108
198 151 108
198 151 108
198 151 108
198 151 108
198 151 108
198 151 108
198 151 108
198 151 108
198 151 108
199 152 110
199 152 110
199 152 110
199 152 110
199 152 110
199 152 110
199 152 110
199 152 110
199 152 110
199 152 110
199 152 110
199 152 110
199 152 110
199 152 110
199 152 110
199 152 110
199 152 110
199 152 110
199 152 110
199 152 110
199 152 110
199 152 110
199 152 110
199 152 110
199 152 110
178 132 90
178 132 90
178 132 90
178 132 90
178 132 90
178 132 90
178 132 90
178 132 90
178 132 90
178 132 90
178 132 90
178 132 90
178 132 90
178 132 90
178 132 90
178 132 90
178 132 90
178 132 90
178 132 90
178 132 90
178 132 90
178 132 90
178 132 90
177 132 89
177 132 89
177 132 89
177 132 89
177 132 89
177 132 89
177 132 89
177 132 89
177 132 89
177 132 89
177 132 89
177 132 89
177 132 89
177 132 89
177 132 89
177 132 89
177 132 89
177 132 89
177 132 89
177 132 89
177 132 89
177 132 89
177 132 89
177 132 89
177 132 89
142 106 73
142 106 73
142 106 73
142 106 73
142 106 73
142 106 73
142 106 73
142 106 73
142 106 73
142 106 73
142 106 73
142 106 73
142 106 73
142 106 73
142 106 73
142 106 73
142 106 73
142 106 73
142 106 73
142 106 73
142 106 73
142 106 73
142 106 73
136 102 70
136 102 70
136 102 70
136 102 70
136 102 70
136 102 70
136 102 70
136 102 70
136 102 70
136 102 70
136 102 70
136 102 70
136 102 70
136 102 70
136 102 70
136 102 70
136 102 70
136 102 70
136 102 70
136 102 70
136 102 70
136 102 70
136 102 70
136 102 70
136 102 70
0 0 0
0 0 0
0 0 0
0 0 0
0 0 0
0 0 0
0 0 0
0 0 0
0 0 0
0 0 0
0 0 0
0 0 0
0 0 0
0 0 0
0 0 0
0 0 0
0 0 0
0 0 0
0 0 0
0 0 0
0 0 0
0 0 0
0 0 0
0 0 0
0 0 0
0 0 0
0 0 0
0 0 0
0 0 0
0 0 0
0 0 0
0 0 0
0 0 0
0 0 0
0 0 0
0 0 0
0 0 0
0 0 0
0 0 0
0 0 0
0 0 0
0 0 0
0 0 0
0 0 0
0 0 0
0 0 0
0 0 0
0 0 0
0 0 0
0 0 0
0 0 0
0 0 0
0 0 0
0 0 0
0 0 0
0 0 0
0 0 0
0 0 0
0 0 0
0 0 0
0 0 0
0 0 0
0 0 0
0 0 0
194 144 98
194 144 98
194 144 98
194 144 98
194 144 98
194 144 98
194 144 98
194 144 98
194 144 98
194 144 98
194 144 98
194 144 98
194 144 98
194 144 98
194 144 98
194 144 98
194 144 98
194 144 98
194 144 98
194 144 98
194 144 98
194 144 98
196 146 99
196 146 99
196 146 99
196 146 99
196 146 99
196 146 99
196 146 99
196 146 99
196 146 99
196 146 99
196 146 99
196 146 99
196 146 99
196 146 99
196 146 99
196 146 99
196 146 99
196 146 99
196 146 99
196 146 99
196 146 99
196 146 99
196 146 99
196 146 99
196 146 99
196 146 99
198 151 108
198 151 108
198 151 108
198 151 108
198 151 108
198 151 108
198 151 108
198 151 108
198 151 108
198 151 108
198 151 108
198 151 108
198 151 108
198 151 108
198 151 108
198 151 108
198 151 108
198 151 108
198 151 108
198 151 108
198 151 108
198 151 108
199 152 110
199 152 110
199 152 110
199 152 110
199 152 110
199 152 110
199 152 110
199 152 110
199 152 110
199 152 110
199 152 110
199 152 110
199 152 110
199 152 110
199 152 110
199 152 110
199 152 110
199 152 110
199 152 110
199 152 110
199 152 110
199 152 110
199 152 110
199 152 110
199 152 110
199 152 110
178 132 90
178 132 90
178 132 90
178 132 90
178 132 90
178 132 90
178 132 90
178 132 90
178 132 90
178 132 90
178 132 90
178 132 90
178 132 90
178 132 90
178 132 90
178 132 90
178 132 90
178 132 90
178 132 90
178 132 90
178 132 90
178 132 90
177 132 89
177 132 89
177 132 89
177 132 89
177 132 89
177 132 89
177 132 89
177 132 89
177 132 89
177 132 89
177 132 89
177 132 89
177 132 89
177 132 89
177 132 89
177 132 89
177 132 89
177 132 89
177 132 89
177 132 89
177 132 89
177 132 89
177 132 89
177 132 89
177 132 89
177 132 89
142 106 73
142 106 73
142 106 73
142 106 73
142 106 73
142 106 73
142 106 73
142 106 73
142 106 73
142 106 73
142 106 73
142 106 73
142 106 73
142 106 73
142 106 73
142 106 73
142 106 73
142 106 73
142 106 73
142 106 73
142 106 73
142 106 73
136 102 70
136 102 70
136 102 70
136 102 70
136 102 70
136 102 70
136 102 70
136 102 70
136 102 70
136 102 70
136 102 70
136 102 70
136 102 70
136 102 70
136 102 70
136 102 70
136 102 70
136 102 70
136 102 70
136 102 70
136 102 70
136 102 70
136 102 70
136 102 70
136 102 70
136 102 70
0 0 0
0 0 0
0 0 0
0 0 0
0 0 0
0 0 0
0 0 0
0 0 0
0 0 0
0 0 0
0 0 0
0 0 0
0 0 0
0 0 0
0 0 0
0 0 0
0 0 0
0 0 0
0 0 0
0 0 0
0 0 0
0 0 0
0 0 0
0 0 0
0 0 0
0 0 0
0 0 0
0 0 0
0 0 0
0 0 0
0 0 0
0 0 0
0 0 0
0 0 0
0 0 0
0 0 0
0 0 0
0 0 0
0 0 0
0 0 0
0 0 0
0 0 0
0 0 0
0 0 0
0 0 0
0 0 0
0 0 0
0 0 0
0 0 0
0 0 0
0 0 0
0 0 0
0 0 0
0 0 0
0 0 0
0 0 0
0 0 0
0 0 0
0 0 0
0 0 0
0 0 0
0 0 0
0 0 0
0 0 0
194 144 98
194 144 98
194 144 98
194 144 98
194 144 98
194 144 98
194 144 98
194 144 98
194 144 98
194 144 98
194 144 98
194 144 98
194 144 98
194 144 98
194 144 98
194 144 98
194 144 98
194 144 98
194 144 98
194 144 98
196 146 99
196 146 99
196 146 99
196 146 99
196 146 99
196 146 99
196 146 99
196 146 99
196 146 99
196 146 99
196 146 99
196 146 99
196 146 99
196 146 99
196 146 99
196 146 99
196 146 99
196 146 99
196 146 99
196 146 99
196 146 99
196 146 99
196 146 99
196 146 99
196 146 99
196 146 99
196 146 99
196 146 99
198 151 108
198 151 108
198 151 108
198 151 108
198 151 108
198 151 108
198 151 108
198 151 108
198 151 108
198 151 108
198 151 108
198 151 108
198 151 108
198 151 108
198 151 108
198 151 108
198 151 108
198 151 108
198 151 108
198 151 108
199 152 110
199 152 110
199 152 110
199 152 110
199 152 110
199 152 110
199 152 110
199 152 110
199 152 110
199 152 110
199 152 110
199 152 110
199 152 110
199 152 110
199 152 110
199 152 110
199 152 110
199 152 110
199 152 110
199 152 110
199 152 110
199 152 110
199 152 110
199 152 110
199 152 110
199 152 110
199 152 110
199 152 110
178 132 90
178 132 90
178 132 90
178 132 90
178 132 90
178 132 90
178 132 90
178 132 90
178 132 90
178 132 90
178 132 90
178 132 90
178 132 90
178 132 90
178 132 90
178 132 90
178 132 90
178 132 90
178 132 90
178 132 90
177 132 89
177 132 89
177 132 89
177 132 89
177 132 89
177 132 89
177 132 89
177 132 89
177 132 89
177 132 89
177 132 89
177 132 89
177 132 89
177 132 89
177 132 89
177 132 89
177 132 89
177 132 89
177 132 89
177 132 89
177 132 89
177 132 89
177 132 89
177 132 89
177 132 89
177 132 89
177 132 89
177 132 89
142 106 73
142 106 73
142 106 73
142 106 73
142 106 73
142 106 73
142 106 73
142 106 73
142 106 73
142 106 73
142 106 73
142 106 73
142 106 73
142 106 73
142 106 73
142 106 73
142 106 73
142 106 73
142 106 73
142 106 73
136 102 70
136 102 70
136 102 70
136 102 70
136 102 70
136 102 70
136 102 70
136 102 70
136 102 70
136 102 70
136 102 70
136 102 70
136 102 70
136 102 70
136 102 70
136 102 70
136 102 70
136 102 70
136 102 70
136 102 70
136 102 70
136 102 70
136 102 70
136 102 70
136 102 70
136 102 70
136 102 70
136 102 70
0 0 0
0 0 0
0 0 0
0 0 0
0 0 0
0 0 0
0 0 0
0 0 0
0 0 0
0 0 0
0 0 0
0 0 0
0 0 0
0 0 0
0 0 0
0 0 0
0 0 0
0 0 0
0 0 0
0 0 0
0 0 0
0 0 0
0 0 0
0 0 0
0 0 0
0 0 0
0 0 0
0 0 0
0 0 0
0 0 0
0 0 0
0 0 0
0 0 0
0 0 0
0 0 0
0 0 0
0 0 0
0 0 0
0 0 0
0 0 0
0 0 0
0 0 0
0 0 0
0 0 0
0 0 0
0 0 0
0 0 0
0 0 0
0 0 0
0 0 0
0 0 0
0 0 0
0 0 0
0 0 0
0 0 0
0 0 0
0 0 0
0 0 0
0 0 0
0 0 0
0 0 0
0 0 0
0 0 0
0 0 0
194 144 98
194 144 98
194 144 98
194 144 98
194 144 98
194 144 98
194 144 98
194 144 98
194 144 98
194 144 98
194 144 98
194 144 98
194 144 98
194 144 98
194 144 98
194 144 98
194 144 98
194 144 98
194 144 98
196 146 99
196 146 99
196 146 99
196 146 99
196 146 99
196 146 99
196 146 99
196 146 99
196 146 99
196 146 99
196 146 99
196 146 99
196 146 99
196 146 99
196 146 99
196 146 99
196 146 99
196 146 99
196 146 99
196 146 99
196 146 99
196 146 99
196 146 99
196 146 99
196 146 99
196 146 99
196 146 99
196 146 99
196 146 99
198 151 108
198 151 108
198 151 108
198 151 108
198 151 108
198 151 108
198 151 108
198 151 108
198 151 108
198 151 108
198 151 108
198 151 108
198 151 108
198 151 108
198 151 108
198 151 108
198 151 108
198 151 108
198 151 108
199 152 110
199 152 110
199 152 110
199 152 110
199 152 110
199 152 110
199 152 110
199 152 110
199 152 110
199 152 110
199 152 110
199 152 110
199 152 110
199 152 110
199 152 110
199 152 110
199 152 110
199 152 110
199 152 110
199 152 110
199 152 110
199 152 110
199 152 110
199 152 110
199 152 110
199 152 110
199 152 110
199 152 110
199 152 110
178 132 90
178 132 90
178 132 90
178 132 90
178 132 90
178 132 90
178 132 90
178 132 90
178 132 90
178 132 90
178 132 90
178 132 90
178 132 90
178 132 90
178 132 90
178 132 90
178 132 90
178 132 90
178 132 90
177 132 89
177 132 89
177 132 89
177 132 89
177 132 89
177 132 89
177 132 89
177 132 89
177 132 89
177 132 89
177 132 89
177 132 89
177 132 89
177 132 89
177 132 89
177 132 89
177 132 89
177 132 89
177 132 89
177 132 89
177 132 89
177 132 89
177 132 89
177 132 89
177 132 89
177 132 89
177 132 89
177 132 89
177 132 89
142 106 73
142 106 73
142 106 73
142 106 73
142 106 73
142 106 73
142 106 73
142 106 73
142 106 73
142 106 73
142 106 73
142 106 73
142 106 73
142 106 73
142 106 73
142 106 73
142 106 73
142 106 73
142 106 73
136 102 70
136 102 70
136 102 70
136 102 70
136 102 70
136 102 70
136 102 70
136 102 70
136 102 70
136 102 70
136 102 70
136 102 70
136 102 70
136 102 70
136 102 70
136 102 70
136 102 70
136 102 70
136 102 70
136 102 70
136 102 70
136 102 70
136 102 70
136 102 70
136 102 70
136 102 70
136 102 70
136 102 70
136 102 70
0 0 0
0 0 0
0 0 0
0 0 0
0 0 0
0 0 0
0 0 0
0 0 0
0 0 0
0 0 0
0 0 0
0 0 0
0 0 0
0 0 0
0 0 0
0 0 0
0 0 0
0 0 0
0 0 0
0 0 0
0 0 0
0 0 0
0 0 0
0 0 0
0 0 0
0 0 0
0 0 0
0 0 0
0 0 0
0 0 0
0 0 0
0 0 0
0 0 0
0 0 0
0 0 0
0 0 0
0 0 0
0 0 0
0 0 0
0 0 0
0 0 0
0 0 0
0 0 0
0 0 0
0 0 0
0 0 0
0 0 0
0 0 0
0 0 0
0 0 0
0 0 0
0 0 0
0 0 0
0 0 0
0 0 0
0 0 0
0 0 0
0 0 0
0 0 0
0 0 0
0 0 0
0 0 0
0 0 0
0 0 0
194 144 98
194 144 98
194 144 98
194 144 98
194 144 98
194 144 98
194 144 98
194 144 98
194 144 98
194 144 98
194 144 98
194 144 98
194 144 98
194 144 98
194 144 98
194 144 98
194 144 98
196 146 99
196 146 99
196 146 99
196 146 99
196 146 99
196 146 99
196 146 99
196 146 99
196 146 99
196 146 99
196 146 99
196 146 99
196 146 99
196 146 99
196 146 99
196 146 99
196 146 99
196 146 99
196 146 99
196 146 99
196 146 99
196 146 99
196 146 99
196 146 99
196 146 99
196 146 99
196 146 99
196 146 99
196 146 99
196 146 99
196 146 99
198 151 108
198 151 108
198 151 108
198 151 108
198 151 108
198 151 108
198 151 108
198 151 108
198 151 108
198 151 108
198 151 108
198 151 108
198 151 108
198 151 108
198 151 108
198 151 108
198 151 108
199 152 110
199 152 110
199 152 110
199 152 110
199 152 110
199 152 110
199 152 110
199 152 110
199 152 110
199 152 110
199 152 110
199 152 110
199 152 110
199 152 110
199 152 110
199 152 110
199 152 110
199 152 110
199 152 110
199 152 110
199 152 110
199 152 110
199 152 110
199 152 110
199 152 110
199 152 110
199 152 110
199 152 110
199 152 110
199 152 110
199 152 110
178 132 90
178 132 90
178 132 90
178 132 90
178 132 90
178 132 90
178 132 90
178 132 90
178 132 90
178 132 90
178 132 90
178 132 90
178 132 90
178 132 90
178 132 90
178 132 90
178 132 90
177 132 89
177 132 89
177 132 89
177 132 89
177 132 89
177 132 89
177 132 89
177 132 89
177 132 89
177 132 89
177 132 89
177 132 89
177 132 89
177 132 89
177 132 89
177 132 89
177 132 89
177 132 89
177 132 89
177 132 89
177 132 89
177 132 89
177 132 89
177 132 89
177 132 89
177 132 89
177 132 89
177 132 89
177 132 89
177 132 89
177 132 89
142 106 73
142 106 73
142 106 73
142 106 73
142 106 73
142 106 73
142 106 73
142 106 73
142 106 73
142 106 73
142 106 73
142 106 73
142 106 73
142 106 73
142 106 73
142 106 73
142 106 73
136 102 70
136 102 70
136 102 70
136 102 70
136 102 70
136 102 70
136 102 70
136 102 70
136 102 70
136 102 70
136 102 70
136 102 70
136 102 70
136 102 70
136 102 70
136 102 70
136 102 70
136 102 70
136 102 70
136 102 70
136 102 70
136 102 70
136 102 70
136 102 70
136 102 70
136 102 70
136 102 70
136 102 70
136 102 70
136 102 70
136 102 70
0 0 0
0 0 0
0 0 0
0 0 0
0 0 0
0 0 0
0 0 0
0 0 0
0 0 0
0 0 0
0 0 0
0 0 0
0 0 0
0 0 0
0 0 0
0 0 0
0 0 0
0 0 0
0 0 0
0 0 0
0 0 0
0 0 0
0 0 0
0 0 0
0 0 0
0 0 0
0 0 0
0 0 0
0 0 0
0 0 0
0 0 0
0 0 0
0 0 0
0 0 0
0 0 0
0 0 0
0 0 0
0 0 0
0 0 0
0 0 0
0 0 0
0 0 0
0 0 0
0 0 0
0 0 0
0 0 0
0 0 0
0 0 0
0 0 0
0 0 0
0 0 0
0 0 0
0 0 0
0 0 0
0 0 0
0 0 0
0 0 0
0 0 0
0 0 0
0 0 0
0 0 0
0 0 0
0 0 0
0 0 0
194 144 98
194 144 98
194 144 98
194 144 98
194 144 98
194 144 98
194 144 98
194 144 98
194 144 98
194 144 98
194 144 98
194 144 98
194 144 98
194 144 98
194 144 98
194 144 98
196 146 99
196 146 99
196 146 99
196 146 99
196 146 99
196 146 99
196 146 99
196 146 99
196 146 99
196 146 99
196 146 99
196 146 99
196 146 99
196 146 99
196 146 99
196 146 99
196 146 99
196 146 99
196 146 99
196 146 99
196 146 99
196 146 99
196 146 99
196 146 99
196 146 99
196 146 99
196 146 99
196 146 99
196 146 99
196 146 99
196 146 99
196 146 99
198 151 108
198 151 108
198 151 108
198 151 108
198 151 108
198 151 108
198 151 108
198 151 108
198 151 108
198 151 108
198 151 108
198 151 108
198 151 108
198 151 108
198 151 108
198 151 108
199 152 110
199 152 110
199 152 110
199 152 110
199 152 110
199 152 110
199 152 110
199 152 110
199 152 110
199 152 110
199 152 110
199 152 110
199 152 110
199 152 110
199 152 110
199 152 110
199 152 110
199 152 110
199 152 110
199 152 110
199 152 110
199 152 110
199 152 110
199 152 110
199 152 110
199 152 110
199 152 110
199 152 110
199 152 110
199 152 110
199 152 110
199 152 110
178 132 90
178 132 90
178 132 90
178 132 90
178 132 90
178 132 90
178 132 90
178 132 90
178 132 90
178 132 90
178 132 90
178 132 90
178 132 90
178 132 90
178 132 90
178 132 90
177 132 89
177 132 89
177 132 89
177 132 89
177 132 89
177 132 89
177 132 89
177 132 89
177 132 89
177 132 89
177 132 89
177 132 89
177 132 89
177 132 89
177 132 89
177 132 89
177 132 89
177 132 89
177 132 89
177 132 89
177 132 89
177 132 89
177 132 89
177 132 89
177 132 89
177 132 89
177 132 89
177 132 89
177 132 89
177 132 89
177 132 89
177 132 89
142 106 73
142 106 73
142 106 73
142 106 73
142 106 73
142 106 73
142 106 73
142 106 73
142 106 73
142 106 73
142 106 73
142 106 73
142 106 73
142 106 73
142 106 73
142 106 73
136 102 70
136 102 70
136 102 70
136 102 70
136 102 70
136 102 70
136 102 70
136 102 70
136 102 70
136 102 70
136 102 70
136 102 70
136 102 70
136 102 70
136 102 70
136 102 70
136 102 70
136 102 70
136 102 70
136 102 70
136 102 70
136 102 70
136 102 70
136 102 70
136 102 70
136 102 70
136 102 70
136 102 70
136 102 70
136 102 70
136 102 70
136 102 70
0 0 0
0 0 0
0 0 0
0 0 0
0 0 0
0 0 0
0 0 0
0 0 0
0 0 0
0 0 0
0 0 0
0 0 0
0 0 0
0 0 0
0 0 0
0 0 0
0 0 0
0 0 0
0 0 0
0 0 0
0 0 0
0 0 0
0 0 0
0 0 0
0 0 0
0 0 0
0 0 0
0 0 0
0 0 0
0 0 0
0 0 0
0 0 0
0 0 0
0 0 0
0 0 0
0 0 0
0 0 0
0 0 0
0 0 0
0 0 0
0 0 0
0 0 0
0 0 0
0 0 0
0 0 0
0 0 0
0 0 0
0 0 0
0 0 0
0 0 0
0 0 0
0 0 0
0 0 0
0 0 0
0 0 0
0 0 0
0 0 0
0 0 0
0 0 0
0 0 0
0 0 0
0 0 0
0 0 0
0 0 0
194 144 98
194 144 98
194 144 98
194 144 98
194 144 98
194 144 98
194 144 98
194 144 98
194 144 98
194 144 98
194 144 98
194 144 98
194 144 98
194 144 98
196 146 99
196 146 99
196 146 99
196 146 99
196 146 99
196 146 99
196 146 99
196 146 99
196 146 99
196 146 99
196 146 99
196 146 99
196 146 99
196 146 99
196 146 99
196 146 99
196 146 99
196 146 99
196 146 99
196 146 99
196 146 99
196 146 99
196 146 99
196 146 99
196 146 99
196 146 99
196 146 99
196 146 99
196 146 99
196 146 99
196 146 99
196 146 99
196 146 99
196 146 99
198 151 108
198 151 108
198 151 108
198 151 108
198 151 108
198 151 108
198 151 108
198 151 108
198 151 108
198 151 108
198 151 108
198 151 108
198 151 108
198 151 108
199 152 110
199 152 110
199 152 110
199 152 110
199 152 110
199 152 110
199 152 110
199 152 110
199 152 110
199 152 110
199 152 110
199 152 110
199 152 110
199 152 110
199 152 110
199 152 110
199 152 110
199 152 110
199 152 110
199 152 110
199 152 110
199 152 110
199 152 110
199 152 110
199 152 110
199 152 110
199 152 110
199 152 110
199 152 110
199 152 110
199 152 110
199 152 110
199 152 110
199 152 110
178 132 90
178 132 90
178 132 90
178 132 90
178 132 90
178 132 90
178 132 90
178 132 90
178 132 90
178 132 90
178 132 90
178 132 90
178 132 90
178 132 90
177 132 89
177 132 89
177 132 89
177 132 89
177 132 89
177 132 89
177 132 89
177 132 89
177 132 89
177 132 89
177 132 89
177 132 89
177 132 89
177 132 89
177 132 89
177 132 89
177 132 89
177 132 89
177 132 89
177 132 89
177 132 89
177 132 89
177 132 89
177 132 89
177 132 89
177 132 89
177 132 89
177 132 89
177 132 89
177 132 89
177 132 89
177 132 89
177 132 89
177 132 89
142 106 73
142 106 73
142 106 73
142 106 73
142 106 73
142 106 73
142 106 73
142 106 73
142 106 73
142 106 73
142 106 73
142 106 73
142 106 73
142 106 73
136 102 70
136 102 70
136 102 70
136 102 70
136 102 70
136 102 70
136 102 70
136 102 70
136 102 70
136 102 70
136 102 70
136 102 70
136 102 70
136 102 70
136 102 70
136 102 70
136 102 70
136 102 70
136 102 70
136 102 70
136 102 70
136 102 70
136 102 70
136 102 70
136 102 70
136 102 70
136 102 70
136 102 70
136 102 70
136 102 70
136 102 70
136 102 70
136 102 70
136 102 70
0 0 0
0 0 0
0 0 0
0 0 0
0 0 0
0 0 0
0 0 0
0 0 0
0 0 0
0 0 0
0 0 0
0 0 0
0 0 0
0 0 0
0 0 0
0 0 0
0 0 0
0 0 0
0 0 0
0 0 0
0 0 0
0 0 0
0 0 0
0 0 0
0 0 0
0 0 0
0 0 0
0 0 0
0 0 0
0 0 0
0 0 0
0 0 0
0 0 0
0 0 0
0 0 0
0 0 0
0 0 0
0 0 0
0 0 0
0 0 0
0 0 0
0 0 0
0 0 0
0 0 0
0 0 0
0 0 0
0 0 0
0 0 0
0 0 0
0 0 0
0 0 0
0 0 0
0 0 0
0 0 0
0 0 0
0 0 0
0 0 0
0 0 0
0 0 0
0 0 0
0 0 0
0 0 0
0 0 0
0 0 0
194 144 98
194 144 98
194 144 98
194 144 98
194 144 98
194 144 98
194 144 98
194 144 98
194 144 98
194 144 98
194 144 98
194 144 98
194 144 98
196 146 99
196 146 99
196 146 99
196 146 99
196 146 99
196 146 99
196 146 99
196 146 99
196 146 99
196 146 99
196 146 99
196 146 99
196 146 99
196 146 99
196 146 99
196 146 99
196 146 99
196 146 99
196 146 99
196 146 99
196 146 99
196 146 99
196 146 99
196 146 99
196 146 99
196 146 99
196 146 99
196 146 99
196 146 99
196 146 99
196 146 99
196 146 99
196 146 99
196 146 99
196 146 99
198 151 108
198 151 108
198 151 108
198 151 108
198 151 108
198 151 108
198 151 108
198 151 108
198 151 108
198 151 108
198 151 108
198 151 108
198 151 108
199 152 110
199 152 110
199 152 110
199 152 110
199 152 110
199 152 110
199 152 110
199 152 110
199 152 110
199 152 110
199 152 110
199 152 110
199 152 110
199 152 110
199 152 110
199 152 110
199 152 110
199 152 110
199 152 110
199 152 110
199 152 110
199 152 110
199 152 110
199 152 110
199 152 110
199 152 110
199 152 110
199 152 110
199 152 110
199 152 110
199 152 110
199 152 110
199 152 110
199 152 110
199 152 110
178 132 90
178 132 90
178 132 90
178 132 90
178 132 90
178 132 90
178 132 90
178 132 90
178 132 90
178 132 90
178 132 90
178 132 90
178 132 90
177 132 89
177 132 89
177 132 89
177 132 89
177 132 89
177 132 89
177 132 89
177 132 89
177 132 89
177 132 89
177 132 89
177 132 89
177 132 89
177 132 89
177 132 89
177 132 89
177 132 89
177 132 89
177 132 89
177 132 89
177 132 89
177 132 89
177 132 89
177 132 89
177 132 89
177 132 89
177 132 89
177 132 89
177 132 89
177 132 89
177 132 89
177 132 89
177 132 89
177 132 89
177 132 89
142 106 73
142 106 73
142 106 73
142 106 73
142 106 73
142 106 73
142 106 73
142 106 73
142 106 73
142 106 73
142 106 73
142 106 73
142 106 73
136 102 70
136 102 70
136 102 70
136 102 70
136 102 70
136 102 70
136 102 70
136 102 70
136 102 70
136 102 70
136 102 70
136 102 70
136 102 70
136 102 70
136 102 70
136 102 70
136 102 70
136 102 70
136 102 70
136 102 70
136 102 70
136 102 70
136 102 70
136 102 70
136 102 70
136 102 70
136 102 70
136 102 70
136 102 70
136 102 70
136 102 70
136 102 70
136 102 70
136 102 70
136 102 70
0 0 0
0 0 0
0 0 0
0 0 0
0 0 0
0 0 0
0 0 0
0 0 0
0 0 0
0 0 0
0 0 0
0 0 0
0 0 0
0 0 0
0 0 0
0 0 0
0 0 0
0 0 0
0 0 0
0 0 0
0 0 0
0 0 0
0 0 0
0 0 0
0 0 0
0 0 0
0 0 0
0 0 0
0 0 0
0 0 0
0 0 0
0 0 0
0 0 0
0 0 0
0 0 0
0 0 0
0 0 0
0 0 0
0 0 0
0 0 0
0 0 0
0 0 0
0 0 0
0 0 0
0 0 0
0 0 0
0 0 0
0 0 0
0 0 0
0 0 0
0 0 0
0 0 0
0 0 0
0 0 0
0 0 0
0 0 0
0 0 0
0 0 0
0 0 0
0 0 0
0 0 0
0 0 0
0 0 0
0 0 0
194 144 98
194 144 98
194 144 98
194 144 98
194 144 98
194 144 98
194 144 98
194 144 98
194 144 98
194 144 98
194 144 98
196 146 99
196 146 99
196 146 99
196 146 99
196 146 99
196 146 99
196 146 99
196 146 99
196 146 99
196 146 99
196 146 99
196 146 99
196 146 99
196 146 99
196 146 99
196 146 99
196 146 99
196 146 99
196 146 99
196 146 99
196 146 99
196 146 99
196 146 99
196 146 99
196 146 99
196 146 99
196 146 99
196 146 99
196 146 99
196 146 99
196 146 99
196 146 99
196 146 99
196 146 99
196 146 99
196 146 99
196 146 99
198 151 108
198 151 108
198 151 108
198 151 108
198 151 108
198 151 108
198 151 108
198 151 108
198 151 108
198 151 108
198 151 108
199 152 110
199 152 110
199 152 110
199 152 110
199 152 110
199 152 110
199 152 110
199 152 110
199 152 110
199 152 110
199 152 110
199 152 110
199 152 110
199 152 110
199 152 110
199 152 110
199 152 110
199 152 110
199 152 110
199 152 110
199 152 110
199 152 110
199 152 110
199 152 110
199 152 110
199 152 110
199 152 110
199 152 110
199 152 110
199 152 110
199 152 110
199 152 110
199 152 110
199 152 110
199 152 110
199 152 110
199 152 110
178 132 90
178 132 90
178 132 90
178 132 90
178 132 90
178 132 90
178 132 90
178 132 90
178 132 90
178 132 90
178 132 90
177 132 89
177 132 89
177 132 89
177 132 89
177 132 89
177 132 89
177 132 89
177 132 89
177 132 89
177 132 89
177 132 89
177 132 89
177 132 89
177 132 89
177 132 89
177 132 89
177 132 89
177 132 89
177 132 89
177 132 89
177 132 89
177 132 89
177 132 89
177 132 89
177 132 89
177 132 89
177 132 89
177 132 89
177 132 89
177 132 89
177 132 89
177 132 89
177 132 89
177 132 89
177 132 89
177 132 89
177 132 89
142 106 73
142 106 73
142 106 73
142 106 73
142 106 73
142 106 73
142 106 73
142 106 73
142 106 73
142 106 73
142 106 73
136 102 70
136 102 70
136 102 70
136 102 70
136 102 70
136 102 70
136 102 70
136 102 70
136 102 70
136 102 70
136 102 70
136 102 70
136 102 70
136 102 70
136 102 70
136 102 70
136 102 70
136 102 70
136 102 70
136 102 70
136 102 70
136 102 70
136 102 70
136 102 70
136 102 70
136 102 70
136 102 70
136 102 70
136 102 70
136 102 70
136 102 70
136 102 70
136 102 70
136 102 70
136 102 70
136 102 70
136 102 70
0 0 0
0 0 0
0 0 0
0 0 0
0 0 0
0 0 0
0 0 0
0 0 0
0 0 0
0 0 0
0 0 0
0 0 0
0 0 0
0 0 0
0 0 0
0 0 0
0 0 0
0 0 0
0 0 0
0 0 0
0 0 0
0 0 0
0 0 0
0 0 0
0 0 0
0 0 0
0 0 0
0 0 0
0 0 0
0 0 0
0 0 0
0 0 0
0 0 0
0 0 0
0 0 0
0 0 0
0 0 0
0 0 0
0 0 0
0 0 0
0 0 0
0 0 0
0 0 0
0 0 0
0 0 0
0 0 0
0 0 0
0 0 0
0 0 0
0 0 0
0 0 0
0 0 0
0 0 0
0 0 0
0 0 0
0 0 0
0 0 0
0 0 0
0 0 0
0 0 0
0 0 0
0 0 0
0 0 0
0 0 0
194 144 98
194 144 98
194 144 98
194 144 98
194 144 98
194 144 98
194 144 98
194 144 98
194 144 98
194 144 98
196 146 99
196 146 99
196 146 99
196 146 99
196 146 99
196 146 99
196 146 99
196 146 99
196 146 99
196 146 99
196 146 99
196 146 99
196 146 99
196 146 99
196 146 99
196 146 99
196 146 99
196 146 99
196 146 99
196 146 99
196 146 99
196 146 99
196 146 99
196 146 99
196 146 99
196 146 99
196 146 99
196 146 99
196 146 99
196 146 99
196 146 99
196 146 99
196 146 99
196 146 99
196 146 99
196 146 99
196 146 99
196 146 99
198 151 108
198 151 108
198 151 108
198 151 108
198 151 108
198 151 108
198 151 108
198 151 108
198 151 108
198 151 108
199 152 110
199 152 110
199 152 110
199 152 110
199 152 110
199 152 110
199 152 110
199 152 110
199 152 110
199 152 110
199 152 110
199 152 110
199 152 110
199 152 110
199 152 110
199 152 110
199 152 110
199 152 110
199 152 110
199 152 110
199 152 110
199 152 110
199 152 110
199 152 110
199 152 110
199 152 110
199 152 110
199 152 110
199 152 110
199 152 110
199 152 110
199 152 110
199 152 110
199 152 110
199 152 110
199 152 110
199 152 110
199 152 110
178 132 90
178 132 90
178 132 90
178 132 90
178 132 90
178 132 90
178 132 90
178 132 90
178 132 90
178 132 90
177 132 89
177 132 89
177 132 89
177 132 89
177 132 89
177 132 89
177 132 89
177 132 89
177 132 89
177 132 89
177 132 89
177 132 89
177 132 89
177 132 89
177 132 89
177 132 89
177 132 89
177 132 89
177 132 89
177 132 89
177 132 89
177 132 89
177 132 89
177 132 89
177 132 89
177 132 89
177 132 89
177 132 89
177 132 89
177 132 89
177 132 89
177 132 89
177 132 89
177 132 89
177 132 89
177 132 89
177 132 89
177 132 89
142 106 73
142 106 73
142 106 73
142 106 73
142 106 73
142 106 73
142 106 73
142 106 73
142 106 73
142 106 73
136 102 70
136 102 70
136 102 70
136 102 70
136 102 70
136 102 70
136 102 70
136 102 70
136 102 70
136 102 70
136 102 70
136 102 70
136 102 70
136 102 70
136 102 70
136 102 70
136 102 70
136 102 70
136 102 70
136 102 70
136 102 70
136 102 70
136 102 70
136 102 70
136 102 70
136 102 70
136 102 70
136 102 70
136 102 70
136 102 70
136 102 70
136 102 70
136 102 70
136 102 70
136 102 70
136 102 70
136 102 70
136 102 70
0 0 0
0 0 0
0 0 0
0 0 0
0 0 0
0 0 0
0 0 0
0 0 0
0 0 0
0 0 0
0 0 0
0 0 0
0 0 0
0 0 0
0 0 0
0 0 0
0 0 0
0 0 0
0 0 0
0 0 0
0 0 0
0 0 0
0 0 0
0 0 0
0 0 0
0 0 0
0 0 0
0 0 0
0 0 0
0 0 0
0 0 0
0 0 0
0 0 0
0 0 0
0 0 0
0 0 0
0 0 0
0 0 0
0 0 0
0 0 0
0 0 0
0 0 0
0 0 0
0 0 0
0 0 0
0 0 0
0 0 0
0 0 0
0 0 0
0 0 0
0 0 0
0 0 0
0 0 0
0 0 0
0 0 0
0 0 0
0 0 0
0 0 0
0 0 0
0 0 0
0 0 0
0 0 0
0 0 0
0 0 0
194 144 98
194 144 98
194 144 98
194 144 98
194 144 98
194 144 98
194 144 98
194 144 98
196 146 99
196 146 99
196 146 99
196 146 99
196 146 99
196 146 99
196 146 99
196 146 99
196 146 99
196 146 99
196 146 99
196 146 99
196 146 99
196 146 99
196 146 99
196 146 99
196 146 99
196 146 99
196 146 99
196 146 99
196 146 99
196 146 99
196 146 99
196 146 99
196 146 99
196 146 99
196 146 99
196 146 99
196 146 99
196 146 99
196 146 99
196 146 99
196 146 99
196 146 99
196 146 99
196 146 99
196 146 99
196 146 99
196 146 99
196 146 99
198 151 108
198 151 108
198 151 108
198 151 108
198 151 108
198 151 108
198 151 108
198 151 108
199 152 110
199 152 110
199 152 110
199 152 110
199 152 110
199 152 110
199 152 110
199 152 110
199 152 110
199 152 110
199 152 110
199 152 110
199 152 110
199 152 110
199 152 110
199 152 110
199 152 110
199 152 110
199 152 110
199 152 110
199 152 110
199 152 110
199 152 110
199 152 110
199 152 110
199 152 110
199 152 110
199 152 110
199 152 110
199 152 110
199 152 110
199 152 110
199 152 110
199 152 110
199 152 110
199 152 110
199 152 110
199 152 110
199 152 110
199 152 110
178 132 90
178 132 90
178 132 90
178 132 90
178 132 90
178 132 90
178 132 90
178 132 90
177 132 89
177 132 89
177 132 89
177 132 89
177 132 89
177 132 89
177 132 89
177 132 89
177 132 89
177 132 89
177 132 89
177 132 89
177 132 89
177 132 89
177 132 89
177 132 89
177 132 89
177 132 89
177 132 89
177 132 89
177 132 89
177 132 89
177 132 89
177 132 89
177 132 89
177 132 89
177 132 89
177 132 89
177 132 89
177 132 89
177 132 89
177 132 89
177 132 89
177 132 89
177 132 89
177 132 89
177 132 89
177 132 89
177 132 89
177 132 89
142 106 73
142 106 73
142 106 73
142 106 73
142 106 73
142 106 73
142 106 73
142 106 73
136 102 70
136 102 70
136 102 70
136 102 70
136 102 70
136 102 70
136 102 70
136 102 70
136 102 70
136 102 70
136 102 70
136 102 70
136 102 70
136 102 70
136 102 70
136 102 70
136 102 70
136 102 70
136 102 70
136 102 70
136 102 70
136 102 70
136 102 70
136 102 70
136 102 70
136 102 70
136 102 70
136 102 70
136 102 70
136 102 70
136 102 70
136 102 70
136 102 70
136 102 70
136 102 70
136 102 70
136 102 70
136 102 70
136 102 70
136 102 70
0 0 0
0 0 0
0 0 0
0 0 0
0 0 0
0 0 0
0 0 0
0 0 0
0 0 0
0 0 0
0 0 0
0 0 0
0 0 0
0 0 0
0 0 0
0 0 0
0 0 0
0 0 0
0 0 0
0 0 0
0 0 0
0 0 0
0 0 0
0 0 0
0 0 0
0 0 0
0 0 0
0 0 0
0 0 0
0 0 0
0 0 0
0 0 0
0 0 0
0 0 0
0 0 0
0 0 0
0 0 0
0 0 0
0 0 0
0 0 0
0 0 0
0 0 0
0 0 0
0 0 0
0 0 0
0 0 0
0 0 0
0 0 0
0 0 0
0 0 0
0 0 0
0 0 0
0 0 0
0 0 0
0 0 0
0 0 0
0 0 0
0 0 0
0 0 0
0 0 0
0 0 0
0 0 0
0 0 0
0 0 0
194 144 98
194 144 98
194 144 98
194 144 98
194 144 98
194 144 98
194 144 98
196 146 99
196 146 99
196 146 99
196 146 99
196 146 99
196 146 99
196 146 99
196 146 99
196 146 99
196 146 99
196 146 99
196 146 99
196 146 99
196 146 99
196 146 99
196 146 99
196 146 99
196 146 99
196 146 99
196 146 99
196 146 99
196 146 99
196 146 99
196 146 99
196 146 99
196 146 99
196 146 99
196 146 99
196 146 99
196 146 99
196 146 99
196 146 99
196 146 99
196 146 99
196 146 99
196 146 99
196 146 99
196 146 99
196 146 99
196 146 99
196 146 99
198 151 108
198 151 108
198 151 108
198 151 108
198 151 108
198 151 108
198 151 108
199 152 110
199 152 110
199 152 110
199 152 110
199 152 110
199 152 110
199 152 110
199 152 110
199 152 110
199 152 110
199 152 110
199 152 110
199 152 110
199 152 110
199 152 110
199 152 110
199 152 110
199 152 110
199 152 110
199 152 110
199 152 110
199 152 110
199 152 110
199 152 110
199 152 110
199 152 110
199 152 110
199 152 110
199 152 110
199 152 110
199 152 110
199 152 110
199 152 110
199 152 110
199 152 110
199 152 110
199 152 110
199 152 110
199 152 110
199 152 110
199 152 110
178 132 90
178 132 90
178 132 90
178 132 90
178 132 90
178 132 90
178 132 90
177 132 89
177 132 89
177 132 89
177 132 89
177 132 89
177 132 89
177 132 89
177 132 89
177 132 89
177 132 89
177 132 89
177 132 89
177 132 89
177 132 89
177 132 89
177 132 89
177 132 89
177 132 89
177 132 89
177 132 89
177 132 89
177 132 89
177 132 89
177 132 89
177 132 89
177 132 89
177 132 89
177 132 89
177 132 89
177 132 89
177 132 89
177 132 89
177 132 89
177 132 89
177 132 89
177 132 89
177 132 89
177 132 89
177 132 89
177 132 89
177 132 89
142 106 73
142 106 73
142 106 73
142 106 73
142 106 73
142 106 73
142 106 73
136 102 70
136 102 70
136 102 70
136 102 70
136 102 70
136 102 70
136 102 70
136 102 70
136 102 70
136 102 70
136 102 70
136 102 70
136 102 70
136 102 70
136 102 70
136 102 70
136 102 70
136 102 70
136 102 70
136 102 70
136 102 70
136 102 70
136 102 70
136 102 70
136 102 70
136 102 70
136 102 70
136 102 70
136 102 70
136 102 70
136 102 70
136 102 70
136 102 70
136 102 70
136 102 70
136 102 70
136 102 70
136 102 70
136 102 70
136 102 70
136 102 70
0 0 0
0 0 0
0 0 0
0 0 0
0 0 0
0 0 0
0 0 0
0 0 0
0 0 0
0 0 0
0 0 0
0 0 0
0 0 0
0 0 0
0 0 0
0 0 0
0 0 0
0 0 0
0 0 0
0 0 0
0 0 0
0 0 0
0 0 0
0 0 0
0 0 0
0 0 0
0 0 0
0 0 0
0 0 0
0 0 0
0 0 0
0 0 0
0 0 0
0 0 0
0 0 0
0 0 0
0 0 0
0 0 0
0 0 0
0 0 0
0 0 0
0 0 0
0 0 0
0 0 0
0 0 0
0 0 0
0 0 0
0 0 0
0 0 0
0 0 0
0 0 0
0 0 0
0 0 0
0 0 0
0 0 0
0 0 0
0 0 0
0 0 0
0 0 0
0 0 0
0 0 0
0 0 0
0 0 0
0 0 0
194 144 98
194 144 98
194 144 98
194 144 98
194 144 98
196 146 99
196 146 99
196 146 99
196 146 99
196 146 99
196 146 99
196 146 99
196 146 99
196 146 99
196 146 99
196 146 99
196 146 99
196 146 99
196 146 99
196 146 99
196 146 99
196 146 99
196 146 99
196 146 99
196 146 99
196 146 99
196 146 99
196 146 99
196 146 99
196 146 99
196 146 99
196 146 99
196 146 99
196 146 99
196 146 99
196 146 99
196 146 99
196 146 99
196 146 99
196 146 99
196 146 99
196 146 99
196 146 99
196 146 99
196 146 99
196 146 99
196 146 99
196 146 99
198 151 108
198 151 108
198 151 108
198 151 108
198 151 108
199 152 110
199 152 110
199 152 110
199 152 110
199 152 110
199 152 110
199 152 110
199 152 110
199 152 110
199 152 110
199 152 110
199 152 110
199 152 110
199 152 110
199 152 110
199 152 110
199 152 110
199 152 110
199 152 110
199 152 110
199 152 110
199 152 110
199 152 110
199 152 110
199 152 110
199 152 110
199 152 110
199 152 110
199 152 110
199 152 110
199 152 110
199 152 110
199 152 110
199 152 110
199 152 110
199 152 110
199 152 110
199 152 110
199 152 110
199 152 110
199 152 110
199 152 110
199 152 110
178 132 90
178 132 90
178 132 90
178 132 90
178 132 90
177 132 89
177 132 89
177 132 89
177 132 89
177 132 89
177 132 89
177 132 89
177 132 89
177 132 89
177 132 89
177 132 89
177 132 89
177 132 89
177 132 89
177 132 89
177 132 89
177 132 89
177 132 89
177 132 89
177 132 89
177 132 89
177 132 89
177 132 89
177 132 89
177 132 89
177 132 89
177 132 89
177 132 89
177 132 89
177 132 89
177 132 89
177 132 89
177 132 89
177 132 89
177 132 89
177 132 89
177 132 89
177 132 89
177 132 89
177 132 89
177 132 89
177 132 89
177 132 89
142 106 73
142 106 73
142 106 73
142 106 73
142 106 73
136 102 70
136 102 70
136 102 70
136 102 70
136 102 70
136 102 70
136 102 70
136 102 70
136 102 70
136 102 70
136 102 70
136 102 70
136 102 70
136 102 70
136 102 70
136 102 70
136 102 70
136 102 70
136 102 70
136 102 70
136 102 70
136 102 70
136 102 70
136 102 70
136 102 70
136 102 70
136 102 70
136 102 70
136 102 70
136 102 70
136 102 70
136 102 70
136 102 70
136 102 70
136 102 70
136 102 70
136 102 70
136 102 70
136 102 70
136 102 70
136 102 70
136 102 70
136 102 70
0 0 0
0 0 0
0 0 0
0 0 0
0 0 0
0 0 0
0 0 0
0 0 0
0 0 0
0 0 0
0 0 0
0 0 0
0 0 0
0 0 0
0 0 0
0 0 0
0 0 0
0 0 0
0 0 0
0 0 0
0 0 0
0 0 0
0 0 0
0 0 0
0 0 0
0 0 0
0 0 0
0 0 0
0 0 0
0 0 0
0 0 0
0 0 0
0 0 0
0 0 0
0 0 0
0 0 0
0 0 0
0 0 0
0 0 0
0 0 0
0 0 0
0 0 0
0 0 0
0 0 0
0 0 0
0 0 0
0 0 0
0 0 0
0 0 0
0 0 0
0 0 0
0 0 0
0 0 0
0 0 0
0 0 0
0 0 0
0 0 0
0 0 0
0 0 0
0 0 0
0 0 0
0 0 0
0 0 0
0 0 0
194 144 98
194 144 98
194 144 98
194 144 98
196 146 99
196 146 99
196 146 99
196 146 99
196 146 99
196 146 99
196 146 99
196 146 99
196 146 99
196 146 99
196 146 99
196 146 99
196 146 99
196 146 99
196 146 99
196 146 99
196 146 99
196 146 99
196 146 99
196 146 99
196 146 99
196 146 99
196 146 99
196 146 99
196 146 99
196 146 99
196 146 99
196 146 99
196 146 99
196 146 99
196 146 99
196 146 99
196 146 99
196 146 99
196 146 99
196 146 99
196 146 99
196 146 99
196 146 99
196 146 99
196 146 99
196 146 99
196 146 99
196 146 99
198 151 108
198 151 108
198 151 108
198 151 108
199 152 110
199 152 110
199 152 110
199 152 110
199 152 110
199 152 110
199 152 110
199 152 110
199 152 110
199 152 110
199 152 110
199 152 110
199 152 110
199 152 110
199 152 110
199 152 110
199 152 110
199 152 110
199 152 110
199 152 110
199 152 110
199 152 110
199 152 110
199 152 110
199 152 110
199 152 110
199 152 110
199 152 110
199 152 110
199 152 110
199 152 110
199 152 110
199 152 110
199 152 110
199 152 110
199 152 110
199 152 110
199 152 110
199 152 110
199 152 110
199 152 110
199 152 110
199 152 110
199 152 110
178 132 90
178 132 90
178 132 90
178 132 90
177 132 89
177 132 89
177 132 89
177 132 89
177 132 89
177 132 89
177 132 89
177 132 89
177 132 89
177 132 89
177 132 89
177 132 89
177 132 89
177 132 89
177 132 89
177 132 89
177 132 89
177 132 89
177 132 89
177 132 89
177 132 89
177 132 89
177 132 89
177 132 89
177 132 89
177 132 89
177 132 89
177 132 89
177 132 89
177 132 89
177 132 89
177 132 89
177 132 89
177 132 89
177 132 89
177 132 89
177 132 89
177 132 89
177 132 89
177 132 89
177 132 89
177 132 89
177 132 89
177 132 89
142 106 73
142 106 73
142 106 73
142 106 73
136 102 70
136 102 70
136 102 70
136 102 70
136 102 70
136 102 70
136 102 70
136 102 70
136 102 70
136 102 70
136 102 70
136 102 70
136 102 70
136 102 70
136 102 70
136 102 70
136 102 70
136 102 70
136 102 70
136 102 70
136 102 70
136 102 70
136 102 70
136 102 70
136 102 70
136 102 70
136 102 70
136 102 70
136 102 70
136 102 70
136 102 70
136 102 70
136 102 70
136 102 70
136 102 70
136 102 70
136 102 70
136 102 70
136 102 70
136 102 70
136 102 70
136 102 70
136 102 70
136 102 70
0 0 0
0 0 0
0 0 0
0 0 0
0 0 0
0 0 0
0 0 0
0 0 0
0 0 0
0 0 0
0 0 0
0 0 0
0 0 0
0 0 0
0 0 0
0 0 0
0 0 0
0 0 0
0 0 0
0 0 0
0 0 0
0 0 0
0 0 0
0 0 0
0 0 0
0 0 0
0 0 0
0 0 0
0 0 0
0 0 0
0 0 0
0 0 0
0 0 0
0 0 0
0 0 0
0 0 0
0 0 0
0 0 0
0 0 0
0 0 0
0 0 0
0 0 0
0 0 0
0 0 0
0 0 0
0 0 0
0 0 0
0 0 0
0 0 0
0 0 0
0 0 0
0 0 0
0 0 0
0 0 0
0 0 0
0 0 0
0 0 0
0 0 0
0 0 0
0 0 0
0 0 0
0 0 0
0 0 0
0 0 0
194 144 98
194 144 98
196 146 99
196 146 99
196 146 99
196 146 99
196 146 99
196 146 99
196 146 99
196 146 99
196 146 99
196 146 99
196 146 99
196 146 99
196 146 99
196 146 99
196 146 99
196 146 99
196 146 99
196 146 99
196 146 99
196 146 99
196 146 99
196 146 99
196 146 99
196 146 99
196 146 99
196 146 99
196 146 99
196 146 99
196 146 99
196 146 99
196 146 99
196 146 99
196 146 99
196 146 99
196 146 99
196 146 99
196 146 99
196 146 99
196 146 99
196 146 99
196 146 99
196 146 99
196 146 99
196 146 99
196 146 99
196 146 99
198 151 108
198 151 108
199 152 110
199 152 110
199 152 110
199 152 110
199 152 110
199 152 110
199 152 110
199 152 110
199 152 110
199 152 110
199 152 110
199 152 110
199 152 110
199 152 110
199 152 110
199 152 110
199 152 110
199 152 110
199 152 110
199 152 110
199 152 110
199 152 110
199 152 110
199 152 110
199 152 110
199 152 110
199 152 110
199 152 110
199 152 110
199 152 110
199 152 110
199 152 110
199 152 110
199 152 110
199 152 110
199 152 110
199 152 110
199 152 110
199 152 110
199 152 110
199 152 110
199 152 110
199 152 110
199 152 110
199 152 110
199 152 110
178 132 90
178 132 90
177 132 89
177 132 89
177 132 89
177 132 89
177 132 89
177 132 89
177 132 89
177 132 89
177 132 89
177 132 89
177 132 89
177 132 89
177 132 89
177 132 89
177 132 89
177 132 89
177 132 89
177 132 89
177 132 89
177 132 89
177 132 89
177 132 89
177 132 89
177 132 89
177 132 89
177 132 89
177 132 89
177 132 89
177 132 89
177 132 89
177 132 89
177 132 89
177 132 89
177 132 89
177 132 89
177 132 89
177 132 89
177 132 89
177 132 89
177 132 89
177 132 89
177 132 89
177 132 89
177 132 89
177 132 89
177 132 89
142 106 73
142 106 73
136 102 70
136 102 70
136 102 70
136 102 70
136 102 70
136 102 70
136 102 70
136 102 70
136 102 70
136 102 70
136 102 70
136 102 70
136 102 70
136 102 70
136 102 70
136 102 70
136 102 70
136 102 70
136 102 70
136 102 70
136 102 70
136 102 70
136 102 70
136 102 70
136 102 70
136 102 70
136 102 70
136 102 70
136 102 70
136 102 70
136 102 70
136 102 70
136 102 70
136 102 70
136 102 70
136 102 70
136 102 70
136 102 70
136 102 70
136 102 70
136 102 70
136 102 70
136 102 70
136 102 70
136 102 70
136 102 70
0 0 0
0 0 0
0 0 0
0 0 0
0 0 0
0 0 0
0 0 0
0 0 0
0 0 0
0 0 0
0 0 0
0 0 0
0 0 0
0 0 0
0 0 0
0 0 0
0 0 0
0 0 0
0 0 0
0 0 0
0 0 0
0 0 0
0 0 0
0 0 0
0 0 0
0 0 0
0 0 0
0 0 0
0 0 0
0 0 0
0 0 0
0 0 0
0 0 0
0 0 0
0 0 0
0 0 0
0 0 0
0 0 0
0 0 0
0 0 0
0 0 0
0 0 0
0 0 0
0 0 0
0 0 0
0 0 0
0 0 0
0 0 0
0 0 0
0 0 0
0 0 0
0 0 0
0 0 0
0 0 0
0 0 0
0 0 0
0 0 0
0 0 0
0 0 0
0 0 0
0 0 0
0 0 0
0 0 0
0 0 0
194 144 98
196 146 99
196 146 99
196 146 99
196 146 99
196 146 99
196 146 99
196 146 99
196 146 99
196 146 99
196 146 99
196 146 99
196 146 99
196 146 99
196 146 99
196 146 99
196 146 99
196 146 99
196 146 99
196 146 99
196 146 99
196 146 99
196 146 99
196 146 99
196 146 99
196 146 99
196 146 99
196 146 99
196 146 99
196 146 99
196 146 99
196 146 99
196 146 99
196 146 99
196 146 99
196 146 99
196 146 99
196 146 99
196 146 99
196 146 99
196 146 99
196 146 99
196 146 99
196 146 99
196 146 99
196 146 99
196 146 99
196 146 99
198 151 108
199 152 110
199 152 110
199 152 110
199 152 110
199 152 110
199 152 110
199 152 110
199 152 110
199 152 110
199 152 110
199 152 110
199 152 110
199 152 110
199 152 110
199 152 110
199 152 110
199 152 110
199 152 110
199 152 110
199 152 110
199 152 110
199 152 110
199 152 110
199 152 110
199 152 110
199 152 110
199 152 110
199 152 110
199 152 110
199 152 110
199 152 110
199 152 110
199 152 110
199 152 110
199 152 110
199 152 110
199 152 110
199 152 110
199 152 110
199 152 110
199 152 110
199 152 110
199 152 110
199 152 110
199 152 110
199 152 110
199 152 110
178 132 90
177 132 89
177 132 89
177 132 89
177 132 89
177 132 89
177 132 89
177 132 89
177 132 89
177 132 89
177 132 89
177 132 89
177 132 89
177 132 89
177 132 89
177 132 89
177 132 89
177 132 89
177 132 89
177 132 89
177 132 89
177 132 89
177 132 89
177 132 89
177 132 89
177 132 89
177 132 89
177 132 89
177 132 89
177 132 89
177 132 89
177 132 89
177 132 89
177 132 89
177 132 89
177 132 89
177 132 89
177 132 89
177 132 89
177 132 89
177 132 89
177 132 89
177 132 89
177 132 89
177 132 89
177 132 89
177 132 89
177 132 89
142 106 73
136 102 70
136 102 70
136 102 70
136 102 70
136 102 70
136 102 70
136 102 70
136 102 70
136 102 70
136 102 70
136 102 70
136 102 70
136 102 70
136 102 70
136 102 70
136 102 70
136 102 70
136 102 70
136 102 70
136 102 70
136 102 70
136 102 70
136 102 70
136 102 70
136 102 70
136 102 70
136 102 70
136 102 70
136 102 70
136 102 70
136 102 70
136 102 70
136 102 70
136 102 70
136 102 70
136 102 70
136 102 70
136 102 70
136 102 70
136 102 70
136 102 70
136 102 70
136 102 70
136 102 70
136 102 70
136 102 70
136 102 70
0 0 0
0 0 0
0 0 0
0 0 0
0 0 0
0 0 0
0 0 0
0 0 0
0 0 0
0 0 0
0 0 0
0 0 0
0 0 0
0 0 0
0 0 0
0 0 0
0 0 0
0 0 0
0 0 0
0 0 0
0 0 0
0 0 0
0 0 0
0 0 0
0 0 0
0 0 0
0 0 0
0 0 0
0 0 0
0 0 0
0 0 0
0 0 0
0 0 0
0 0 0
0 0 0
0 0 0
0 0 0
0 0 0
0 0 0
0 0 0
0 0 0
0 0 0
0 0 0
0 0 0
0 0 0
0 0 0
0 0 0
0 0 0
0 0 0
0 0 0
0 0 0
0 0 0
0 0 0
0 0 0
0 0 0
0 0 0
0 0 0
0 0 0
0 0 0
0 0 0
0 0 0
0 0 0
0 0 0
0 0 0
167 124 84
167 124 84
167 124 84
167 124 84
167 124 84
167 124 84
167 124 84
167 124 84
167 124 84
167 124 84
167 124 84
167 124 84
167 124 84
167 124 84
167 124 84
167 124 84
167 124 84
167 124 84
167 124 84
167 124 84
167 124 84
167 124 84
167 124 84
167 124 84
167 124 84
167 124 84
167 124 84
167 124 84
167 124 84
167 124 84
167 124 84
167 124 84
167 124 84
167 124 84
167 124 84
167 124 84
167 124 84
167 124 84
167 124 84
167 124 84
167 124 84
167 124 84
167 124 84
167 124 84
167 124 84
167 124 84
167 124 84
181 135 91
174 130 88
174 130 88
174 130 88
174 130 88
174 130 88
174 130 88
174 130 88
174 130 88
174 130 88
174 130 88
174 130 88
174 130 88
174 130 88
174 130 88
174 130 88
174 130 88
174 130 88
174 130 88
174 130 88
174 130 88
174 130 88
174 130 88
174 130 88
174 130 88
174 130 88
174 130 88
174 130 88
174 130 88
174 130 88
174 130 88
174 130 88
174 130 88
174 130 88
174 130 88
174 130 88
174 130 88
174 130 88
174 130 88
174 130 88
174 130 88
174 130 88
174 130 88
174 130 88
174 130 88
174 130 88
174 130 88
174 130 88
178 132 90
160 119 81
160 119 81
160 119 81
160 119 81
160 119 81
160 119 81
160 119 81
160 119 81
160 119 81
160 119 81
160 119 81
160 119 81
160 119 81
160 119 81
160 119 81
160 119 81
160 119 81
160 119 81
160 119 81
160 119 81
160 119 81
160 119 81
160 119 81
160 119 81
160 119 81
160 119 81
160 119 81
160 119 81
160 119 81
160 119 81
160 119 81
160 119 81
160 119 81
160 119 81
160 119 81
160 119 81
160 119 81
160 119 81
160 119 81
160 119 81
160 119 81
160 119 81
160 119 81
160 119 81
160 119 81
160 119 81
160 119 81
155 116 79
120 91 63
120 91 63
120 91 63
120 91 63
120 91 63
120 91 63
120 91 63
120 91 63
120 91 63
120 91 63
120 91 63
120 91 63
120 91 63
120 91 63
120 91 63
120 91 63
120 91 63
120 91 63
120 91 63
120 91 63
120 91 63
120 91 63
120 91 63
120 91 63
120 91 63
120 91 63
120 91 63
120 91 63
120 91 63
120 91 63
120 91 63
120 91 63
120 91 63
120 91 63
120 91 63
120 91 63
120 91 63
120 91 63
120 91 63
120 91 63
120 91 63
120 91 63
120 91 63
120 91 63
120 91 63
120 91 63
120 91 63
88 68 50
0 0 0
0 0 0
0 0 0
0 0 0
0 0 0
0 0 0
0 0 0
0 0 0
0 0 0
0 0 0
0 0 0
0 0 0
0 0 0
0 0 0
0 0 0
0 0 0
0 0 0
0 0 0
0 0 0
0 0 0
0 0 0
0 0 0
0 0 0
0 0 0
0 0 0
0 0 0
0 0 0
0 0 0
0 0 0
0 0 0
0 0 0
0 0 0
0 0 0
0 0 0
0 0 0
0 0 0
0 0 0
0 0 0
0 0 0
0 0 0
0 0 0
0 0 0
0 0 0
0 0 0
0 0 0
0 0 0
0 0 0
0 0 0
0 0 0
0 0 0
0 0 0
0 0 0
0 0 0
0 0 0
0 0 0
0 0 0
0 0 0
0 0 0
0 0 0
0 0 0
0 0 0
0 0 0
0 0 0
0 0 0
167 124 84
167 124 84
167 124 84
167 124 84
167 124 84
167 124 84
167 124 84
167 124 84
167 124 84
167 124 84
167 124 84
167 124 84
167 124 84
167 124 84
167 124 84
167 124 84
167 124 84
167 124 84
167 124 84
167 124 84
167 124 84
167 124 84
167 124 84
167 124 84
167 124 84
167 124 84
167 124 84
167 124 84
167 124 84
167 124 84
167 124 84
167 124 84
167 124 84
167 124 84
167 124 84
167 124 84
167 124 84
167 124 84
167 124 84
167 124 84
167 124 84
167 124 84
167 124 84
167 124 84
167 124 84
167 124 84
181 135 91
181 135 91
174 130 88
174 130 88
174 130 88
174 130 88
174 130 88
174 130 88
174 130 88
174 130 88
174 130 88
174 130 88
174 130 88
174 130 88
174 130 88
174 130 88
174 130 88
174 130 88
174 130 88
174 130 88
174 130 88
174 130 88
174 130 88
174 130 88
174 130 88
174 130 88
174 130 88
174 130 88
174 130 88
174 130 88
174 130 88
174 130 88
174 130 88
174 130 88
174 130 88
174 130 88
174 130 88
174 130 88
174 130 88
174 130 88
174 130 88
174 130 88
174 130 88
174 130 88
174 130 88
174 130 88
174 130 88
174 130 88
178 132 90
178 132 90
160 119 81
160 119 81
160 119 81
160 119 81
160 119 81
160 119 81
160 119 81
160 119 81
160 119 81
160 119 81
160 119 81
160 119 81
160 119 81
160 119 81
160 119 81
160 119 81
160 119 81
160 119 81
160 119 81
160 119 81
160 119 81
160 119 81
160 119 81
160 119 81
160 119 81
160 119 81
160 119 81
160 119 81
160 119 81
160 119 81
160 119 81
160 119 81
160 119 81
160 119 81
160 119 81
160 119 81
160 119 81
160 119 81
160 119 81
160 119 81
160 119 81
160 119 81
160 119 81
160 119 81
160 119 81
160 119 81
155 116 79
155 116 79
120 91 63
120 91 63
120 91 63
120 91 63
120 91 63
120 91 63
120 91 63
120 91 63
120 91 63
120 91 63
120 91 63
120 91 63
120 91 63
120 91 63
120 91 63
120 91 63
120 91 63
120 91 63
120 91 63
120 91 63
120 91 63
120 91 63
120 91 63
120 91 63
120 91 63
120 91 63
120 91 63
120 91 63
120 91 63
120 91 63
120 91 63
120 91 63
120 91 63
120 91 63
120 91 63
120 91 63
120 91 63
120 91 63
120 91 63
120 91 63
120 91 63
120 91 63
120 91 63
120 91 63
120 91 63
120 91 63
88 68 50
88 68 50
0 0 0
0 0 0
0 0 0
0 0 0
0 0 0
0 0 0
0 0 0
0 0 0
0 0 0
0 0 0
0 0 0
0 0 0
0 0 0
0 0 0
0 0 0
0 0 0
0 0 0
0 0 0
0 0 0
0 0 0
0 0 0
0 0 0
0 0 0
0 0 0
0 0 0
0 0 0
0 0 0
0 0 0
0 0 0
0 0 0
0 0 0
0 0 0
0 0 0
0 0 0
0 0 0
0 0 0
0 0 0
0 0 0
0 0 0
0 0 0
0 0 0
0 0 0
0 0 0
0 0 0
0 0 0
0 0 0
0 0 0
0 0 0
0 0 0
0 0 0
0 0 0
0 0 0
0 0 0
0 0 0
0 0 0
0 0 0
0 0 0
0 0 0
0 0 0
0 0 0
0 0 0
0 0 0
0 0 0
0 0 0
167 124 84
167 124 84
167 124 84
167 124 84
167 124 84
167 124 84
167 124 84
167 124 84
167 124 84
167 124 84
167 124 84
167 124 84
167 124 84
167 124 84
167 124 84
167 124 84
167 124 84
167 124 84
167 124 84
167 124 84
167 124 84
167 124 84
167 124 84
167 124 84
167 124 84
167 124 84
167 124 84
167 124 84
167 124 84
167 124 84
167 124 84
167 124 84
167 124 84
167 124 84
167 124 84
167 124 84
167 124 84
167 124 84
167 124 84
167 124 84
167 124 84
167 124 84
167 124 84
167 124 84
181 135 91
181 135 91
181 135 91
181 135 91
174 130 88
174 130 88
174 130 88
174 130 88
174 130 88
174 130 88
174 130 88
174 130 88
174 130 88
174 130 88
174 130 88
174 130 88
174 130 88
174 130 88
174 130 88
174 130 88
174 130 88
174 130 88
174 130 88
174 130 88
174 130 88
174 130 88
174 130 88
174 130 88
174 130 88
174 130 88
174 130 88
174 130 88
174 130 88
174 130 88
174 130 88
174 130 88
174 130 88
174 130 88
174 130 88
174 130 88
174 130 88
174 130 88
174 130 88
174 130 88
174 130 88
174 130 88
174 130 88
174 130 88
178 132 90
178 132 90
178 132 90
178 132 90
160 119 81
160 119 81
160 119 81
160 119 81
160 119 81
160 119 81
160 119 81
160 119 81
160 119 81
160 119 81
160 119 81
160 119 81
160 119 81
160 119 81
160 119 81
160 119 81
160 119 81
160 119 81
160 119 81
160 119 81
160 119 81
160 119 81
160 119 81
160 119 81
160 119 81
160 119 81
160 119 81
160 119 81
160 119 81
160 119 81
160 119 81
160 119 81
160 119 81
160 119 81
160 119 81
160 119 81
160 119 81
160 119 81
160 119 81
160 119 81
160 119 81
160 119 81
160 119 81
160 119 81
155 116 79
155 116 79
155 116 79
155 116 79
120 91 63
120 91 63
120 91 63
120 91 63
120 91 63
120 91 63
120 91 63
120 91 63
120 91 63
120 91 63
120 91 63
120 91 63
120 91 63
120 91 63
120 91 63
120 91 63
120 91 63
120 91 63
120 91 63
120 91 63
120 91 63
120 91 63
120 91 63
120 91 63
120 91 63
120 91 63
120 91 63
120 91 63
120 91 63
120 91 63
120 91 63
120 91 63
120 91 63
120 91 63
120 91 63
120 91 63
120 91 63
120 91 63
120 91 63
120 91 63
120 91 63
120 91 63
120 91 63
120 91 63
88 68 50
88 68 50
88 68 50
88 68 50
0 0 0
0 0 0
0 0 0
0 0 0
0 0 0
0 0 0
0 0 0
0 0 0
0 0 0
0 0 0
0 0 0
0 0 0
0 0 0
0 0 0
0 0 0
0 0 0
0 0 0
0 0 0
0 0 0
0 0 0
0 0 0
0 0 0
0 0 0
0 0 0
0 0 0
0 0 0
0 0 0
0 0 0
0 0 0
0 0 0
0 0 0
0 0 0
0 0 0
0 0 0
0 0 0
0 0 0
0 0 0
0 0 0
0 0 0
0 0 0
0 0 0
0 0 0
0 0 0
0 0 0
0 0 0
0 0 0
0 0 0
0 0 0
0 0 0
0 0 0
0 0 0
0 0 0
0 0 0
0 0 0
0 0 0
0 0 0
0 0 0
0 0 0
0 0 0
0 0 0
0 0 0
0 0 0
0 0 0
0 0 0
167 124 84
167 124 84
167 124 84
167 124 84
167 124 84
167 124 84
167 124 84
167 124 84
167 124 84
167 124 84
167 124 84
167 124 84
167 124 84
167 124 84
167 124 84
167 124 84
167 124 84
167 124 84
167 124 84
167 124 84
167 124 84
167 124 84
167 124 84
167 124 84
167 124 84
167 124 84
167 124 84
167 124 84
167 124 84
167 124 84
167 124 84
167 124 84
167 124 84
167 124 84
167 124 84
167 124 84
167 124 84
167 124 84
167 124 84
167 124 84
167 124 84
167 124 84
167 124 84
181 135 91
181 135 91
181 135 91
181 135 91
181 135 91
174 130 88
174 130 88
174 130 88
174 130 88
174 130 88
174 130 88
174 130 88
174 130 88
174 130 88
174 130 88
174 130 88
174 130 88
174 130 88
174 130 88
174 130 88
174 130 88
174 130 88
174 130 88
174 130 88
174 130 88
174 130 88
174 130 88
174 130 88
174 130 88
174 130 88
174 130 88
174 130 88
174 130 88
174 130 88
174 130 88
174 130 88
174 130 88
174 130 88
174 130 88
174 130 88
174 130 88
174 130 88
174 130 88
174 130 88
174 130 88
174 130 88
174 130 88
174 130 88
178 132 90
178 132 90
178 132 90
178 132 90
178 132 90
160 119 81
160 119 81
160 119 81
160 119 81
160 119 81
160 119 81
160 119 81
160 119 81
160 119 81
160 119 81
160 119 81
160 119 81
160 119 81
160 119 81
160 119 81
160 119 81
160 119 81
160 119 81
160 119 81
160 119 81
160 119 81
160 119 81
160 119 81
160 119 81
160 119 81
160 119 81
160 119 81
160 119 81
160 119 81
160 119 81
160 119 81
160 119 81
160 119 81
160 119 81
160 119 81
160 119 81
160 119 81
160 119 81
160 119 81
160 119 81
160 119 81
160 119 81
160 119 81
155 116 79
155 116 79
155 116 79
155 116 79
155 116 79
120 91 63
120 91 63
120 91 63
120 91 63
120 91 63
120 91 63
120 91 63
120 91 63
120 91 63
120 91 63
120 91 63
120 91 63
120 91 63
120 91 63
120 91 63
120 91 63
120 91 63
120 91 63
120 91 63
120 91 63
120 91 63
120 91 63
120 91 63
120 91 63
120 91 63
120 91 63
120 91 63
120 91 63
120 91 63
120 91 63
120 91 63
120 91 63
120 91 63
120 91 63
120 91 63
120 91 63
120 91 63
120 91 63
120 91 63
120 91 63
120 91 63
120 91 63
120 91 63
88 68 50
88 68 50
88 68 50
88 68 50
88 68 50
0 0 0
0 0 0
0 0 0
0 0 0
0 0 0
0 0 0
0 0 0
0 0 0
0 0 0
0 0 0
0 0 0
0 0 0
0 0 0
0 0 0
0 0 0
0 0 0
0 0 0
0 0 0
0 0 0
0 0 0
0 0 0
0 0 0
0 0 0
0 0 0
0 0 0
0 0 0
0 0 0
0 0 0
0 0 0
0 0 0
0 0 0
0 0 0
0 0 0
0 0 0
0 0 0
0 0 0
0 0 0
0 0 0
0 0 0
0 0 0
0 0 0
0 0 0
0 0 0
0 0 0
0 0 0
0 0 0
0 0 0
0 0 0
0 0 0
0 0 0
0 0 0
0 0 0
0 0 0
0 0 0
0 0 0
0 0 0
0 0 0
0 0 0
0 0 0
0 0 0
0 0 0
0 0 0
0 0 0
0 0 0
167 124 84
167 124 84
167 124 84
167 124 84
167 124 84
167 124 84
167 124 84
167 124 84
167 124 84
167 124 84
167 124 84
167 124 84
167 124 84
167 124 84
167 124 84
167 124 84
167 124 84
167 124 84
167 124 84
167 124 84
167 124 84
167 124 84
167 124 84
167 124 84
167 124 84
167 124 84
167 124 84
167 124 84
167 124 84
167 124 84
167 124 84
167 124 84
167 124 84
167 124 84
167 124 84
167 124 84
167 124 84
167 124 84
167 124 84
167 124 84
167 124 84
181 135 91
181 135 91
181 135 91
181 135 91
181 135 91
181 135 91
181 135 91
174 130 88
174 130 88
174 130 88
174 130 88
174 130 88
174 130 88
174 130 88
174 130 88
174 130 88
174 130 88
174 130 88
174 130 88
174 130 88
174 130 88
174 130 88
174 130 88
174 130 88
174 130 88
174 130 88
174 130 88
174 130 88
174 130 88
174 130 88
174 130 88
174 130 88
174 130 88
174 130 88
174 130 88
174 130 88
174 130 88
174 130 88
174 130 88
174 130 88
174 130 88
174 130 88
174 130 88
174 130 88
174 130 88
174 130 88
174 130 88
174 130 88
178 132 90
178 132 90
178 132 90
178 132 90
178 132 90
178 132 90
178 132 90
160 119 81
160 119 81
160 119 81
160 119 81
160 119 81
160 119 81
160 119 81
160 119 81
160 119 81
160 119 81
160 119 81
160 119 81
160 119 81
160 119 81
160 119 81
160 119 81
160 119 81
160 119 81
160 119 81
160 119 81
160 119 81
160 119 81
160 119 81
160 119 81
160 119 81
160 119 81
160 119 81
160 119 81
160 119 81
160 119 81
160 119 81
160 119 81
160 119 81
160 119 81
160 119 81
160 119 81
160 119 81
160 119 81
160 119 81
160 119 81
160 119 81
155 116 79
155 116 79
155 116 79
155 116 79
155 116 79
155 116 79
155 116 79
120 91 63
120 91 63
120 91 63
120 91 63
120 91 63
120 91 63
120 91 63
120 91 63
120 91 63
120 91 63
120 91 63
120 91 63
120 91 63
120 91 63
120 91 63
120 91 63
120 91 63
120 91 63
120 91 63
120 91 63
120 91 63
120 91 63
120 91 63
120 91 63
120 91 63
120 91 63
120 91 63
120 91 63
120 91 63
120 91 63
120 91 63
120 91 63
120 91 63
120 91 63
120 91 63
120 91 63
120 91 63
120 91 63
120 91 63
120 91 63
120 91 63
88 68 50
88 68 50
88 68 50
88 68 50
88 68 50
88 68 50
88 68 50
0 0 0
0 0 0
0 0 0
0 0 0
0 0 0
0 0 0
0 0 0
0 0 0
0 0 0
0 0 0
0 0 0
0 0 0
0 0 0
0 0 0
0 0 0
0 0 0
0 0 0
0 0 0
0 0 0
0 0 0
0 0 0
0 0 0
0 0 0
0 0 0
0 0 0
0 0 0
0 0 0
0 0 0
0 0 0
0 0 0
0 0 0
0 0 0
0 0 0
0 0 0
0 0 0
0 0 0
0 0 0
0 0 0
0 0 0
0 0 0
0 0 0
0 0 0
0 0 0
0 0 0
0 0 0
0 0 0
0 0 0
0 0 0
0 0 0
0 0 0
0 0 0
0 0 0
0 0 0
0 0 0
0 0 0
0 0 0
0 0 0
0 0 0
0 0 0
0 0 0
0 0 0
0 0 0
0 0 0
0 0 0
167 124 84
167 124 84
167 124 84
167 124 84
167 124 84
167 124 84
167 124 84
167 124 84
167 124 84
167 124 84
167 124 84
167 124 84
167 124 84
167 124 84
167 124 84
167 124 84
167 124 84
167 124 84
167 124 84
167 124 84
167 124 84
167 124 84
167 124 84
167 124 84
167 124 84
167 124 84
167 124 84
167 124 84
167 124 84
167 124 84
167 124 84
167 124 84
167 124 84
167 124 84
167 124 84
167 124 84
167 124 84
167 124 84
167 124 84
167 124 84
181 135 91
181 135 91
181 135 91
181 135 91
181 135 91
181 135 91
181 135 91
181 135 91
174 130 88
174 130 88
174 130 88
174 130 88
174 130 88
174 130 88
174 130 88
174 130 88
174 130 88
174 130 88
174 130 88
174 130 88
174 130 88
174 130 88
174 130 88
174 130 88
174 130 88
174 130 88
174 130 88
174 130 88
174 130 88
174 130 88
174 130 88
174 130 88
174 130 88
174 130 88
174 130 88
174 130 88
174 130 88
174 130 88
174 130 88
174 130 88
174 130 88
174 130 88
174 130 88
174 130 88
174 130 88
174 130 88
174 130 88
174 130 88
178 132 90
178 132 90
178 132 90
178 132 90
178 132 90
178 132 90
178 132 90
178 132 90
160 119 81
160 119 81
160 119 81
160 119 81
160 119 81
160 119 81
160 119 81
160 119 81
160 119 81
160 119 81
160 119 81
160 119 81
160 119 81
160 119 81
160 119 81
160 119 81
160 119 81
160 119 81
160 119 81
160 119 81
160 119 81
160 119 81
160 119 81
160 119 81
160 119 81
160 119 81
160 119 81
160 119 81
160 119 81
160 119 81
160 119 81
160 119 81
160 119 81
160 119 81
160 119 81
160 119 81
160 119 81
160 119 81
160 119 81
160 119 81
155 116 79
155 116 79
155 116 79
155 116 79
155 116 79
155 116 79
155 116 79
155 116 79
120 91 63
120 91 63
120 91 63
120 91 63
120 91 63
120 91 63
120 91 63
120 91 63
120 91 63
120 91 63
120 91 63
120 91 63
120 91 63
120 91 63
120 91 63
120 91 63
120 91 63
120 91 63
120 91 63
120 91 63
120 91 63
120 91 63
120 91 63
120 91 63
120 91 63
120 91 63
120 91 63
120 91 63
120 91 63
120 91 63
120 91 63
120 91 63
120 91 63
120 91 63
120 91 63
120 91 63
120 91 63
120 91 63
120 91 63
120 91 63
88 68 50
88 68 50
88 68 50
88 68 50
88 68 50
88 68 50
88 68 50
88 68 50
0 0 0
0 0 0
0 0 0
0 0 0
0 0 0
0 0 0
0 0 0
0 0 0
0 0 0
0 0 0
0 0 0
0 0 0
0 0 0
0 0 0
0 0 0
0 0 0
0 0 0
0 0 0
0 0 0
0 0 0
0 0 0
0 0 0
0 0 0
0 0 0
0 0 0
0 0 0
0 0 0
0 0 0
0 0 0
0 0 0
0 0 0
0 0 0
0 0 0
0 0 0
0 0 0
0 0 0
0 0 0
0 0 0
0 0 0
0 0 0
0 0 0
0 0 0
0 0 0
0 0 0
0 0 0
0 0 0
0 0 0
0 0 0
0 0 0
0 0 0
0 0 0
0 0 0
0 0 0
0 0 0
0 0 0
0 0 0
0 0 0
0 0 0
0 0 0
0 0 0
0 0 0
0 0 0
0 0 0
0 0 0
167 124 84
167 124 84
167 124 84
167 124 84
167 124 84
167 124 84
167 124 84
167 124 84
167 124 84
167 124 84
167 124 84
167 124 84
167 124 84
167 124 84
167 124 84
167 124 84
167 124 84
167 124 84
167 124 84
167 124 84
167 124 84
167 124 84
167 124 84
167 124 84
167 124 84
167 124 84
167 124 84
167 124 84
167 124 84
167 124 84
167 124 84
167 124 84
167 124 84
167 124 84
167 124 84
167 124 84
167 124 84
167 124 84
181 135 91
181 135 91
181 135 91
181 135 91
181 135 91
181 135 91
181 135 91
181 135 91
181 135 91
181 135 91
174 130 88
174 130 88
174 130 88
174 130 88
174 130 88
174 130 88
174 130 88
174 130 88
174 130 88
174 130 88
174 130 88
174 130 88
174 130 88
174 130 88
174 130 88
174 130 88
174 130 88
174 130 88
174 130 88
174 130 88
174 130 88
174 130 88
174 130 88
174 130 88
174 130 88
174 130 88
174 130 88
174 130 88
174 130 88
174 130 88
174 130 88
174 130 88
174 130 88
174 130 88
174 130 88
174 130 88
174 130 88
174 130 88
178 132 90
178 132 90
178 132 90
178 132 90
178 132 90
178 132 90
178 132 90
178 132 90
178 132 90
178 132 90
160 119 81
160 119 81
160 119 81
160 119 81
160 119 81
160 119 81
160 119 81
160 119 81
160 119 81
160 119 81
160 119 81
160 119 81
160 119 81
160 119 81
160 119 81
160 119 81
160 119 81
160 119 81
160 119 81
160 119 81
160 119 81
160 119 81
160 119 81
160 119 81
160 119 81
160 119 81
160 119 81
160 119 81
160 119 81
160 119 81
160 119 81
160 119 81
160 119 81
160 119 81
160 119 81
160 119 81
160 119 81
160 119 81
155 116 79
155 116 79
155 116 79
155 116 79
155 116 79
155 116 79
155 116 79
155 116 79
155 116 79
155 116 79
120 91 63
120 91 63
120 91 63
120 91 63
120 91 63
120 91 63
120 91 63
120 91 63
120 91 63
120 91 63
120 91 63
120 91 63
120 91 63
120 91 63
120 91 63
120 91 63
120 91 63
120 91 63
120 91 63
120 91 63
120 91 63
120 91 63
120 91 63
120 91 63
120 91 63
120 91 63
120 91 63
120 91 63
120 91 63
120 91 63
120 91 63
120 91 63
120 91 63
120 91 63
120 91 63
120 91 63
120 91 63
120 91 63
88 68 50
88 68 50
88 68 50
88 68 50
88 68 50
88 68 50
88 68 50
88 68 50
88 68 50
88 68 50
0 0 0
0 0 0
0 0 0
0 0 0
0 0 0
0 0 0
0 0 0
0 0 0
0 0 0
0 0 0
0 0 0
0 0 0
0 0 0
0 0 0
0 0 0
0 0 0
0 0 0
0 0 0
0 0 0
0 0 0
0 0 0
0 0 0
0 0 0
0 0 0
0 0 0
0 0 0
0 0 0
0 0 0
0 0 0
0 0 0
0 0 0
0 0 0
0 0 0
0 0 0
0 0 0
0 0 0
0 0 0
0 0 0
0 0 0
0 0 0
0 0 0
0 0 0
0 0 0
0 0 0
0 0 0
0 0 0
0 0 0
0 0 0
0 0 0
0 0 0
0 0 0
0 0 0
0 0 0
0 0 0
0 0 0
0 0 0
0 0 0
0 0 0
0 0 0
0 0 0
0 0 0
0 0 0
0 0 0
0 0 0
167 124 84
167 124 84
167 124 84
167 124 84
167 124 84
167 124 84
167 124 84
167 124 84
167 124 84
167 124 84
167 124 84
167 124 84
167 124 84
167 124 84
167 124 84
167 124 84
167 124 84
167 124 84
167 124 84
167 124 84
167 124 84
167 124 84
167 124 84
167 124 84
167 124 84
167 124 84
167 124 84
167 124 84
167 124 84
167 124 84
167 124 84
167 124 84
167 124 84
167 124 84
167 124 84
167 124 84
167 124 84
181 135 91
181 135 91
181 135 91
181 135 91
181 135 91
181 135 91
181 135 91
181 135 91
181 135 91
181 135 91
181 135 91
174 130 88
174 130 88
174 130 88
174 130 88
174 130 88
174 130 88
174 130 88
174 130 88
174 130 88
174 130 88
174 130 88
174 130 88
174 130 88
174 130 88
174 130 88
174 130 88
174 130 88
174 130 88
174 130 88
174 130 88
174 130 88
174 130 88
174 130 88
174 130 88
174 130 88
174 130 88
174 130 88
174 130 88
174 130 88
174 130 88
174 130 88
174 130 88
174 130 88
174 130 88
174 130 88
174 130 88
174 130 88
178 132 90
178 132 90
178 132 90
178 132 90
178 132 90
178 132 90
178 132 90
178 132 90
178 132 90
178 132 90
178 132 90
160 119 81
160 119 81
160 119 81
160 119 81
160 119 81
160 119 81
160 119 81
160 119 81
160 119 81
160 119 81
160 119 81
160 119 81
160 119 81
160 119 81
160 119 81
160 119 81
160 119 81
160 119 81
160 119 81
160 119 81
160 119 81
160 119 81
160 119 81
160 119 81
160 119 81
160 119 81
160 119 81
160 119 81
160 119 81
160 119 81
160 119 81
160 119 81
160 119 81
160 119 81
160 119 81
160 119 81
160 119 81
155 116 79
155 116 79
155 116 79
155 116 79
155 116 79
155 116 79
155 116 79
155 116 79
155 116 79
155 116 79
155 116 79
120 91 63
120 91 63
120 91 63
120 91 63
120 91 63
120 91 63
120 91 63
120 91 63
120 91 63
120 91 63
120 91 63
120 91 63
120 91 63
120 91 63
120 91 63
120 91 63
120 91 63
120 91 63
120 91 63
120 91 63
120 91 63
120 91 63
120 91 63
120 91 63
120 91 63
120 91 63
120 91 63
120 91 63
120 91 63
120 91 63
120 91 63
120 91 63
120 91 63
120 91 63
120 91 63
120 91 63
120 91 63
88 68 50
88 68 50
88 68 50
88 68 50
88 68 50
88 68 50
88 68 50
88 68 50
88 68 50
88 68 50
88 68 50
0 0 0
0 0 0
0 0 0
0 0 0
0 0 0
0 0 0
0 0 0
0 0 0
0 0 0
0 0 0
0 0 0
0 0 0
0 0 0
0 0 0
0 0 0
0 0 0
0 0 0
0 0 0
0 0 0
0 0 0
0 0 0
0 0 0
0 0 0
0 0 0
0 0 0
0 0 0
0 0 0
0 0 0
0 0 0
0 0 0
0 0 0
0 0 0
0 0 0
0 0 0
0 0 0
0 0 0
0 0 0
0 0 0
0 0 0
0 0 0
0 0 0
0 0 0
0 0 0
0 0 0
0 0 0
0 0 0
0 0 0
0 0 0
0 0 0
0 0 0
0 0 0
0 0 0
0 0 0
0 0 0
0 0 0
0 0 0
0 0 0
0 0 0
0 0 0
0 0 0
0 0 0
0 0 0
0 0 0
0 0 0
167 124 84
167 124 84
167 124 84
167 124 84
167 124 84
167 124 84
167 124 84
167 124 84
167 124 84
167 124 84
167 124 84
167 124 84
167 124 84
167 124 84
167 124 84
167 124 84
167 124 84
167 124 84
167 124 84
167 124 84
167 124 84
167 124 84
167 124 84
167 124 84
167 124 84
167 124 84
167 124 84
167 124 84
167 124 84
167 124 84
167 124 84
167 124 84
167 124 84
167 124 84
167 124 84
181 135 91
181 135 91
181 135 91
181 135 91
181 135 91
181 135 91
181 135 91
181 135 91
181 135 91
181 135 91
181 135 91
181 135 91
181 135 91
174 130 88
174 130 88
174 130 88
174 130 88
174 130 88
174 130 88
174 130 88
174 130 88
174 130 88
174 130 88
174 130 88
174 130 88
174 130 88
174 130 88
174 130 88
174 130 88
174 130 88
174 130 88
174 130 88
174 130 88
174 130 88
174 130 88
174 130 88
174 130 88
174 130 88
174 130 88
174 130 88
174 130 88
174 130 88
174 130 88
174 130 88
174 130 88
174 130 88
174 130 88
174 130 88
178 132 90
178 132 90
178 132 90
178 132 90
178 132 90
178 132 90
178 132 90
178 132 90
178 132 90
178 132 90
178 132 90
178 132 90
178 132 90
160 119 81
160 119 81
160 119 81
160 119 81
160 119 81
160 119 81
160 119 81
160 119 81
160 119 81
160 119 81
160 119 81
160 119 81
160 119 81
160 119 81
160 119 81
160 119 81
160 119 81
160 119 81
160 119 81
160 119 81
160 119 81
160 119 81
160 119 81
160 119 81
160 119 81
160 119 81
160 119 81
160 119 81
160 119 81
160 119 81
160 119 81
160 119 81
160 119 81
160 119 81
160 119 81
155 116 79
155 116 79
155 116 79
155 116 79
155 116 79
155 116 79
155 116 79
155 116 79
155 116 79
155 116 79
155 116 79
155 116 79
155 116 79
120 91 63
120 91 63
120 91 63
120 91 63
120 91 63
120 91 63
120 91 63
120 91 63
120 91 63
120 91 63
120 91 63
120 91 63
120 91 63
120 91 63
120 91 63
120 91 63
120 91 63
120 91 63
120 91 63
120 91 63
120 91 63
120 91 63
120 91 63
120 91 63
120 91 63
120 91 63
120 91 63
120 91 63
120 91 63
120 91 63
120 91 63
120 91 63
120 91 63
120 91 63
120 91 63
88 68 50
88 68 50
88 68 50
88 68 50
88 68 50
88 68 50
88 68 50
88 68 50
88 68 50
88 68 50
88 68 50
88 68 50
88 68 50
0 0 0
0 0 0
0 0 0
0 0 0
0 0 0
0 0 0
0 0 0
0 0 0
0 0 0
0 0 0
0 0 0
0 0 0
0 0 0
0 0 0
0 0 0
0 0 0
0 0 0
0 0 0
0 0 0
0 0 0
0 0 0
0 0 0
0 0 0
0 0 0
0 0 0
0 0 0
0 0 0
0 0 0
0 0 0
0 0 0
0 0 0
0 0 0
0 0 0
0 0 0
0 0 0
0 0 0
0 0 0
0 0 0
0 0 0
0 0 0
0 0 0
0 0 0
0 0 0
0 0 0
0 0 0
0 0 0
0 0 0
0 0 0
0 0 0
0 0 0
0 0 0
0 0 0
0 0 0
0 0 0
0 0 0
0 0 0
0 0 0
0 0 0
0 0 0
0 0 0
0 0 0
0 0 0
0 0 0
0 0 0
167 124 84
167 124 84
167 124 84
167 124 84
167 124 84
167 124 84
167 124 84
167 124 84
167 124 84
167 124 84
167 124 84
167 124 84
167 124 84
167 124 84
167 124 84
167 124 84
167 124 84
167 124 84
167 124 84
167 124 84
167 124 84
167 124 84
167 124 84
167 124 84
167 124 84
167 124 84
167 124 84
167 124 84
167 124 84
167 124 84
167 124 84
167 124 84
167 124 84
167 124 84
181 135 91
181 135 91
181 135 91
181 135 91
181 135 91
181 135 91
181 135 91
181 135 91
181 135 91
181 135 91
181 135 91
181 135 91
181 135 91
181 135 91
174 130 88
174 130 88
174 130 88
174 130 88
174 130 88
174 130 88
174 130 88
174 130 88
174 130 88
174 130 88
174 130 88
174 130 88
174 130 88
174 130 88
174 130 88
174 130 88
174 130 88
174 130 88
174 130 88
174 130 88
174 130 88
174 130 88
174 130 88
174 130 88
174 130 88
174 130 88
174 130 88
174 130 88
174 130 88
174 130 88
174 130 88
174 130 88
174 130 88
174 130 88
178 132 90
178 132 90
178 132 90
178 132 90
178 132 90
178 132 90
178 132 90
178 132 90
178 132 90
178 132 90
178 132 90
178 132 90
178 132 90
178 132 90
160 119 81
160 119 81
160 119 81
160 119 81
160 119 81
160 119 81
160 119 81
160 119 81
160 119 81
160 119 81
160 119 81
160 119 81
160 119 81
160 119 81
160 119 81
160 119 81
160 119 81
160 119 81
160 119 81
160 119 81
160 119 81
160 119 81
160 119 81
160 119 81
160 119 81
160 119 81
160 119 81
160 119 81
160 119 81
160 119 81
160 119 81
160 119 81
160 119 81
160 119 81
155 116 79
155 116 79
155 116 79
155 116 79
155 116 79
155 116 79
155 116 79
155 116 79
155 116 79
155 116 79
155 116 79
155 116 79
155 116 79
155 116 79
120 91 63
120 91 63
120 91 63
120 91 63
120 91 63
120 91 63
120 91 63
120 91 63
120 91 63
120 91 63
120 91 63
120 91 63
120 91 63
120 91 63
120 91 63
120 91 63
120 91 63
120 91 63
120 91 63
120 91 63
120 91 63
120 91 63
120 91 63
120 91 63
120 91 63
120 91 63
120 91 63
120 91 63
120 91 63
120 91 63
120 91 63
120 91 63
120 91 63
120 91 63
88 68 50
88 68 50
88 68 50
88 68 50
88 68 50
88 68 50
88 68 50
88 68 50
88 68 50
88 68 50
88 68 50
88 68 50
88 68 50
88 68 50
0 0 0
0 0 0
0 0 0
0 0 0
0 0 0
0 0 0
0 0 0
0 0 0
0 0 0
0 0 0
0 0 0
0 0 0
0 0 0
0 0 0
0 0 0
0 0 0
0 0 0
0 0 0
0 0 0
0 0 0
0 0 0
0 0 0
0 0 0
0 0 0
0 0 0
0 0 0
0 0 0
0 0 0
0 0 0
0 0 0
0 0 0
0 0 0
0 0 0
0 0 0
0 0 0
0 0 0
0 0 0
0 0 0
0 0 0
0 0 0
0 0 0
0 0 0
0 0 0
0 0 0
0 0 0
0 0 0
0 0 0
0 0 0
0 0 0
0 0 0
0 0 0
0 0 0
0 0 0
0 0 0
0 0 0
0 0 0
0 0 0
0 0 0
0 0 0
0 0 0
0 0 0
0 0 0
0 0 0
0 0 0
167 124 84
167 124 84
167 124 84
167 124 84
167 124 84
167 124 84
167 124 84
167 124 84
167 124 84
167 124 84
167 124 84
167 124 84
167 124 84
167 124 84
167 124 84
167 124 84
167 124 84
167 124 84
167 124 84
167 124 84
167 124 84
167 124 84
167 124 84
167 124 84
167 124 84
167 124 84
167 124 84
167 124 84
167 124 84
167 124 84
167 124 84
167 124 84
181 135 91
181 135 91
181 135 91
181 135 91
181 135 91
181 135 91
181 135 91
181 135 91
181 135 91
181 135 91
181 135 91
181 135 91
181 135 91
181 135 91
181 135 91
181 135 91
174 130 88
174 130 88
174 130 88
174 130 88
174 130 88
174 130 88
174 130 88
174 130 88
174 130 88
174 130 88
174 130 88
174 130 88
174 130 88
174 130 88
174 130 88
174 130 88
174 130 88
174 130 88
174 130 88
174 130 88
174 130 88
174 130 88
174 130 88
174 130 88
174 130 88
174 130 88
174 130 88
174 130 88
174 130 88
174 130 88
174 130 88
174 130 88
178 132 90
178 132 90
178 132 90
178 132 90
178 132 90
178 132 90
178 132 90
178 132 90
178 132 90
178 132 90
178 132 90
178 132 90
178 132 90
178 132 90
178 132 90
178 132 90
160 119 81
160 119 81
160 119 81
160 119 81
160 119 81
160 119 81
160 119 81
160 119 81
160 119 81
160 119 81
160 119 81
160 119 81
160 119 81
160 119 81
160 119 81
160 119 81
160 119 81
160 119 81
160 119 81
160 119 81
160 119 81
160 119 81
160 119 81
160 119 81
160 119 81
160 119 81
160 119 81
160 119 81
160 119 81
160 119 81
160 119 81
160 119 81
155 116 79
155 116 79
155 116 79
155 116 79
155 116 79
155 116 79
155 116 79
155 116 79
155 116 79
155 116 79
155 116 79
155 116 79
155 116 79
155 116 79
155 116 79
155 116 79
120 91 63
120 91 63
120 91 63
120 91 63
120 91 63
120 91 63
120 91 63
120 91 63
120 91 63
120 91 63
120 91 63
120 91 63
120 91 63
120 91 63
120 91 63
120 91 63
120 91 63
120 91 63
120 91 63
120 91 63
120 91 63
120 91 63
120 91 63
120 91 63
120 91 63
120 91 63
120 91 63
120 91 63
120 91 63
120 91 63
120 91 63
120 91 63
88 68 50
88 68 50
88 68 50
88 68 50
88 68 50
88 68 50
88 68 50
88 68 50
88 68 50
88 68 50
88 68 50
88 68 50
88 68 50
88 68 50
88 68 50
88 68 50
0 0 0
0 0 0
0 0 0
0 0 0
0 0 0
0 0 0
0 0 0
0 0 0
0 0 0
0 0 0
0 0 0
0 0 0
0 0 0
0 0 0
0 0 0
0 0 0
0 0 0
0 0 0
0 0 0
0 0 0
0 0 0
0 0 0
0 0 0
0 0 0
0 0 0
0 0 0
0 0 0
0 0 0
0 0 0
0 0 0
0 0 0
0 0 0
0 0 0
0 0 0
0 0 0
0 0 0
0 0 0
0 0 0
0 0 0
0 0 0
0 0 0
0 0 0
0 0 0
0 0 0
0 0 0
0 0 0
0 0 0
0 0 0
0 0 0
0 0 0
0 0 0
0 0 0
0 0 0
0 0 0
0 0 0
0 0 0
0 0 0
0 0 0
0 0 0
0 0 0
0 0 0
0 0 0
0 0 0
0 0 0
167 124 84
167 124 84
167 124 84
167 124 84
167 124 84
167 124 84
167 124 84
167 124 84
167 124 84
167 124 84
167 124 84
167 124 84
167 124 84
167 124 84
167 124 84
167 124 84
167 124 84
167 124 84
167 124 84
167 124 84
167 124 84
167 124 84
167 124 84
167 124 84
167 124 84
167 124 84
167 124 84
167 124 84
167 124 84
167 124 84
167 124 84
181 135 91
181 135 91
181 135 91
181 135 91
181 135 91
181 135 91
181 135 91
181 135 91
181 135 91
181 135 91
181 135 91
181 135 91
181 135 91
181 135 91
181 135 91
181 135 91
181 135 91
174 130 88
174 130 88
174 130 88
174 130 88
174 130 88
174 130 88
174 130 88
174 130 88
174 130 88
174 130 88
174 130 88
174 130 88
174 130 88
174 130 88
174 130 88
174 130 88
174 130 88
174 130 88
174 130 88
174 130 88
174 130 88
174 130 88
174 130 88
174 130 88
174 130 88
174 130 88
174 130 88
174 130 88
174 130 88
174 130 88
174 130 88
178 132 90
178 132 90
178 132 90
178 132 90
178 132 90
178 132 90
178 132 90
178 132 90
178 132 90
178 132 90
178 132 90
178 132 90
178 132 90
178 132 90
178 132 90
178 132 90
178 132 90
160 119 81
160 119 81
160 119 81
160 119 81
160 119 81
160 119 81
160 119 81
160 119 81
160 119 81
160 119 81
160 119 81
160 119 81
160 119 81
160 119 81
160 119 81
160 119 81
160 119 81
160 119 81
160 119 81
160 119 81
160 119 81
160 119 81
160 119 81
160 119 81
160 119 81
160 119 81
160 119 81
160 119 81
160 119 81
160 119 81
160 119 81
155 116 79
155 116 79
155 116 79
155 116 79
155 116 79
155 116 79
155 116 79
155 116 79
155 116 79
155 116 79
155 116 79
155 116 79
155 116 79
155 116 79
155 116 79
155 116 79
155 116 79
120 91 63
120 91 63
120 91 63
120 91 63
120 91 63
120 91 63
120 91 63
120 91 63
120 91 63
120 91 63
120 91 63
120 91 63
120 91 63
120 91 63
120 91 63
120 91 63
120 91 63
120 91 63
120 91 63
120 91 63
120 91 63
120 91 63
120 91 63
120 91 63
120 91 63
120 91 63
120 91 63
120 91 63
120 91 63
120 91 63
120 91 63
88 68 50
88 68 50
88 68 50
88 68 50
88 68 50
88 68 50
88 68 50
88 68 50
88 68 50
88 68 50
88 68 50
88 68 50
88 68 50
88 68 50
88 68 50
88 68 50
88 68 50
0 0 0
0 0 0
0 0 0
0 0 0
0 0 0
0 0 0
0 0 0
0 0 0
0 0 0
0 0 0
0 0 0
0 0 0
0 0 0
0 0 0
0 0 0
0 0 0
0 0 0
0 0 0
0 0 0
0 0 0
0 0 0
0 0 0
0 0 0
0 0 0
0 0 0
0 0 0
0 0 0
0 0 0
0 0 0
0 0 0
0 0 0
0 0 0
0 0 0
0 0 0
0 0 0
0 0 0
0 0 0
0 0 0
0 0 0
0 0 0
0 0 0
0 0 0
0 0 0
0 0 0
0 0 0
0 0 0
0 0 0
0 0 0
0 0 0
0 0 0
0 0 0
0 0 0
0 0 0
0 0 0
0 0 0
0 0 0
0 0 0
0 0 0
0 0 0
0 0 0
0 0 0
0 0 0
0 0 0
0 0 0
167 124 84
167 124 84
167 124 84
167 124 84
167 124 84
167 124 84
167 124 84
167 124 84
167 124 84
167 124 84
167 124 84
167 124 84
167 124 84
167 124 84
167 124 84
167 124 84
167 124 84
167 124 84
167 124 84
167 124 84
167 124 84
167 124 84
167 124 84
167 124 84
167 124 84
167 124 84
167 124 84
167 124 84
167 124 84
181 135 91
181 135 91
181 135 91
181 135 91
181 135 91
181 135 91
181 135 91
181 135 91
181 135 91
181 135 91
181 135 91
181 135 91
181 135 91
181 135 91
181 135 91
181 135 91
181 135 91
181 135 91
181 135 91
174 130 88
174 130 88
174 130 88
174 130 88
174 130 88
174 130 88
174 130 88
174 130 88
174 130 88
174 130 88
174 130 88
174 130 88
174 130 88
174 130 88
174 130 88
174 130 88
174 130 88
174 130 88
174 130 88
174 130 88
174 130 88
174 130 88
174 130 88
174 130 88
174 130 88
174 130 88
174 130 88
174 130 88
174 130 88
178 132 90
178 132 90
178 132 90
178 132 90
178 132 90
178 132 90
178 132 90
178 132 90
178 132 90
178 132 90
178 132 90
178 132 90
178 132 90
178 132 90
178 132 90
178 132 90
178 132 90
178 132 90
178 132 90
160 119 81
160 119 81
160 119 81
160 119 81
160 119 81
160 119 81
160 119 81
160 119 81
160 119 81
160 119 81
160 119 81
160 119 81
160 119 81
160 119 81
160 119 81
160 119 81
160 119 81
160 119 81
160 119 81
160 119 81
160 119 81
160 119 81
160 119 81
160 119 81
160 119 81
160 119 81
160 119 81
160 119 81
160 119 81
155 116 79
155 116 79
155 116 79
155 116 79
155 116 79
155 116 79
155 116 79
155 116 79
155 116 79
155 116 79
155 116 79
155 116 79
155 116 79
155 116 79
155 116 79
155 116 79
155 116 79
155 116 79
155 116 79
120 91 63
120 91 63
120 91 63
120 91 63
120 91 63
120 91 63
120 91 63
120 91 63
120 91 63
120 91 63
120 91 63
120 91 63
120 91 63
120 91 63
120 91 63
120 91 63
120 91 63
120 91 63
120 91 63
120 91 63
120 91 63
120 91 63
120 91 63
120 91 63
120 91 63
120 91 63
120 91 63
120 91 63
120 91 63
88 68 50
88 68 50
88 68 50
88 68 50
88 68 50
88 68 50
88 68 50
88 68 50
88 68 50
88 68 50
88 68 50
88 68 50
88 68 50
88 68 50
88 68 50
88 68 50
88 68 50
88 68 50
88 68 50
0 0 0
0 0 0
0 0 0
0 0 0
0 0 0
0 0 0
0 0 0
0 0 0
0 0 0
0 0 0
0 0 0
0 0 0
0 0 0
0 0 0
0 0 0
0 0 0
0 0 0
0 0 0
0 0 0
0 0 0
0 0 0
0 0 0
0 0 0
0 0 0
0 0 0
0 0 0
0 0 0
0 0 0
0 0 0
0 0 0
0 0 0
0 0 0
0 0 0
0 0 0
0 0 0
0 0 0
0 0 0
0 0 0
0 0 0
0 0 0
0 0 0
0 0 0
0 0 0
0 0 0
0 0 0
0 0 0
0 0 0
0 0 0
0 0 0
0 0 0
0 0 0
0 0 0
0 0 0
0 0 0
0 0 0
0 0 0
0 0 0
0 0 0
0 0 0
0 0 0
0 0 0
0 0 0
0 0 0
0 0 0
167 124 84
167 124 84
167 124 84
167 124 84
167 124 84
167 124 84
167 124 84
167 124 84
167 124 84
167 124 84
167 124 84
167 124 84
167 124 84
167 124 84
167 124 84
167 124 84
167 124 84
167 124 84
167 124 84
167 124 84
167 124 84
167 124 84
167 124 84
167 124 84
167 124 84
167 124 84
167 124 84
167 124 84
181 135 91
181 135 91
181 135 91
181 135 91
181 135 91
181 135 91
181 135 91
181 135 91
181 135 91
181 135 91
181 135 91
181 135 91
181 135 91
181 135 91
181 135 91
181 135 91
181 135 91
181 135 91
181 135 91
181 135 91
174 130 88
174 130 88
174 130 88
174 130 88
174 130 88
174 130 88
174 130 88
174 130 88
174 130 88
174 130 88
174 130 88
174 130 88
174 130 88
174 130 88
174 130 88
174 130 88
174 130 88
174 130 88
174 130 88
174 130 88
174 130 88
174 130 88
174 130 88
174 130 88
174 130 88
174 130 88
174 130 88
174 130 88
178 132 90
178 132 90
178 132 90
178 132 90
178 132 90
178 132 90
178 132 90
178 132 90
178 132 90
178 132 90
178 132 90
178 132 90
178 132 90
178 132 90
178 132 90
178 132 90
178 132 90
178 132 90
178 132 90
178 132 90
160 119 81
160 119 81
160 119 81
160 119 81
160 119 81
160 119 81
160 119 81
160 119 81
160 119 81
160 119 81
160 119 81
160 119 81
160 119 81
160 119 81
160 119 81
160 119 81
160 119 81
160 119 81
160 119 81
160 119 81
160 119 81
160 119 81
160 119 81
160 119 81
160 119 81
160 119 81
160 119 81
160 119 81
155 116 79
155 116 79
155 116 79
155 116 79
155 116 79
155 116 79
155 116 79
155 116 79
155 116 79
155 116 79
155 116 79
155 116 79
155 116 79
155 116 79
155 116 79
155 116 79
155 116 79
155 116 79
155 116 79
155 116 79
120 91 63
120 91 63
120 91 63
120 91 63
120 91 63
120 91 63
120 91 63
120 91 63
120 91 63
120 91 63
120 91 63
120 91 63
120 91 63
120 91 63
120 91 63
120 91 63
120 91 63
120 91 63
120 91 63
120 91 63
120 91 63
120 91 63
120 91 63
120 91 63
120 91 63
120 91 63
120 91 63
120 91 63
88 68 50
88 68 50
88 68 50
88 68 50
88 68 50
88 68 50
88 68 50
88 68 50
88 68 50
88 68 50
88 68 50
88 68 50
88 68 50
88 68 50
88 68 50
88 68 50
88 68 50
88 68 50
88 68 50
88 68 50
0 0 0
0 0 0
0 0 0
0 0 0
0 0 0
0 0 0
0 0 0
0 0 0
0 0 0
0 0 0
0 0 0
0 0 0
0 0 0
0 0 0
0 0 0
0 0 0
0 0 0
0 0 0
0 0 0
0 0 0
0 0 0
0 0 0
0 0 0
0 0 0
0 0 0
0 0 0
0 0 0
0 0 0
0 0 0
0 0 0
0 0 0
0 0 0
0 0 0
0 0 0
0 0 0
0 0 0
0 0 0
0 0 0
0 0 0
0 0 0
0 0 0
0 0 0
0 0 0
0 0 0
0 0 0
0 0 0
0 0 0
0 0 0
0 0 0
0 0 0
0 0 0
0 0 0
0 0 0
0 0 0
0 0 0
0 0 0
0 0 0
0 0 0
0 0 0
0 0 0
0 0 0
0 0 0
0 0 0
0 0 0
167 124 84
167 124 84
167 124 84
167 124 84
167 124 84
167 124 84
167 124 84
167 124 84
167 124 84
167 124 84
167 124 84
167 124 84
167 124 84
167 124 84
167 124 84
167 124 84
167 124 84
167 124 84
167 124 84
167 124 84
167 124 84
167 124 84
167 124 84
167 124 84
167 124 84
167 124 84
181 135 91
181 135 91
181 135 91
181 135 91
181 135 91
181 135 91
181 135 91
181 135 91
181 135 91
181 135 91
181 135 91
181 135 91
181 135 91
181 135 91
181 135 91
181 135 91
181 135 91
181 135 91
181 135 91
181 135 91
181 135 91
181 135 91
174 130 88
174 130 88
174 130 88
174 130 88
174 130 88
174 130 88
174 130 88
174 130 88
174 130 88
174 130 88
174 130 88
174 130 88
174 130 88
174 130 88
174 130 88
174 130 88
174 130 88
174 130 88
174 130 88
174 130 88
174 130 88
174 130 88
174 130 88
174 130 88
174 130 88
174 130 88
178 132 90
178 132 90
178 132 90
178 132 90
178 132 90
178 132 90
178 132 90
178 132 90
178 132 90
178 132 90
178 132 90
178 132 90
178 132 90
178 132 90
178 132 90
178 132 90
178 132 90
178 132 90
178 132 90
178 132 90
178 132 90
178 132 90
160 119 81
160 119 81
160 119 81
160 119 81
160 119 81
160 119 81
160 119 81
160 119 81
160 119 81
160 119 81
160 119 81
160 119 81
160 119 81
160 119 81
160 119 81
160 119 81
160 119 81
160 119 81
160 119 81
160 119 81
160 119 81
160 119 81
160 119 81
160 119 81
160 119 81
160 119 81
155 116 79
155 116 79
155 116 79
155 116 79
155 116 79
155 116 79
155 116 79
155 116 79
155 116 79
155 116 79
155 116 79
155 116 79
155 116 79
155 116 79
155 116 79
155 116 79
155 116 79
155 116 79
155 116 79
155 116 79
155 116 79
155 116 79
120 91 63
120 91 63
120 91 63
120 91 63
120 91 63
120 91 63
120 91 63
120 91 63
120 91 63
120 91 63
120 91 63
120 91 63
120 91 63
120 91 63
120 91 63
120 91 63
120 91 63
120 91 63
120 91 63
120 91 63
120 91 63
120 91 63
120 91 63
120 91 63
120 91 63
120 91 63
88 68 50
88 68 50
88 68 50
88 68 50
88 68 50
88 68 50
88 68 50
88 68 50
88 68 50
88 68 50
88 68 50
88 68 50
88 68 50
88 68 50
88 68 50
88 68 50
88 68 50
88 68 50
88 68 50
88 68 50
88 68 50
88 68 50
0 0 0
0 0 0
0 0 0
0 0 0
0 0 0
0 0 0
0 0 0
0 0 0
0 0 0
0 0 0
0 0 0
0 0 0
0 0 0
0 0 0
0 0 0
0 0 0
0 0 0
0 0 0
0 0 0
0 0 0
0 0 0
0 0 0
0 0 0
0 0 0
0 0 0
0 0 0
0 0 0
0 0 0
0 0 0
0 0 0
0 0 0
0 0 0
0 0 0
0 0 0
0 0 0
0 0 0
0 0 0
0 0 0
0 0 0
0 0 0
0 0 0
0 0 0
0 0 0
0 0 0
0 0 0
0 0 0
0 0 0
0 0 0
0 0 0
0 0 0
0 0 0
0 0 0
0 0 0
0 0 0
0 0 0
0 0 0
0 0 0
0 0 0
0 0 0
0 0 0
0 0 0
0 0 0
0 0 0
0 0 0
167 124 84
167 124 84
167 124 84
167 124 84
167 124 84
167 124 84
167 124 84
167 124 84
167 124 84
167 124 84
167 124 84
167 124 84
167 124 84
167 124 84
167 124 84
167 124 84
167 124 84
167 124 84
167 124 84
167 124 84
167 124 84
167 124 84
167 124 84
167 124 84
167 124 84
181 135 91
181 135 91
181 135 91
181 135 91
181 135 91
181 135 91
181 135 91
181 135 91
181 135 91
181 135 91
181 135 91
181 135 91
181 135 91
181 135 91
181 135 91
181 135 91
181 135 91
181 135 91
181 135 91
181 135 91
181 135 91
181 135 91
181 135 91
174 130 88
174 130 88
174 130 88
174 130 88
174 130 88
174 130 88
174 130 88
174 130 88
174 130 88
174 130 88
174 130 88
174 130 88
174 130 88
174 130 88
174 130 88
174 130 88
174 130 88
174 130 88
174 130 88
174 130 88
174 130 88
174 130 88
174 130 88
174 130 88
174 130 88
178 132 90
178 132 90
178 132 90
178 132 90
178 132 90
178 132 90
178 132 90
178 132 90
178 132 90
178 132 90
178 132 90
178 132 90
178 132 90
178 132 90
178 132 90
178 132 90
178 132 90
178 132 90
178 132 90
178 132 90
178 132 90
178 132 90
178 132 90
160 119 81
160 119 81
160 119 81
160 119 81
160 119 81
160 119 81
160 119 81
160 119 81
160 119 81
160 119 81
160 119 81
160 119 81
160 119 81
160 119 81
160 119 81
160 119 81
160 119 81
160 119 81
160 119 81
160 119 81
160 119 81
160 119 81
160 119 81
160 119 81
160 119 81
155 116 79
155 116 79
155 116 79
155 116 79
155 116 79
155 116 79
155 116 79
155 116 79
155 116 79
155 116 79
155 116 79
155 116 79
155 116 79
155 116 79
155 116 79
155 116 79
155 116 79
155 116 79
155 116 79
155 116 79
155 116 79
155 116 79
155 116 79
120 91 63
120 91 63
120 91 63
120 91 63
120 91 63
120 91 63
120 91 63
120 91 63
120 91 63
120 91 63
120 91 63
120 91 63
120 91 63
120 91 63
120 91 63
120 91 63
120 91 63
120 91 63
120 91 63
120 91 63
120 91 63
120 91 63
120 91 63
120 91 63
120 91 63
88 68 50
88 68 50
88 68 50
88 68 50
88 68 50
88 68 50
88 68 50
88 68 50
88 68 50
88 68 50
88 68 50
88 68 50
88 68 50
88 68 50
88 68 50
88 68 50
88 68 50
88 68 50
88 68 50
88 68 50
88 68 50
88 68 50
88 68 50
0 0 0
0 0 0
0 0 0
0 0 0
0 0 0
0 0 0
0 0 0
0 0 0
0 0 0
0 0 0
0 0 0
0 0 0
0 0 0
0 0 0
0 0 0
0 0 0
0 0 0
0 0 0
0 0 0
0 0 0
0 0 0
0 0 0
0 0 0
0 0 0
0 0 0
0 0 0
0 0 0
0 0 0
0 0 0
0 0 0
0 0 0
0 0 0
0 0 0
0 0 0
0 0 0
0 0 0
0 0 0
0 0 0
0 0 0
0 0 0
0 0 0
0 0 0
0 0 0
0 0 0
0 0 0
0 0 0
0 0 0
0 0 0
0 0 0
0 0 0
0 0 0
0 0 0
0 0 0
0 0 0
0 0 0
0 0 0
0 0 0
0 0 0
0 0 0
0 0 0
0 0 0
0 0 0
0 0 0
0 0 0
167 124 84
167 124 84
167 124 84
167 124 84
167 124 84
167 124 84
167 124 84
167 124 84
167 124 84
167 124 84
167 124 84
167 124 84
167 124 84
167 124 84
167 124 84
167 124 84
167 124 84
167 124 84
167 124 84
167 124 84
167 124 84
167 124 84
167 124 84
181 135 91
181 135 91
181 135 91
181 135 91
181 135 91
181 135 91
181 135 91
181 135 91
181 135 91
181 135 91
181 135 91
181 135 91
181 135 91
181 135 91
181 135 91
181 135 91
181 135 91
181 135 91
181 135 91
181 135 91
181 135 91
181 135 91
181 135 91
181 135 91
181 135 91
174 130 88
174 130 88
174 130 88
174 130 88
174 130 88
174 130 88
174 130 88
174 130 88
174 130 88
174 130 88
174 130 88
174 130 88
174 130 88
174 130 88
174 130 88
174 130 88
174 130 88
174 130 88
174 130 88
174 130 88
174 130 88
174 130 88
174 130 88
178 132 90
178 132 90
178 132 90
178 132 90
178 132 90
178 132 90
178 132 90
178 132 90
178 132 90
178 132 90
178 132 90
178 132 90
178 132 90
178 132 90
178 132 90
178 132 90
178 132 90
178 132 90
178 132 90
178 132 90
178 132 90
178 132 90
178 132 90
178 132 90
178 132 90
160 119 81
160 119 81
160 119 81
160 119 81
160 119 81
160 119 81
160 119 81
160 119 81
160 119 81
160 119 81
160 119 81
160 119 81
160 119 81
160 119 81
160 119 81
160 119 81
160 119 81
160 119 81
160 119 81
160 119 81
160 119 81
160 119 81
160 119 81
155 116 79
155 116 79
155 116 79
155 116 79
155 116 79
155 116 79
155 116 79
155 116 79
155 116 79
155 116 79
155 116 79
155 116 79
155 116 79
155 116 79
155 116 79
155 116 79
155 116 79
155 116 79
155 116 79
155 116 79
155 116 79
155 116 79
155 116 79
155 116 79
155 116 79
120 91 63
120 91 63
120 91 63
120 91 63
120 91 63
120 91 63
120 91 63
120 91 63
120 91 63
120 91 63
120 91 63
120 91 63
120 91 63
120 91 63
120 91 63
120 91 63
120 91 63
120 91 63
120 91 63
120 91 63
120 91 63
120 91 63
120 91 63
88 68 50
88 68 50
88 68 50
88 68 50
88 68 50
88 68 50
88 68 50
88 68 50
88 68 50
88 68 50
88 68 50
88 68 50
88 68 50
88 68 50
88 68 50
88 68 50
88 68 50
88 68 50
88 68 50
88 68 50
88 68 50
88 68 50
88 68 50
88 68 50
88 68 50
0 0 0
0 0 0
0 0 0
0 0 0
0 0 0
0 0 0
0 0 0
0 0 0
0 0 0
0 0 0
0 0 0
0 0 0
0 0 0
0 0 0
0 0 0
0 0 0
0 0 0
0 0 0
0 0 0
0 0 0
0 0 0
0 0 0
0 0 0
0 0 0
0 0 0
0 0 0
0 0 0
0 0 0
0 0 0
0 0 0
0 0 0
0 0 0
0 0 0
0 0 0
0 0 0
0 0 0
0 0 0
0 0 0
0 0 0
0 0 0
0 0 0
0 0 0
0 0 0
0 0 0
0 0 0
0 0 0
0 0 0
0 0 0
0 0 0
0 0 0
0 0 0
0 0 0
0 0 0
0 0 0
0 0 0
0 0 0
0 0 0
0 0 0
0 0 0
0 0 0
0 0 0
0 0 0
0 0 0
0 0 0
167 124 84
167 124 84
167 124 84
167 124 84
167 124 84
167 124 84
167 124 84
167 124 84
167 124 84
167 124 84
167 124 84
167 124 84
167 124 84
167 124 84
167 124 84
167 124 84
167 124 84
167 124 84
167 124 84
167 124 84
167 124 84
167 124 84
181 135 91
181 135 91
181 135 91
181 135 91
181 135 91
181 135 91
181 135 91
181 135 91
181 135 91
181 135 91
181 135 91
181 135 91
181 135 91
181 135 91
181 135 91
181 135 91
181 135 91
181 135 91
181 135 91
181 135 91
181 135 91
181 135 91
181 135 91
181 135 91
181 135 91
181 135 91
174 130 88
174 130 88
174 130 88
174 130 88
174 130 88
174 130 88
174 130 88
174 130 88
174 130 88
174 130 88
174 130 88
174 130 88
174 130 88
174 130 88
174 130 88
174 130 88
174 130 88
174 130 88
174 130 88
174 130 88
174 130 88
174 130 88
178 132 90
178 132 90
178 132 90
178 132 90
178 132 90
178 132 90
178 132 90
178 132 90
178 132 90
178 132 90
178 132 90
178 132 90
178 132 90
178 132 90
178 132 90
178 132 90
178 132 90
178 132 90
178 132 90
178 132 90
178 132 90
178 132 90
178 132 90
178 132 90
178 132 90
178 132 90
160 119 81
160 119 81
160 119 81
160 119 81
160 119 81
160 119 81
160 119 81
160 119 81
160 119 81
160 119 81
160 119 81
160 119 81
160 119 81
160 119 81
160 119 81
160 119 81
160 119 81
160 119 81
160 119 81
160 119 81
160 119 81
160 119 81
155 116 79
155 116 79
155 116 79
155 116 79
155 116 79
155 116 79
155 116 79
155 116 79
155 116 79
155 116 79
155 116 79
155 116 79
155 116 79
155 116 79
155 116 79
155 116 79
155 116 79
155 116 79
155 116 79
155 116 79
155 116 79
155 116 79
155 116 79
155 116 79
155 116 79
155 116 79
120 91 63
120 91 63
120 91 63
120 91 63
120 91 63
120 91 63
120 91 63
120 91 63
120 91 63
120 91 63
120 91 63
120 91 63
120 91 63
120 91 63
120 91 63
120 91 63
120 91 63
120 91 63
120 91 63
120 91 63
120 91 63
120 91 63
88 68 50
88 68 50
88 68 50
88 68 50
88 68 50
88 68 50
88 68 50
88 68 50
88 68 50
88 68 50
88 68 50
88 68 50
88 68 50
88 68 50
88 68 50
88 68 50
88 68 50
88 68 50
88 68 50
88 68 50
88 68 50
88 68 50
88 68 50
88 68 50
88 68 50
88 68 50
0 0 0
0 0 0
0 0 0
0 0 0
0 0 0
0 0 0
0 0 0
0 0 0
0 0 0
0 0 0
0 0 0
0 0 0
0 0 0
0 0 0
0 0 0
0 0 0
0 0 0
0 0 0
0 0 0
0 0 0
0 0 0
0 0 0
0 0 0
0 0 0
0 0 0
0 0 0
0 0 0
0 0 0
0 0 0
0 0 0
0 0 0
0 0 0
0 0 0
0 0 0
0 0 0
0 0 0
0 0 0
0 0 0
0 0 0
0 0 0
0 0 0
0 0 0
0 0 0
0 0 0
0 0 0
0 0 0
0 0 0
0 0 0
0 0 0
0 0 0
0 0 0
0 0 0
0 0 0
0 0 0
0 0 0
0 0 0
0 0 0
0 0 0
0 0 0
0 0 0
0 0 0
0 0 0
0 0 0
0 0 0
167 124 84
167 124 84
167 124 84
167 124 84
167 124 84
167 124 84
167 124 84
167 124 84
167 124 84
167 124 84
167 124 84
167 124 84
167 124 84
167 124 84
167 124 84
167 124 84
167 124 84
167 124 84
167 124 84
167 124 84
181 135 91
181 135 91
181 135 91
181 135 91
181 135 91
181 135 91
181 135 91
181 135 91
181 135 91
181 135 91
181 135 91
181 135 91
181 135 91
181 135 91
181 135 91
181 135 91
181 135 91
181 135 91
181 135 91
181 135 91
181 135 91
181 135 91
181 135 91
181 135 91
181 135 91
181 135 91
181 135 91
181 135 91
174 130 88
174 130 88
174 130 88
174 130 88
174 130 88
174 130 88
174 130 88
174 130 88
174 130 88
174 130 88
174 130 88
174 130 88
174 130 88
174 130 88
174 130 88
174 130 88
174 130 88
174 130 88
174 130 88
174 130 88
178 132 90
178 132 90
178 132 90
178 132 90
178 132 90
178 132 90
178 132 90
178 132 90
178 132 90
178 132 90
178 132 90
178 132 90
178 132 90
178 132 90
178 132 90
178 132 90
178 132 90
178 132 90
178 132 90
178 132 90
178 132 90
178 132 90
178 132 90
178 132 90
178 132 90
178 132 90
178 132 90
178 132 90
160 119 81
160 119 81
160 119 81
160 119 81
160 119 81
160 119 81
160 119 81
160 119 81
160 119 81
160 119 81
160 119 81
160 119 81
160 119 81
160 119 81
160 119 81
160 119 81
160 119 81
160 119 81
160 119 81
160 119 81
155 116 79
155 116 79
155 116 79
155 116 79
155 116 79
155 116 79
155 116 79
155 116 79
155 116 79
155 116 79
155 116 79
155 116 79
155 116 79
155 116 79
155 116 79
155 116 79
155 116 79
155 116 79
155 116 79
155 116 79
155 116 79
155 116 79
155 116 79
155 116 79
155 116 79
155 116 79
155 116 79
155 116 79
120 91 63
120 91 63
120 91 63
120 91 63
120 91 63
120 91 63
120 91 63
120 91 63
120 91 63
120 91 63
120 91 63
120 91 63
120 91 63
120 91 63
120 91 63
120 91 63
120 91 63
120 91 63
120 91 63
120 91 63
88 68 50
88 68 50
88 68 50
88 68 50
88 68 50
88 68 50
88 68 50
88 68 50
88 68 50
88 68 50
88 68 50
88 68 50
88 68 50
88 68 50
88 68 50
88 68 50
88 68 50
88 68 50
88 68 50
88 68 50
88 68 50
88 68 50
88 68 50
88 68 50
88 68 50
88 68 50
88 68 50
88 68 50
0 0 0
0 0 0
0 0 0
0 0 0
0 0 0
0 0 0
0 0 0
0 0 0
0 0 0
0 0 0
0 0 0
0 0 0
0 0 0
0 0 0
0 0 0
0 0 0
0 0 0
0 0 0
0 0 0
0 0 0
0 0 0
0 0 0
0 0 0
0 0 0
0 0 0
0 0 0
0 0 0
0 0 0
0 0 0
0 0 0
0 0 0
0 0 0
0 0 0
0 0 0
0 0 0
0 0 0
0 0 0
0 0 0
0 0 0
0 0 0
0 0 0
0 0 0
0 0 0
0 0 0
0 0 0
0 0 0
0 0 0
0 0 0
0 0 0
0 0 0
0 0 0
0 0 0
0 0 0
0 0 0
0 0 0
0 0 0
0 0 0
0 0 0
0 0 0
0 0 0
0 0 0
0 0 0
0 0 0
0 0 0
167 124 84
167 124 84
167 124 84
167 124 84
167 124 84
167 124 84
167 124 84
167 124 84
167 124 84
167 124 84
167 124 84
167 124 84
167 124 84
167 124 84
167 124 84
167 124 84
167 124 84
167 124 84
167 124 84
181 135 91
181 135 91
181 135 91
181 135 91
181 135 91
181 135 91
181 135 91
181 135 91
181 135 91
181 135 91
181 135 91
181 135 91
181 135 91
181 135 91
181 135 91
181 135 91
181 135 91
181 135 91
181 135 91
181 135 91
181 135 91
181 135 91
181 135 91
181 135 91
181 135 91
181 135 91
181 135 91
181 135 91
181 135 91
174 130 88
174 130 88
174 130 88
174 130 88
174 130 88
174 130 88
174 130 88
174 130 88
174 130 88
174 130 88
174 130 88
174 130 88
174 130 88
174 130 88
174 130 88
174 130 88
174 130 88
174 130 88
174 130 88
178 132 90
178 132 90
178 132 90
178 132 90
178 132 90
178 132 90
178 132 90
178 132 90
178 132 90
178 132 90
178 132 90
178 132 90
178 132 90
178 132 90
178 132 90
178 132 90
178 132 90
178 132 90
178 132 90
178 132 90
178 132 90
178 132 90
178 132 90
178 132 90
178 132 90
178 132 90
178 132 90
178 132 90
178 132 90
160 119 81
160 119 81
160 119 81
160 119 81
160 119 81
160 119 81
160 119 81
160 119 81
160 119 81
160 119 81
160 119 81
160 119 81
160 119 81
160 119 81
160 119 81
160 119 81
160 119 81
160 119 81
160 119 81
155 116 79
155 116 79
155 116 79
155 116 79
155 116 79
155 116 79
155 116 79
155 116 79
155 116 79
155 116 79
155 116 79
155 116 79
155 116 79
155 116 79
155 116 79
155 116 79
155 116 79
155 116 79
155 116 79
155 116 79
155 116 79
155 116 79
155 116 79
155 116 79
155 116 79
155 116 79
155 116 79
155 116 79
155 116 79
120 91 63
120 91 63
120 91 63
120 91 63
120 91 63
120 91 63
120 91 63
120 91 63
120 91 63
120 91 63
120 91 63
120 91 63
120 91 63
120 91 63
120 91 63
120 91 63
120 91 63
120 91 63
120 91 63
88 68 50
88 68 50
88 68 50
88 68 50
88 68 50
88 68 50
88 68 50
88 68 50
88 68 50
88 68 50
88 68 50
88 68 50
88 68 50
88 68 50
88 68 50
88 68 50
88 68 50
88 68 50
88 68 50
88 68 50
88 68 50
88 68 50
88 68 50
88 68 50
88 68 50
88 68 50
88 68 50
88 68 50
88 68 50
0 0 0
0 0 0
0 0 0
0 0 0
0 0 0
0 0 0
0 0 0
0 0 0
0 0 0
0 0 0
0 0 0
0 0 0
0 0 0
0 0 0
0 0 0
0 0 0
0 0 0
0 0 0
0 0 0
0 0 0
0 0 0
0 0 0
0 0 0
0 0 0
0 0 0
0 0 0
0 0 0
0 0 0
0 0 0
0 0 0
0 0 0
0 0 0
0 0 0
0 0 0
0 0 0
0 0 0
0 0 0
0 0 0
0 0 0
0 0 0
0 0 0
0 0 0
0 0 0
0 0 0
0 0 0
0 0 0
0 0 0
0 0 0
0 0 0
0 0 0
0 0 0
0 0 0
0 0 0
0 0 0
0 0 0
0 0 0
0 0 0
0 0 0
0 0 0
0 0 0
0 0 0
0 0 0
0 0 0
0 0 0
167 124 84
167 124 84
167 124 84
167 124 84
167 124 84
167 124 84
167 124 84
167 124 84
167 124 84
167 124 84
167 124 84
167 124 84
167 124 84
167 124 84
167 124 84
167 124 84
167 124 84
181 135 91
181 135 91
181 135 91
181 135 91
181 135 91
181 135 91
181 135 91
181 135 91
181 135 91
181 135 91
181 135 91
181 135 91
181 135 91
181 135 91
181 135 91
181 135 91
181 135 91
181 135 91
181 135 91
181 135 91
181 135 91
181 135 91
181 135 91
181 135 91
181 135 91
181 135 91
181 135 91
181 135 91
181 135 91
181 135 91
181 135 91
174 130 88
174 130 88
174 130 88
174 130 88
174 130 88
174 130 88
174 130 88
174 130 88
174 130 88
174 130 88
174 130 88
174 130 88
174 130 88
174 130 88
174 130 88
174 130 88
174 130 88
178 132 90
178 132 90
178 132 90
178 132 90
178 132 90
178 132 90
178 132 90
178 132 90
178 132 90
178 132 90
178 132 90
178 132 90
178 132 90
178 132 90
178 132 90
178 132 90
178 132 90
178 132 90
178 132 90
178 132 90
178 132 90
178 132 90
178 132 90
178 132 90
178 132 90
178 132 90
178 132 90
178 132 90
178 132 90
178 132 90
178 132 90
160 119 81
160 119 81
160 119 81
160 119 81
160 119 81
160 119 81
160 119 81
160 119 81
160 119 81
160 119 81
160 119 81
160 119 81
160 119 81
160 119 81
160 119 81
160 119 81
160 119 81
155 116 79
155 116 79
155 116 79
155 116 79
155 116 79
155 116 79
155 116 79
155 116 79
155 116 79
155 116 79
155 116 79
155 116 79
155 116 79
155 116 79
155 116 79
155 116 79
155 116 79
155 116 79
155 116 79
155 116 79
155 116 79
155 116 79
155 116 79
155 116 79
155 116 79
155 116 79
155 116 79
155 116 79
155 116 79
155 116 79
155 116 79
120 91 63
120 91 63
120 91 63
120 91 63
120 91 63
120 91 63
120 91 63
120 91 63
120 91 63
120 91 63
120 91 63
120 91 63
120 91 63
120 91 63
120 91 63
120 91 63
120 91 63
88 68 50
88 68 50
88 68 50
88 68 50
88 68 50
88 68 50
88 68 50
88 68 50
88 68 50
88 68 50
88 68 50
88 68 50
88 68 50
88 68 50
88 68 50
88 68 50
88 68 50
88 68 50
88 68 50
88 68 50
88 68 50
88 68 50
88 68 50
88 68 50
88 68 50
88 68 50
88 68 50
88 68 50
88 68 50
88 68 50
88 68 50
0 0 0
0 0 0
0 0 0
0 0 0
0 0 0
0 0 0
0 0 0
0 0 0
0 0 0
0 0 0
0 0 0
0 0 0
0 0 0
0 0 0
0 0 0
0 0 0
0 0 0
0 0 0
0 0 0
0 0 0
0 0 0
0 0 0
0 0 0
0 0 0
0 0 0
0 0 0
0 0 0
0 0 0
0 0 0
0 0 0
0 0 0
0 0 0
0 0 0
0 0 0
0 0 0
0 0 0
0 0 0
0 0 0
0 0 0
0 0 0
0 0 0
0 0 0
0 0 0
0 0 0
0 0 0
0 0 0
0 0 0
0 0 0
0 0 0
0 0 0
0 0 0
0 0 0
0 0 0
0 0 0
0 0 0
0 0 0
0 0 0
0 0 0
0 0 0
0 0 0
0 0 0
0 0 0
0 0 0
0 0 0
167 124 84
167 124 84
167 124 84
167 124 84
167 124 84
167 124 84
167 124 84
167 124 84
167 124 84
167 124 84
167 124 84
167 124 84
167 124 84
167 124 84
167 124 84
167 124 84
181 135 91
181 135 91
181 135 91
181 135 91
181 135 91
181 135 91
181 135 91
181 135 91
181 135 91
181 135 91
181 135 91
181 135 91
181 135 91
181 135 91
181 135 91
181 135 91
181 135 91
181 135 91
181 135 91
181 135 91
181 135 91
181 135 91
181 135 91
181 135 91
181 135 91
181 135 91
181 135 91
181 135 91
181 135 91
181 135 91
181 135 91
181 135 91
174 130 88
174 130 88
174 130 88
174 130 88
174 130 88
174 130 88
174 130 88
174 130 88
174 130 88
174 130 88
174 130 88
174 130 88
174 130 88
174 130 88
174 130 88
174 130 88
178 132 90
178 132 90
178 132 90
178 132 90
178 132 90
178 132 90
178 132 90
178 132 90
178 132 90
178 132 90
178 132 90
178 132 90
178 132 90
178 132 90
178 132 90
178 132 90
178 132 90
178 132 90
178 132 90
178 132 90
178 132 90
178 132 90
178 132 90
178 132 90
178 132 90
178 132 90
178 132 90
178 132 90
178 132 90
178 132 90
178 132 90
178 132 90
160 119 81
160 119 81
160 119 81
160 119 81
160 119 81
160 119 81
160 119 81
160 119 81
160 119 81
160 119 81
160 119 81
160 119 81
160 119 81
160 119 81
160 119 81
160 119 81
155 116 79
155 116 79
155 116 79
155 116 79
155 116 79
155 116 79
155 116 79
155 116 79
155 116 79
155 116 79
155 116 79
155 116 79
155 116 79
155 116 79
155 116 79
155 116 79
155 116 79
155 116 79
155 116 79
155 116 79
155 116 79
155 116 79
155 116 79
155 116 79
155 116 79
155 116 79
155 116 79
155 116 79
155 116 79
155 116 79
155 116 79
155 116 79
120 91 63
120 91 63
120 91 63
120 91 63
120 91 63
120 91 63
120 91 63
120 91 63
120 91 63
120 91 63
120 91 63
120 91 63
120 91 63
120 91 63
120 91 63
120 91 63
88 68 50
88 68 50
88 68 50
88 68 50
88 68 50
88 68 50
88 68 50
88 68 50
88 68 50
88 68 50
88 68 50
88 68 50
88 68 50
88 68 50
88 68 50
88 68 50
88 68 50
88 68 50
88 68 50
88 68 50
88 68 50
88 68 50
88 68 50
88 68 50
88 68 50
88 68 50
88 68 50
88 68 50
88 68 50
88 68 50
88 68 50
88 68 50
0 0 0
0 0 0
0 0 0
0 0 0
0 0 0
0 0 0
0 0 0
0 0 0
0 0 0
0 0 0
0 0 0
0 0 0
0 0 0
0 0 0
0 0 0
0 0 0
0 0 0
0 0 0
0 0 0
0 0 0
0 0 0
0 0 0
0 0 0
0 0 0
0 0 0
0 0 0
0 0 0
0 0 0
0 0 0
0 0 0
0 0 0
0 0 0
0 0 0
0 0 0
0 0 0
0 0 0
0 0 0
0 0 0
0 0 0
0 0 0
0 0 0
0 0 0
0 0 0
0 0 0
0 0 0
0 0 0
0 0 0
0 0 0
0 0 0
0 0 0
0 0 0
0 0 0
0 0 0
0 0 0
0 0 0
0 0 0
0 0 0
0 0 0
0 0 0
0 0 0
0 0 0
0 0 0
0 0 0
0 0 0
167 124 84
167 124 84
167 124 84
167 124 84
167 124 84
167 124 84
167 124 84
167 124 84
167 124 84
167 124 84
167 124 84
167 124 84
167 124 84
167 124 84
181 135 91
181 135 91
181 135 91
181 135 91
181 135 91
181 135 91
181 135 91
181 135 91
181 135 91
181 135 91
181 135 91
181 135 91
181 135 91
181 135 91
181 135 91
181 135 91
181 135 91
181 135 91
181 135 91
181 135 91
181 135 91
181 135 91
181 135 91
181 135 91
181 135 91
181 135 91
181 135 91
181 135 91
181 135 91
181 135 91
181 135 91
181 135 91
181 135 91
181 135 91
174 130 88
174 130 88
174 130 88
174 130 88
174 130 88
174 130 88
174 130 88
174 130 88
174 130 88
174 130 88
174 130 88
174 130 88
174 130 88
174 130 88
178 132 90
178 132 90
178 132 90
178 132 90
178 132 90
178 132 90
178 132 90
178 132 90
178 132 90
178 132 90
178 132 90
178 132 90
178 132 90
178 132 90
178 132 90
178 132 90
178 132 90
178 132 90
178 132 90
178 132 90
178 132 90
178 132 90
178 132 90
178 132 90
178 132 90
178 132 90
178 132 90
178 132 90
178 132 90
178 132 90
178 132 90
178 132 90
178 132 90
178 132 90
160 119 81
160 119 81
160 119 81
160 119 81
160 119 81
160 119 81
160 119 81
160 119 81
160 119 81
160 119 81
160 119 81
160 119 81
160 119 81
160 119 81
155 116 79
155 116 79
155 116 79
155 116 79
155 116 79
155 116 79
155 116 79
155 116 79
155 116 79
155 116 79
155 116 79
155 116 79
155 116 79
155 116 79
155 116 79
155 116 79
155 116 79
155 116 79
155 116 79
155 116 79
155 116 79
155 116 79
155 116 79
155 116 79
155 116 79
155 116 79
155 116 79
155 116 79
155 116 79
155 116 79
155 116 79
155 116 79
155 116 79
155 116 79
120 91 63
120 91 63
120 91 63
120 91 63
120 91 63
120 91 63
120 91 63
120 91 63
120 91 63
120 91 63
120 91 63
120 91 63
120 91 63
120 91 63
88 68 50
88 68 50
88 68 50
88 68 50
88 68 50
88 68 50
88 68 50
88 68 50
88 68 50
88 68 50
88 68 50
88 68 50
88 68 50
88 68 50
88 68 50
88 68 50
88 68 50
88 68 50
88 68 50
88 68 50
88 68 50
88 68 50
88 68 50
88 68 50
88 68 50
88 68 50
88 68 50
88 68 50
88 68 50
88 68 50
88 68 50
88 68 50
88 68 50
88 68 50
0 0 0
0 0 0
0 0 0
0 0 0
0 0 0
0 0 0
0 0 0
0 0 0
0 0 0
0 0 0
0 0 0
0 0 0
0 0 0
0 0 0
0 0 0
0 0 0
0 0 0
0 0 0
0 0 0
0 0 0
0 0 0
0 0 0
0 0 0
0 0 0
0 0 0
0 0 0
0 0 0
0 0 0
0 0 0
0 0 0
0 0 0
0 0 0
0 0 0
0 0 0
0 0 0
0 0 0
0 0 0
0 0 0
0 0 0
0 0 0
0 0 0
0 0 0
0 0 0
0 0 0
0 0 0
0 0 0
0 0 0
0 0 0
0 0 0
0 0 0
0 0 0
0 0 0
0 0 0
0 0 0
0 0 0
0 0 0
0 0 0
0 0 0
0 0 0
0 0 0
0 0 0
0 0 0
0 0 0
0 0 0
167 124 84
167 124 84
167 124 84
167 124 84
167 124 84
167 124 84
167 124 84
167 124 84
167 124 84
167 124 84
167 124 84
167 124 84
167 124 84
181 135 91
181 135 91
181 135 91
181 135 91
181 135 91
181 135 91
181 135 91
181 135 91
181 135 91
181 135 91
181 135 91
181 135 91
181 135 91
181 135 91
181 135 91
181 135 91
181 135 91
181 135 91
181 135 91
181 135 91
181 135 91
181 135 91
181 135 91
181 135 91
181 135 91
181 135 91
181 135 91
181 135 91
181 135 91
181 135 91
181 135 91
181 135 91
181 135 91
181 135 91
181 135 91
174 130 88
174 130 88
174 130 88
174 130 88
174 130 88
174 130 88
174 130 88
174 130 88
174 130 88
174 130 88
174 130 88
174 130 88
174 130 88
178 132 90
178 132 90
178 132 90
178 132 90
178 132 90
178 132 90
178 132 90
178 132 90
178 132 90
178 132 90
178 132 90
178 132 90
178 132 90
178 132 90
178 132 90
178 132 90
178 132 90
178 132 90
178 132 90
178 132 90
178 132 90
178 132 90
178 132 90
178 132 90
178 132 90
178 132 90
178 132 90
178 132 90
178 132 90
178 132 90
178 132 90
178 132 90
178 132 90
178 132 90
178 132 90
160 119 81
160 119 81
160 119 81
160 119 81
160 119 81
160 119 81
160 119 81
160 119 81
160 119 81
160 119 81
160 119 81
160 119 81
160 119 81
155 116 79
155 116 79
155 116 79
155 116 79
155 116 79
155 116 79
155 116 79
155 116 79
155 116 79
155 116 79
155 116 79
155 116 79
155 116 79
155 116 79
155 116 79
155 116 79
155 116 79
155 116 79
155 116 79
155 116 79
155 116 79
155 116 79
155 116 79
155 116 79
155 116 79
155 116 79
155 116 79
155 116 79
155 116 79
155 116 79
155 116 79
155 116 79
155 116 79
155 116 79
155 116 79
120 91 63
120 91 63
120 91 63
120 91 63
120 91 63
120 91 63
120 91 63
120 91 63
120 91 63
120 91 63
120 91 63
120 91 63
120 91 63
88 68 50
88 68 50
88 68 50
88 68 50
88 68 50
88 68 50
88 68 50
88 68 50
88 68 50
88 68 50
88 68 50
88 68 50
88 68 50
88 68 50
88 68 50
88 68 50
88 68 50
88 68 50
88 68 50
88 68 50
88 68 50
88 68 50
88 68 50
88 68 50
88 68 50
88 68 50
88 68 50
88 68 50
88 68 50
88 68 50
88 68 50
88 68 50
88 68 50
88 68 50
88 68 50
0 0 0
0 0 0
0 0 0
0 0 0
0 0 0
0 0 0
0 0 0
0 0 0
0 0 0
0 0 0
0 0 0
0 0 0
0 0 0
0 0 0
0 0 0
0 0 0
0 0 0
0 0 0
0 0 0
0 0 0
0 0 0
0 0 0
0 0 0
0 0 0
0 0 0
0 0 0
0 0 0
0 0 0
0 0 0
0 0 0
0 0 0
0 0 0
0 0 0
0 0 0
0 0 0
0 0 0
0 0 0
0 0 0
0 0 0
0 0 0
0 0 0
0 0 0
0 0 0
0 0 0
0 0 0
0 0 0
0 0 0
0 0 0
0 0 0
0 0 0
0 0 0
0 0 0
0 0 0
0 0 0
0 0 0
0 0 0
0 0 0
0 0 0
0 0 0
0 0 0
0 0 0
0 0 0
0 0 0
0 0 0
167 124 84
167 124 84
167 124 84
167 124 84
167 124 84
167 124 84
167 124 84
167 124 84
167 124 84
167 124 84
167 124 84
181 135 91
181 135 91
181 135 91
181 135 91
181 135 91
181 135 91
181 135 91
181 135 91
181 135 91
181 135 91
181 135 91
181 135 91
181 135 91
181 135 91
181 135 91
181 135 91
181 135 91
181 135 91
181 135 91
181 135 91
181 135 91
181 135 91
181 135 91
181 135 91
181 135 91
181 135 91
181 135 91
181 135 91
181 135 91
181 135 91
181 135 91
181 135 91
181 135 91
181 135 91
181 135 91
181 135 91
181 135 91
174 130 88
174 130 88
174 130 88
174 130 88
174 130 88
174 130 88
174 130 88
174 130 88
174 130 88
174 130 88
174 130 88
178 132 90
178 132 90
178 132 90
178 132 90
178 132 90
178 132 90
178 132 90
178 132 90
178 132 90
178 132 90
178 132 90
178 132 90
178 132 90
178 132 90
178 132 90
178 132 90
178 132 90
178 132 90
178 132 90
178 132 90
178 132 90
178 132 90
178 132 90
178 132 90
178 132 90
178 132 90
178 132 90
178 132 90
178 132 90
178 132 90
178 132 90
178 132 90
178 132 90
178 132 90
178 132 90
178 132 90
178 132 90
160 119 81
160 119 81
160 119 81
160 119 81
160 119 81
160 119 81
160 119 81
160 119 81
160 119 81
160 119 81
160 119 81
155 116 79
155 116 79
155 116 79
155 116 79
155 116 79
155 116 79
155 116 79
155 116 79
155 116 79
155 116 79
155 116 79
155 116 79
155 116 79
155 116 79
155 116 79
155 116 79
155 116 79
155 116 79
155 116 79
155 116 79
155 116 79
155 116 79
155 116 79
155 116 79
155 116 79
155 116 79
155 116 79
155 116 79
155 116 79
155 116 79
155 116 79
155 116 79
155 116 79
155 116 79
155 116 79
155 116 79
155 116 79
120 91 63
120 91 63
120 91 63
120 91 63
120 91 63
120 91 63
120 91 63
120 91 63
120 91 63
120 91 63
120 91 63
88 68 50
88 68 50
88 68 50
88 68 50
88 68 50
88 68 50
88 68 50
88 68 50
88 68 50
88 68 50
88 68 50
88 68 50
88 68 50
88 68 50
88 68 50
88 68 50
88 68 50
88 68 50
88 68 50
88 68 50
88 68 50
88 68 50
88 68 50
88 68 50
88 68 50
88 68 50
88 68 50
88 68 50
88 68 50
88 68 50
88 68 50
88 68 50
88 68 50
88 68 50
88 68 50
88 68 50
88 68 50
0 0 0
0 0 0
0 0 0
0 0 0
0 0 0
0 0 0
0 0 0
0 0 0
0 0 0
0 0 0
0 0 0
0 0 0
0 0 0
0 0 0
0 0 0
0 0 0
0 0 0
0 0 0
0 0 0
0 0 0
0 0 0
0 0 0
0 0 0
0 0 0
0 0 0
0 0 0
0 0 0
0 0 0
0 0 0
0 0 0
0 0 0
0 0 0
0 0 0
0 0 0
0 0 0
0 0 0
0 0 0
0 0 0
0 0 0
0 0 0
0 0 0
0 0 0
0 0 0
0 0 0
0 0 0
0 0 0
0 0 0
0 0 0
0 0 0
0 0 0
0 0 0
0 0 0
0 0 0
0 0 0
0 0 0
0 0 0
0 0 0
0 0 0
0 0 0
0 0 0
0 0 0
0 0 0
0 0 0
0 0 0
167 124 84
167 124 84
167 124 84
167 124 84
167 124 84
167 124 84
167 124 84
167 124 84
167 124 84
167 124 84
181 135 91
181 135 91
181 135 91
181 135 91
181 135 91
181 135 91
181 135 91
181 135 91
181 135 91
181 135 91
181 135 91
181 135 91
181 135 91
181 135 91
181 135 91
181 135 91
181 135 91
181 135 91
181 135 91
181 135 91
181 135 91
181 135 91
181 135 91
181 135 91
181 135 91
181 135 91
181 135 91
181 135 91
181 135 91
181 135 91
181 135 91
181 135 91
181 135 91
181 135 91
181 135 91
181 135 91
181 135 91
181 135 91
174 130 88
174 130 88
174 130 88
174 130 88
174 130 88
174 130 88
174 130 88
174 130 88
174 130 88
174 130 88
178 132 90
178 132 90
178 132 90
178 132 90
178 132 90
178 132 90
178 132 90
178 132 90
178 132 90
178 132 90
178 132 90
178 132 90
178 132 90
178 132 90
178 132 90
178 132 90
178 132 90
178 132 90
178 132 90
178 132 90
178 132 90
178 132 90
178 132 90
178 132 90
178 132 90
178 132 90
178 132 90
178 132 90
178 132 90
178 132 90
178 132 90
178 132 90
178 132 90
178 132 90
178 132 90
178 132 90
178 132 90
178 132 90
160 119 81
160 119 81
160 119 81
160 119 81
160 119 81
160 119 81
160 119 81
160 119 81
160 119 81
160 119 81
155 116 79
155 116 79
155 116 79
155 116 79
155 116 79
155 116 79
155 116 79
155 116 79
155 116 79
155 116 79
155 116 79
155 116 79
155 116 79
155 116 79
155 116 79
155 116 79
155 116 79
155 116 79
155 116 79
155 116 79
155 116 79
155 116 79
155 116 79
155 116 79
155 116 79
155 116 79
155 116 79
155 116 79
155 116 79
155 116 79
155 116 79
155 116 79
155 116 79
155 116 79
155 116 79
155 116 79
155 116 79
155 116 79
120 91 63
120 91 63
120 91 63
120 91 63
120 91 63
120 91 63
120 91 63
120 91 63
120 91 63
120 91 63
88 68 50
88 68 50
88 68 50
88 68 50
88 68 50
88 68 50
88 68 50
88 68 50
88 68 50
88 68 50
88 68 50
88 68 50
88 68 50
88 68 50
88 68 50
88 68 50
88 68 50
88 68 50
88 68 50
88 68 50
88 68 50
88 68 50
88 68 50
88 68 50
88 68 50
88 68 50
88 68 50
88 68 50
88 68 50
88 68 50
88 68 50
88 68 50
88 68 50
88 68 50
88 68 50
88 68 50
88 68 50
88 68 50
0 0 0
0 0 0
0 0 0
0 0 0
0 0 0
0 0 0
0 0 0
0 0 0
0 0 0
0 0 0
0 0 0
0 0 0
0 0 0
0 0 0
0 0 0
0 0 0
0 0 0
0 0 0
0 0 0
0 0 0
0 0 0
0 0 0
0 0 0
0 0 0
0 0 0
0 0 0
0 0 0
0 0 0
0 0 0
0 0 0
0 0 0
0 0 0
0 0 0
0 0 0
0 0 0
0 0 0
0 0 0
0 0 0
0 0 0
0 0 0
0 0 0
0 0 0
0 0 0
0 0 0
0 0 0
0 0 0
0 0 0
0 0 0
0 0 0
0 0 0
0 0 0
0 0 0
0 0 0
0 0 0
0 0 0
0 0 0
0 0 0
0 0 0
0 0 0
0 0 0
0 0 0
0 0 0
0 0 0
0 0 0
167 124 84
167 124 84
167 124 84
167 124 84
167 124 84
167 124 84
167 124 84
167 124 84
181 135 91
181 135 91
181 135 91
181 135 91
181 135 91
181 135 91
181 135 91
181 135 91
181 135 91
181 135 91
181 135 91
181 135 91
181 135 91
181 135 91
181 135 91
181 135 91
181 135 91
181 135 91
181 135 91
181 135 91
181 135 91
181 135 91
181 135 91
181 135 91
181 135 91
181 135 91
181 135 91
181 135 91
181 135 91
181 135 91
181 135 91
181 135 91
181 135 91
181 135 91
181 135 91
181 135 91
181 135 91
181 135 91
181 135 91
181 135 91
174 130 88
174 130 88
174 130 88
174 130 88
174 130 88
174 130 88
174 130 88
174 130 88
178 132 90
178 132 90
178 132 90
178 132 90
178 132 90
178 132 90
178 132 90
178 132 90
178 132 90
178 132 90
178 132 90
178 132 90
178 132 90
178 132 90
178 132 90
178 132 90
178 132 90
178 132 90
178 132 90
178 132 90
178 132 90
178 132 90
178 132 90
178 132 90
178 132 90
178 132 90
178 132 90
178 132 90
178 132 90
178 132 90
178 132 90
178 132 90
178 132 90
178 132 90
178 132 90
178 132 90
178 132 90
178 132 90
178 132 90
178 132 90
160 119 81
160 119 81
160 119 81
160 119 81
160 119 81
160 119 81
160 119 81
160 119 81
155 116 79
155 116 79
155 116 79
155 116 79
155 116 79
155 116 79
155 116 79
155 116 79
155 116 79
155 116 79
155 116 79
155 116 79
155 116 79
155 116 79
155 116 79
155 116 79
155 116 79
155 116 79
155 116 79
155 116 79
155 116 79
155 116 79
155 116 79
155 116 79
155 116 79
155 116 79
155 116 79
155 116 79
155 116 79
155 116 79
155 116 79
155 116 79
155 116 79
155 116 79
155 116 79
155 116 79
155 116 79
155 116 79
155 116 79
155 116 79
120 91 63
120 91 63
120 91 63
120 91 63
120 91 63
120 91 63
120 91 63
120 91 63
88 68 50
88 68 50
88 68 50
88 68 50
88 68 50
88 68 50
88 68 50
88 68 50
88 68 50
88 68 50
88 68 50
88 68 50
88 68 50
88 68 50
88 68 50
88 68 50
88 68 50
88 68 50
88 68 50
88 68 50
88 68 50
88 68 50
88 68 50
88 68 50
88 68 50
88 68 50
88 68 50
88 68 50
88 68 50
88 68 50
88 68 50
88 68 50
88 68 50
88 68 50
88 68 50
88 68 50
88 68 50
88 68 50
88 68 50
88 68 50
0 0 0
0 0 0
0 0 0
0 0 0
0 0 0
0 0 0
0 0 0
0 0 0
0 0 0
0 0 0
0 0 0
0 0 0
0 0 0
0 0 0
0 0 0
0 0 0
0 0 0
0 0 0
0 0 0
0 0 0
0 0 0
0 0 0
0 0 0
0 0 0
0 0 0
0 0 0
0 0 0
0 0 0
0 0 0
0 0 0
0 0 0
0 0 0
0 0 0
0 0 0
0 0 0
0 0 0
0 0 0
0 0 0
0 0 0
0 0 0
0 0 0
0 0 0
0 0 0
0 0 0
0 0 0
0 0 0
0 0 0
0 0 0
0 0 0
0 0 0
0 0 0
0 0 0
0 0 0
0 0 0
0 0 0
0 0 0
0 0 0
0 0 0
0 0 0
0 0 0
0 0 0
0 0 0
0 0 0
0 0 0
167 124 84
167 124 84
167 124 84
167 124 84
167 124 84
167 124 84
167 124 84
181 135 91
181 135 91
181 135 91
181 135 91
181 135 91
181 135 91
181 135 91
181 135 91
181 135 91
181 135 91
181 135 91
181 135 91
181 135 91
181 135 91
181 135 91
181 135 91
181 135 91
181 135 91
181 135 91
181 135 91
181 135 91
181 135 91
181 135 91
181 135 91
181 135 91
181 135 91
181 135 91
181 135 91
181 135 91
181 135 91
181 135 91
181 135 91
181 135 91
181 135 91
181 135 91
181 135 91
181 135 91
181 135 91
181 135 91
181 135 91
181 135 91
174 130 88
174 130 88
174 130 88
174 130 88
174 130 88
174 130 88
174 130 88
178 132 90
178 132 90
178 132 90
178 132 90
178 132 90
178 132 90
178 132 90
178 132 90
178 132 90
178 132 90
178 132 90
178 132 90
178 132 90
178 132 90
178 132 90
178 132 90
178 132 90
178 132 90
178 132 90
178 132 90
178 132 90
178 132 90
178 132 90
178 132 90
178 132 90
178 132 90
178 132 90
178 132 90
178 132 90
178 132 90
178 132 90
178 132 90
178 132 90
178 132 90
178 132 90
178 132 90
178 132 90
178 132 90
178 132 90
178 132 90
178 132 90
160 119 81
160 119 81
160 119 81
160 119 81
160 119 81
160 119 81
160 119 81
155 116 79
155 116 79
155 116 79
155 116 79
155 116 79
155 116 79
155 116 79
155 116 79
155 116 79
155 116 79
155 116 79
155 116 79
155 116 79
155 116 79
155 116 79
155 116 79
155 116 79
155 116 79
155 116 79
155 116 79
155 116 79
155 116 79
155 116 79
155 116 79
155 116 79
155 116 79
155 116 79
155 116 79
155 116 79
155 116 79
155 116 79
155 116 79
155 116 79
155 116 79
155 116 79
155 116 79
155 116 79
155 116 79
155 116 79
155 116 79
155 116 79
120 91 63
120 91 63
120 91 63
120 91 63
120 91 63
120 91 63
120 91 63
88 68 50
88 68 50
88 68 50
88 68 50
88 68 50
88 68 50
88 68 50
88 68 50
88 68 50
88 68 50
88 68 50
88 68 50
88 68 50
88 68 50
88 68 50
88 68 50
88 68 50
88 68 50
88 68 50
88 68 50
88 68 50
88 68 50
88 68 50
88 68 50
88 68 50
88 68 50
88 68 50
88 68 50
88 68 50
88 68 50
88 68 50
88 68 50
88 68 50
88 68 50
88 68 50
88 68 50
88 68 50
88 68 50
88 68 50
88 68 50
88 68 50
0 0 0
0 0 0
0 0 0
0 0 0
0 0 0
0 0 0
0 0 0
0 0 0
0 0 0
0 0 0
0 0 0
0 0 0
0 0 0
0 0 0
0 0 0
0 0 0
0 0 0
0 0 0
0 0 0
0 0 0
0 0 0
0 0 0
0 0 0
0 0 0
0 0 0
0 0 0
0 0 0
0 0 0
0 0 0
0 0 0
0 0 0
0 0 0
0 0 0
0 0 0
0 0 0
0 0 0
0 0 0
0 0 0
0 0 0
0 0 0
0 0 0
0 0 0
0 0 0
0 0 0
0 0 0
0 0 0
0 0 0
0 0 0
0 0 0
0 0 0
0 0 0
0 0 0
0 0 0
0 0 0
0 0 0
0 0 0
0 0 0
0 0 0
0 0 0
0 0 0
0 0 0
0 0 0
0 0 0
0 0 0
167 124 84
167 124 84
167 124 84
167 124 84
167 124 84
181 135 91
181 135 91
181 135 91
181 135 91
181 135 91
181 135 91
181 135 91
181 135 91
181 135 91
181 135 91
181 135 91
181 135 91
181 135 91
181 135 91
181 135 91
181 135 91
181 135 91
181 135 91
181 135 91
181 135 91
181 135 91
181 135 91
181 135 91
181 135 91
181 135 91
181 135 91
181 135 91
181 135 91
181 135 91
181 135 91
181 135 91
181 135 91
181 135 91
181 135 91
181 135 91
181 135 91
181 135 91
181 135 91
181 135 91
181 135 91
181 135 91
181 135 91
181 135 91
174 130 88
174 130 88
174 130 88
174 130 88
174 130 88
178 132 90
178 132 90
178 132 90
178 132 90
178 132 90
178 132 90
178 132 90
178 132 90
178 132 90
178 132 90
178 132 90
178 132 90
178 132 90
178 132 90
178 132 90
178 132 90
178 132 90
178 132 90
178 132 90
178 132 90
178 132 90
178 132 90
178 132 90
178 132 90
178 132 90
178 132 90
178 132 90
178 132 90
178 132 90
178 132 90
178 132 90
178 132 90
178 132 90
178 132 90
178 132 90
178 132 90
178 132 90
178 132 90
178 132 90
178 132 90
178 132 90
178 132 90
178 132 90
160 119 81
160 119 81
160 119 81
160 119 81
160 119 81
155 116 79
155 116 79
155 116 79
155 116 79
155 116 79
155 116 79
155 116 79
155 116 79
155 116 79
155 116 79
155 116 79
155 116 79
155 116 79
155 116 79
155 116 79
155 116 79
155 116 79
155 116 79
155 116 79
155 116 79
155 116 79
155 116 79
155 116 79
155 116 79
155 116 79
155 116 79
155 116 79
155 116 79
155 116 79
155 116 79
155 116 79
155 116 79
155 116 79
155 116 79
155 116 79
155 116 79
155 116 79
155 116 79
155 116 79
155 116 79
155 116 79
155 116 79
155 116 79
120 91 63
120 91 63
120 91 63
120 91 63
120 91 63
88 68 50
88 68 50
88 68 50
88 68 50
88 68 50
88 68 50
88 68 50
88 68 50
88 68 50
88 68 50
88 68 50
88 68 50
88 68 50
88 68 50
88 68 50
88 68 50
88 68 50
88 68 50
88 68 50
88 68 50
88 68 50
88 68 50
88 68 50
88 68 50
88 68 50
88 68 50
88 68 50
88 68 50
88 68 50
88 68 50
88 68 50
88 68 50
88 68 50
88 68 50
88 68 50
88 68 50
88 68 50
88 68 50
88 68 50
88 68 50
88 68 50
88 68 50
88 68 50
0 0 0
0 0 0
0 0 0
0 0 0
0 0 0
0 0 0
0 0 0
0 0 0
0 0 0
0 0 0
0 0 0
0 0 0
0 0 0
0 0 0
0 0 0
0 0 0
0 0 0
0 0 0
0 0 0
0 0 0
0 0 0
0 0 0
0 0 0
0 0 0
0 0 0
0 0 0
0 0 0
0 0 0
0 0 0
0 0 0
0 0 0
0 0 0
0 0 0
0 0 0
0 0 0
0 0 0
0 0 0
0 0 0
0 0 0
0 0 0
0 0 0
0 0 0
0 0 0
0 0 0
0 0 0
0 0 0
0 0 0
0 0 0
0 0 0
0 0 0
0 0 0
0 0 0
0 0 0
0 0 0
0 0 0
0 0 0
0 0 0
0 0 0
0 0 0
0 0 0
0 0 0
0 0 0
0 0 0
0 0 0
167 124 84
167 124 84
167 124 84
167 124 84
181 135 91
181 135 91
181 135 91
181 135 91
181 135 91
181 135 91
181 135 91
181 135 91
181 135 91
181 135 91
181 135 91
181 135 91
181 135 91
181 135 91
181 135 91
181 135 91
181 135 91
181 135 91
181 135 91
181 135 91
181 135 91
181 135 91
181 135 91
181 135 91
181 135 91
181 135 91
181 135 91
181 135 91
181 135 91
181 135 91
181 135 91
181 135 91
181 135 91
181 135 91
181 135 91
181 135 91
181 135 91
181 135 91
181 135 91
181 135 91
181 135 91
181 135 91
181 135 91
181 135 91
174 130 88
174 130 88
174 130 88
174 130 88
178 132 90
178 132 90
178 132 90
178 132 90
178 132 90
178 132 90
178 132 90
178 132 90
178 132 90
178 132 90
178 132 90
178 132 90
178 132 90
178 132 90
178 132 90
178 132 90
178 132 90
178 132 90
178 132 90
178 132 90
178 132 90
178 132 90
178 132 90
178 132 90
178 132 90
178 132 90
178 132 90
178 132 90
178 132 90
178 132 90
178 132 90
178 132 90
178 132 90
178 132 90
178 132 90
178 132 90
178 132 90
178 132 90
178 132 90
178 132 90
178 132 90
178 132 90
178 132 90
178 132 90
160 119 81
160 119 81
160 119 81
160 119 81
155 116 79
155 116 79
155 116 79
155 116 79
155 116 79
155 116 79
155 116 79
155 116 79
155 116 79
155 116 79
155 116 79
155 116 79
155 116 79
155 116 79
155 116 79
155 116 79
155 116 79
155 116 79
155 116 79
155 116 79
155 116 79
155 116 79
155 116 79
155 116 79
155 116 79
155 116 79
155 116 79
155 116 79
155 116 79
155 116 79
155 116 79
155 116 79
155 116 79
155 116 79
155 116 79
155 116 79
155 116 79
155 116 79
155 116 79
155 116 79
155 116 79
155 116 79
155 116 79
155 116 79
120 91 63
120 91 63
120 91 63
120 91 63
88 68 50
88 68 50
88 68 50
88 68 50
88 68 50
88 68 50
88 68 50
88 68 50
88 68 50
88 68 50
88 68 50
88 68 50
88 68 50
88 68 50
88 68 50
88 68 50
88 68 50
88 68 50
88 68 50
88 68 50
88 68 50
88 68 50
88 68 50
88 68 50
88 68 50
88 68 50
88 68 50
88 68 50
88 68 50
88 68 50
88 68 50
88 68 50
88 68 50
88 68 50
88 68 50
88 68 50
88 68 50
88 68 50
88 68 50
88 68 50
88 68 50
88 68 50
88 68 50
88 68 50
0 0 0
0 0 0
0 0 0
0 0 0
0 0 0
0 0 0
0 0 0
0 0 0
0 0 0
0 0 0
0 0 0
0 0 0
0 0 0
0 0 0
0 0 0
0 0 0
0 0 0
0 0 0
0 0 0
0 0 0
0 0 0
0 0 0
0 0 0
0 0 0
0 0 0
0 0 0
0 0 0
0 0 0
0 0 0
0 0 0
0 0 0
0 0 0
0 0 0
0 0 0
0 0 0
0 0 0
0 0 0
0 0 0
0 0 0
0 0 0
0 0 0
0 0 0
0 0 0
0 0 0
0 0 0
0 0 0
0 0 0
0 0 0
0 0 0
0 0 0
0 0 0
0 0 0
0 0 0
0 0 0
0 0 0
0 0 0
0 0 0
0 0 0
0 0 0
0 0 0
0 0 0
0 0 0
0 0 0
0 0 0
167 124 84
167 124 84
181 135 91
181 135 91
181 135 91
181 135 91
181 135 91
181 135 91
181 135 91
181 135 91
181 135 91
181 135 91
181 135 91
181 135 91
181 135 91
181 135 91
181 135 91
181 135 91
181 135 91
181 135 91
181 135 91
181 135 91
181 135 91
181 135 91
181 135 91
181 135 91
181 135 91
181 135 91
181 135 91
181 135 91
181 135 91
181 135 91
181 135 91
181 135 91
181 135 91
181 135 91
181 135 91
181 135 91
181 135 91
181 135 91
181 135 91
181 135 91
181 135 91
181 135 91
181 135 91
181 135 91
181 135 91
181 135 91
174 130 88
174 130 88
178 132 90
178 132 90
178 132 90
178 132 90
178 132 90
178 132 90
178 132 90
178 132 90
178 132 90
178 132 90
178 132 90
178 132 90
178 132 90
178 132 90
178 132 90
178 132 90
178 132 90
178 132 90
178 132 90
178 132 90
178 132 90
178 132 90
178 132 90
178 132 90
178 132 90
178 132 90
178 132 90
178 132 90
178 132 90
178 132 90
178 132 90
178 132 90
178 132 90
178 132 90
178 132 90
178 132 90
178 132 90
178 132 90
178 132 90
178 132 90
178 132 90
178 132 90
178 132 90
178 132 90
178 132 90
178 132 90
160 119 81
160 119 81
155 116 79
155 116 79
155 116 79
155 116 79
155 116 79
155 116 79
155 116 79
155 116 79
155 116 79
155 116 79
155 116 79
155 116 79
155 116 79
155 116 79
155 116 79
155 116 79
155 116 79
155 116 79
155 116 79
155 116 79
155 116 79
155 116 79
155 116 79
155 116 79
155 116 79
155 116 79
155 116 79
155 116 79
155 116 79
155 116 79
155 116 79
155 116 79
155 116 79
155 116 79
155 116 79
155 116 79
155 116 79
155 116 79
155 116 79
155 116 79
155 116 79
155 116 79
155 116 79
155 116 79
155 116 79
155 116 79
120 91 63
120 91 63
88 68 50
88 68 50
88 68 50
88 68 50
88 68 50
88 68 50
88 68 50
88 68 50
88 68 50
88 68 50
88 68 50
88 68 50
88 68 50
88 68 50
88 68 50
88 68 50
88 68 50
88 68 50
88 68 50
88 68 50
88 68 50
88 68 50
88 68 50
88 68 50
88 68 50
88 68 50
88 68 50
88 68 50
88 68 50
88 68 50
88 68 50
88 68 50
88 68 50
88 68 50
88 68 50
88 68 50
88 68 50
88 68 50
88 68 50
88 68 50
88 68 50
88 68 50
88 68 50
88 68 50
88 68 50
88 68 50
0 0 0
0 0 0
0 0 0
0 0 0
0 0 0
0 0 0
0 0 0
0 0 0
0 0 0
0 0 0
0 0 0
0 0 0
0 0 0
0 0 0
0 0 0
0 0 0
0 0 0
0 0 0
0 0 0
0 0 0
0 0 0
0 0 0
0 0 0
0 0 0
0 0 0
0 0 0
0 0 0
0 0 0
0 0 0
0 0 0
0 0 0
0 0 0
0 0 0
0 0 0
0 0 0
0 0 0
0 0 0
0 0 0
0 0 0
0 0 0
0 0 0
0 0 0
0 0 0
0 0 0
0 0 0
0 0 0
0 0 0
0 0 0
0 0 0
0 0 0
0 0 0
0 0 0
0 0 0
0 0 0
0 0 0
0 0 0
0 0 0
0 0 0
0 0 0
0 0 0
0 0 0
0 0 0
0 0 0
0 0 0
167 124 84
181 135 91
181 135 91
181 135 91
181 135 91
181 135 91
181 135 91
181 135 91
181 135 91
181 135 91
181 135 91
181 135 91
181 135 91
181 135 91
181 135 91
181 135 91
181 135 91
181 135 91
181 135 91
181 135 91
181 135 91
181 135 91
181 135 91
181 135 91
181 135 91
181 135 91
181 135 91
181 135 91
181 135 91
181 135 91
181 135 91
181 135 91
181 135 91
181 135 91
181 135 91
181 135 91
181 135 91
181 135 91
181 135 91
181 135 91
181 135 91
181 135 91
181 135 91
181 135 91
181 135 91
181 135 91
181 135 91
181 135 91
174 130 88
178 132 90
178 132 90
178 132 90
178 132 90
178 132 90
178 132 90
178 132 90
178 132 90
178 132 90
178 132 90
178 132 90
178 132 90
178 132 90
178 132 90
178 132 90
178 132 90
178 132 90
178 132 90
178 132 90
178 132 90
178 132 90
178 132 90
178 132 90
178 132 90
178 132 90
178 132 90
178 132 90
178 132 90
178 132 90
178 132 90
178 132 90
178 132 90
178 132 90
178 132 90
178 132 90
178 132 90
178 132 90
178 132 90
178 132 90
178 132 90
178 132 90
178 132 90
178 132 90
178 132 90
178 132 90
178 132 90
178 132 90
160 119 81
155 116 79
155 116 79
155 116 79
155 116 79
155 116 79
155 116 79
155 116 79
155 116 79
155 116 79
155 116 79
155 116 79
155 116 79
155 116 79
155 116 79
155 116 79
155 116 79
155 116 79
155 116 79
155 116 79
155 116 79
155 116 79
155 116 79
155 116 79
155 116 79
155 116 79
155 116 79
155 116 79
155 116 79
155 116 79
155 116 79
155 116 79
155 116 79
155 116 79
155 116 79
155 116 79
155 116 79
155 116 79
155 116 79
155 116 79
155 116 79
155 116 79
155 116 79
155 116 79
155 116 79
155 116 79
155 116 79
155 116 79
120 91 63
88 68 50
88 68 50
88 68 50
88 68 50
88 68 50
88 68 50
88 68 50
88 68 50
88 68 50
88 68 50
88 68 50
88 68 50
88 68 50
88 68 50
88 68 50
88 68 50
88 68 50
88 68 50
88 68 50
88 68 50
88 68 50
88 68 50
88 68 50
88 68 50
88 68 50
88 68 50
88 68 50
88 68 50
88 68 50
88 68 50
88 68 50
88 68 50
88 68 50
88 68 50
88 68 50
88 68 50
88 68 50
88 68 50
88 68 50
88 68 50
88 68 50
88 68 50
88 68 50
88 68 50
88 68 50
88 68 50
88 68 50
0 0 0
0 0 0
0 0 0
0 0 0
0 0 0
0 0 0
0 0 0
0 0 0
0 0 0
0 0 0
0 0 0
0 0 0
0 0 0
0 0 0
0 0 0
0 0 0
0 0 0
0 0 0
0 0 0
0 0 0
0 0 0
0 0 0
0 0 0
0 0 0
0 0 0
0 0 0
0 0 0
0 0 0
0 0 0
0 0 0
0 0 0
0 0 0
0 0 0
0 0 0
0 0 0
0 0 0
0 0 0
0 0 0
0 0 0
0 0 0
0 0 0
0 0 0
0 0 0
0 0 0
0 0 0
0 0 0
0 0 0
0 0 0
0 0 0
0 0 0
0 0 0
0 0 0
0 0 0
0 0 0
0 0 0
0 0 0
0 0 0
0 0 0
0 0 0
0 0 0
0 0 0
0 0 0
0 0 0
0 0 0
0 0 0
0 0 0
0 0 0
0 0 0
0 0 0
0 0 0
0 0 0
0 0 0
0 0 0
0 0 0
0 0 0
0 0 0
0 0 0
0 0 0
0 0 0
0 0 0
0 0 0
0 0 0
0 0 0
0 0 0
0 0 0
0 0 0
0 0 0
0 0 0
0 0 0
0 0 0
0 0 0
0 0 0
0 0 0
0 0 0
0 0 0
0 0 0
0 0 0
0 0 0
0 0 0
0 0 0
0 0 0
0 0 0
0 0 0
0 0 0
0 0 0
0 0 0
0 0 0
0 0 0
0 0 0
0 0 0
0 0 0
0 0 0
0 0 0
0 0 0
0 0 0
0 0 0
0 0 0
0 0 0
0 0 0
0 0 0
0 0 0
0 0 0
0 0 0
0 0 0
0 0 0
0 0 0
0 0 0
0 0 0
0 0 0
0 0 0
0 0 0
0 0 0
0 0 0
0 0 0
0 0 0
0 0 0
0 0 0
0 0 0
0 0 0
0 0 0
0 0 0
0 0 0
0 0 0
0 0 0
0 0 0
0 0 0
0 0 0
0 0 0
0 0 0
0 0 0
0 0 0
0 0 0
0 0 0
0 0 0
0 0 0
0 0 0
0 0 0
0 0 0
0 0 0
0 0 0
0 0 0
0 0 0
0 0 0
0 0 0
0 0 0
0 0 0
0 0 0
0 0 0
0 0 0
0 0 0
0 0 0
0 0 0
0 0 0
0 0 0
0 0 0
0 0 0
0 0 0
0 0 0
0 0 0
0 0 0
0 0 0
0 0 0
0 0 0
0 0 0
0 0 0
0 0 0
0 0 0
0 0 0
0 0 0
0 0 0
0 0 0
0 0 0
0 0 0
0 0 0
0 0 0
0 0 0
0 0 0
0 0 0
0 0 0
0 0 0
0 0 0
0 0 0
0 0 0
0 0 0
0 0 0
0 0 0
0 0 0
0 0 0
0 0 0
0 0 0
0 0 0
0 0 0
0 0 0
0 0 0
0 0 0
0 0 0
0 0 0
0 0 0
0 0 0
0 0 0
0 0 0
0 0 0
0 0 0
0 0 0
0 0 0
0 0 0
0 0 0
0 0 0
0 0 0
0 0 0
0 0 0
0 0 0
0 0 0
0 0 0
0 0 0
0 0 0
0 0 0
0 0 0
0 0 0
0 0 0
0 0 0
0 0 0
0 0 0
0 0 0
0 0 0
0 0 0
0 0 0
0 0 0
0 0 0
0 0 0
0 0 0
0 0 0
0 0 0
0 0 0
0 0 0
0 0 0
0 0 0
0 0 0
0 0 0
0 0 0
0 0 0
0 0 0
0 0 0
0 0 0
0 0 0
0 0 0
0 0 0
0 0 0
0 0 0
0 0 0
0 0 0
0 0 0
0 0 0
0 0 0
0 0 0
0 0 0
0 0 0
0 0 0
0 0 0
0 0 0
0 0 0
0 0 0
0 0 0
0 0 0
0 0 0
0 0 0
0 0 0
0 0 0
0 0 0
0 0 0
0 0 0
0 0 0
0 0 0
0 0 0
0 0 0
0 0 0
0 0 0
0 0 0
0 0 0
0 0 0
0 0 0
0 0 0
0 0 0
0 0 0
0 0 0
0 0 0
0 0 0
0 0 0
0 0 0
0 0 0
0 0 0
0 0 0
0 0 0
0 0 0
0 0 0
0 0 0
0 0 0
0 0 0
0 0 0
0 0 0
0 0 0
0 0 0
0 0 0
0 0 0
0 0 0
0 0 0
0 0 0
0 0 0
0 0 0
0 0 0
0 0 0
0 0 0
0 0 0
0 0 0
0 0 0
0 0 0
0 0 0
0 0 0
0 0 0
0 0 0
0 0 0
0 0 0
0 0 0
0 0 0
0 0 0
0 0 0
0 0 0
0 0 0
0 0 0
0 0 0
0 0 0
0 0 0
0 0 0
0 0 0
0 0 0
0 0 0
0 0 0
0 0 0
0 0 0
0 0 0
0 0 0
0 0 0
0 0 0
0 0 0
0 0 0
0 0 0
0 0 0
0 0 0
0 0 0
0 0 0
0 0 0
0 0 0
0 0 0
0 0 0
0 0 0
0 0 0
0 0 0
0 0 0
0 0 0
0 0 0
0 0 0
0 0 0
0 0 0
0 0 0
0 0 0
0 0 0
0 0 0
0 0 0
0 0 0
0 0 0
0 0 0
0 0 0
0 0 0
0 0 0
0 0 0
0 0 0
0 0 0
0 0 0
0 0 0
0 0 0
0 0 0
0 0 0
0 0 0
0 0 0
0 0 0
0 0 0
0 0 0
0 0 0
0 0 0
0 0 0
0 0 0
0 0 0
0 0 0
0 0 0
0 0 0
0 0 0
0 0 0
0 0 0
0 0 0
0 0 0
0 0 0
0 0 0
0 0 0
0 0 0
0 0 0
0 0 0
0 0 0
0 0 0
0 0 0
0 0 0
0 0 0
0 0 0
0 0 0
0 0 0
0 0 0
0 0 0
0 0 0
0 0 0
0 0 0
0 0 0
0 0 0
0 0 0
0 0 0
0 0 0
0 0 0
0 0 0
0 0 0
0 0 0
0 0 0
0 0 0
0 0 0
0 0 0
0 0 0
0 0 0
0 0 0
0 0 0
0 0 0
0 0 0
0 0 0
0 0 0
0 0 0
0 0 0
0 0 0
0 0 0
0 0 0
0 0 0
0 0 0
0 0 0
0 0 0
0 0 0
0 0 0
0 0 0
0 0 0
0 0 0
0 0 0
0 0 0
0 0 0
0 0 0
0 0 0
0 0 0
0 0 0
0 0 0
0 0 0
0 0 0
0 0 0
0 0 0
0 0 0
0 0 0
0 0 0
0 0 0
0 0 0
0 0 0
0 0 0
0 0 0
0 0 0
0 0 0
0 0 0
0 0 0
0 0 0
0 0 0
0 0 0
0 0 0
0 0 0
0 0 0
0 0 0
0 0 0
0 0 0
0 0 0
0 0 0
0 0 0
0 0 0
0 0 0
0 0 0
0 0 0
0 0 0
0 0 0
0 0 0
0 0 0
0 0 0
0 0 0
0 0 0
0 0 0
0 0 0
0 0 0
0 0 0
0 0 0
0 0 0
0 0 0
0 0 0
0 0 0
0 0 0
0 0 0
0 0 0
0 0 0
0 0 0
0 0 0
0 0 0
0 0 0
0 0 0
0 0 0
0 0 0
0 0 0
0 0 0
0 0 0
0 0 0
0 0 0
0 0 0
0 0 0
0 0 0
0 0 0
0 0 0
0 0 0
0 0 0
0 0 0
0 0 0
0 0 0
0 0 0
0 0 0
0 0 0
0 0 0
0 0 0
0 0 0
0 0 0
0 0 0
0 0 0
0 0 0
0 0 0
0 0 0
0 0 0
0 0 0
0 0 0
0 0 0
0 0 0
0 0 0
0 0 0
0 0 0
0 0 0
0 0 0
0 0 0
0 0 0
0 0 0
0 0 0
0 0 0
0 0 0
0 0 0
0 0 0
0 0 0
0 0 0
0 0 0
0 0 0
0 0 0
0 0 0
0 0 0
0 0 0
0 0 0
0 0 0
0 0 0
0 0 0
0 0 0
0 0 0
0 0 0
0 0 0
0 0 0
0 0 0
0 0 0
0 0 0
0 0 0
0 0 0
0 0 0
0 0 0
0 0 0
0 0 0
0 0 0
0 0 0
0 0 0
0 0 0
0 0 0
0 0 0
0 0 0
0 0 0
0 0 0
0 0 0
0 0 0
0 0 0
0 0 0
0 0 0
0 0 0
0 0 0
0 0 0
0 0 0
0 0 0
0 0 0
0 0 0
0 0 0
0 0 0
0 0 0
0 0 0
0 0 0
0 0 0
0 0 0
0 0 0
0 0 0
0 0 0
0 0 0
0 0 0
0 0 0
0 0 0
0 0 0
0 0 0
0 0 0
0 0 0
0 0 0
0 0 0
0 0 0
0 0 0
0 0 0
0 0 0
0 0 0
0 0 0
0 0 0
0 0 0
0 0 0
0 0 0
0 0 0
0 0 0
0 0 0
0 0 0
0 0 0
0 0 0
0 0 0
0 0 0
0 0 0
0 0 0
0 0 0
0 0 0
0 0 0
0 0 0
0 0 0
0 0 0
0 0 0
0 0 0
0 0 0
0 0 0
0 0 0
0 0 0
0 0 0
0 0 0
0 0 0
0 0 0
0 0 0
0 0 0
0 0 0
0 0 0
0 0 0
0 0 0
0 0 0
0 0 0
0 0 0
0 0 0
0 0 0
0 0 0
0 0 0
0 0 0
0 0 0
0 0 0
0 0 0
0 0 0
0 0 0
0 0 0
0 0 0
0 0 0
0 0 0
0 0 0
0 0 0
0 0 0
0 0 0
0 0 0
0 0 0
0 0 0
0 0 0
0 0 0
0 0 0
0 0 0
0 0 0
0 0 0
0 0 0
0 0 0
0 0 0
0 0 0
0 0 0
0 0 0
0 0 0
0 0 0
0 0 0
0 0 0
0 0 0
0 0 0
0 0 0
0 0 0
0 0 0
0 0 0
0 0 0
0 0 0
0 0 0
0 0 0
0 0 0
0 0 0
0 0 0
0 0 0
0 0 0
0 0 0
0 0 0
0 0 0
0 0 0
0 0 0
0 0 0
0 0 0
0 0 0
0 0 0
0 0 0
0 0 0
0 0 0
0 0 0
0 0 0
0 0 0
0 0 0
0 0 0
0 0 0
0 0 0
0 0 0
0 0 0
0 0 0
0 0 0
0 0 0
0 0 0
0 0 0
0 0 0
0 0 0
0 0 0
0 0 0
0 0 0
0 0 0
0 0 0
0 0 0
0 0 0
0 0 0
0 0 0
0 0 0
0 0 0
0 0 0
0 0 0
0 0 0
0 0 0
0 0 0
0 0 0
0 0 0
0 0 0
0 0 0
0 0 0
0 0 0
0 0 0
0 0 0
0 0 0
0 0 0
0 0 0
0 0 0
0 0 0
0 0 0
0 0 0
0 0 0
0 0 0
0 0 0
0 0 0
0 0 0
0 0 0
0 0 0
0 0 0
0 0 0
0 0 0
0 0 0
0 0 0
0 0 0
0 0 0
0 0 0
0 0 0
0 0 0
0 0 0
0 0 0
0 0 0
0 0 0
0 0 0
0 0 0
0 0 0
0 0 0
0 0 0
0 0 0
0 0 0
0 0 0
0 0 0
0 0 0
0 0 0
0 0 0
0 0 0
0 0 0
0 0 0
0 0 0
0 0 0
0 0 0
0 0 0
0 0 0
0 0 0
0 0 0
0 0 0
0 0 0
0 0 0
0 0 0
0 0 0
0 0 0
0 0 0
0 0 0
0 0 0
0 0 0
0 0 0
0 0 0
0 0 0
0 0 0
0 0 0
0 0 0
0 0 0
0 0 0
0 0 0
0 0 0
0 0 0
0 0 0
0 0 0
0 0 0
0 0 0
0 0 0
0 0 0
0 0 0
0 0 0
0 0 0
0 0 0
0 0 0
0 0 0
0 0 0
0 0 0
0 0 0
0 0 0
0 0 0
0 0 0
0 0 0
0 0 0
0 0 0
0 0 0
0 0 0
0 0 0
0 0 0
0 0 0
0 0 0
0 0 0
0 0 0
0 0 0
0 0 0
0 0 0
0 0 0
0 0 0
0 0 0
0 0 0
0 0 0
0 0 0
0 0 0
0 0 0
0 0 0
0 0 0
0 0 0
0 0 0
0 0 0
0 0 0
0 0 0
0 0 0
0 0 0
0 0 0
0 0 0
0 0 0
0 0 0
0 0 0
0 0 0
0 0 0
0 0 0
0 0 0
0 0 0
0 0 0
0 0 0
0 0 0
0 0 0
0 0 0
0 0 0
0 0 0
0 0 0
0 0 0
0 0 0
0 0 0
0 0 0
0 0 0
0 0 0
0 0 0
0 0 0
0 0 0
0 0 0
0 0 0
0 0 0
0 0 0
0 0 0
0 0 0
0 0 0
0 0 0
0 0 0
0 0 0
0 0 0
0 0 0
0 0 0
0 0 0
0 0 0
0 0 0
0 0 0
0 0 0
0 0 0
0 0 0
0 0 0
0 0 0
0 0 0
0 0 0
0 0 0
0 0 0
0 0 0
0 0 0
0 0 0
0 0 0
0 0 0
0 0 0
0 0 0
0 0 0
0 0 0
0 0 0
0 0 0
0 0 0
0 0 0
0 0 0
0 0 0
0 0 0
0 0 0
0 0 0
0 0 0
0 0 0
0 0 0
0 0 0
0 0 0
0 0 0
0 0 0
0 0 0
0 0 0
0 0 0
0 0 0
0 0 0
0 0 0
0 0 0
0 0 0
0 0 0
0 0 0
0 0 0
0 0 0
0 0 0
0 0 0
0 0 0
0 0 0
0 0 0
0 0 0
0 0 0
0 0 0
0 0 0
0 0 0
0 0 0
0 0 0
0 0 0
0 0 0
0 0 0
0 0 0
0 0 0
0 0 0
0 0 0
0 0 0
0 0 0
0 0 0
0 0 0
0 0 0
0 0 0
0 0 0
0 0 0
0 0 0
0 0 0
0 0 0
0 0 0
0 0 0
0 0 0
0 0 0
0 0 0
0 0 0
0 0 0
0 0 0
0 0 0
0 0 0
0 0 0
0 0 0
0 0 0
0 0 0
0 0 0
0 0 0
0 0 0
0 0 0
0 0 0
0 0 0
0 0 0
0 0 0
0 0 0
0 0 0
0 0 0
0 0 0
0 0 0
0 0 0
0 0 0
0 0 0
0 0 0
0 0 0
0 0 0
0 0 0
0 0 0
0 0 0
0 0 0
0 0 0
0 0 0
0 0 0
0 0 0
0 0 0
0 0 0
0 0 0
0 0 0
0 0 0
0 0 0
0 0 0
0 0 0
0 0 0
0 0 0
0 0 0
0 0 0
0 0 0
0 0 0
0 0 0
0 0 0
0 0 0
0 0 0
0 0 0
0 0 0
0 0 0
0 0 0
0 0 0
0 0 0
0 0 0
0 0 0
0 0 0
0 0 0
0 0 0
0 0 0
0 0 0
0 0 0
0 0 0
0 0 0
0 0 0
0 0 0
0 0 0
0 0 0
0 0 0
0 0 0
0 0 0
0 0 0
0 0 0
0 0 0
0 0 0
0 0 0
0 0 0
0 0 0
0 0 0
0 0 0
0 0 0
0 0 0
0 0 0
0 0 0
0 0 0
0 0 0
0 0 0
0 0 0
0 0 0
0 0 0
0 0 0
0 0 0
0 0 0
0 0 0
0 0 0
0 0 0
0 0 0
0 0 0
0 0 0
0 0 0
0 0 0
0 0 0
0 0 0
0 0 0
0 0 0
0 0 0
0 0 0
0 0 0
0 0 0
0 0 0
0 0 0
0 0 0
0 0 0
0 0 0
0 0 0
0 0 0
0 0 0
0 0 0
0 0 0
0 0 0
0 0 0
0 0 0
0 0 0
0 0 0
0 0 0
0 0 0
0 0 0
0 0 0
0 0 0
0 0 0
0 0 0
0 0 0
0 0 0
0 0 0
0 0 0
0 0 0
0 0 0
0 0 0
0 0 0
0 0 0
0 0 0
0 0 0
0 0 0
0 0 0
0 0 0
0 0 0
0 0 0
0 0 0
0 0 0
0 0 0
0 0 0
0 0 0
0 0 0
0 0 0
0 0 0
0 0 0
0 0 0
0 0 0
0 0 0
0 0 0
0 0 0
0 0 0
0 0 0
0 0 0
0 0 0
0 0 0
0 0 0
0 0 0
0 0 0
0 0 0
0 0 0
0 0 0
0 0 0
0 0 0
0 0 0
0 0 0
0 0 0
0 0 0
0 0 0
0 0 0
0 0 0
0 0 0
0 0 0
0 0 0
0 0 0
0 0 0
0 0 0
0 0 0
0 0 0
0 0 0
0 0 0
0 0 0
0 0 0
0 0 0
0 0 0
0 0 0
0 0 0
0 0 0
0 0 0
0 0 0
0 0 0
0 0 0
0 0 0
0 0 0
0 0 0
0 0 0
0 0 0
0 0 0
0 0 0
0 0 0
0 0 0
0 0 0
0 0 0
0 0 0
0 0 0
0 0 0
0 0 0
0 0 0
0 0 0
0 0 0
0 0 0
0 0 0
0 0 0
0 0 0
0 0 0
0 0 0
0 0 0
0 0 0
0 0 0
0 0 0
0 0 0
0 0 0
0 0 0
0 0 0
0 0 0
0 0 0
0 0 0
0 0 0
0 0 0
0 0 0
0 0 0
0 0 0
0 0 0
0 0 0
0 0 0
0 0 0
0 0 0
0 0 0
0 0 0
0 0 0
0 0 0
0 0 0
0 0 0
0 0 0
0 0 0
0 0 0
0 0 0
0 0 0
0 0 0
0 0 0
0 0 0
0 0 0
0 0 0
0 0 0
0 0 0
0 0 0
0 0 0
0 0 0
0 0 0
0 0 0
0 0 0
0 0 0
0 0 0
0 0 0
0 0 0
0 0 0
0 0 0
0 0 0
0 0 0
0 0 0
0 0 0
0 0 0
0 0 0
0 0 0
0 0 0
0 0 0
0 0 0
0 0 0
0 0 0
0 0 0
0 0 0
0 0 0
0 0 0
0 0 0
0 0 0
0 0 0
0 0 0
0 0 0
0 0 0
0 0 0
0 0 0
0 0 0
0 0 0
0 0 0
0 0 0
0 0 0
0 0 0
0 0 0
0 0 0
0 0 0
0 0 0
0 0 0
0 0 0
0 0 0
0 0 0
0 0 0
0 0 0
0 0 0
0 0 0
0 0 0
0 0 0
0 0 0
0 0 0
0 0 0
0 0 0
0 0 0
0 0 0
0 0 0
0 0 0
0 0 0
0 0 0
0 0 0
0 0 0
0 0 0
0 0 0
0 0 0
0 0 0
0 0 0
0 0 0
0 0 0
0 0 0
0 0 0
0 0 0
0 0 0
0 0 0
0 0 0
0 0 0
0 0 0
0 0 0
0 0 0
0 0 0
0 0 0
0 0 0
0 0 0
0 0 0
0 0 0
0 0 0
0 0 0
0 0 0
0 0 0
0 0 0
0 0 0
0 0 0
0 0 0
0 0 0
0 0 0
0 0 0
0 0 0
0 0 0
0 0 0
0 0 0
0 0 0
0 0 0
0 0 0
0 0 0
0 0 0
0 0 0
0 0 0
0 0 0
0 0 0
0 0 0
0 0 0
0 0 0
0 0 0
0 0 0
0 0 0
0 0 0
0 0 0
0 0 0
0 0 0
0 0 0
0 0 0
0 0 0
0 0 0
0 0 0
0 0 0
0 0 0
0 0 0
0 0 0
0 0 0
0 0 0
0 0 0
0 0 0
0 0 0
0 0 0
0 0 0
0 0 0
0 0 0
0 0 0
0 0 0
0 0 0
0 0 0
0 0 0
0 0 0
0 0 0
0 0 0
0 0 0
0 0 0
0 0 0
0 0 0
0 0 0
0 0 0
0 0 0
0 0 0
0 0 0
0 0 0
0 0 0
0 0 0
0 0 0
0 0 0
0 0 0
0 0 0
0 0 0
0 0 0
0 0 0
0 0 0
0 0 0
0 0 0
0 0 0
0 0 0
0 0 0
0 0 0
0 0 0
0 0 0
0 0 0
0 0 0
0 0 0
0 0 0
0 0 0
0 0 0
0 0 0
0 0 0
0 0 0
0 0 0
0 0 0
0 0 0
0 0 0
0 0 0
0 0 0
0 0 0
0 0 0
0 0 0
0 0 0
0 0 0
0 0 0
0 0 0
0 0 0
0 0 0
0 0 0
0 0 0
0 0 0
0 0 0
0 0 0
0 0 0
0 0 0
0 0 0
0 0 0
0 0 0
0 0 0
0 0 0
0 0 0
0 0 0
0 0 0
0 0 0
0 0 0
0 0 0
0 0 0
0 0 0
0 0 0
0 0 0
0 0 0
0 0 0
0 0 0
0 0 0
0 0 0
0 0 0
0 0 0
0 0 0
0 0 0
0 0 0
0 0 0
0 0 0
0 0 0
0 0 0
0 0 0
0 0 0
0 0 0
0 0 0
0 0 0
0 0 0
0 0 0
0 0 0
0 0 0
0 0 0
0 0 0
0 0 0
0 0 0
0 0 0
0 0 0
0 0 0
0 0 0
0 0 0
0 0 0
0 0 0
0 0 0
0 0 0
0 0 0
0 0 0
0 0 0
0 0 0
0 0 0
0 0 0
0 0 0
0 0 0
0 0 0
0 0 0
0 0 0
0 0 0
0 0 0
0 0 0
0 0 0
0 0 0
0 0 0
0 0 0
0 0 0
0 0 0
0 0 0
0 0 0
0 0 0
0 0 0
0 0 0
0 0 0
0 0 0
0 0 0
0 0 0
0 0 0
0 0 0
0 0 0
0 0 0
0 0 0
0 0 0
0 0 0
0 0 0
0 0 0
0 0 0
0 0 0
0 0 0
0 0 0
0 0 0
0 0 0
0 0 0
0 0 0
0 0 0
0 0 0
0 0 0
0 0 0
0 0 0
0 0 0
0 0 0
0 0 0
0 0 0
0 0 0
0 0 0
0 0 0
0 0 0
0 0 0
0 0 0
0 0 0
0 0 0
0 0 0
0 0 0
0 0 0
0 0 0
0 0 0
0 0 0
0 0 0
0 0 0
0 0 0
0 0 0
0 0 0
0 0 0
0 0 0
0 0 0
0 0 0
0 0 0
0 0 0
0 0 0
0 0 0
0 0 0
0 0 0
0 0 0
0 0 0
0 0 0
0 0 0
0 0 0
0 0 0
0 0 0
0 0 0
0 0 0
0 0 0
0 0 0
0 0 0
0 0 0
0 0 0
0 0 0
0 0 0
0 0 0
0 0 0
0 0 0
0 0 0
0 0 0
0 0 0
0 0 0
0 0 0
0 0 0
0 0 0
0 0 0
0 0 0
0 0 0
0 0 0
0 0 0
0 0 0
0 0 0
0 0 0
0 0 0
0 0 0
0 0 0
0 0 0
0 0 0
0 0 0
0 0 0
0 0 0
0 0 0
0 0 0
0 0 0
0 0 0
0 0 0
0 0 0
0 0 0
0 0 0
0 0 0
0 0 0
0 0 0
0 0 0
0 0 0
0 0 0
0 0 0
0 0 0
0 0 0
0 0 0
0 0 0
0 0 0
0 0 0
0 0 0
0 0 0
0 0 0
0 0 0
0 0 0
0 0 0
0 0 0
0 0 0
0 0 0
0 0 0
0 0 0
0 0 0
0 0 0
0 0 0
0 0 0
0 0 0
0 0 0
0 0 0
0 0 0
0 0 0
0 0 0
0 0 0
0 0 0
0 0 0
0 0 0
0 0 0
0 0 0
0 0 0
0 0 0
0 0 0
0 0 0
0 0 0
0 0 0
0 0 0
0 0 0
0 0 0
0 0 0
0 0 0
0 0 0
0 0 0
0 0 0
0 0 0
0 0 0
0 0 0
0 0 0
0 0 0
0 0 0
0 0 0
0 0 0
0 0 0
0 0 0
0 0 0
0 0 0
0 0 0
0 0 0
0 0 0
0 0 0
0 0 0
0 0 0
0 0 0
0 0 0
0 0 0
0 0 0
0 0 0
0 0 0
0 0 0
0 0 0
0 0 0
0 0 0
0 0 0
0 0 0
0 0 0
0 0 0
0 0 0
0 0 0
0 0 0
0 0 0
0 0 0
0 0 0
0 0 0
0 0 0
0 0 0
0 0 0
0 0 0
0 0 0
0 0 0
0 0 0
0 0 0
0 0 0
0 0 0
0 0 0
0 0 0
0 0 0
0 0 0
0 0 0
0 0 0
0 0 0
0 0 0
0 0 0
0 0 0
0 0 0
0 0 0
0 0 0
0 0 0
0 0 0
0 0 0
0 0 0
0 0 0
0 0 0
0 0 0
0 0 0
0 0 0
0 0 0
0 0 0
0 0 0
0 0 0
0 0 0
0 0 0
0 0 0
0 0 0
0 0 0
0 0 0
0 0 0
0 0 0
0 0 0
0 0 0
0 0 0
0 0 0
0 0 0
0 0 0
0 0 0
0 0 0
0 0 0
0 0 0
0 0 0
0 0 0
0 0 0
0 0 0
0 0 0
0 0 0
0 0 0
0 0 0
0 0 0
0 0 0
0 0 0
0 0 0
0 0 0
0 0 0
0 0 0
0 0 0
0 0 0
0 0 0
0 0 0
0 0 0
0 0 0
0 0 0
0 0 0
0 0 0
0 0 0
0 0 0
0 0 0
0 0 0
0 0 0
0 0 0
0 0 0
0 0 0
0 0 0
0 0 0
0 0 0
0 0 0
0 0 0
0 0 0
0 0 0
0 0 0
0 0 0
0 0 0
0 0 0
0 0 0
0 0 0
0 0 0
0 0 0
0 0 0
0 0 0
0 0 0
0 0 0
0 0 0
0 0 0
0 0 0
0 0 0
0 0 0
0 0 0
0 0 0
0 0 0
0 0 0
0 0 0
0 0 0
0 0 0
0 0 0
0 0 0
0 0 0
0 0 0
0 0 0
0 0 0
0 0 0
0 0 0
0 0 0
0 0 0
0 0 0
0 0 0
0 0 0
0 0 0
0 0 0
0 0 0
0 0 0
0 0 0
0 0 0
0 0 0
0 0 0
0 0 0
0 0 0
0 0 0
0 0 0
0 0 0
0 0 0
0 0 0
0 0 0
0 0 0
0 0 0
0 0 0
0 0 0
0 0 0
0 0 0
0 0 0
0 0 0
0 0 0
0 0 0
0 0 0
0 0 0
0 0 0
0 0 0
0 0 0
0 0 0
0 0 0
0 0 0
0 0 0
0 0 0
0 0 0
0 0 0
0 0 0
0 0 0
0 0 0
0 0 0
0 0 0
0 0 0
0 0 0
0 0 0
0 0 0
0 0 0
0 0 0
0 0 0
0 0 0
0 0 0
0 0 0
0 0 0
0 0 0
0 0 0
0 0 0
0 0 0
0 0 0
0 0 0
0 0 0
0 0 0
0 0 0
0 0 0
0 0 0
0 0 0
0 0 0
0 0 0
0 0 0
0 0 0
0 0 0
0 0 0
0 0 0
0 0 0
0 0 0
0 0 0
0 0 0
0 0 0
0 0 0
0 0 0
0 0 0
0 0 0
0 0 0
0 0 0
0 0 0
0 0 0
0 0 0
0 0 0
0 0 0
0 0 0
0 0 0
0 0 0
0 0 0
0 0 0
0 0 0
0 0 0
0 0 0
0 0 0
0 0 0
0 0 0
0 0 0
0 0 0
0 0 0
0 0 0
0 0 0
0 0 0
0 0 0
0 0 0
0 0 0
0 0 0
0 0 0
0 0 0
0 0 0
0 0 0
0 0 0
0 0 0
0 0 0
0 0 0
0 0 0
0 0 0
0 0 0
0 0 0
0 0 0
0 0 0
0 0 0
0 0 0
0 0 0
0 0 0
0 0 0
0 0 0
0 0 0
0 0 0
0 0 0
0 0 0
0 0 0
0 0 0
0 0 0
0 0 0
0 0 0
0 0 0
0 0 0
0 0 0
0 0 0
0 0 0
0 0 0
0 0 0
0 0 0
0 0 0
0 0 0
0 0 0
0 0 0
0 0 0
0 0 0
0 0 0
0 0 0
0 0 0
0 0 0
0 0 0
0 0 0
0 0 0
0 0 0
0 0 0
0 0 0
0 0 0
0 0 0
0 0 0
0 0 0
0 0 0
0 0 0
0 0 0
0 0 0
0 0 0
0 0 0
0 0 0
0 0 0
0 0 0
0 0 0
0 0 0
0 0 0
0 0 0
0 0 0
0 0 0
0 0 0
0 0 0
0 0 0
0 0 0
0 0 0
0 0 0
0 0 0
0 0 0
0 0 0
0 0 0
0 0 0
0 0 0
0 0 0
0 0 0
0 0 0
0 0 0
0 0 0
0 0 0
0 0 0
0 0 0
0 0 0
0 0 0
0 0 0
0 0 0
0 0 0
0 0 0
0 0 0
0 0 0
0 0 0
0 0 0
0 0 0
0 0 0
0 0 0
0 0 0
0 0 0
0 0 0
0 0 0
0 0 0
0 0 0
0 0 0
0 0 0
0 0 0
0 0 0
0 0 0
0 0 0
0 0 0
0 0 0
0 0 0
0 0 0
0 0 0
0 0 0
0 0 0
0 0 0
0 0 0
0 0 0
0 0 0
0 0 0
0 0 0
0 0 0
0 0 0
0 0 0
0 0 0
0 0 0
0 0 0
0 0 0
0 0 0
0 0 0
0 0 0
0 0 0
0 0 0
0 0 0
0 0 0
0 0 0
0 0 0
0 0 0
0 0 0
0 0 0
0 0 0
0 0 0
0 0 0
0 0 0
0 0 0
0 0 0
0 0 0
0 0 0
0 0 0
0 0 0
0 0 0
0 0 0
0 0 0
0 0 0
0 0 0
0 0 0
0 0 0
0 0 0
0 0 0
0 0 0
0 0 0
0 0 0
0 0 0
0 0 0
0 0 0
0 0 0
0 0 0
0 0 0
0 0 0
0 0 0
0 0 0
0 0 0
0 0 0
0 0 0
0 0 0
0 0 0
0 0 0
0 0 0
0 0 0
0 0 0
0 0 0
0 0 0
0 0 0
0 0 0
0 0 0
0 0 0
0 0 0
0 0 0
0 0 0
0 0 0
0 0 0
0 0 0
0 0 0
0 0 0
0 0 0
0 0 0
0 0 0
0 0 0
0 0 0
0 0 0
0 0 0
0 0 0
0 0 0
0 0 0
0 0 0
0 0 0
0 0 0
0 0 0
0 0 0
0 0 0
0 0 0
0 0 0
0 0 0
0 0 0
0 0 0
0 0 0
0 0 0
0 0 0
0 0 0
0 0 0
0 0 0
0 0 0
0 0 0
0 0 0
0 0 0
0 0 0
0 0 0
0 0 0
0 0 0
0 0 0
0 0 0
0 0 0
0 0 0
0 0 0
0 0 0
0 0 0
0 0 0
0 0 0
0 0 0
0 0 0
0 0 0
0 0 0
0 0 0
0 0 0
0 0 0
0 0 0
0 0 0
0 0 0
0 0 0
0 0 0
0 0 0
0 0 0
0 0 0
0 0 0
0 0 0
0 0 0
0 0 0
0 0 0
0 0 0
0 0 0
0 0 0
0 0 0
0 0 0
0 0 0
0 0 0
0 0 0
0 0 0
0 0 0
0 0 0
0 0 0
0 0 0
0 0 0
0 0 0
0 0 0
0 0 0
0 0 0
0 0 0
0 0 0
0 0 0
0 0 0
0 0 0
0 0 0
0 0 0
0 0 0
0 0 0
0 0 0
0 0 0
0 0 0
0 0 0
0 0 0
0 0 0
0 0 0
0 0 0
0 0 0
0 0 0
0 0 0
0 0 0
0 0 0
0 0 0
0 0 0
0 0 0
0 0 0
0 0 0
0 0 0
0 0 0
0 0 0
0 0 0
0 0 0
0 0 0
0 0 0
0 0 0
0 0 0
0 0 0
0 0 0
0 0 0
0 0 0
0 0 0
0 0 0
0 0 0
0 0 0
0 0 0
0 0 0
0 0 0
0 0 0
0 0 0
0 0 0
0 0 0
0 0 0
0 0 0
0 0 0
0 0 0
0 0 0
0 0 0
0 0 0
0 0 0
0 0 0
0 0 0
0 0 0
0 0 0
0 0 0
0 0 0
0 0 0
0 0 0
0 0 0
0 0 0
0 0 0
0 0 0
0 0 0
0 0 0
0 0 0
0 0 0
0 0 0
0 0 0
0 0 0
0 0 0
0 0 0
0 0 0
0 0 0
0 0 0
0 0 0
0 0 0
0 0 0
0 0 0
0 0 0
0 0 0
0 0 0
0 0 0
0 0 0
0 0 0
0 0 0
0 0 0
0 0 0
0 0 0
0 0 0
0 0 0
0 0 0
0 0 0
0 0 0
0 0 0
0 0 0
0 0 0
0 0 0
0 0 0
0 0 0
0 0 0
0 0 0
0 0 0
0 0 0
0 0 0
0 0 0
0 0 0
0 0 0
0 0 0
0 0 0
0 0 0
0 0 0
0 0 0
0 0 0
0 0 0
0 0 0
0 0 0
0 0 0
0 0 0
0 0 0
0 0 0
0 0 0
0 0 0
0 0 0
0 0 0
0 0 0
0 0 0
0 0 0
0 0 0
0 0 0
0 0 0
0 0 0
0 0 0
0 0 0
0 0 0
0 0 0
0 0 0
0 0 0
0 0 0
0 0 0
0 0 0
0 0 0
0 0 0
0 0 0
0 0 0
0 0 0
0 0 0
0 0 0
0 0 0
0 0 0
0 0 0
0 0 0
0 0 0
0 0 0
0 0 0
0 0 0
0 0 0
0 0 0
0 0 0
0 0 0
0 0 0
0 0 0
0 0 0
0 0 0
0 0 0
0 0 0
0 0 0
0 0 0
0 0 0
0 0 0
0 0 0
0 0 0
0 0 0
0 0 0
0 0 0
0 0 0
0 0 0
0 0 0
0 0 0
0 0 0
0 0 0
0 0 0
0 0 0
0 0 0
0 0 0
0 0 0
0 0 0
0 0 0
0 0 0
0 0 0
0 0 0
0 0 0
0 0 0
0 0 0
0 0 0
0 0 0
0 0 0
0 0 0
0 0 0
0 0 0
0 0 0
0 0 0
0 0 0
0 0 0
0 0 0
0 0 0
0 0 0
0 0 0
0 0 0
0 0 0
0 0 0
0 0 0
0 0 0
0 0 0
0 0 0
0 0 0
0 0 0
0 0 0
0 0 0
0 0 0
0 0 0
0 0 0
0 0 0
0 0 0
0 0 0
0 0 0
0 0 0
0 0 0
0 0 0
0 0 0
0 0 0
0 0 0
0 0 0
0 0 0
0 0 0
0 0 0
0 0 0
0 0 0
0 0 0
0 0 0
0 0 0
0 0 0
0 0 0
0 0 0
0 0 0
0 0 0
0 0 0
0 0 0
0 0 0
0 0 0
0 0 0
0 0 0
0 0 0
0 0 0
0 0 0
0 0 0
0 0 0
0 0 0
0 0 0
0 0 0
0 0 0
0 0 0
0 0 0
0 0 0
0 0 0
0 0 0
0 0 0
0 0 0
0 0 0
0 0 0
0 0 0
0 0 0
0 0 0
0 0 0
0 0 0
0 0 0
0 0 0
0 0 0
0 0 0
0 0 0
0 0 0
0 0 0
0 0 0
0 0 0
0 0 0
0 0 0
0 0 0
0 0 0
0 0 0
0 0 0
0 0 0
0 0 0
0 0 0
0 0 0
0 0 0
0 0 0
0 0 0
0 0 0
0 0 0
0 0 0
0 0 0
0 0 0
0 0 0
0 0 0
0 0 0
0 0 0
0 0 0
0 0 0
0 0 0
0 0 0
0 0 0
0 0 0
0 0 0
0 0 0
0 0 0
0 0 0
0 0 0
0 0 0
0 0 0
0 0 0
0 0 0
0 0 0
0 0 0
0 0 0
0 0 0
0 0 0
0 0 0
0 0 0
0 0 0
0 0 0
0 0 0
0 0 0
0 0 0
0 0 0
0 0 0
0 0 0
0 0 0
0 0 0
0 0 0
0 0 0
0 0 0
0 0 0
0 0 0
0 0 0
0 0 0
0 0 0
0 0 0
0 0 0
0 0 0
0 0 0
0 0 0
0 0 0
0 0 0
0 0 0
0 0 0
0 0 0
0 0 0
0 0 0
0 0 0
0 0 0
0 0 0
0 0 0
0 0 0
0 0 0
0 0 0
0 0 0
0 0 0
0 0 0
0 0 0
0 0 0
0 0 0
0 0 0
0 0 0
0 0 0
0 0 0
0 0 0
0 0 0
0 0 0
0 0 0
0 0 0
0 0 0
0 0 0
0 0 0
0 0 0
0 0 0
0 0 0
0 0 0
0 0 0
0 0 0
0 0 0
0 0 0
0 0 0
0 0 0
0 0 0
0 0 0
0 0 0
0 0 0
0 0 0
0 0 0
0 0 0
0 0 0
0 0 0
0 0 0
0 0 0
0 0 0
0 0 0
0 0 0
0 0 0
0 0 0
0 0 0
0 0 0
0 0 0
0 0 0
0 0 0
0 0 0
0 0 0
0 0 0
0 0 0
0 0 0
0 0 0
0 0 0
0 0 0
0 0 0
0 0 0
0 0 0
0 0 0
0 0 0
0 0 0
0 0 0
0 0 0
0 0 0
0 0 0
0 0 0
0 0 0
0 0 0
0 0 0
0 0 0
0 0 0
0 0 0
0 0 0
0 0 0
0 0 0
0 0 0
0 0 0
0 0 0
0 0 0
0 0 0
0 0 0
0 0 0
0 0 0
0 0 0
0 0 0
0 0 0
0 0 0
0 0 0
0 0 0
0 0 0
0 0 0
0 0 0
0 0 0
0 0 0
0 0 0
0 0 0
0 0 0
0 0 0
0 0 0
0 0 0
0 0 0
0 0 0
0 0 0
0 0 0
0 0 0
0 0 0
0 0 0
0 0 0
0 0 0
0 0 0
0 0 0
0 0 0
0 0 0
0 0 0
0 0 0
0 0 0
0 0 0
0 0 0
0 0 0
0 0 0
0 0 0
0 0 0
0 0 0
0 0 0
0 0 0
0 0 0
0 0 0
0 0 0
0 0 0
0 0 0
0 0 0
0 0 0
0 0 0
0 0 0
0 0 0
0 0 0
0 0 0
0 0 0
0 0 0
0 0 0
0 0 0
0 0 0
0 0 0
0 0 0
0 0 0
0 0 0
0 0 0
0 0 0
0 0 0
0 0 0
0 0 0
0 0 0
0 0 0
0 0 0
0 0 0
0 0 0
0 0 0
0 0 0
0 0 0
0 0 0
0 0 0
0 0 0
0 0 0
0 0 0
0 0 0
0 0 0
0 0 0
0 0 0
0 0 0
0 0 0
0 0 0
0 0 0
0 0 0
0 0 0
0 0 0
0 0 0
0 0 0
0 0 0
0 0 0
0 0 0
0 0 0
0 0 0
0 0 0
0 0 0
0 0 0
0 0 0
0 0 0
0 0 0
0 0 0
0 0 0
0 0 0
0 0 0
0 0 0
0 0 0
0 0 0
0 0 0
0 0 0
0 0 0
0 0 0
0 0 0
0 0 0
0 0 0
0 0 0
0 0 0
0 0 0
0 0 0
0 0 0
0 0 0
0 0 0
0 0 0
0 0 0
0 0 0
0 0 0
0 0 0
0 0 0
0 0 0
0 0 0
0 0 0
0 0 0
0 0 0
0 0 0
0 0 0
0 0 0
0 0 0
0 0 0
0 0 0
0 0 0
0 0 0
0 0 0
0 0 0
0 0 0
0 0 0
0 0 0
0 0 0
0 0 0
0 0 0
0 0 0
0 0 0
0 0 0
0 0 0
0 0 0
0 0 0
0 0 0
0 0 0
0 0 0
0 0 0
0 0 0
0 0 0
0 0 0
0 0 0
0 0 0
0 0 0
0 0 0
0 0 0
0 0 0
0 0 0
0 0 0
0 0 0
0 0 0
0 0 0
0 0 0
0 0 0
0 0 0
0 0 0
0 0 0
0 0 0
0 0 0
0 0 0
0 0 0
0 0 0
0 0 0
0 0 0
0 0 0
0 0 0
0 0 0
0 0 0
0 0 0
0 0 0
0 0 0
0 0 0
0 0 0
0 0 0
0 0 0
0 0 0
0 0 0
0 0 0
0 0 0
0 0 0
0 0 0
0 0 0
0 0 0
0 0 0
0 0 0
0 0 0
0 0 0
0 0 0
0 0 0
0 0 0
0 0 0
0 0 0
0 0 0
0 0 0
0 0 0
0 0 0
0 0 0
0 0 0
0 0 0
0 0 0
0 0 0
0 0 0
0 0 0
0 0 0
0 0 0
0 0 0
0 0 0
0 0 0
0 0 0
0 0 0
0 0 0
0 0 0
0 0 0
0 0 0
0 0 0
0 0 0
0 0 0
0 0 0
0 0 0
0 0 0
0 0 0
0 0 0
0 0 0
0 0 0
0 0 0
0 0 0
0 0 0
0 0 0
0 0 0
0 0 0
0 0 0
0 0 0
0 0 0
0 0 0
0 0 0
0 0 0
0 0 0
0 0 0
0 0 0
0 0 0
0 0 0
0 0 0
0 0 0
0 0 0
0 0 0
0 0 0
0 0 0
0 0 0
0 0 0
0 0 0
0 0 0
0 0 0
0 0 0
0 0 0
0 0 0
0 0 0
0 0 0
0 0 0
0 0 0
0 0 0
0 0 0
0 0 0
0 0 0
0 0 0
0 0 0
0 0 0
0 0 0
0 0 0
0 0 0
0 0 0
0 0 0
0 0 0
0 0 0
0 0 0
0 0 0
0 0 0
0 0 0
0 0 0
0 0 0
0 0 0
0 0 0
0 0 0
0 0 0
0 0 0
0 0 0
0 0 0
0 0 0
0 0 0
0 0 0
0 0 0
0 0 0
0 0 0
0 0 0
0 0 0
0 0 0
0 0 0
0 0 0
0 0 0
0 0 0
0 0 0
0 0 0
0 0 0
0 0 0
0 0 0
0 0 0
0 0 0
0 0 0
0 0 0
0 0 0
0 0 0
0 0 0
0 0 0
0 0 0
0 0 0
0 0 0
0 0 0
0 0 0
0 0 0
0 0 0
0 0 0
0 0 0
0 0 0
0 0 0
0 0 0
0 0 0
0 0 0
0 0 0
0 0 0
0 0 0
0 0 0
0 0 0
0 0 0
0 0 0
0 0 0
0 0 0
0 0 0
0 0 0
0 0 0
0 0 0
0 0 0
0 0 0
0 0 0
0 0 0
0 0 0
0 0 0
0 0 0
0 0 0
0 0 0
0 0 0
0 0 0
0 0 0
0 0 0
0 0 0
0 0 0
0 0 0
0 0 0
0 0 0
0 0 0
0 0 0
0 0 0
0 0 0
0 0 0
0 0 0
0 0 0
0 0 0
0 0 0
0 0 0
0 0 0
0 0 0
0 0 0
0 0 0
0 0 0
0 0 0
0 0 0
0 0 0
0 0 0
0 0 0
0 0 0
0 0 0
0 0 0
0 0 0
0 0 0
0 0 0
0 0 0
0 0 0
0 0 0
0 0 0
0 0 0
0 0 0
0 0 0
0 0 0
0 0 0
0 0 0
0 0 0
0 0 0
0 0 0
0 0 0
0 0 0
0 0 0
0 0 0
0 0 0
0 0 0
0 0 0
0 0 0
0 0 0
0 0 0
0 0 0
0 0 0
0 0 0
0 0 0
0 0 0
0 0 0
0 0 0
0 0 0
0 0 0
0 0 0
0 0 0
0 0 0
0 0 0
0 0 0
0 0 0
0 0 0
0 0 0
0 0 0
0 0 0
0 0 0
0 0 0
0 0 0
0 0 0
0 0 0
0 0 0
0 0 0
0 0 0
0 0 0
0 0 0
0 0 0
0 0 0
0 0 0
0 0 0
0 0 0
0 0 0
0 0 0
0 0 0
0 0 0
0 0 0
0 0 0
0 0 0
0 0 0
0 0 0
0 0 0
0 0 0
0 0 0
0 0 0
0 0 0
0 0 0
0 0 0
0 0 0
0 0 0
0 0 0
0 0 0
0 0 0
0 0 0
0 0 0
0 0 0
0 0 0
0 0 0
0 0 0
0 0 0
0 0 0
0 0 0
0 0 0
0 0 0
0 0 0
0 0 0
0 0 0
0 0 0
0 0 0
0 0 0
0 0 0
0 0 0
0 0 0
0 0 0
0 0 0
0 0 0
0 0 0
0 0 0
0 0 0
0 0 0
0 0 0
0 0 0
0 0 0
0 0 0
0 0 0
0 0 0
0 0 0
0 0 0
0 0 0
0 0 0
0 0 0
0 0 0
0 0 0
0 0 0
0 0 0
0 0 0
0 0 0
0 0 0
0 0 0
0 0 0
0 0 0
0 0 0
0 0 0
0 0 0
0 0 0
0 0 0
0 0 0
0 0 0
0 0 0
0 0 0
0 0 0
0 0 0
0 0 0
0 0 0
0 0 0
0 0 0
0 0 0
0 0 0
0 0 0
0 0 0
0 0 0
0 0 0
0 0 0
0 0 0
0 0 0
0 0 0
0 0 0
0 0 0
0 0 0
0 0 0
0 0 0
0 0 0
0 0 0
0 0 0
0 0 0
0 0 0
0 0 0
0 0 0
0 0 0
0 0 0
0 0 0
0 0 0
0 0 0
0 0 0
0 0 0
0 0 0
0 0 0
0 0 0
0 0 0
0 0 0
0 0 0
0 0 0
0 0 0
0 0 0
0 0 0
0 0 0
0 0 0
0 0 0
0 0 0
0 0 0
0 0 0
0 0 0
0 0 0
0 0 0
0 0 0
0 0 0
0 0 0
0 0 0
0 0 0
0 0 0
0 0 0
0 0 0
0 0 0
0 0 0
0 0 0
0 0 0
0 0 0
0 0 0
0 0 0
0 0 0
0 0 0
0 0 0
0 0 0
0 0 0
0 0 0
0 0 0
0 0 0
0 0 0
0 0 0
0 0 0
0 0 0
0 0 0
0 0 0
0 0 0
0 0 0
0 0 0
0 0 0
0 0 0
0 0 0
0 0 0
0 0 0
0 0 0
0 0 0
0 0 0
0 0 0
0 0 0
0 0 0
0 0 0
0 0 0
0 0 0
0 0 0
0 0 0
0 0 0
0 0 0
0 0 0
0 0 0
0 0 0
0 0 0
0 0 0
0 0 0
0 0 0
0 0 0
0 0 0
0 0 0
0 0 0
0 0 0
0 0 0
0 0 0
0 0 0
0 0 0
0 0 0
0 0 0
0 0 0
0 0 0
0 0 0
0 0 0
0 0 0
0 0 0
0 0 0
0 0 0
0 0 0
0 0 0
0 0 0
0 0 0
0 0 0
0 0 0
0 0 0
0 0 0
0 0 0
0 0 0
0 0 0
0 0 0
0 0 0
0 0 0
0 0 0
0 0 0
0 0 0
0 0 0
0 0 0
0 0 0
0 0 0
0 0 0
0 0 0
0 0 0
0 0 0
0 0 0
0 0 0
0 0 0
0 0 0
0 0 0
0 0 0
0 0 0
0 0 0
0 0 0
0 0 0
0 0 0
0 0 0
0 0 0
0 0 0
0 0 0
0 0 0
0 0 0
0 0 0
0 0 0
0 0 0
0 0 0
0 0 0
0 0 0
0 0 0
0 0 0
0 0 0
0 0 0
0 0 0
0 0 0
0 0 0
0 0 0
0 0 0
0 0 0
0 0 0
0 0 0
0 0 0
0 0 0
0 0 0
0 0 0
0 0 0
0 0 0
0 0 0
0 0 0
0 0 0
0 0 0
0 0 0
0 0 0
0 0 0
0 0 0
0 0 0
0 0 0
0 0 0
0 0 0
0 0 0
0 0 0
0 0 0
0 0 0
0 0 0
0 0 0
0 0 0
0 0 0
0 0 0
0 0 0
0 0 0
0 0 0
0 0 0
0 0 0
0 0 0
0 0 0
0 0 0
0 0 0
0 0 0
0 0 0
0 0 0
0 0 0
0 0 0
0 0 0
0 0 0
0 0 0
0 0 0
0 0 0
0 0 0
0 0 0
0 0 0
0 0 0
0 0 0
0 0 0
0 0 0
0 0 0
0 0 0
0 0 0
0 0 0
0 0 0
0 0 0
0 0 0
0 0 0
0 0 0
0 0 0
0 0 0
0 0 0
0 0 0
0 0 0
0 0 0
0 0 0
0 0 0
0 0 0
0 0 0
0 0 0
0 0 0
0 0 0
0 0 0
0 0 0
0 0 0
0 0 0
0 0 0
0 0 0
0 0 0
0 0 0
0 0 0
0 0 0
0 0 0
0 0 0
0 0 0
0 0 0
0 0 0
0 0 0
0 0 0
0 0 0
0 0 0
0 0 0
0 0 0
0 0 0
0 0 0
0 0 0
0 0 0
0 0 0
0 0 0
0 0 0
0 0 0
0 0 0
0 0 0
0 0 0
0 0 0
0 0 0
0 0 0
0 0 0
0 0 0
0 0 0
0 0 0
0 0 0
0 0 0
0 0 0
0 0 0
0 0 0
0 0 0
0 0 0
0 0 0
0 0 0
0 0 0
0 0 0
0 0 0
0 0 0
0 0 0
0 0 0
0 0 0
0 0 0
0 0 0
0 0 0
0 0 0
0 0 0
0 0 0
0 0 0
0 0 0
0 0 0
0 0 0
0 0 0
0 0 0
0 0 0
0 0 0
0 0 0
0 0 0
0 0 0
0 0 0
0 0 0
0 0 0
0 0 0
0 0 0
0 0 0
0 0 0
0 0 0
0 0 0
0 0 0
0 0 0
0 0 0
0 0 0
0 0 0
0 0 0
0 0 0
0 0 0
0 0 0
0 0 0
0 0 0
0 0 0
0 0 0
0 0 0
0 0 0
0 0 0
0 0 0
0 0 0
0 0 0
0 0 0
0 0 0
0 0 0
0 0 0
0 0 0
0 0 0
0 0 0
0 0 0
0 0 0
0 0 0
0 0 0
0 0 0
0 0 0
0 0 0
0 0 0
0 0 0
0 0 0
0 0 0
0 0 0
0 0 0
0 0 0
0 0 0
0 0 0
0 0 0
0 0 0
0 0 0
0 0 0
0 0 0
0 0 0
0 0 0
0 0 0
0 0 0
0 0 0
0 0 0
0 0 0
0 0 0
0 0 0
0 0 0
0 0 0
0 0 0
0 0 0
0 0 0
0 0 0
0 0 0
0 0 0
0 0 0
0 0 0
0 0 0
0 0 0
0 0 0
0 0 0
0 0 0
0 0 0
0 0 0
0 0 0
0 0 0
0 0 0
0 0 0
0 0 0
0 0 0
0 0 0
0 0 0
0 0 0
0 0 0
0 0 0
0 0 0
0 0 0
0 0 0
0 0 0
0 0 0
0 0 0
0 0 0
0 0 0
0 0 0
0 0 0
0 0 0
0 0 0
0 0 0
0 0 0
0 0 0
0 0 0
0 0 0
0 0 0
0 0 0
0 0 0
0 0 0
0 0 0
0 0 0
0 0 0
0 0 0
0 0 0
0 0 0
0 0 0
0 0 0
0 0 0
0 0 0
0 0 0
0 0 0
0 0 0
0 0 0
0 0 0
0 0 0
0 0 0
0 0 0
0 0 0
0 0 0
0 0 0
0 0 0
0 0 0
0 0 0
0 0 0
0 0 0
0 0 0
0 0 0
0 0 0
0 0 0
0 0 0
0 0 0
0 0 0
0 0 0
0 0 0
0 0 0
0 0 0
0 0 0
0 0 0
0 0 0
0 0 0
0 0 0
0 0 0
0 0 0
0 0 0
0 0 0
0 0 0
0 0 0
0 0 0
0 0 0
0 0 0
0 0 0
0 0 0
0 0 0
0 0 0
0 0 0
0 0 0
0 0 0
0 0 0
0 0 0
0 0 0
0 0 0
0 0 0
0 0 0
0 0 0
0 0 0
0 0 0
0 0 0
0 0 0
0 0 0
0 0 0
0 0 0
0 0 0
0 0 0
0 0 0
0 0 0
0 0 0
0 0 0
0 0 0
0 0 0
0 0 0
0 0 0
0 0 0
0 0 0
0 0 0
0 0 0
0 0 0
0 0 0
0 0 0
0 0 0
0 0 0
0 0 0
0 0 0
0 0 0
0 0 0
0 0 0
0 0 0
0 0 0
0 0 0
0 0 0
0 0 0
0 0 0
0 0 0
0 0 0
0 0 0
0 0 0
0 0 0
0 0 0
0 0 0
0 0 0
0 0 0
0 0 0
0 0 0
0 0 0
0 0 0
0 0 0
0 0 0
0 0 0
0 0 0
0 0 0
0 0 0
0 0 0
0 0 0
0 0 0
0 0 0
0 0 0
0 0 0
0 0 0
0 0 0
0 0 0
0 0 0
0 0 0
0 0 0
0 0 0
0 0 0
0 0 0
0 0 0
0 0 0
0 0 0
0 0 0
0 0 0
0 0 0
0 0 0
0 0 0
0 0 0
0 0 0
0 0 0
0 0 0
0 0 0
0 0 0
0 0 0
0 0 0
0 0 0
0 0 0
0 0 0
0 0 0
0 0 0
0 0 0
0 0 0
0 0 0
0 0 0
0 0 0
0 0 0
0 0 0
0 0 0
0 0 0
0 0 0
0 0 0
0 0 0
0 0 0
0 0 0
0 0 0
0 0 0
0 0 0
0 0 0
0 0 0
0 0 0
0 0 0
0 0 0
0 0 0
0 0 0
0 0 0
0 0 0
0 0 0
0 0 0
0 0 0
0 0 0
0 0 0
0 0 0
0 0 0
0 0 0
0 0 0
0 0 0
0 0 0
0 0 0
0 0 0
0 0 0
0 0 0
0 0 0
0 0 0
0 0 0
0 0 0
0 0 0
0 0 0
0 0 0
0 0 0
0 0 0
0 0 0
0 0 0
0 0 0
0 0 0
0 0 0
0 0 0
0 0 0
0 0 0
0 0 0
0 0 0
0 0 0
0 0 0
0 0 0
0 0 0
0 0 0
0 0 0
0 0 0
0 0 0
0 0 0
0 0 0
0 0 0
0 0 0
0 0 0
0 0 0
0 0 0
0 0 0
0 0 0
0 0 0
0 0 0
0 0 0
0 0 0
0 0 0
0 0 0
0 0 0
0 0 0
0 0 0
0 0 0
0 0 0
0 0 0
0 0 0
0 0 0
0 0 0
0 0 0
0 0 0
0 0 0
0 0 0
0 0 0
0 0 0
0 0 0
0 0 0
0 0 0
0 0 0
0 0 0
0 0 0
0 0 0
0 0 0
0 0 0
0 0 0
0 0 0
0 0 0
0 0 0
0 0 0
0 0 0
0 0 0
0 0 0
0 0 0
0 0 0
0 0 0
0 0 0
0 0 0
0 0 0
0 0 0
0 0 0
0 0 0
0 0 0
0 0 0
0 0 0
0 0 0
0 0 0
0 0 0
0 0 0
0 0 0
0 0 0
0 0 0
0 0 0
0 0 0
0 0 0
0 0 0
0 0 0
0 0 0
0 0 0
0 0 0
0 0 0
0 0 0
0 0 0
0 0 0
0 0 0
0 0 0
0 0 0
0 0 0
0 0 0
0 0 0
0 0 0
0 0 0
0 0 0
0 0 0
0 0 0
0 0 0
0 0 0
0 0 0
0 0 0
0 0 0
0 0 0
0 0 0
0 0 0
0 0 0
0 0 0
0 0 0
0 0 0
0 0 0
0 0 0
0 0 0
0 0 0
0 0 0
0 0 0
0 0 0
0 0 0
0 0 0
0 0 0
0 0 0
0 0 0
0 0 0
0 0 0
0 0 0
0 0 0
0 0 0
0 0 0
0 0 0
0 0 0
0 0 0
0 0 0
0 0 0
0 0 0
0 0 0
0 0 0
0 0 0
0 0 0
0 0 0
0 0 0
0 0 0
0 0 0
0 0 0
0 0 0
0 0 0
0 0 0
0 0 0
0 0 0
0 0 0
0 0 0
0 0 0
0 0 0
0 0 0
0 0 0
0 0 0
0 0 0
0 0 0
0 0 0
0 0 0
0 0 0
0 0 0
0 0 0
0 0 0
0 0 0
0 0 0
0 0 0
0 0 0
0 0 0
0 0 0
0 0 0
0 0 0
0 0 0
0 0 0
0 0 0
0 0 0
0 0 0
0 0 0
0 0 0
0 0 0
0 0 0
0 0 0
0 0 0
0 0 0
0 0 0
0 0 0
0 0 0
0 0 0
0 0 0
0 0 0
0 0 0
0 0 0
0 0 0
0 0 0
0 0 0
0 0 0
0 0 0
0 0 0
0 0 0
0 0 0
0 0 0
0 0 0
0 0 0
0 0 0
0 0 0
0 0 0
0 0 0
0 0 0
0 0 0
0 0 0
0 0 0
0 0 0
0 0 0
0 0 0
0 0 0
0 0 0
0 0 0
0 0 0
0 0 0
0 0 0
0 0 0
0 0 0
0 0 0
0 0 0
0 0 0
0 0 0
0 0 0
0 0 0
0 0 0
0 0 0
0 0 0
0 0 0
0 0 0
0 0 0
0 0 0
0 0 0
0 0 0
0 0 0
0 0 0
0 0 0
0 0 0
0 0 0
0 0 0
0 0 0
0 0 0
0 0 0
0 0 0
0 0 0
0 0 0
0 0 0
0 0 0
0 0 0
0 0 0
0 0 0
0 0 0
0 0 0
0 0 0
0 0 0
0 0 0
0 0 0
0 0 0
0 0 0
0 0 0
0 0 0
0 0 0
0 0 0
0 0 0
0 0 0
0 0 0
0 0 0
0 0 0
0 0 0
0 0 0
0 0 0
0 0 0
0 0 0
0 0 0
0 0 0
0 0 0
0 0 0
0 0 0
0 0 0
0 0 0
0 0 0
0 0 0
0 0 0
0 0 0
0 0 0
0 0 0
0 0 0
0 0 0
0 0 0
0 0 0
0 0 0
0 0 0
0 0 0
0 0 0
0 0 0
0 0 0
0 0 0
0 0 0
0 0 0
0 0 0
0 0 0
0 0 0
0 0 0
0 0 0
0 0 0
0 0 0
0 0 0
0 0 0
0 0 0
0 0 0
0 0 0
0 0 0
0 0 0
0 0 0
0 0 0
0 0 0
0 0 0
0 0 0
0 0 0
0 0 0
0 0 0
0 0 0
0 0 0
0 0 0
0 0 0
0 0 0
0 0 0
0 0 0
0 0 0
0 0 0
0 0 0
0 0 0
0 0 0
0 0 0
0 0 0
0 0 0
0 0 0
0 0 0
0 0 0
0 0 0
0 0 0
0 0 0
0 0 0
0 0 0
0 0 0
0 0 0
0 0 0
0 0 0
0 0 0
0 0 0
0 0 0
0 0 0
0 0 0
0 0 0
0 0 0
0 0 0
0 0 0
0 0 0
0 0 0
0 0 0
0 0 0
0 0 0
0 0 0
0 0 0
0 0 0
0 0 0
0 0 0
0 0 0
0 0 0
0 0 0
0 0 0
0 0 0
0 0 0
0 0 0
0 0 0
0 0 0
0 0 0
0 0 0
0 0 0
0 0 0
0 0 0
0 0 0
0 0 0
0 0 0
0 0 0
0 0 0
0 0 0
0 0 0
0 0 0
0 0 0
0 0 0
0 0 0
0 0 0
0 0 0
0 0 0
0 0 0
0 0 0
0 0 0
0 0 0
0 0 0
0 0 0
0 0 0
0 0 0
0 0 0
0 0 0
0 0 0
0 0 0
0 0 0
0 0 0
0 0 0
0 0 0
0 0 0
0 0 0
0 0 0
0 0 0
0 0 0
0 0 0
0 0 0
0 0 0
0 0 0
0 0 0
0 0 0
0 0 0
0 0 0
0 0 0
0 0 0
0 0 0
0 0 0
0 0 0
0 0 0
0 0 0
0 0 0
0 0 0
0 0 0
0 0 0
0 0 0
0 0 0
0 0 0
0 0 0
0 0 0
0 0 0
0 0 0
0 0 0
0 0 0
0 0 0
0 0 0
0 0 0
0 0 0
0 0 0
0 0 0
0 0 0
0 0 0
0 0 0
0 0 0
0 0 0
0 0 0
0 0 0
0 0 0
0 0 0
0 0 0
0 0 0
0 0 0
0 0 0
0 0 0
0 0 0
0 0 0
0 0 0
0 0 0
0 0 0
0 0 0
0 0 0
0 0 0
0 0 0
0 0 0
0 0 0
0 0 0
0 0 0
0 0 0
0 0 0
0 0 0
0 0 0
0 0 0
0 0 0
0 0 0
0 0 0
0 0 0
0 0 0
0 0 0
0 0 0
0 0 0
0 0 0
0 0 0
0 0 0
0 0 0
0 0 0
0 0 0
0 0 0
0 0 0
0 0 0
0 0 0
0 0 0
0 0 0
0 0 0
0 0 0
0 0 0
0 0 0
0 0 0
0 0 0
0 0 0
0 0 0
0 0 0
0 0 0
0 0 0
0 0 0
0 0 0
0 0 0
0 0 0
0 0 0
0 0 0
0 0 0
0 0 0
0 0 0
0 0 0
0 0 0
0 0 0
0 0 0
0 0 0
0 0 0
0 0 0
0 0 0
0 0 0
0 0 0
0 0 0
0 0 0
0 0 0
0 0 0
0 0 0
0 0 0
0 0 0
0 0 0
0 0 0
0 0 0
0 0 0
0 0 0
0 0 0
0 0 0
0 0 0
0 0 0
0 0 0
0 0 0
0 0 0
0 0 0
0 0 0
0 0 0
0 0 0
0 0 0
0 0 0
0 0 0
0 0 0
0 0 0
0 0 0
0 0 0
0 0 0
0 0 0
0 0 0
0 0 0
0 0 0
0 0 0
0 0 0
0 0 0
0 0 0
0 0 0
0 0 0
0 0 0
0 0 0
0 0 0
0 0 0
0 0 0
0 0 0
0 0 0
0 0 0
0 0 0
0 0 0
0 0 0
0 0 0
0 0 0
0 0 0
0 0 0
0 0 0
0 0 0
0 0 0
0 0 0
0 0 0
0 0 0
0 0 0
0 0 0
0 0 0
0 0 0
0 0 0
0 0 0
0 0 0
0 0 0
0 0 0
0 0 0
0 0 0
0 0 0
0 0 0
0 0 0
0 0 0
0 0 0
0 0 0
0 0 0
0 0 0
0 0 0
0 0 0
0 0 0
0 0 0
0 0 0
0 0 0
0 0 0
0 0 0
0 0 0
0 0 0
0 0 0
0 0 0
0 0 0
0 0 0
0 0 0
0 0 0
0 0 0
0 0 0
0 0 0
0 0 0
0 0 0
0 0 0
0 0 0
0 0 0
0 0 0
0 0 0
0 0 0
0 0 0
0 0 0
0 0 0
0 0 0
0 0 0
0 0 0
0 0 0
0 0 0
0 0 0
0 0 0
0 0 0
0 0 0
0 0 0
0 0 0
0 0 0
0 0 0
0 0 0
0 0 0
0 0 0
0 0 0
0 0 0
0 0 0
0 0 0
0 0 0
0 0 0
0 0 0
0 0 0
0 0 0
0 0 0
0 0 0
0 0 0
0 0 0
0 0 0
0 0 0
0 0 0
0 0 0
0 0 0
0 0 0
0 0 0
0 0 0
0 0 0
0 0 0
0 0 0
0 0 0
0 0 0
0 0 0
0 0 0
0 0 0
0 0 0
0 0 0
0 0 0
0 0 0
0 0 0
0 0 0
0 0 0
0 0 0
0 0 0
0 0 0
0 0 0
0 0 0
0 0 0
0 0 0
0 0 0
0 0 0
0 0 0
0 0 0
0 0 0
0 0 0
0 0 0
0 0 0
0 0 0
0 0 0
0 0 0
0 0 0
0 0 0
0 0 0
0 0 0
0 0 0
0 0 0
0 0 0
0 0 0
0 0 0
0 0 0
0 0 0
0 0 0
0 0 0
0 0 0
0 0 0
0 0 0
0 0 0
0 0 0
0 0 0
0 0 0
0 0 0
0 0 0
0 0 0
0 0 0
0 0 0
0 0 0
0 0 0
0 0 0
0 0 0
0 0 0
0 0 0
0 0 0
0 0 0
0 0 0
0 0 0
0 0 0
0 0 0
0 0 0
0 0 0
0 0 0
0 0 0
0 0 0
0 0 0
0 0 0
0 0 0
0 0 0
0 0 0
0 0 0
0 0 0
0 0 0
0 0 0
0 0 0
0 0 0
0 0 0
0 0 0
0 0 0
0 0 0
0 0 0
0 0 0
0 0 0
0 0 0
0 0 0
0 0 0
0 0 0
0 0 0
0 0 0
0 0 0
0 0 0
0 0 0
0 0 0
0 0 0
0 0 0
0 0 0
0 0 0
0 0 0
0 0 0
0 0 0
0 0 0
0 0 0
0 0 0
0 0 0
0 0 0
0 0 0
0 0 0
0 0 0
0 0 0
0 0 0
0 0 0
0 0 0
0 0 0
0 0 0
0 0 0
0 0 0
0 0 0
0 0 0
0 0 0
0 0 0
0 0 0
0 0 0
0 0 0
0 0 0
0 0 0
0 0 0
0 0 0
0 0 0
0 0 0
0 0 0
0 0 0
0 0 0
0 0 0
0 0 0
0 0 0
0 0 0
0 0 0
0 0 0
0 0 0
0 0 0
0 0 0
0 0 0
0 0 0
0 0 0
0 0 0
0 0 0
0 0 0
0 0 0
0 0 0
0 0 0
0 0 0
0 0 0
0 0 0
0 0 0
0 0 0
0 0 0
0 0 0
0 0 0
0 0 0
0 0 0
0 0 0
0 0 0
0 0 0
0 0 0
0 0 0
0 0 0
0 0 0
0 0 0
0 0 0
0 0 0
0 0 0
0 0 0
0 0 0
0 0 0
0 0 0
0 0 0
0 0 0
0 0 0
0 0 0
0 0 0
0 0 0
0 0 0
0 0 0
0 0 0
0 0 0
0 0 0
0 0 0
0 0 0
0 0 0
0 0 0
0 0 0
0 0 0
0 0 0
0 0 0
0 0 0
0 0 0
0 0 0
0 0 0
0 0 0
0 0 0
0 0 0
0 0 0
0 0 0
0 0 0
0 0 0
0 0 0
0 0 0
0 0 0
0 0 0
0 0 0
0 0 0
0 0 0
0 0 0
0 0 0
0 0 0
0 0 0
0 0 0
0 0 0
0 0 0
0 0 0
0 0 0
0 0 0
0 0 0
0 0 0
0 0 0
0 0 0
0 0 0
0 0 0
0 0 0
0 0 0
0 0 0
0 0 0
0 0 0
0 0 0
0 0 0
0 0 0
0 0 0
0 0 0
0 0 0
0 0 0
0 0 0
0 0 0
0 0 0
0 0 0
0 0 0
0 0 0
0 0 0
0 0 0
0 0 0
0 0 0
0 0 0
0 0 0
0 0 0
0 0 0
0 0 0
0 0 0
0 0 0
0 0 0
0 0 0
0 0 0
0 0 0
0 0 0
0 0 0
0 0 0
0 0 0
0 0 0
0 0 0
0 0 0
0 0 0
0 0 0
0 0 0
0 0 0
0 0 0
0 0 0
0 0 0
0 0 0
0 0 0
0 0 0
0 0 0
0 0 0
0 0 0
0 0 0
0 0 0
0 0 0
0 0 0
0 0 0
0 0 0
0 0 0
0 0 0
0 0 0
0 0 0
0 0 0
0 0 0
0 0 0
0 0 0
0 0 0
0 0 0
0 0 0
0 0 0
0 0 0
0 0 0
0 0 0
0 0 0
0 0 0
0 0 0
0 0 0
0 0 0
0 0 0
0 0 0
0 0 0
0 0 0
0 0 0
0 0 0
0 0 0
0 0 0
0 0 0
0 0 0
0 0 0
0 0 0
0 0 0
0 0 0
0 0 0
0 0 0
0 0 0
0 0 0
0 0 0
0 0 0
0 0 0
0 0 0
0 0 0
0 0 0
0 0 0
0 0 0
0 0 0
0 0 0
0 0 0
0 0 0
0 0 0
0 0 0
0 0 0
0 0 0
0 0 0
0 0 0
0 0 0
0 0 0
0 0 0
0 0 0
0 0 0
0 0 0
0 0 0
0 0 0
0 0 0
0 0 0
0 0 0
0 0 0
0 0 0
0 0 0
0 0 0
0 0 0
0 0 0
0 0 0
0 0 0
0 0 0
0 0 0
0 0 0
0 0 0
0 0 0
0 0 0
0 0 0
0 0 0
0 0 0
0 0 0
0 0 0
0 0 0
0 0 0
0 0 0
0 0 0
0 0 0
0 0 0
0 0 0
0 0 0
0 0 0
0 0 0
0 0 0
0 0 0
0 0 0
0 0 0
0 0 0
0 0 0
0 0 0
0 0 0
0 0 0
0 0 0
0 0 0
0 0 0
0 0 0
0 0 0
0 0 0
0 0 0
0 0 0
0 0 0
0 0 0
0 0 0
0 0 0
0 0 0
0 0 0
0 0 0
0 0 0
0 0 0
0 0 0
0 0 0
0 0 0
0 0 0
0 0 0
0 0 0
0 0 0
0 0 0
0 0 0
0 0 0
0 0 0
0 0 0
0 0 0
0 0 0
0 0 0
0 0 0
0 0 0
0 0 0
0 0 0
0 0 0
0 0 0
0 0 0
0 0 0
0 0 0
0 0 0
0 0 0
0 0 0
0 0 0
0 0 0
0 0 0
0 0 0
0 0 0
0 0 0
0 0 0
0 0 0
0 0 0
0 0 0
0 0 0
0 0 0
0 0 0
0 0 0
0 0 0
0 0 0
0 0 0
0 0 0
0 0 0
0 0 0
0 0 0
0 0 0
0 0 0
0 0 0
0 0 0
0 0 0
0 0 0
0 0 0
0 0 0
0 0 0
0 0 0
0 0 0
0 0 0
0 0 0
0 0 0
0 0 0
0 0 0
0 0 0
0 0 0
0 0 0
0 0 0
0 0 0
0 0 0
0 0 0
0 0 0
0 0 0
0 0 0
0 0 0
0 0 0
0 0 0
0 0 0
0 0 0
0 0 0
0 0 0
0 0 0
0 0 0
0 0 0
0 0 0
0 0 0
0 0 0
0 0 0
0 0 0
0 0 0
0 0 0
0 0 0
0 0 0
0 0 0
0 0 0
0 0 0
0 0 0
0 0 0
0 0 0
0 0 0
0 0 0
0 0 0
0 0 0
0 0 0
0 0 0
0 0 0
0 0 0
0 0 0
0 0 0
0 0 0
0 0 0
0 0 0
0 0 0
0 0 0
0 0 0
0 0 0
0 0 0
0 0 0
0 0 0
0 0 0
0 0 0
0 0 0
0 0 0
0 0 0
0 0 0
0 0 0
0 0 0
0 0 0
0 0 0
0 0 0
0 0 0
0 0 0
0 0 0
0 0 0
0 0 0
0 0 0
0 0 0
0 0 0
0 0 0
0 0 0
0 0 0
0 0 0
0 0 0
0 0 0
0 0 0
0 0 0
0 0 0
0 0 0
0 0 0
0 0 0
0 0 0
0 0 0
0 0 0
0 0 0
0 0 0
0 0 0
0 0 0
0 0 0
0 0 0
0 0 0
0 0 0
0 0 0
0 0 0
0 0 0
0 0 0
0 0 0
0 0 0
0 0 0
0 0 0
0 0 0
0 0 0
0 0 0
0 0 0
0 0 0
0 0 0
0 0 0
0 0 0
0 0 0
0 0 0
0 0 0
0 0 0
0 0 0
0 0 0
0 0 0
0 0 0
0 0 0
0 0 0
0 0 0
0 0 0
0 0 0
0 0 0
0 0 0
0 0 0
0 0 0
0 0 0
0 0 0
0 0 0
0 0 0
0 0 0
0 0 0
0 0 0
0 0 0
0 0 0
0 0 0
0 0 0
0 0 0
0 0 0
0 0 0
0 0 0
0 0 0
0 0 0
0 0 0
0 0 0
0 0 0
0 0 0
0 0 0
0 0 0
0 0 0
0 0 0
0 0 0
0 0 0
0 0 0
0 0 0
0 0 0
0 0 0
0 0 0
0 0 0
0 0 0
0 0 0
0 0 0
0 0 0
0 0 0
0 0 0
0 0 0
0 0 0
0 0 0
0 0 0
0 0 0
0 0 0
0 0 0
0 0 0
0 0 0
0 0 0
0 0 0
0 0 0
0 0 0
0 0 0
0 0 0
0 0 0
0 0 0
0 0 0
0 0 0
0 0 0
0 0 0
0 0 0
0 0 0
0 0 0
0 0 0
0 0 0
0 0 0
0 0 0
0 0 0
0 0 0
0 0 0
0 0 0
0 0 0
0 0 0
0 0 0
0 0 0
0 0 0
0 0 0
0 0 0
0 0 0
0 0 0
0 0 0
0 0 0
0 0 0
0 0 0
0 0 0
0 0 0
0 0 0
0 0 0
0 0 0
0 0 0
0 0 0
0 0 0
0 0 0
0 0 0
0 0 0
0 0 0
0 0 0
0 0 0
0 0 0
0 0 0
0 0 0
0 0 0
0 0 0
0 0 0
0 0 0
0 0 0
0 0 0
0 0 0
0 0 0
0 0 0
0 0 0
0 0 0
0 0 0
0 0 0
0 0 0
0 0 0
0 0 0
0 0 0
0 0 0
0 0 0
0 0 0
0 0 0
0 0 0
0 0 0
0 0 0
0 0 0
0 0 0
0 0 0
0 0 0
0 0 0
0 0 0
0 0 0
0 0 0
0 0 0
0 0 0
0 0 0
0 0 0
0 0 0
0 0 0
0 0 0
0 0 0
0 0 0
0 0 0
0 0 0
0 0 0
0 0 0
0 0 0
0 0 0
0 0 0
0 0 0
0 0 0
0 0 0
0 0 0
0 0 0
0 0 0
0 0 0
0 0 0
0 0 0
0 0 0
0 0 0
0 0 0
0 0 0
0 0 0
0 0 0
0 0 0
0 0 0
0 0 0
0 0 0
0 0 0
0 0 0
0 0 0
0 0 0
0 0 0
0 0 0
0 0 0
0 0 0
0 0 0
0 0 0
0 0 0
0 0 0
0 0 0
0 0 0
0 0 0
0 0 0
0 0 0
0 0 0
0 0 0
0 0 0
0 0 0
0 0 0
0 0 0
0 0 0
0 0 0
0 0 0
0 0 0
0 0 0
0 0 0
0 0 0
0 0 0
0 0 0
0 0 0
0 0 0
0 0 0
0 0 0
0 0 0
0 0 0
0 0 0
0 0 0
0 0 0
0 0 0
0 0 0
0 0 0
0 0 0
0 0 0
0 0 0
0 0 0
0 0 0
0 0 0
0 0 0
0 0 0
0 0 0
0 0 0
0 0 0
0 0 0
0 0 0
0 0 0
0 0 0
0 0 0
0 0 0
0 0 0
0 0 0
0 0 0
0 0 0
0 0 0
0 0 0
0 0 0
0 0 0
0 0 0
0 0 0
0 0 0
0 0 0
0 0 0
0 0 0
0 0 0
0 0 0
0 0 0
0 0 0
0 0 0
0 0 0
0 0 0
0 0 0
0 0 0
0 0 0
0 0 0
0 0 0
0 0 0
0 0 0
0 0 0
0 0 0
0 0 0
0 0 0
0 0 0
0 0 0
0 0 0
0 0 0
0 0 0
0 0 0
0 0 0
0 0 0
0 0 0
0 0 0
0 0 0
0 0 0
0 0 0
0 0 0
0 0 0
0 0 0
0 0 0
0 0 0
0 0 0
0 0 0
0 0 0
0 0 0
0 0 0
0 0 0
0 0 0
0 0 0
0 0 0
0 0 0
0 0 0
0 0 0
0 0 0
0 0 0
0 0 0
0 0 0
0 0 0
0 0 0
0 0 0
0 0 0
0 0 0
0 0 0
0 0 0
0 0 0
0 0 0
0 0 0
0 0 0
0 0 0
0 0 0
0 0 0
0 0 0
0 0 0
0 0 0
0 0 0
0 0 0
0 0 0
0 0 0
0 0 0
0 0 0
0 0 0
0 0 0
0 0 0
0 0 0
0 0 0
0 0 0
0 0 0
0 0 0
0 0 0
0 0 0
0 0 0
0 0 0
0 0 0
0 0 0
0 0 0
0 0 0
0 0 0
0 0 0
0 0 0
0 0 0
0 0 0
0 0 0
0 0 0
0 0 0
0 0 0
0 0 0
0 0 0
0 0 0
0 0 0
0 0 0
0 0 0
0 0 0
0 0 0
0 0 0
0 0 0
0 0 0
0 0 0
0 0 0
0 0 0
0 0 0
0 0 0
0 0 0
0 0 0
0 0 0
0 0 0
0 0 0
0 0 0
0 0 0
0 0 0
0 0 0
0 0 0
0 0 0
0 0 0
0 0 0
0 0 0
0 0 0
0 0 0
0 0 0
0 0 0
0 0 0
0 0 0
0 0 0
0 0 0
0 0 0
0 0 0
0 0 0
0 0 0
0 0 0
0 0 0
0 0 0
0 0 0
0 0 0
0 0 0
0 0 0
0 0 0
0 0 0
0 0 0
0 0 0
0 0 0
0 0 0
0 0 0
0 0 0
0 0 0
0 0 0
0 0 0
0 0 0
0 0 0
0 0 0
0 0 0
0 0 0
0 0 0
0 0 0
0 0 0
0 0 0
0 0 0
0 0 0
0 0 0
0 0 0
0 0 0
0 0 0
0 0 0
0 0 0
0 0 0
0 0 0
0 0 0
0 0 0
0 0 0
0 0 0
0 0 0
0 0 0
0 0 0
0 0 0
0 0 0
0 0 0
0 0 0
0 0 0
0 0 0
0 0 0
0 0 0
0 0 0
0 0 0
0 0 0
0 0 0
0 0 0
0 0 0
0 0 0
0 0 0
0 0 0
0 0 0
0 0 0
0 0 0
0 0 0
0 0 0
0 0 0
0 0 0
0 0 0
0 0 0
0 0 0
0 0 0
0 0 0
0 0 0
0 0 0
0 0 0
0 0 0
0 0 0
0 0 0
0 0 0
0 0 0
0 0 0
0 0 0
0 0 0
0 0 0
0 0 0
0 0 0
0 0 0
0 0 0
0 0 0
0 0 0
0 0 0
0 0 0
0 0 0
0 0 0
0 0 0
0 0 0
0 0 0
0 0 0
0 0 0
0 0 0
0 0 0
0 0 0
0 0 0
0 0 0
0 0 0
0 0 0
0 0 0
0 0 0
0 0 0
0 0 0
0 0 0
0 0 0
0 0 0
0 0 0
0 0 0
0 0 0
0 0 0
0 0 0
0 0 0
0 0 0
0 0 0
0 0 0
0 0 0
0 0 0
0 0 0
0 0 0
0 0 0
0 0 0
0 0 0
0 0 0
0 0 0
0 0 0
0 0 0
0 0 0
0 0 0
0 0 0
0 0 0
0 0 0
0 0 0
0 0 0
0 0 0
0 0 0
0 0 0
0 0 0
0 0 0
0 0 0
0 0 0
0 0 0
0 0 0
0 0 0
0 0 0
0 0 0
0 0 0
0 0 0
0 0 0
0 0 0
0 0 0
0 0 0
0 0 0
0 0 0
0 0 0
0 0 0
0 0 0
0 0 0
0 0 0
0 0 0
0 0 0
0 0 0
0 0 0
0 0 0
0 0 0
0 0 0
0 0 0
0 0 0
0 0 0
0 0 0
0 0 0
0 0 0
0 0 0
0 0 0
0 0 0
0 0 0
0 0 0
0 0 0
0 0 0
0 0 0
0 0 0
0 0 0
0 0 0
0 0 0
0 0 0
0 0 0
0 0 0
0 0 0
0 0 0
0 0 0
0 0 0
0 0 0
0 0 0
0 0 0
0 0 0
0 0 0
0 0 0
0 0 0
0 0 0
0 0 0
0 0 0
0 0 0
0 0 0
0 0 0
0 0 0
0 0 0
0 0 0
0 0 0
0 0 0
0 0 0
0 0 0
0 0 0
0 0 0
0 0 0
0 0 0
0 0 0
0 0 0
0 0 0
0 0 0
0 0 0
0 0 0
0 0 0
0 0 0
0 0 0
0 0 0
0 0 0
0 0 0
0 0 0
0 0 0
0 0 0
0 0 0
0 0 0
0 0 0
0 0 0
0 0 0
0 0 0
0 0 0
0 0 0
0 0 0
0 0 0
0 0 0
0 0 0
0 0 0
0 0 0
0 0 0
0 0 0
0 0 0
0 0 0
0 0 0
0 0 0
0 0 0
0 0 0
0 0 0
0 0 0
0 0 0
0 0 0
0 0 0
0 0 0
0 0 0
0 0 0
0 0 0
0 0 0
0 0 0
0 0 0
0 0 0
0 0 0
0 0 0
0 0 0
0 0 0
0 0 0
0 0 0
0 0 0
0 0 0
0 0 0
0 0 0
0 0 0
0 0 0
0 0 0
0 0 0
0 0 0
0 0 0
0 0 0
0 0 0
0 0 0
0 0 0
0 0 0
0 0 0
0 0 0
0 0 0
0 0 0
0 0 0
0 0 0
0 0 0
0 0 0
0 0 0
0 0 0
0 0 0
0 0 0
0 0 0
0 0 0
0 0 0
0 0 0
0 0 0
0 0 0
0 0 0
0 0 0
0 0 0
0 0 0
0 0 0
0 0 0
0 0 0
0 0 0
0 0 0
0 0 0
0 0 0
0 0 0
0 0 0
0 0 0
0 0 0
0 0 0
0 0 0
0 0 0
0 0 0
0 0 0
0 0 0
0 0 0
0 0 0
0 0 0
0 0 0
0 0 0
0 0 0
0 0 0
0 0 0
0 0 0
0 0 0
0 0 0
0 0 0
0 0 0
0 0 0
0 0 0
0 0 0
0 0 0
0 0 0
0 0 0
0 0 0
0 0 0
0 0 0
0 0 0
0 0 0
0 0 0
0 0 0
0 0 0
0 0 0
0 0 0
0 0 0
0 0 0
0 0 0
0 0 0
0 0 0
0 0 0
0 0 0
0 0 0
0 0 0
0 0 0
0 0 0
0 0 0
0 0 0
0 0 0
0 0 0
0 0 0
0 0 0
0 0 0
0 0 0
0 0 0
0 0 0
0 0 0
0 0 0
0 0 0
0 0 0
0 0 0
0 0 0
0 0 0
0 0 0
0 0 0
0 0 0
0 0 0
0 0 0
0 0 0
0 0 0
0 0 0
0 0 0
0 0 0
0 0 0
0 0 0
0 0 0
0 0 0
0 0 0
0 0 0
0 0 0
0 0 0
0 0 0
0 0 0
0 0 0
0 0 0
0 0 0
0 0 0
0 0 0
0 0 0
0 0 0
0 0 0
0 0 0
0 0 0
0 0 0
0 0 0
0 0 0
0 0 0
0 0 0
0 0 0
0 0 0
0 0 0
0 0 0
0 0 0
0 0 0
0 0 0
0 0 0
0 0 0
0 0 0
0 0 0
0 0 0
0 0 0
0 0 0
0 0 0
0 0 0
0 0 0
0 0 0
0 0 0
0 0 0
0 0 0
0 0 0
0 0 0
0 0 0
0 0 0
0 0 0
0 0 0
0 0 0
0 0 0
0 0 0
0 0 0
0 0 0
0 0 0
0 0 0
0 0 0
0 0 0
0 0 0
0 0 0
0 0 0
0 0 0
0 0 0
0 0 0
0 0 0
0 0 0
0 0 0
0 0 0
0 0 0
0 0 0
0 0 0
0 0 0
0 0 0
0 0 0
0 0 0
0 0 0
0 0 0
0 0 0
0 0 0
0 0 0
0 0 0
0 0 0
0 0 0
0 0 0
0 0 0
0 0 0
0 0 0
0 0 0
0 0 0
0 0 0
0 0 0
0 0 0
0 0 0
0 0 0
0 0 0
0 0 0
0 0 0
0 0 0
0 0 0
0 0 0
0 0 0
0 0 0
0 0 0
0 0 0
0 0 0
0 0 0
0 0 0
0 0 0
0 0 0
0 0 0
0 0 0
0 0 0
0 0 0
0 0 0
0 0 0
0 0 0
0 0 0
0 0 0
0 0 0
0 0 0
0 0 0
0 0 0
0 0 0
0 0 0
0 0 0
0 0 0
0 0 0
0 0 0
0 0 0
0 0 0
0 0 0
0 0 0
0 0 0
0 0 0
0 0 0
0 0 0
0 0 0
0 0 0
0 0 0
0 0 0
0 0 0
0 0 0
0 0 0
0 0 0
0 0 0
0 0 0
0 0 0
0 0 0
0 0 0
0 0 0
0 0 0
0 0 0
0 0 0
0 0 0
0 0 0
0 0 0
0 0 0
0 0 0
0 0 0
0 0 0
0 0 0
0 0 0
0 0 0
0 0 0
0 0 0
0 0 0
0 0 0
0 0 0
0 0 0
0 0 0
0 0 0
0 0 0
0 0 0
0 0 0
0 0 0
0 0 0
0 0 0
0 0 0
0 0 0
0 0 0
0 0 0
0 0 0
0 0 0
0 0 0
0 0 0
0 0 0
0 0 0
0 0 0
0 0 0
0 0 0
0 0 0
0 0 0
0 0 0
0 0 0
0 0 0
0 0 0
0 0 0
0 0 0
0 0 0
0 0 0
0 0 0
0 0 0
0 0 0
0 0 0
0 0 0
0 0 0
0 0 0
0 0 0
0 0 0
0 0 0
0 0 0
0 0 0
0 0 0
0 0 0
0 0 0
0 0 0
0 0 0
0 0 0
0 0 0
0 0 0
0 0 0
0 0 0
0 0 0
0 0 0
0 0 0
0 0 0
0 0 0
0 0 0
0 0 0
0 0 0
0 0 0
0 0 0
0 0 0
0 0 0
0 0 0
0 0 0
0 0 0
0 0 0
0 0 0
0 0 0
0 0 0
0 0 0
0 0 0
0 0 0
0 0 0
0 0 0
0 0 0
0 0 0
0 0 0
0 0 0
0 0 0
0 0 0
0 0 0
0 0 0
0 0 0
0 0 0
0 0 0
0 0 0
0 0 0
0 0 0
0 0 0
0 0 0
0 0 0
0 0 0
0 0 0
0 0 0
0 0 0
0 0 0
0 0 0
0 0 0
0 0 0
0 0 0
0 0 0
0 0 0
0 0 0
0 0 0
0 0 0
0 0 0
0 0 0
0 0 0
0 0 0
0 0 0
0 0 0
0 0 0
0 0 0
0 0 0
0 0 0
0 0 0
0 0 0
0 0 0
0 0 0
0 0 0
0 0 0
0 0 0
0 0 0
0 0 0
0 0 0
0 0 0
0 0 0
0 0 0
0 0 0
0 0 0
0 0 0
0 0 0
0 0 0
0 0 0
0 0 0
0 0 0
0 0 0
0 0 0
0 0 0
0 0 0
0 0 0
0 0 0
0 0 0
0 0 0
0 0 0
0 0 0
0 0 0
0 0 0
0 0 0
0 0 0
0 0 0
0 0 0
0 0 0
0 0 0
0 0 0
0 0 0
0 0 0
0 0 0
0 0 0
0 0 0
0 0 0
0 0 0
0 0 0
0 0 0
0 0 0
0 0 0
0 0 0
0 0 0
0 0 0
0 0 0
0 0 0
0 0 0
0 0 0
0 0 0
0 0 0
0 0 0
0 0 0
0 0 0
0 0 0
0 0 0
0 0 0
0 0 0
0 0 0
0 0 0
0 0 0
0 0 0
0 0 0
0 0 0
0 0 0
0 0 0
0 0 0
0 0 0
0 0 0
0 0 0
0 0 0
0 0 0
0 0 0
0 0 0
0 0 0
0 0 0
0 0 0
0 0 0
0 0 0
0 0 0
0 0 0
0 0 0
0 0 0
0 0 0
0 0 0
0 0 0
0 0 0
0 0 0
0 0 0
0 0 0
0 0 0
0 0 0
0 0 0
0 0 0
0 0 0
0 0 0
0 0 0
0 0 0
0 0 0
0 0 0
0 0 0
0 0 0
0 0 0
0 0 0
0 0 0
0 0 0
0 0 0
0 0 0
0 0 0
0 0 0
0 0 0
0 0 0
0 0 0
0 0 0
0 0 0
0 0 0
0 0 0
0 0 0
0 0 0
0 0 0
0 0 0
0 0 0
0 0 0
0 0 0
0 0 0
0 0 0
0 0 0
0 0 0
0 0 0
0 0 0
0 0 0
0 0 0
0 0 0
0 0 0
0 0 0
0 0 0
0 0 0
0 0 0
0 0 0
0 0 0
0 0 0
0 0 0
0 0 0
0 0 0
0 0 0
0 0 0
0 0 0
0 0 0
0 0 0
0 0 0
0 0 0
0 0 0
0 0 0
0 0 0
0 0 0
0 0 0
0 0 0
0 0 0
0 0 0
0 0 0
0 0 0
0 0 0
0 0 0
0 0 0
0 0 0
0 0 0
0 0 0
0 0 0
0 0 0
0 0 0
0 0 0
0 0 0
0 0 0
0 0 0
0 0 0
0 0 0
0 0 0
0 0 0
0 0 0
0 0 0
0 0 0
0 0 0
0 0 0
0 0 0
0 0 0
0 0 0
0 0 0
0 0 0
0 0 0
0 0 0
0 0 0
0 0 0
0 0 0
0 0 0
0 0 0
0 0 0
0 0 0
0 0 0
0 0 0
0 0 0
0 0 0
0 0 0
0 0 0
0 0 0
0 0 0
0 0 0
0 0 0
0 0 0
0 0 0
0 0 0
0 0 0
0 0 0
0 0 0
0 0 0
0 0 0
0 0 0
0 0 0
0 0 0
0 0 0
0 0 0
0 0 0
0 0 0
0 0 0
0 0 0
0 0 0
0 0 0
0 0 0
0 0 0
0 0 0
0 0 0
0 0 0
0 0 0
0 0 0
0 0 0
0 0 0
0 0 0
0 0 0
0 0 0
0 0 0
0 0 0
0 0 0
0 0 0
0 0 0
0 0 0
0 0 0
0 0 0
0 0 0
0 0 0
0 0 0
0 0 0
0 0 0
0 0 0
0 0 0
0 0 0
0 0 0
0 0 0
0 0 0
0 0 0
0 0 0
0 0 0
0 0 0
0 0 0
0 0 0
0 0 0
0 0 0
0 0 0
0 0 0
0 0 0
0 0 0
0 0 0
0 0 0
0 0 0
0 0 0
0 0 0
0 0 0
0 0 0
0 0 0
0 0 0
0 0 0
0 0 0
0 0 0
0 0 0
0 0 0
0 0 0
0 0 0
0 0 0
0 0 0
0 0 0
0 0 0
0 0 0
0 0 0
0 0 0
0 0 0
0 0 0
0 0 0
0 0 0
0 0 0
0 0 0
0 0 0
0 0 0
0 0 0
0 0 0
0 0 0
0 0 0
0 0 0
0 0 0
0 0 0
0 0 0
0 0 0
0 0 0
0 0 0
0 0 0
0 0 0
0 0 0
0 0 0
0 0 0
0 0 0
0 0 0
0 0 0
0 0 0
0 0 0
0 0 0
0 0 0
0 0 0
0 0 0
0 0 0
0 0 0
0 0 0
0 0 0
0 0 0
0 0 0
0 0 0
0 0 0
0 0 0
0 0 0
0 0 0
0 0 0
0 0 0
0 0 0
0 0 0
0 0 0
0 0 0
0 0 0
0 0 0
0 0 0
0 0 0
0 0 0
0 0 0
0 0 0
0 0 0
0 0 0
0 0 0
0 0 0
0 0 0
0 0 0
0 0 0
0 0 0
0 0 0
0 0 0
0 0 0
0 0 0
0 0 0
0 0 0
0 0 0
0 0 0
0 0 0
0 0 0
0 0 0
0 0 0
0 0 0
0 0 0
0 0 0
0 0 0
0 0 0
0 0 0
0 0 0
0 0 0
0 0 0
0 0 0
0 0 0
0 0 0
0 0 0
0 0 0
0 0 0
0 0 0
0 0 0
0 0 0
0 0 0
0 0 0
0 0 0
0 0 0
0 0 0
0 0 0
0 0 0
0 0 0
0 0 0
0 0 0
0 0 0
0 0 0
0 0 0
0 0 0
0 0 0
0 0 0
0 0 0
0 0 0
0 0 0
0 0 0
0 0 0
0 0 0
0 0 0
0 0 0
0 0 0
0 0 0
0 0 0
0 0 0
0 0 0
0 0 0
0 0 0
0 0 0
0 0 0
0 0 0
0 0 0
0 0 0
0 0 0
0 0 0
0 0 0
0 0 0
0 0 0
0 0 0
0 0 0
0 0 0
0 0 0
0 0 0
0 0 0
0 0 0
0 0 0
0 0 0
0 0 0
0 0 0
0 0 0
0 0 0
0 0 0
0 0 0
0 0 0
0 0 0
0 0 0
0 0 0
0 0 0
0 0 0
0 0 0
0 0 0
0 0 0
0 0 0
0 0 0
0 0 0
0 0 0
0 0 0
0 0 0
0 0 0
0 0 0
0 0 0
0 0 0
0 0 0
0 0 0
0 0 0
0 0 0
0 0 0
0 0 0
0 0 0
0 0 0
0 0 0
0 0 0
0 0 0
0 0 0
0 0 0
0 0 0
0 0 0
0 0 0
0 0 0
0 0 0
0 0 0
0 0 0
0 0 0
0 0 0
0 0 0
0 0 0
0 0 0
0 0 0
0 0 0
0 0 0
0 0 0
0 0 0
0 0 0
0 0 0
0 0 0
0 0 0
0 0 0
0 0 0
0 0 0
0 0 0
0 0 0
0 0 0
0 0 0
0 0 0
0 0 0
0 0 0
0 0 0
0 0 0
0 0 0
0 0 0
0 0 0
0 0 0
0 0 0
0 0 0
0 0 0
0 0 0
0 0 0
0 0 0
0 0 0
0 0 0
0 0 0
0 0 0
0 0 0
0 0 0
0 0 0
0 0 0
0 0 0
0 0 0
0 0 0
0 0 0
0 0 0
0 0 0
0 0 0
0 0 0
0 0 0
0 0 0
0 0 0
0 0 0
0 0 0
0 0 0
0 0 0
0 0 0
0 0 0
0 0 0
0 0 0
0 0 0
0 0 0
0 0 0
0 0 0
0 0 0
0 0 0
0 0 0
0 0 0
0 0 0
0 0 0
0 0 0
0 0 0
0 0 0
0 0 0
0 0 0
0 0 0
0 0 0
0 0 0
0 0 0
0 0 0
0 0 0
0 0 0
0 0 0
0 0 0
0 0 0
0 0 0
0 0 0
0 0 0
0 0 0
0 0 0
0 0 0
0 0 0
0 0 0
0 0 0
0 0 0
0 0 0
0 0 0
0 0 0
0 0 0
0 0 0
0 0 0
0 0 0
0 0 0
0 0 0
0 0 0
0 0 0
0 0 0
0 0 0
0 0 0
0 0 0
0 0 0
0 0 0
0 0 0
0 0 0
0 0 0
0 0 0
0 0 0
0 0 0
0 0 0
0 0 0
0 0 0
0 0 0
0 0 0
0 0 0
0 0 0
0 0 0
0 0 0
0 0 0
0 0 0
0 0 0
0 0 0
0 0 0
0 0 0
0 0 0
0 0 0
0 0 0
0 0 0
0 0 0
0 0 0
0 0 0
0 0 0
0 0 0
0 0 0
0 0 0
0 0 0
0 0 0
0 0 0
0 0 0
0 0 0
0 0 0
0 0 0
0 0 0
0 0 0
0 0 0
0 0 0
0 0 0
0 0 0
0 0 0
0 0 0
0 0 0
0 0 0
0 0 0
0 0 0
0 0 0
0 0 0
0 0 0
0 0 0
0 0 0
0 0 0
0 0 0
0 0 0
0 0 0
0 0 0
0 0 0
0 0 0
0 0 0
0 0 0
0 0 0
0 0 0
0 0 0
0 0 0
0 0 0
0 0 0
0 0 0
0 0 0
0 0 0
0 0 0
0 0 0
0 0 0
0 0 0
0 0 0
0 0 0
0 0 0
0 0 0
0 0 0
0 0 0
0 0 0
0 0 0
0 0 0
0 0 0
0 0 0
0 0 0
0 0 0
0 0 0
0 0 0
0 0 0
0 0 0
0 0 0
0 0 0
0 0 0
0 0 0
0 0 0
0 0 0
0 0 0
0 0 0
0 0 0
0 0 0
0 0 0
0 0 0
0 0 0
0 0 0
0 0 0
0 0 0
0 0 0
0 0 0
0 0 0
0 0 0
0 0 0
0 0 0
0 0 0
0 0 0
0 0 0
0 0 0
0 0 0
0 0 0
0 0 0
0 0 0
0 0 0
0 0 0
0 0 0
0 0 0
0 0 0
0 0 0
0 0 0
0 0 0
0 0 0
0 0 0
0 0 0
0 0 0
0 0 0
0 0 0
0 0 0
0 0 0
0 0 0
0 0 0
0 0 0
0 0 0
0 0 0
0 0 0
0 0 0
0 0 0
0 0 0
0 0 0
0 0 0
0 0 0
0 0 0
0 0 0
0 0 0
0 0 0
0 0 0
0 0 0
0 0 0
0 0 0
0 0 0
0 0 0
0 0 0
0 0 0
0 0 0
0 0 0
0 0 0
0 0 0
0 0 0
0 0 0
0 0 0
0 0 0
0 0 0
0 0 0
0 0 0
0 0 0
0 0 0
0 0 0
0 0 0
0 0 0
0 0 0
0 0 0
0 0 0
0 0 0
0 0 0
0 0 0
0 0 0
0 0 0
0 0 0
0 0 0
0 0 0
0 0 0
0 0 0
0 0 0
0 0 0
0 0 0
0 0 0
0 0 0
0 0 0
0 0 0
0 0 0
0 0 0
0 0 0
0 0 0
0 0 0
0 0 0
0 0 0
0 0 0
0 0 0
0 0 0
0 0 0
0 0 0
0 0 0
0 0 0
0 0 0
0 0 0
0 0 0
0 0 0
0 0 0
0 0 0
0 0 0
0 0 0
0 0 0
0 0 0
0 0 0
0 0 0
0 0 0
0 0 0
0 0 0
0 0 0
0 0 0
0 0 0
0 0 0
0 0 0
0 0 0
0 0 0
0 0 0
0 0 0
0 0 0
0 0 0
0 0 0
0 0 0
0 0 0
0 0 0
0 0 0
0 0 0
0 0 0
0 0 0
0 0 0
0 0 0
0 0 0
0 0 0
0 0 0
0 0 0
0 0 0
0 0 0
0 0 0
0 0 0
0 0 0
0 0 0
0 0 0
0 0 0
0 0 0
0 0 0
0 0 0
0 0 0
0 0 0
0 0 0
0 0 0
0 0 0
0 0 0
0 0 0
0 0 0
0 0 0
0 0 0
0 0 0
0 0 0
0 0 0
0 0 0
0 0 0
0 0 0
0 0 0
0 0 0
0 0 0
0 0 0
0 0 0
0 0 0
0 0 0
0 0 0
0 0 0
0 0 0
0 0 0
0 0 0
0 0 0
0 0 0
0 0 0
0 0 0
0 0 0
0 0 0
0 0 0
0 0 0
0 0 0
0 0 0
0 0 0
0 0 0
0 0 0
0 0 0
0 0 0
0 0 0
0 0 0
0 0 0
0 0 0
0 0 0
0 0 0
0 0 0
0 0 0
0 0 0
0 0 0
0 0 0
0 0 0
0 0 0
0 0 0
0 0 0
0 0 0
0 0 0
0 0 0
0 0 0
0 0 0
0 0 0
0 0 0
0 0 0
0 0 0
0 0 0
0 0 0
0 0 0
0 0 0
0 0 0
0 0 0
0 0 0
0 0 0
0 0 0
0 0 0
0 0 0
0 0 0
0 0 0
0 0 0
0 0 0
0 0 0
0 0 0
0 0 0
0 0 0
0 0 0
0 0 0
0 0 0
0 0 0
0 0 0
0 0 0
0 0 0
0 0 0
0 0 0
0 0 0
0 0 0
0 0 0
0 0 0
0 0 0
0 0 0
0 0 0
0 0 0
0 0 0
0 0 0
0 0 0
0 0 0
0 0 0
0 0 0
0 0 0
0 0 0
0 0 0
0 0 0
0 0 0
0 0 0
0 0 0
0 0 0
0 0 0
0 0 0
0 0 0
0 0 0
0 0 0
0 0 0
0 0 0
0 0 0
0 0 0
0 0 0
0 0 0
0 0 0
0 0 0
0 0 0
0 0 0
0 0 0
0 0 0
0 0 0
0 0 0
0 0 0
0 0 0
0 0 0
0 0 0
0 0 0
0 0 0
0 0 0
0 0 0
0 0 0
0 0 0
0 0 0
0 0 0
0 0 0
0 0 0
0 0 0
0 0 0
0 0 0
0 0 0
0 0 0
0 0 0
0 0 0
0 0 0
0 0 0
0 0 0
0 0 0
0 0 0
0 0 0
0 0 0
0 0 0
0 0 0
0 0 0
0 0 0
0 0 0
0 0 0
0 0 0
0 0 0
0 0 0
0 0 0
0 0 0
0 0 0
0 0 0
0 0 0
0 0 0
0 0 0
0 0 0
0 0 0
0 0 0
0 0 0
0 0 0
0 0 0
0 0 0
0 0 0
0 0 0
0 0 0
0 0 0
0 0 0
0 0 0
0 0 0
0 0 0
0 0 0
0 0 0
0 0 0
0 0 0
0 0 0
0 0 0
0 0 0
0 0 0
0 0 0
0 0 0
0 0 0
0 0 0
0 0 0
0 0 0
0 0 0
0 0 0
0 0 0
0 0 0
0 0 0
0 0 0
0 0 0
0 0 0
0 0 0
0 0 0
0 0 0
0 0 0
0 0 0
0 0 0
0 0 0
0 0 0
0 0 0
0 0 0
0 0 0
0 0 0
0 0 0
0 0 0
0 0 0
0 0 0
0 0 0
0 0 0
0 0 0
0 0 0
0 0 0
0 0 0
0 0 0
0 0 0
0 0 0
0 0 0
0 0 0
0 0 0
0 0 0
0 0 0
0 0 0
0 0 0
0 0 0
0 0 0
0 0 0
0 0 0
0 0 0
0 0 0
0 0 0
0 0 0
0 0 0
0 0 0
0 0 0
0 0 0
0 0 0
0 0 0
0 0 0
0 0 0
0 0 0
0 0 0
0 0 0
0 0 0
0 0 0
0 0 0
0 0 0
0 0 0
0 0 0
0 0 0
0 0 0
0 0 0
0 0 0
0 0 0
0 0 0
0 0 0
0 0 0
0 0 0
0 0 0
0 0 0
0 0 0
0 0 0
0 0 0
0 0 0
0 0 0
0 0 0
0 0 0
0 0 0
0 0 0
0 0 0
0 0 0
0 0 0
0 0 0
0 0 0
0 0 0
0 0 0
0 0 0
0 0 0
0 0 0
0 0 0
0 0 0
0 0 0
0 0 0
0 0 0
0 0 0
0 0 0
0 0 0
0 0 0
0 0 0
0 0 0
0 0 0
0 0 0
0 0 0
0 0 0
0 0 0
0 0 0
0 0 0
0 0 0
0 0 0
0 0 0
0 0 0
0 0 0
0 0 0
0 0 0
0 0 0
0 0 0
0 0 0
0 0 0
0 0 0
0 0 0
0 0 0
0 0 0
0 0 0
0 0 0
0 0 0
0 0 0
0 0 0
0 0 0
0 0 0
0 0 0
0 0 0
0 0 0
0 0 0
0 0 0
0 0 0
0 0 0
0 0 0
0 0 0
0 0 0
0 0 0
0 0 0
0 0 0
0 0 0
0 0 0
0 0 0
0 0 0
0 0 0
0 0 0
0 0 0
0 0 0
0 0 0
0 0 0
0 0 0
0 0 0
0 0 0
0 0 0
0 0 0
0 0 0
0 0 0
0 0 0
0 0 0
0 0 0
0 0 0
0 0 0
0 0 0
0 0 0
0 0 0
0 0 0
0 0 0
0 0 0
0 0 0
0 0 0
0 0 0
0 0 0
0 0 0
0 0 0
0 0 0
0 0 0
0 0 0
0 0 0
0 0 0
0 0 0
0 0 0
0 0 0
0 0 0
0 0 0
0 0 0
0 0 0
0 0 0
0 0 0
0 0 0
0 0 0
0 0 0
0 0 0
0 0 0
0 0 0
0 0 0
0 0 0
0 0 0
0 0 0
0 0 0
0 0 0
0 0 0
0 0 0
0 0 0
0 0 0
0 0 0
0 0 0
0 0 0
0 0 0
0 0 0
0 0 0
0 0 0
0 0 0
0 0 0
0 0 0
0 0 0
0 0 0
0 0 0
0 0 0
0 0 0
0 0 0
0 0 0
0 0 0
0 0 0
0 0 0
0 0 0
0 0 0
0 0 0
0 0 0
0 0 0
0 0 0
0 0 0
0 0 0
0 0 0
0 0 0
0 0 0
0 0 0
0 0 0
0 0 0
0 0 0
0 0 0
0 0 0
0 0 0
0 0 0
0 0 0
0 0 0
0 0 0
0 0 0
0 0 0
0 0 0
0 0 0
0 0 0
0 0 0
0 0 0
0 0 0
0 0 0
0 0 0
0 0 0
0 0 0
0 0 0
0 0 0
0 0 0
0 0 0
0 0 0
0 0 0
0 0 0
0 0 0
0 0 0
0 0 0
0 0 0
0 0 0
0 0 0
0 0 0
0 0 0
0 0 0
0 0 0
0 0 0
0 0 0
0 0 0
0 0 0
0 0 0
0 0 0
0 0 0
0 0 0
0 0 0
0 0 0
0 0 0
0 0 0
0 0 0
0 0 0
0 0 0
0 0 0
0 0 0
0 0 0
0 0 0
0 0 0
0 0 0
0 0 0
0 0 0
0 0 0
0 0 0
0 0 0
0 0 0
0 0 0
0 0 0
0 0 0
0 0 0
0 0 0
0 0 0
0 0 0
0 0 0
0 0 0
0 0 0
0 0 0
0 0 0
0 0 0
0 0 0
0 0 0
0 0 0
0 0 0
0 0 0
0 0 0
0 0 0
0 0 0
0 0 0
0 0 0
0 0 0
0 0 0
0 0 0
0 0 0
0 0 0
0 0 0
0 0 0
0 0 0
0 0 0
0 0 0
0 0 0
0 0 0
0 0 0
0 0 0
0 0 0
0 0 0
0 0 0
0 0 0
0 0 0
0 0 0
0 0 0
0 0 0
0 0 0
0 0 0
0 0 0
0 0 0
0 0 0
0 0 0
0 0 0
0 0 0
0 0 0
0 0 0
0 0 0
0 0 0
0 0 0
0 0 0
0 0 0
0 0 0
0 0 0
0 0 0
0 0 0
0 0 0
0 0 0
0 0 0
0 0 0
0 0 0
0 0 0
0 0 0
0 0 0
0 0 0
0 0 0
0 0 0
0 0 0
0 0 0
0 0 0
0 0 0
0 0 0
0 0 0
0 0 0
0 0 0
0 0 0
0 0 0
0 0 0
0 0 0
0 0 0
0 0 0
0 0 0
0 0 0
0 0 0
0 0 0
0 0 0
0 0 0
0 0 0
0 0 0
0 0 0
0 0 0
0 0 0
0 0 0
0 0 0
0 0 0
0 0 0
0 0 0
0 0 0
0 0 0
0 0 0
0 0 0
0 0 0
0 0 0
0 0 0
0 0 0
0 0 0
0 0 0
0 0 0
0 0 0
0 0 0
0 0 0
0 0 0
0 0 0
0 0 0
0 0 0
0 0 0
0 0 0
0 0 0
0 0 0
0 0 0
0 0 0
0 0 0
0 0 0
0 0 0
0 0 0
0 0 0
0 0 0
0 0 0
0 0 0
0 0 0
0 0 0
0 0 0
0 0 0
0 0 0
0 0 0
0 0 0
0 0 0
0 0 0
0 0 0
0 0 0
0 0 0
0 0 0
0 0 0
0 0 0
0 0 0
0 0 0
0 0 0
0 0 0
0 0 0
0 0 0
0 0 0
0 0 0
0 0 0
0 0 0
0 0 0
0 0 0
0 0 0
0 0 0
0 0 0
0 0 0
0 0 0
0 0 0
0 0 0
0 0 0
0 0 0
0 0 0
0 0 0
0 0 0
0 0 0
0 0 0
0 0 0
0 0 0
0 0 0
0 0 0
0 0 0
0 0 0
0 0 0
0 0 0
0 0 0
0 0 0
0 0 0
0 0 0
0 0 0
0 0 0
0 0 0
0 0 0
0 0 0
0 0 0
0 0 0
0 0 0
0 0 0
0 0 0
0 0 0
0 0 0
0 0 0
0 0 0
0 0 0
0 0 0
0 0 0
0 0 0
0 0 0
0 0 0
0 0 0
0 0 0
0 0 0
0 0 0
0 0 0
0 0 0
0 0 0
0 0 0
0 0 0
0 0 0
0 0 0
0 0 0
0 0 0
0 0 0
0 0 0
0 0 0
0 0 0
0 0 0
0 0 0
0 0 0
0 0 0
0 0 0
0 0 0
0 0 0
0 0 0
0 0 0
0 0 0
0 0 0
0 0 0
0 0 0
0 0 0
0 0 0
0 0 0
0 0 0
0 0 0
0 0 0
0 0 0
0 0 0
0 0 0
0 0 0
0 0 0
0 0 0
0 0 0
0 0 0
0 0 0
0 0 0
0 0 0
0 0 0
0 0 0
0 0 0
0 0 0
0 0 0
0 0 0
0 0 0
0 0 0
0 0 0
0 0 0
0 0 0
0 0 0
0 0 0
0 0 0
0 0 0
0 0 0
0 0 0
0 0 0
0 0 0
0 0 0
0 0 0
0 0 0
0 0 0
0 0 0
0 0 0
0 0 0
0 0 0
0 0 0
0 0 0
0 0 0
0 0 0
0 0 0
0 0 0
0 0 0
0 0 0
0 0 0
0 0 0
0 0 0
0 0 0
0 0 0
0 0 0
0 0 0
0 0 0
0 0 0
0 0 0
0 0 0
0 0 0
0 0 0
0 0 0
0 0 0
0 0 0
0 0 0
0 0 0
0 0 0
0 0 0
0 0 0
0 0 0
0 0 0
0 0 0
0 0 0
0 0 0
0 0 0
0 0 0
0 0 0
0 0 0
0 0 0
0 0 0
0 0 0
0 0 0
0 0 0
0 0 0
0 0 0
0 0 0
0 0 0
0 0 0
0 0 0
0 0 0
0 0 0
0 0 0
0 0 0
0 0 0
0 0 0
0 0 0
0 0 0
0 0 0
0 0 0
0 0 0
0 0 0
0 0 0
0 0 0
0 0 0
0 0 0
0 0 0
0 0 0
0 0 0
0 0 0
0 0 0
0 0 0
0 0 0
0 0 0
0 0 0
0 0 0
0 0 0
0 0 0
0 0 0
0 0 0
0 0 0
0 0 0
0 0 0
0 0 0
0 0 0
0 0 0
0 0 0
0 0 0
0 0 0
0 0 0
0 0 0
0 0 0
0 0 0
0 0 0
0 0 0
0 0 0
0 0 0
0 0 0
0 0 0
0 0 0
0 0 0
0 0 0
0 0 0
0 0 0
0 0 0
0 0 0
0 0 0
0 0 0
0 0 0
0 0 0
0 0 0
0 0 0
0 0 0
0 0 0
0 0 0
0 0 0
0 0 0
0 0 0
0 0 0
0 0 0
0 0 0
0 0 0
0 0 0
0 0 0
0 0 0
0 0 0
0 0 0
0 0 0
0 0 0
0 0 0
0 0 0
0 0 0
0 0 0
0 0 0
0 0 0
0 0 0
0 0 0
0 0 0
0 0 0
0 0 0
0 0 0
0 0 0
0 0 0
0 0 0
0 0 0
0 0 0
0 0 0
0 0 0
0 0 0
0 0 0
0 0 0
0 0 0
0 0 0
0 0 0
0 0 0
0 0 0
0 0 0
0 0 0
0 0 0
0 0 0
0 0 0
0 0 0
0 0 0
0 0 0
0 0 0
0 0 0
0 0 0
0 0 0
0 0 0
0 0 0
0 0 0
0 0 0
0 0 0
0 0 0
0 0 0
0 0 0
0 0 0
0 0 0
0 0 0
0 0 0
0 0 0
0 0 0
0 0 0
0 0 0
0 0 0
0 0 0
0 0 0
0 0 0
0 0 0
0 0 0
0 0 0
0 0 0
0 0 0
0 0 0
0 0 0
0 0 0
0 0 0
0 0 0
0 0 0
0 0 0
0 0 0
0 0 0
0 0 0
0 0 0
0 0 0
0 0 0
0 0 0
0 0 0
0 0 0
0 0 0
0 0 0
0 0 0
0 0 0
0 0 0
0 0 0
0 0 0
0 0 0
0 0 0
0 0 0
0 0 0
0 0 0
0 0 0
0 0 0
0 0 0
0 0 0
0 0 0
0 0 0
0 0 0
0 0 0
0 0 0
0 0 0
0 0 0
0 0 0
0 0 0
0 0 0
0 0 0
0 0 0
0 0 0
0 0 0
0 0 0
0 0 0
0 0 0
0 0 0
0 0 0
0 0 0
0 0 0
0 0 0
0 0 0
0 0 0
0 0 0
0 0 0
0 0 0
0 0 0
0 0 0
0 0 0
0 0 0
0 0 0
0 0 0
0 0 0
0 0 0
0 0 0
0 0 0
0 0 0
0 0 0
0 0 0
0 0 0
0 0 0
0 0 0
0 0 0
0 0 0
0 0 0
0 0 0
0 0 0
0 0 0
0 0 0
0 0 0
0 0 0
0 0 0
0 0 0
0 0 0
0 0 0
0 0 0
0 0 0
0 0 0
0 0 0
0 0 0
0 0 0
0 0 0
0 0 0
0 0 0
0 0 0
0 0 0
0 0 0
0 0 0
0 0 0
0 0 0
0 0 0
0 0 0
0 0 0
0 0 0
0 0 0
0 0 0
0 0 0
0 0 0
0 0 0
0 0 0
0 0 0
0 0 0
0 0 0
0 0 0
0 0 0
0 0 0
0 0 0
0 0 0
0 0 0
0 0 0
0 0 0
0 0 0
0 0 0
0 0 0
0 0 0
0 0 0
0 0 0
0 0 0
0 0 0
0 0 0
0 0 0
0 0 0
0 0 0
0 0 0
0 0 0
0 0 0
0 0 0
0 0 0
0 0 0
0 0 0
0 0 0
0 0 0
0 0 0
0 0 0
0 0 0
0 0 0
0 0 0
0 0 0
0 0 0
0 0 0
0 0 0
0 0 0
0 0 0
0 0 0
0 0 0
0 0 0
0 0 0
0 0 0
0 0 0
0 0 0
0 0 0
0 0 0
0 0 0
0 0 0
0 0 0
0 0 0
0 0 0
0 0 0
0 0 0
0 0 0
0 0 0
0 0 0
0 0 0
0 0 0
0 0 0
0 0 0
0 0 0
0 0 0
0 0 0
0 0 0
0 0 0
0 0 0
0 0 0
0 0 0
0 0 0
0 0 0
0 0 0
0 0 0
0 0 0
0 0 0
0 0 0
0 0 0
0 0 0
0 0 0
0 0 0
0 0 0
0 0 0
0 0 0
0 0 0
0 0 0
0 0 0
0 0 0
0 0 0
0 0 0
0 0 0
0 0 0
0 0 0
0 0 0
0 0 0
0 0 0
0 0 0
0 0 0
0 0 0
0 0 0
0 0 0
0 0 0
0 0 0
0 0 0
0 0 0
0 0 0
0 0 0
0 0 0
0 0 0
0 0 0
0 0 0
0 0 0
0 0 0
0 0 0
0 0 0
0 0 0
0 0 0
0 0 0
0 0 0
0 0 0
0 0 0
0 0 0
0 0 0
0 0 0
0 0 0
0 0 0
0 0 0
0 0 0
0 0 0
0 0 0
0 0 0
0 0 0
0 0 0
0 0 0
0 0 0
0 0 0
0 0 0
0 0 0
0 0 0
0 0 0
0 0 0
0 0 0
0 0 0
0 0 0
0 0 0
0 0 0
0 0 0
0 0 0
0 0 0
0 0 0
0 0 0
0 0 0
0 0 0
0 0 0
0 0 0
0 0 0
0 0 0
0 0 0
0 0 0
0 0 0
0 0 0
0 0 0
0 0 0
0 0 0
0 0 0
0 0 0
0 0 0
0 0 0
0 0 0
0 0 0
0 0 0
0 0 0
0 0 0
0 0 0
0 0 0
0 0 0
0 0 0
0 0 0
0 0 0
0 0 0
0 0 0
0 0 0
0 0 0
0 0 0
0 0 0
0 0 0
0 0 0
0 0 0
0 0 0
0 0 0
0 0 0
0 0 0
0 0 0
0 0 0
0 0 0
0 0 0
0 0 0
0 0 0
0 0 0
0 0 0
0 0 0
0 0 0
0 0 0
0 0 0
0 0 0
0 0 0
0 0 0
0 0 0
0 0 0
0 0 0
0 0 0
0 0 0
0 0 0
0 0 0
0 0 0
0 0 0
0 0 0
0 0 0
0 0 0
0 0 0
0 0 0
0 0 0
0 0 0
0 0 0
0 0 0
0 0 0
0 0 0
0 0 0
0 0 0
0 0 0
0 0 0
0 0 0
0 0 0
0 0 0
0 0 0
0 0 0
0 0 0
0 0 0
0 0 0
0 0 0
0 0 0
0 0 0
0 0 0
0 0 0
0 0 0
0 0 0
0 0 0
0 0 0
0 0 0
0 0 0
0 0 0
0 0 0
0 0 0
0 0 0
0 0 0
0 0 0
0 0 0
0 0 0
0 0 0
0 0 0
0 0 0
0 0 0
0 0 0
0 0 0
0 0 0
0 0 0
0 0 0
0 0 0
0 0 0
0 0 0
0 0 0
0 0 0
0 0 0
0 0 0
0 0 0
0 0 0
0 0 0
0 0 0
0 0 0
0 0 0
0 0 0
0 0 0
0 0 0
0 0 0
0 0 0
0 0 0
0 0 0
0 0 0
0 0 0
0 0 0
0 0 0
0 0 0
0 0 0
0 0 0
0 0 0
0 0 0
0 0 0
0 0 0
0 0 0
0 0 0
0 0 0
0 0 0
0 0 0
0 0 0
0 0 0
0 0 0
0 0 0
0 0 0
0 0 0
0 0 0
0 0 0
0 0 0
0 0 0
0 0 0
0 0 0
0 0 0
0 0 0
0 0 0
0 0 0
0 0 0
0 0 0
0 0 0
0 0 0
0 0 0
0 0 0
0 0 0
0 0 0
0 0 0
0 0 0
0 0 0
0 0 0
0 0 0
0 0 0
0 0 0
0 0 0
0 0 0
0 0 0
0 0 0
0 0 0
0 0 0
0 0 0
0 0 0
0 0 0
0 0 0
0 0 0
0 0 0
0 0 0
0 0 0
0 0 0
0 0 0
0 0 0
0 0 0
0 0 0
0 0 0
0 0 0
0 0 0
0 0 0
0 0 0
0 0 0
0 0 0
0 0 0
0 0 0
0 0 0
0 0 0
0 0 0
0 0 0
0 0 0
0 0 0
0 0 0
0 0 0
0 0 0
0 0 0
0 0 0
0 0 0
0 0 0
0 0 0
0 0 0
0 0 0
0 0 0
0 0 0
0 0 0
0 0 0
0 0 0
0 0 0
0 0 0
0 0 0
0 0 0
0 0 0
0 0 0
0 0 0
0 0 0
0 0 0
0 0 0
0 0 0
0 0 0
0 0 0
0 0 0
0 0 0
0 0 0
0 0 0
0 0 0
0 0 0
0 0 0
0 0 0
0 0 0
0 0 0
0 0 0
0 0 0
0 0 0
0 0 0
0 0 0
0 0 0
0 0 0
0 0 0
0 0 0
0 0 0
0 0 0
0 0 0
0 0 0
0 0 0
0 0 0
0 0 0
0 0 0
0 0 0
0 0 0
0 0 0
0 0 0
0 0 0
0 0 0
0 0 0
0 0 0
0 0 0
0 0 0
0 0 0
0 0 0
0 0 0
0 0 0
0 0 0
0 0 0
0 0 0
0 0 0
0 0 0
0 0 0
0 0 0
0 0 0
0 0 0
0 0 0
0 0 0
0 0 0
0 0 0
0 0 0
0 0 0
0 0 0
0 0 0
0 0 0
0 0 0
0 0 0
0 0 0
0 0 0
0 0 0
0 0 0
0 0 0
0 0 0
0 0 0
0 0 0
0 0 0
0 0 0
0 0 0
0 0 0
0 0 0
0 0 0
0 0 0
0 0 0
0 0 0
0 0 0
0 0 0
0 0 0
0 0 0
0 0 0
0 0 0
0 0 0
0 0 0
0 0 0
0 0 0
0 0 0
0 0 0
0 0 0
0 0 0
0 0 0
0 0 0
0 0 0
0 0 0
0 0 0
0 0 0
0 0 0
0 0 0
0 0 0
0 0 0
0 0 0
0 0 0
0 0 0
0 0 0
0 0 0
0 0 0
0 0 0
0 0 0
0 0 0
0 0 0
0 0 0
0 0 0
0 0 0
0 0 0
0 0 0
0 0 0
0 0 0
0 0 0
0 0 0
0 0 0
0 0 0
0 0 0
0 0 0
0 0 0
0 0 0
0 0 0
0 0 0
0 0 0
0 0 0
0 0 0
0 0 0
0 0 0
0 0 0
0 0 0
0 0 0
0 0 0
0 0 0
0 0 0
0 0 0
0 0 0
0 0 0
0 0 0
0 0 0
0 0 0
0 0 0
0 0 0
0 0 0
0 0 0
0 0 0
0 0 0
0 0 0
0 0 0
0 0 0
0 0 0
0 0 0
0 0 0
0 0 0
0 0 0
0 0 0
0 0 0
0 0 0
0 0 0
0 0 0
0 0 0
0 0 0
0 0 0
0 0 0
0 0 0
0 0 0
0 0 0
0 0 0
0 0 0
0 0 0
0 0 0
0 0 0
0 0 0
0 0 0
0 0 0
0 0 0
0 0 0
0 0 0
0 0 0
0 0 0
0 0 0
0 0 0
0 0 0
0 0 0
0 0 0
0 0 0
0 0 0
0 0 0
0 0 0
0 0 0
0 0 0
0 0 0
0 0 0
0 0 0
0 0 0
0 0 0
0 0 0
0 0 0
0 0 0
0 0 0
0 0 0
0 0 0
0 0 0
0 0 0
0 0 0
0 0 0
0 0 0
0 0 0
0 0 0
0 0 0
0 0 0
0 0 0
0 0 0
0 0 0
0 0 0
0 0 0
0 0 0
0 0 0
0 0 0
0 0 0
0 0 0
0 0 0
0 0 0
0 0 0
0 0 0
0 0 0
0 0 0
0 0 0
0 0 0
0 0 0
0 0 0
0 0 0
0 0 0
0 0 0
0 0 0
0 0 0
0 0 0
0 0 0
0 0 0
0 0 0
0 0 0
0 0 0
0 0 0
0 0 0
0 0 0
0 0 0
0 0 0
0 0 0
0 0 0
0 0 0
0 0 0
0 0 0
0 0 0
0 0 0
0 0 0
0 0 0
0 0 0
0 0 0
0 0 0
0 0 0
0 0 0
0 0 0
0 0 0
0 0 0
0 0 0
0 0 0
0 0 0
0 0 0
0 0 0
0 0 0
0 0 0
0 0 0
0 0 0
0 0 0
0 0 0
0 0 0
0 0 0
0 0 0
0 0 0
0 0 0
0 0 0
0 0 0
0 0 0
0 0 0
0 0 0
0 0 0
0 0 0
0 0 0
0 0 0
0 0 0
0 0 0
0 0 0
0 0 0
0 0 0
0 0 0
0 0 0
0 0 0
0 0 0
0 0 0
0 0 0
0 0 0
0 0 0
0 0 0
0 0 0
0 0 0
0 0 0
0 0 0
0 0 0
0 0 0
0 0 0
0 0 0
0 0 0
0 0 0
0 0 0
0 0 0
0 0 0
0 0 0
0 0 0
0 0 0
0 0 0
0 0 0
0 0 0
0 0 0
0 0 0
0 0 0
0 0 0
0 0 0
0 0 0
0 0 0
0 0 0
0 0 0
0 0 0
0 0 0
0 0 0
0 0 0
0 0 0
0 0 0
0 0 0
0 0 0
0 0 0
0 0 0
0 0 0
0 0 0
0 0 0
0 0 0
0 0 0
0 0 0
0 0 0
0 0 0
0 0 0
0 0 0
0 0 0
0 0 0
0 0 0
0 0 0
0 0 0
0 0 0
0 0 0
0 0 0
0 0 0
0 0 0
0 0 0
0 0 0
0 0 0
0 0 0
0 0 0
0 0 0
0 0 0
0 0 0
0 0 0
0 0 0
0 0 0
0 0 0
0 0 0
0 0 0
0 0 0
0 0 0
0 0 0
0 0 0
0 0 0
0 0 0
0 0 0
0 0 0
0 0 0
0 0 0
0 0 0
0 0 0
0 0 0
0 0 0
0 0 0
0 0 0
0 0 0
0 0 0
0 0 0
0 0 0
0 0 0
0 0 0
0 0 0
0 0 0
0 0 0
0 0 0
0 0 0
0 0 0
0 0 0
0 0 0
0 0 0
0 0 0
0 0 0
0 0 0
0 0 0
0 0 0
0 0 0
0 0 0
0 0 0
0 0 0
0 0 0
0 0 0
0 0 0
0 0 0
0 0 0
0 0 0
0 0 0
0 0 0
0 0 0
0 0 0
0 0 0
0 0 0
0 0 0
0 0 0
0 0 0
0 0 0
0 0 0
0 0 0
0 0 0
0 0 0
0 0 0
0 0 0
0 0 0
0 0 0
0 0 0
0 0 0
0 0 0
0 0 0
0 0 0
0 0 0
0 0 0
0 0 0
0 0 0
0 0 0
0 0 0
0 0 0
0 0 0
0 0 0
0 0 0
0 0 0
0 0 0
0 0 0
0 0 0
0 0 0
0 0 0
0 0 0
0 0 0
0 0 0
0 0 0
0 0 0
0 0 0
0 0 0
0 0 0
0 0 0
0 0 0
0 0 0
0 0 0
0 0 0
0 0 0
0 0 0
0 0 0
0 0 0
0 0 0
0 0 0
0 0 0
0 0 0
0 0 0
0 0 0
0 0 0
0 0 0
0 0 0
0 0 0
0 0 0
0 0 0
0 0 0
0 0 0
0 0 0
0 0 0
0 0 0
0 0 0
0 0 0
0 0 0
0 0 0
0 0 0
0 0 0
0 0 0
0 0 0
0 0 0
0 0 0
0 0 0
0 0 0
0 0 0
0 0 0
0 0 0
0 0 0
0 0 0
0 0 0
0 0 0
0 0 0
0 0 0
0 0 0
0 0 0
0 0 0
0 0 0
0 0 0
0 0 0
0 0 0
0 0 0
0 0 0
0 0 0
0 0 0
0 0 0
0 0 0
0 0 0
0 0 0
0 0 0
0 0 0
0 0 0
0 0 0
0 0 0
0 0 0
0 0 0
0 0 0
0 0 0
0 0 0
0 0 0
0 0 0
0 0 0
0 0 0
0 0 0
0 0 0
0 0 0
0 0 0
0 0 0
0 0 0
0 0 0
0 0 0
0 0 0
0 0 0
0 0 0
0 0 0
0 0 0
0 0 0
0 0 0
0 0 0
0 0 0
0 0 0
0 0 0
0 0 0
0 0 0
0 0 0
0 0 0
0 0 0
0 0 0
0 0 0
0 0 0
0 0 0
0 0 0
0 0 0
0 0 0
0 0 0
0 0 0
0 0 0
0 0 0
0 0 0
0 0 0
0 0 0
0 0 0
0 0 0
0 0 0
0 0 0
0 0 0
0 0 0
0 0 0
0 0 0
0 0 0
0 0 0
0 0 0
0 0 0
0 0 0
0 0 0
0 0 0
0 0 0
0 0 0
0 0 0
0 0 0
0 0 0
0 0 0
0 0 0
0 0 0
0 0 0
0 0 0
0 0 0
0 0 0
0 0 0
0 0 0
0 0 0
0 0 0
0 0 0
0 0 0
0 0 0
0 0 0
0 0 0
0 0 0
0 0 0
0 0 0
0 0 0
0 0 0
0 0 0
0 0 0
0 0 0
0 0 0
0 0 0
0 0 0
0 0 0
0 0 0
0 0 0
0 0 0
0 0 0
0 0 0
0 0 0
0 0 0
0 0 0
0 0 0
0 0 0
0 0 0
0 0 0
0 0 0
0 0 0
0 0 0
0 0 0
0 0 0
0 0 0
0 0 0
0 0 0
0 0 0
0 0 0
0 0 0
0 0 0
0 0 0
0 0 0
0 0 0
0 0 0
0 0 0
0 0 0
0 0 0
0 0 0
0 0 0
0 0 0
0 0 0
0 0 0
0 0 0
0 0 0
0 0 0
0 0 0
0 0 0
0 0 0
0 0 0
0 0 0
0 0 0
0 0 0
0 0 0
0 0 0
0 0 0
0 0 0
0 0 0
0 0 0
0 0 0
0 0 0
0 0 0
0 0 0
0 0 0
0 0 0
0 0 0
0 0 0
0 0 0
0 0 0
0 0 0
0 0 0
0 0 0
0 0 0
0 0 0
0 0 0
0 0 0
0 0 0
0 0 0
0 0 0
0 0 0
0 0 0
0 0 0
0 0 0
0 0 0
0 0 0
0 0 0
0 0 0
0 0 0
0 0 0
0 0 0
0 0 0
0 0 0
0 0 0
0 0 0
0 0 0
0 0 0
0 0 0
0 0 0
0 0 0
0 0 0
0 0 0
0 0 0
0 0 0
0 0 0
0 0 0
0 0 0
0 0 0
0 0 0
0 0 0
0 0 0
0 0 0
0 0 0
0 0 0
0 0 0
0 0 0
0 0 0
0 0 0
0 0 0
0 0 0
0 0 0
0 0 0
0 0 0
0 0 0
0 0 0
0 0 0
0 0 0
0 0 0
0 0 0
0 0 0
0 0 0
0 0 0
0 0 0
0 0 0
0 0 0
0 0 0
0 0 0
0 0 0
0 0 0
0 0 0
0 0 0
0 0 0
0 0 0
0 0 0
0 0 0
0 0 0
0 0 0
0 0 0
0 0 0
0 0 0
0 0 0
0 0 0
0 0 0
0 0 0
0 0 0
0 0 0
0 0 0
0 0 0
0 0 0
0 0 0
0 0 0
0 0 0
0 0 0
0 0 0
0 0 0
0 0 0
0 0 0
0 0 0
0 0 0
0 0 0
0 0 0
0 0 0
0 0 0
0 0 0
0 0 0
0 0 0
0 0 0
0 0 0
0 0 0
0 0 0
0 0 0
0 0 0
0 0 0
0 0 0
0 0 0
0 0 0
0 0 0
0 0 0
0 0 0
0 0 0
0 0 0
0 0 0
0 0 0
0 0 0
0 0 0
0 0 0
0 0 0
0 0 0
0 0 0
0 0 0
0 0 0
0 0 0
0 0 0
0 0 0
0 0 0
0 0 0
0 0 0
0 0 0
0 0 0
0 0 0
0 0 0
0 0 0
0 0 0
0 0 0
0 0 0
0 0 0
0 0 0
0 0 0
0 0 0
0 0 0
0 0 0
0 0 0
0 0 0
0 0 0
0 0 0
0 0 0
0 0 0
0 0 0
0 0 0
0 0 0
0 0 0
0 0 0
0 0 0
0 0 0
0 0 0
0 0 0
0 0 0
0 0 0
0 0 0
0 0 0
0 0 0
0 0 0
0 0 0
0 0 0
0 0 0
0 0 0
0 0 0
0 0 0
0 0 0
0 0 0
0 0 0
0 0 0
0 0 0
0 0 0
0 0 0
0 0 0
0 0 0
0 0 0
0 0 0
0 0 0
0 0 0
0 0 0
0 0 0
0 0 0
0 0 0
0 0 0
0 0 0
0 0 0
0 0 0
0 0 0
0 0 0
0 0 0
0 0 0
0 0 0
0 0 0
0 0 0
0 0 0
0 0 0
0 0 0
0 0 0
0 0 0
0 0 0
0 0 0
0 0 0
0 0 0
0 0 0
0 0 0
0 0 0
0 0 0
0 0 0
0 0 0
0 0 0
0 0 0
0 0 0
0 0 0
0 0 0
0 0 0
0 0 0
0 0 0
0 0 0
0 0 0
0 0 0
0 0 0
0 0 0
0 0 0
0 0 0
0 0 0
0 0 0
0 0 0
0 0 0
0 0 0
0 0 0
0 0 0
0 0 0
0 0 0
0 0 0
0 0 0
0 0 0
0 0 0
0 0 0
0 0 0
0 0 0
0 0 0
0 0 0
0 0 0
0 0 0
0 0 0
0 0 0
0 0 0
0 0 0
0 0 0
0 0 0
0 0 0
0 0 0
0 0 0
0 0 0
0 0 0
0 0 0
0 0 0
0 0 0
0 0 0
0 0 0
0 0 0
0 0 0
0 0 0
0 0 0
0 0 0
0 0 0
0 0 0
0 0 0
0 0 0
0 0 0
0 0 0
0 0 0
0 0 0
0 0 0
0 0 0
0 0 0
0 0 0
0 0 0
0 0 0
0 0 0
0 0 0
0 0 0
0 0 0
0 0 0
0 0 0
0 0 0
0 0 0
0 0 0
0 0 0
0 0 0
0 0 0
0 0 0
0 0 0
0 0 0
0 0 0
0 0 0
0 0 0
0 0 0
0 0 0
0 0 0
0 0 0
0 0 0
0 0 0
0 0 0
0 0 0
0 0 0
0 0 0
0 0 0
0 0 0
0 0 0
0 0 0
0 0 0
0 0 0
0 0 0
0 0 0
0 0 0
0 0 0
0 0 0
0 0 0
0 0 0
0 0 0
0 0 0
0 0 0
0 0 0
0 0 0
0 0 0
0 0 0
0 0 0
0 0 0
0 0 0
0 0 0
0 0 0
0 0 0
0 0 0
0 0 0
0 0 0
0 0 0
0 0 0
0 0 0
0 0 0
0 0 0
0 0 0
0 0 0
0 0 0
0 0 0
0 0 0
0 0 0
0 0 0
0 0 0
0 0 0
0 0 0
0 0 0
0 0 0
0 0 0
0 0 0
0 0 0
0 0 0
0 0 0
0 0 0
0 0 0
0 0 0
0 0 0
0 0 0
0 0 0
0 0 0
0 0 0
0 0 0
0 0 0
0 0 0
0 0 0
0 0 0
0 0 0
0 0 0
0 0 0
0 0 0
0 0 0
0 0 0
0 0 0
0 0 0
0 0 0
0 0 0
0 0 0
0 0 0
0 0 0
0 0 0
0 0 0
0 0 0
0 0 0
0 0 0
0 0 0
0 0 0
0 0 0
0 0 0
0 0 0
0 0 0
0 0 0
0 0 0
0 0 0
0 0 0
0 0 0
0 0 0
0 0 0
0 0 0
0 0 0
0 0 0
0 0 0
0 0 0
0 0 0
0 0 0
0 0 0
0 0 0
0 0 0
0 0 0
0 0 0
0 0 0
0 0 0
0 0 0
0 0 0
0 0 0
0 0 0
0 0 0
0 0 0
0 0 0
0 0 0
0 0 0
0 0 0
0 0 0
0 0 0
0 0 0
0 0 0
0 0 0
0 0 0
0 0 0
0 0 0
0 0 0
0 0 0
0 0 0
0 0 0
0 0 0
0 0 0
0 0 0
0 0 0
0 0 0
0 0 0
0 0 0
0 0 0
0 0 0
0 0 0
0 0 0
0 0 0
0 0 0
0 0 0
0 0 0
0 0 0
0 0 0
0 0 0
0 0 0
0 0 0
0 0 0
0 0 0
0 0 0
0 0 0
0 0 0
0 0 0
0 0 0
0 0 0
0 0 0
0 0 0
0 0 0
0 0 0
0 0 0
0 0 0
0 0 0
0 0 0
0 0 0
0 0 0
0 0 0
0 0 0
0 0 0
0 0 0
0 0 0
0 0 0
0 0 0
0 0 0
0 0 0
0 0 0
0 0 0
0 0 0
0 0 0
0 0 0
0 0 0
0 0 0
0 0 0
0 0 0
0 0 0
0 0 0
0 0 0
0 0 0
0 0 0
0 0 0
0 0 0
0 0 0
0 0 0
0 0 0
0 0 0
0 0 0
0 0 0
0 0 0
0 0 0
0 0 0
0 0 0
0 0 0
0 0 0
0 0 0
0 0 0
0 0 0
0 0 0
0 0 0
0 0 0
0 0 0
0 0 0
0 0 0
0 0 0
0 0 0
0 0 0
0 0 0
0 0 0
0 0 0
0 0 0
0 0 0
0 0 0
0 0 0
0 0 0
0 0 0
0 0 0
0 0 0
0 0 0
0 0 0
0 0 0
0 0 0
0 0 0
0 0 0
0 0 0
0 0 0
0 0 0
0 0 0
0 0 0
0 0 0
0 0 0
0 0 0
0 0 0
0 0 0
0 0 0
0 0 0
0 0 0
0 0 0
0 0 0
0 0 0
0 0 0
0 0 0
0 0 0
0 0 0
0 0 0
0 0 0
0 0 0
0 0 0
0 0 0
0 0 0
0 0 0
0 0 0
0 0 0
0 0 0
0 0 0
0 0 0
0 0 0
0 0 0
0 0 0
0 0 0
0 0 0
0 0 0
0 0 0
0 0 0
0 0 0
0 0 0
0 0 0
0 0 0
0 0 0
0 0 0
0 0 0
0 0 0
0 0 0
0 0 0
0 0 0
0 0 0
0 0 0
0 0 0
0 0 0
0 0 0
0 0 0
0 0 0
0 0 0
0 0 0
0 0 0
0 0 0
0 0 0
0 0 0
0 0 0
0 0 0
0 0 0
0 0 0
0 0 0
0 0 0
0 0 0
0 0 0
0 0 0
0 0 0
0 0 0
0 0 0
0 0 0
0 0 0
0 0 0
0 0 0
0 0 0
0 0 0
0 0 0
0 0 0
0 0 0
0 0 0
0 0 0
0 0 0
0 0 0
0 0 0
0 0 0
0 0 0
0 0 0
0 0 0
0 0 0
0 0 0
0 0 0
0 0 0
0 0 0
0 0 0
0 0 0
0 0 0
0 0 0
0 0 0
0 0 0
0 0 0
0 0 0
0 0 0
0 0 0
0 0 0
0 0 0
0 0 0
0 0 0
0 0 0
0 0 0
0 0 0
0 0 0
0 0 0
0 0 0
0 0 0
0 0 0
0 0 0
0 0 0
0 0 0
0 0 0
0 0 0
0 0 0
0 0 0
0 0 0
0 0 0
0 0 0
0 0 0
0 0 0
0 0 0
0 0 0
0 0 0
0 0 0
0 0 0
0 0 0
0 0 0
0 0 0
0 0 0
0 0 0
0 0 0
0 0 0
0 0 0
0 0 0
0 0 0
0 0 0
0 0 0
0 0 0
0 0 0
0 0 0
0 0 0
0 0 0
0 0 0
0 0 0
0 0 0
0 0 0
0 0 0
0 0 0
0 0 0
0 0 0
0 0 0
0 0 0
0 0 0
0 0 0
0 0 0
0 0 0
0 0 0
0 0 0
0 0 0
0 0 0
0 0 0
0 0 0
0 0 0
0 0 0
0 0 0
0 0 0
0 0 0
0 0 0
0 0 0
0 0 0
0 0 0
0 0 0
0 0 0
0 0 0
0 0 0
0 0 0
0 0 0
0 0 0
0 0 0
0 0 0
0 0 0
0 0 0
0 0 0
0 0 0
0 0 0
0 0 0
0 0 0
0 0 0
0 0 0
0 0 0
0 0 0
0 0 0
0 0 0
0 0 0
0 0 0
0 0 0
0 0 0
0 0 0
0 0 0
0 0 0
0 0 0
0 0 0
0 0 0
0 0 0
0 0 0
0 0 0
0 0 0
0 0 0
0 0 0
0 0 0
0 0 0
0 0 0
0 0 0
0 0 0
0 0 0
0 0 0
0 0 0
0 0 0
0 0 0
0 0 0
0 0 0
0 0 0
0 0 0
0 0 0
0 0 0
0 0 0
0 0 0
0 0 0
0 0 0
0 0 0
0 0 0
0 0 0
0 0 0
0 0 0
0 0 0
0 0 0
0 0 0
0 0 0
0 0 0
0 0 0
0 0 0
0 0 0
0 0 0
0 0 0
0 0 0
0 0 0
0 0 0
0 0 0
0 0 0
0 0 0
0 0 0
0 0 0
0 0 0
0 0 0
0 0 0
0 0 0
0 0 0
0 0 0
0 0 0
0 0 0
0 0 0
0 0 0
0 0 0
0 0 0
0 0 0
0 0 0
0 0 0
0 0 0
0 0 0
0 0 0
0 0 0
0 0 0
0 0 0
0 0 0
0 0 0
0 0 0
0 0 0
0 0 0
0 0 0
0 0 0
0 0 0
0 0 0
0 0 0
0 0 0
0 0 0
0 0 0
0 0 0
0 0 0
0 0 0
0 0 0
0 0 0
0 0 0
0 0 0
0 0 0
0 0 0
0 0 0
0 0 0
0 0 0
0 0 0
0 0 0
0 0 0
0 0 0
0 0 0
0 0 0
0 0 0
0 0 0
0 0 0
0 0 0
0 0 0
0 0 0
0 0 0
0 0 0
0 0 0
0 0 0
0 0 0
0 0 0
0 0 0
0 0 0
0 0 0
0 0 0
0 0 0
0 0 0
0 0 0
0 0 0
0 0 0
0 0 0
0 0 0
0 0 0
0 0 0
0 0 0
0 0 0
0 0 0
0 0 0
0 0 0
0 0 0
0 0 0
0 0 0
0 0 0
0 0 0
0 0 0
0 0 0
0 0 0
0 0 0
0 0 0
0 0 0
0 0 0
0 0 0
0 0 0
0 0 0
0 0 0
0 0 0
0 0 0
0 0 0
0 0 0
0 0 0
0 0 0
0 0 0
0 0 0
0 0 0
0 0 0
0 0 0
0 0 0
0 0 0
0 0 0
0 0 0
0 0 0
0 0 0
0 0 0
0 0 0
0 0 0
0 0 0
0 0 0
0 0 0
0 0 0
0 0 0
0 0 0
0 0 0
0 0 0
0 0 0
0 0 0
0 0 0
0 0 0
0 0 0
0 0 0
0 0 0
0 0 0
0 0 0
0 0 0
0 0 0
0 0 0
0 0 0
0 0 0
0 0 0
0 0 0
0 0 0
0 0 0
0 0 0
0 0 0
0 0 0
0 0 0
0 0 0
0 0 0
0 0 0
0 0 0
0 0 0
0 0 0
0 0 0
0 0 0
0 0 0
0 0 0
0 0 0
0 0 0
0 0 0
0 0 0
0 0 0
0 0 0
0 0 0
0 0 0
0 0 0
0 0 0
0 0 0
0 0 0
0 0 0
0 0 0
0 0 0
0 0 0
0 0 0
0 0 0
0 0 0
0 0 0
0 0 0
0 0 0
0 0 0
0 0 0
0 0 0
0 0 0
0 0 0
0 0 0
0 0 0
0 0 0
0 0 0
0 0 0
0 0 0
0 0 0
0 0 0
0 0 0
0 0 0
0 0 0
0 0 0
0 0 0
0 0 0
0 0 0
0 0 0
0 0 0
0 0 0
0 0 0
0 0 0
0 0 0
0 0 0
0 0 0
0 0 0
0 0 0
0 0 0
0 0 0
0 0 0
0 0 0
0 0 0
0 0 0
0 0 0
0 0 0
0 0 0
0 0 0
0 0 0
0 0 0
0 0 0
0 0 0
0 0 0
0 0 0
0 0 0
0 0 0
0 0 0
0 0 0
0 0 0
0 0 0
0 0 0
0 0 0
0 0 0
0 0 0
0 0 0
0 0 0
0 0 0
0 0 0
0 0 0
0 0 0
0 0 0
0 0 0
0 0 0
0 0 0
0 0 0
0 0 0
0 0 0
0 0 0
0 0 0
0 0 0
0 0 0
0 0 0
0 0 0
0 0 0
0 0 0
0 0 0
0 0 0
0 0 0
0 0 0
0 0 0
0 0 0
0 0 0
0 0 0
0 0 0
0 0 0
0 0 0
0 0 0
0 0 0
0 0 0
0 0 0
0 0 0
0 0 0
0 0 0
0 0 0
0 0 0
0 0 0
0 0 0
0 0 0
0 0 0
0 0 0
0 0 0
0 0 0
0 0 0
0 0 0
0 0 0
0 0 0
0 0 0
0 0 0
0 0 0
0 0 0
0 0 0
0 0 0
0 0 0
0 0 0
0 0 0
0 0 0
0 0 0
0 0 0
0 0 0
0 0 0
0 0 0
0 0 0
0 0 0
0 0 0
0 0 0
0 0 0
0 0 0
0 0 0
0 0 0
0 0 0
0 0 0
0 0 0
0 0 0
0 0 0
0 0 0
0 0 0
0 0 0
0 0 0
0 0 0
0 0 0
0 0 0
0 0 0
0 0 0
0 0 0
0 0 0
0 0 0
0 0 0
0 0 0
0 0 0
0 0 0
0 0 0
0 0 0
0 0 0
0 0 0
0 0 0
0 0 0
0 0 0
0 0 0
0 0 0
0 0 0
0 0 0
0 0 0
0 0 0
0 0 0
0 0 0
0 0 0
0 0 0
0 0 0
0 0 0
0 0 0
0 0 0
0 0 0
0 0 0
0 0 0
0 0 0
0 0 0
0 0 0
0 0 0
0 0 0
0 0 0
0 0 0
0 0 0
0 0 0
0 0 0
0 0 0
0 0 0
0 0 0
0 0 0
0 0 0
0 0 0
0 0 0
0 0 0
0 0 0
0 0 0
0 0 0
0 0 0
0 0 0
0 0 0
0 0 0
0 0 0
0 0 0
0 0 0
0 0 0
0 0 0
0 0 0
0 0 0
0 0 0
0 0 0
0 0 0
0 0 0
0 0 0
0 0 0
0 0 0
0 0 0
0 0 0
0 0 0
0 0 0
0 0 0
0 0 0
0 0 0
0 0 0
0 0 0
0 0 0
0 0 0
0 0 0
0 0 0
0 0 0
0 0 0
0 0 0
0 0 0
0 0 0
0 0 0
0 0 0
0 0 0
0 0 0
0 0 0
0 0 0
0 0 0
0 0 0
0 0 0
0 0 0
0 0 0
0 0 0
0 0 0
0 0 0
0 0 0
0 0 0
0 0 0
0 0 0
0 0 0
0 0 0
0 0 0
0 0 0
0 0 0
0 0 0
0 0 0
0 0 0
0 0 0
0 0 0
0 0 0
0 0 0
0 0 0
0 0 0
0 0 0
0 0 0
0 0 0
0 0 0
0 0 0
0 0 0
0 0 0
0 0 0
0 0 0
0 0 0
0 0 0
0 0 0
0 0 0
0 0 0
0 0 0
0 0 0
0 0 0
0 0 0
0 0 0
0 0 0
0 0 0
0 0 0
0 0 0
0 0 0
0 0 0
0 0 0
0 0 0
0 0 0
0 0 0
0 0 0
0 0 0
0 0 0
0 0 0
0 0 0
0 0 0
0 0 0
0 0 0
0 0 0
0 0 0
0 0 0
0 0 0
0 0 0
0 0 0
0 0 0
0 0 0
0 0 0
0 0 0
0 0 0
0 0 0
0 0 0
0 0 0
0 0 0
0 0 0
0 0 0
0 0 0
0 0 0
0 0 0
0 0 0
0 0 0
0 0 0
0 0 0
0 0 0
0 0 0
0 0 0
0 0 0
0 0 0
0 0 0
0 0 0
0 0 0
0 0 0
0 0 0
0 0 0
0 0 0
0 0 0
0 0 0
0 0 0
0 0 0
0 0 0
0 0 0
0 0 0
0 0 0
0 0 0
0 0 0
0 0 0
0 0 0
0 0 0
0 0 0
0 0 0
0 0 0
0 0 0
0 0 0
0 0 0
0 0 0
0 0 0
0 0 0
0 0 0
0 0 0
0 0 0
0 0 0
0 0 0
0 0 0
0 0 0
0 0 0
0 0 0
0 0 0
0 0 0
0 0 0
0 0 0
0 0 0
0 0 0
0 0 0
0 0 0
0 0 0
0 0 0
0 0 0
0 0 0
0 0 0
0 0 0
0 0 0
0 0 0
0 0 0
0 0 0
0 0 0
0 0 0
0 0 0
0 0 0
0 0 0
0 0 0
0 0 0
0 0 0
0 0 0
0 0 0
0 0 0
0 0 0
0 0 0
0 0 0
0 0 0
0 0 0
0 0 0
0 0 0
0 0 0
0 0 0
0 0 0
0 0 0
0 0 0
0 0 0
0 0 0
0 0 0
0 0 0
0 0 0
0 0 0
0 0 0
0 0 0
0 0 0
0 0 0
0 0 0
0 0 0
0 0 0
0 0 0
0 0 0
0 0 0
0 0 0
0 0 0
0 0 0
0 0 0
0 0 0
0 0 0
0 0 0
0 0 0
0 0 0
0 0 0
0 0 0
0 0 0
0 0 0
0 0 0
0 0 0
0 0 0
0 0 0
0 0 0
0 0 0
0 0 0
0 0 0
0 0 0
0 0 0
0 0 0
0 0 0
0 0 0
0 0 0
0 0 0
0 0 0
0 0 0
0 0 0
0 0 0
0 0 0
0 0 0
0 0 0
0 0 0
0 0 0
0 0 0
0 0 0
0 0 0
0 0 0
0 0 0
0 0 0
0 0 0
0 0 0
0 0 0
0 0 0
0 0 0
0 0 0
0 0 0
0 0 0
0 0 0
0 0 0
0 0 0
0 0 0
0 0 0
0 0 0
0 0 0
0 0 0
0 0 0
0 0 0
0 0 0
0 0 0
0 0 0
0 0 0
0 0 0
0 0 0
0 0 0
0 0 0
0 0 0
0 0 0
0 0 0
0 0 0
0 0 0
0 0 0
0 0 0
0 0 0
0 0 0
0 0 0
0 0 0
0 0 0
0 0 0
0 0 0
0 0 0
0 0 0
0 0 0
0 0 0
0 0 0
0 0 0
0 0 0
0 0 0
0 0 0
0 0 0
0 0 0
0 0 0
0 0 0
0 0 0
0 0 0
0 0 0
0 0 0
0 0 0
0 0 0
0 0 0
0 0 0
0 0 0
0 0 0
0 0 0
0 0 0
0 0 0
0 0 0
0 0 0
0 0 0
0 0 0
0 0 0
0 0 0
0 0 0
0 0 0
0 0 0
0 0 0
0 0 0
0 0 0
0 0 0
0 0 0
0 0 0
0 0 0
0 0 0
0 0 0
0 0 0
0 0 0
0 0 0
0 0 0
0 0 0
0 0 0
0 0 0
0 0 0
0 0 0
0 0 0
0 0 0
0 0 0
0 0 0
0 0 0
0 0 0
0 0 0
0 0 0
0 0 0
0 0 0
0 0 0
0 0 0
0 0 0
0 0 0
0 0 0
0 0 0
0 0 0
0 0 0
0 0 0
0 0 0
0 0 0
0 0 0
0 0 0
0 0 0
0 0 0
0 0 0
0 0 0
0 0 0
0 0 0
0 0 0
0 0 0
0 0 0
0 0 0
0 0 0
0 0 0
0 0 0
0 0 0
0 0 0
0 0 0
0 0 0
0 0 0
0 0 0
0 0 0
0 0 0
0 0 0
0 0 0
0 0 0
0 0 0
0 0 0
0 0 0
0 0 0
0 0 0
0 0 0
0 0 0
0 0 0
0 0 0
0 0 0
0 0 0
0 0 0
0 0 0
0 0 0
0 0 0
0 0 0
0 0 0
0 0 0
0 0 0
0 0 0
0 0 0
0 0 0
0 0 0
0 0 0
0 0 0
0 0 0
0 0 0
0 0 0
0 0 0
0 0 0
0 0 0
0 0 0
0 0 0
0 0 0
0 0 0
0 0 0
0 0 0
0 0 0
0 0 0
0 0 0
0 0 0
0 0 0
0 0 0
0 0 0
0 0 0
0 0 0
0 0 0
0 0 0
0 0 0
0 0 0
0 0 0
0 0 0
0 0 0
0 0 0
0 0 0
0 0 0
0 0 0
0 0 0
0 0 0
0 0 0
0 0 0
0 0 0
0 0 0
0 0 0
0 0 0
0 0 0
0 0 0
0 0 0
0 0 0
0 0 0
0 0 0
0 0 0
0 0 0
0 0 0
0 0 0
0 0 0
0 0 0
0 0 0
0 0 0
0 0 0
0 0 0
0 0 0
0 0 0
0 0 0
0 0 0
0 0 0
0 0 0
0 0 0
0 0 0
0 0 0
0 0 0
0 0 0
0 0 0
0 0 0
0 0 0
0 0 0
0 0 0
0 0 0
0 0 0
0 0 0
0 0 0
0 0 0
0 0 0
0 0 0
0 0 0
0 0 0
0 0 0
0 0 0
0 0 0
0 0 0
0 0 0
0 0 0
0 0 0
0 0 0
0 0 0
0 0 0
0 0 0
0 0 0
0 0 0
0 0 0
0 0 0
0 0 0
0 0 0
0 0 0
0 0 0
0 0 0
0 0 0
0 0 0
0 0 0
0 0 0
0 0 0
0 0 0
0 0 0
0 0 0
0 0 0
0 0 0
0 0 0
0 0 0
0 0 0
0 0 0
0 0 0
0 0 0
0 0 0
0 0 0
0 0 0
0 0 0
0 0 0
0 0 0
0 0 0
0 0 0
0 0 0
0 0 0
0 0 0
0 0 0
0 0 0
0 0 0
0 0 0
0 0 0
0 0 0
0 0 0
0 0 0
0 0 0
0 0 0
0 0 0
0 0 0
0 0 0
0 0 0
0 0 0
0 0 0
0 0 0
0 0 0
0 0 0
0 0 0
0 0 0
0 0 0
0 0 0
0 0 0
0 0 0
0 0 0
0 0 0
0 0 0
0 0 0
0 0 0
0 0 0
0 0 0
0 0 0
0 0 0
0 0 0
0 0 0
0 0 0
0 0 0
0 0 0
0 0 0
0 0 0
0 0 0
0 0 0
0 0 0
0 0 0
0 0 0
0 0 0
0 0 0
0 0 0
0 0 0
0 0 0
0 0 0
0 0 0
0 0 0
0 0 0
0 0 0
0 0 0
0 0 0
0 0 0
0 0 0
0 0 0
0 0 0
0 0 0
0 0 0
0 0 0
0 0 0
0 0 0
0 0 0
0 0 0
0 0 0
0 0 0
0 0 0
0 0 0
0 0 0
0 0 0
0 0 0
0 0 0
0 0 0
0 0 0
0 0 0
0 0 0
0 0 0
0 0 0
0 0 0
0 0 0
0 0 0
0 0 0
0 0 0
0 0 0
0 0 0
0 0 0
0 0 0
0 0 0
0 0 0
0 0 0
0 0 0
0 0 0
0 0 0
0 0 0
0 0 0
0 0 0
0 0 0
0 0 0
0 0 0
0 0 0
0 0 0
0 0 0
0 0 0
0 0 0
0 0 0
0 0 0
0 0 0
0 0 0
0 0 0
0 0 0
0 0 0
0 0 0
0 0 0
0 0 0
0 0 0
0 0 0
0 0 0
0 0 0
0 0 0
0 0 0
0 0 0
0 0 0
0 0 0
0 0 0
0 0 0
0 0 0
0 0 0
0 0 0
0 0 0
0 0 0
0 0 0
0 0 0
0 0 0
0 0 0
0 0 0
0 0 0
0 0 0
0 0 0
0 0 0
0 0 0
0 0 0
0 0 0
0 0 0
0 0 0
0 0 0
0 0 0
0 0 0
0 0 0
0 0 0
0 0 0
0 0 0
0 0 0
0 0 0
0 0 0
0 0 0
0 0 0
0 0 0
0 0 0
0 0 0
0 0 0
0 0 0
0 0 0
0 0 0
0 0 0
0 0 0
0 0 0
0 0 0
0 0 0
0 0 0
0 0 0
0 0 0
0 0 0
0 0 0
0 0 0
0 0 0
0 0 0
0 0 0
0 0 0
0 0 0
0 0 0
0 0 0
0 0 0
0 0 0
0 0 0
0 0 0
0 0 0
0 0 0
0 0 0
0 0 0
0 0 0
0 0 0
0 0 0
0 0 0
0 0 0
0 0 0
0 0 0
0 0 0
0 0 0
0 0 0
0 0 0
0 0 0
0 0 0
0 0 0
0 0 0
0 0 0
0 0 0
0 0 0
0 0 0
0 0 0
0 0 0
0 0 0
0 0 0
0 0 0
0 0 0
0 0 0
0 0 0
0 0 0
0 0 0
0 0 0
0 0 0
0 0 0
0 0 0
0 0 0
0 0 0
0 0 0
0 0 0
0 0 0
0 0 0
0 0 0
0 0 0
0 0 0
0 0 0
0 0 0
0 0 0
0 0 0
0 0 0
0 0 0
0 0 0
0 0 0
0 0 0
0 0 0
0 0 0
0 0 0
0 0 0
0 0 0
0 0 0
0 0 0
0 0 0
0 0 0
0 0 0
0 0 0
0 0 0
0 0 0
0 0 0
0 0 0
0 0 0
0 0 0
0 0 0
0 0 0
0 0 0
0 0 0
0 0 0
0 0 0
0 0 0
0 0 0
0 0 0
0 0 0
0 0 0
0 0 0
0 0 0
0 0 0
0 0 0
0 0 0
0 0 0
0 0 0
0 0 0
0 0 0
0 0 0
0 0 0
0 0 0
0 0 0
0 0 0
0 0 0
0 0 0
0 0 0
0 0 0
0 0 0
0 0 0
0 0 0
0 0 0
0 0 0
0 0 0
0 0 0
0 0 0
0 0 0
0 0 0
0 0 0
0 0 0
0 0 0
0 0 0
0 0 0
0 0 0
0 0 0
0 0 0
0 0 0
0 0 0
0 0 0
0 0 0
0 0 0
0 0 0
0 0 0
0 0 0
0 0 0
0 0 0
0 0 0
0 0 0
0 0 0
0 0 0
0 0 0
0 0 0
0 0 0
0 0 0
0 0 0
0 0 0
0 0 0
0 0 0
0 0 0
0 0 0
0 0 0
0 0 0
0 0 0
0 0 0
0 0 0
0 0 0
0 0 0
0 0 0
0 0 0
0 0 0
0 0 0
0 0 0
0 0 0
0 0 0
0 0 0
0 0 0
0 0 0
0 0 0
0 0 0
0 0 0
0 0 0
0 0 0
0 0 0
0 0 0
0 0 0
0 0 0
0 0 0
0 0 0
0 0 0
0 0 0
0 0 0
0 0 0
0 0 0
0 0 0
0 0 0
0 0 0
0 0 0
0 0 0
0 0 0
0 0 0
0 0 0
0 0 0
0 0 0
0 0 0
0 0 0
0 0 0
0 0 0
0 0 0
0 0 0
0 0 0
0 0 0
0 0 0
0 0 0
0 0 0
0 0 0
0 0 0
0 0 0
0 0 0
0 0 0
0 0 0
0 0 0
0 0 0
0 0 0
0 0 0
0 0 0
0 0 0
0 0 0
0 0 0
0 0 0
0 0 0
0 0 0
0 0 0
0 0 0
0 0 0
0 0 0
0 0 0
0 0 0
0 0 0
0 0 0
0 0 0
0 0 0
0 0 0
0 0 0
0 0 0
0 0 0
0 0 0
0 0 0
0 0 0
0 0 0
0 0 0
0 0 0
0 0 0
0 0 0
0 0 0
0 0 0
0 0 0
0 0 0
0 0 0
0 0 0
0 0 0
0 0 0
0 0 0
0 0 0
0 0 0
0 0 0
0 0 0
0 0 0
0 0 0
0 0 0
0 0 0
0 0 0
0 0 0
0 0 0
0 0 0
0 0 0
0 0 0
0 0 0
0 0 0
0 0 0
0 0 0
0 0 0
0 0 0
0 0 0
0 0 0
0 0 0
0 0 0
0 0 0
0 0 0
0 0 0
0 0 0
0 0 0
0 0 0
0 0 0
0 0 0
0 0 0
0 0 0
0 0 0
0 0 0
0 0 0
0 0 0
0 0 0
0 0 0
0 0 0
0 0 0
0 0 0
0 0 0
0 0 0
0 0 0
0 0 0
0 0 0
0 0 0
0 0 0
0 0 0
0 0 0
0 0 0
0 0 0
0 0 0
0 0 0
0 0 0
0 0 0
0 0 0
0 0 0
0 0 0
0 0 0
0 0 0
0 0 0
0 0 0
0 0 0
0 0 0
0 0 0
0 0 0
0 0 0
0 0 0
0 0 0
0 0 0
0 0 0
0 0 0
0 0 0
0 0 0
0 0 0
0 0 0
0 0 0
0 0 0
0 0 0
0 0 0
0 0 0
0 0 0
0 0 0
0 0 0
0 0 0
0 0 0
0 0 0
0 0 0
0 0 0
0 0 0
0 0 0
0 0 0
0 0 0
0 0 0
0 0 0
0 0 0
0 0 0
0 0 0
0 0 0
0 0 0
0 0 0
0 0 0
0 0 0
0 0 0
0 0 0
0 0 0
0 0 0
0 0 0
0 0 0
0 0 0
0 0 0
0 0 0
0 0 0
0 0 0
0 0 0
0 0 0
0 0 0
0 0 0
0 0 0
0 0 0
0 0 0
0 0 0
0 0 0
0 0 0
0 0 0
0 0 0
0 0 0
0 0 0
0 0 0
0 0 0
0 0 0
0 0 0
0 0 0
0 0 0
0 0 0
0 0 0
0 0 0
0 0 0
0 0 0
0 0 0
0 0 0
0 0 0
0 0 0
0 0 0
0 0 0
0 0 0
0 0 0
0 0 0
0 0 0
0 0 0
0 0 0
0 0 0
0 0 0
0 0 0
0 0 0
0 0 0
0 0 0
0 0 0
0 0 0
0 0 0
0 0 0
0 0 0
0 0 0
0 0 0
0 0 0
0 0 0
0 0 0
0 0 0
0 0 0
0 0 0
0 0 0
0 0 0
0 0 0
0 0 0
0 0 0
0 0 0
0 0 0
0 0 0
0 0 0
0 0 0
0 0 0
0 0 0
0 0 0
0 0 0
0 0 0
0 0 0
0 0 0
0 0 0
0 0 0
0 0 0
0 0 0
0 0 0
0 0 0
0 0 0
0 0 0
0 0 0
0 0 0
0 0 0
0 0 0
0 0 0
0 0 0
0 0 0
0 0 0
0 0 0
0 0 0
0 0 0
0 0 0
0 0 0
0 0 0
0 0 0
0 0 0
0 0 0
0 0 0
0 0 0
0 0 0
0 0 0
0 0 0
0 0 0
0 0 0
0 0 0
0 0 0
0 0 0
0 0 0
0 0 0
0 0 0
0 0 0
0 0 0
0 0 0
0 0 0
0 0 0
0 0 0
0 0 0
0 0 0
0 0 0
0 0 0
0 0 0
0 0 0
0 0 0
0 0 0
0 0 0
0 0 0
0 0 0
0 0 0
0 0 0
0 0 0
0 0 0
0 0 0
0 0 0
0 0 0
0 0 0
0 0 0
0 0 0
0 0 0
0 0 0
0 0 0
0 0 0
0 0 0
0 0 0
0 0 0
0 0 0
0 0 0
0 0 0
0 0 0
0 0 0
0 0 0
0 0 0
0 0 0
0 0 0
0 0 0
0 0 0
0 0 0
0 0 0
0 0 0
0 0 0
0 0 0
0 0 0
0 0 0
0 0 0
0 0 0
0 0 0
0 0 0
0 0 0
0 0 0
0 0 0
0 0 0
0 0 0
0 0 0
0 0 0
0 0 0
0 0 0
0 0 0
0 0 0
0 0 0
0 0 0
0 0 0
0 0 0
0 0 0
0 0 0
0 0 0
0 0 0
0 0 0
0 0 0
0 0 0
0 0 0
0 0 0
0 0 0
0 0 0
0 0 0
0 0 0
0 0 0
0 0 0
0 0 0
0 0 0
0 0 0
0 0 0
0 0 0
0 0 0
0 0 0
0 0 0
0 0 0
0 0 0
0 0 0
0 0 0
0 0 0
0 0 0
0 0 0
0 0 0
0 0 0
0 0 0
0 0 0
0 0 0
0 0 0
0 0 0
0 0 0
0 0 0
0 0 0
0 0 0
0 0 0
0 0 0
0 0 0
0 0 0
0 0 0
0 0 0
0 0 0
0 0 0
0 0 0
0 0 0
0 0 0
0 0 0
0 0 0
0 0 0
0 0 0
0 0 0
0 0 0
0 0 0
0 0 0
0 0 0
0 0 0
0 0 0
0 0 0
0 0 0
0 0 0
0 0 0
0 0 0
0 0 0
0 0 0
0 0 0
0 0 0
0 0 0
0 0 0
0 0 0
0 0 0
0 0 0
0 0 0
0 0 0
0 0 0
0 0 0
0 0 0
0 0 0
0 0 0
0 0 0
0 0 0
0 0 0
0 0 0
0 0 0
0 0 0
0 0 0
0 0 0
0 0 0
0 0 0
0 0 0
0 0 0
0 0 0
0 0 0
0 0 0
0 0 0
0 0 0
0 0 0
0 0 0
0 0 0
0 0 0
0 0 0
0 0 0
0 0 0
0 0 0
0 0 0
0 0 0
0 0 0
0 0 0
0 0 0
0 0 0
0 0 0
0 0 0
0 0 0
0 0 0
0 0 0
0 0 0
0 0 0
0 0 0
0 0 0
0 0 0
0 0 0
0 0 0
0 0 0
0 0 0
0 0 0
0 0 0
0 0 0
0 0 0
0 0 0
0 0 0
0 0 0
0 0 0
0 0 0
0 0 0
0 0 0
0 0 0
0 0 0
0 0 0
0 0 0
0 0 0
0 0 0
0 0 0
0 0 0
0 0 0
0 0 0
0 0 0
0 0 0
0 0 0
0 0 0
0 0 0
0 0 0
0 0 0
0 0 0
0 0 0
0 0 0
0 0 0
0 0 0
0 0 0
0 0 0
0 0 0
0 0 0
0 0 0
0 0 0
0 0 0
0 0 0
0 0 0
0 0 0
0 0 0
0 0 0
0 0 0
0 0 0
0 0 0
0 0 0
0 0 0
0 0 0
0 0 0
0 0 0
0 0 0
0 0 0
0 0 0
0 0 0
0 0 0
0 0 0
0 0 0
0 0 0
0 0 0
0 0 0
0 0 0
0 0 0
0 0 0
0 0 0
0 0 0
0 0 0
0 0 0
0 0 0
0 0 0
0 0 0
0 0 0
0 0 0
0 0 0
0 0 0
0 0 0
0 0 0
0 0 0
0 0 0
0 0 0
0 0 0
0 0 0
0 0 0
0 0 0
0 0 0
0 0 0
0 0 0
0 0 0
0 0 0
0 0 0
0 0 0
0 0 0
0 0 0
0 0 0
0 0 0
0 0 0
0 0 0
0 0 0
0 0 0
0 0 0
0 0 0
0 0 0
0 0 0
0 0 0
0 0 0
0 0 0
0 0 0
0 0 0
0 0 0
0 0 0
0 0 0
0 0 0
0 0 0
0 0 0
0 0 0
0 0 0
0 0 0
0 0 0
0 0 0
0 0 0
0 0 0
0 0 0
0 0 0
0 0 0
0 0 0
0 0 0
0 0 0
0 0 0
0 0 0
0 0 0
0 0 0
0 0 0
0 0 0
0 0 0
0 0 0
0 0 0
0 0 0
0 0 0
0 0 0
0 0 0
0 0 0
0 0 0
0 0 0
0 0 0
0 0 0
0 0 0
0 0 0
0 0 0
0 0 0
0 0 0
0 0 0
0 0 0
0 0 0
0 0 0
0 0 0
0 0 0
0 0 0
0 0 0
0 0 0
0 0 0
0 0 0
0 0 0
0 0 0
0 0 0
0 0 0
0 0 0
0 0 0
0 0 0
0 0 0
0 0 0
0 0 0
0 0 0
0 0 0
0 0 0
0 0 0
0 0 0
0 0 0
0 0 0
0 0 0
0 0 0
0 0 0
0 0 0
0 0 0
0 0 0
0 0 0
0 0 0
0 0 0
0 0 0
0 0 0
0 0 0
0 0 0
0 0 0
0 0 0
0 0 0
0 0 0
0 0 0
0 0 0
0 0 0
0 0 0
0 0 0
0 0 0
0 0 0
0 0 0
0 0 0
0 0 0
0 0 0
0 0 0
0 0 0
0 0 0
0 0 0
0 0 0
0 0 0
0 0 0
0 0 0
0 0 0
0 0 0
0 0 0
0 0 0
0 0 0
0 0 0
0 0 0
0 0 0
0 0 0
0 0 0
0 0 0
0 0 0
0 0 0
0 0 0
0 0 0
0 0 0
0 0 0
0 0 0
0 0 0
0 0 0
0 0 0
0 0 0
0 0 0
0 0 0
0 0 0
0 0 0
0 0 0
0 0 0
0 0 0
0 0 0
0 0 0
0 0 0
0 0 0
0 0 0
0 0 0
0 0 0
0 0 0
0 0 0
0 0 0
0 0 0
0 0 0
0 0 0
0 0 0
0 0 0
0 0 0
0 0 0
0 0 0
0 0 0
0 0 0
0 0 0
0 0 0
0 0 0
0 0 0
0 0 0
0 0 0
0 0 0
0 0 0
0 0 0
0 0 0
0 0 0
0 0 0
0 0 0
0 0 0
0 0 0
0 0 0
0 0 0
0 0 0
0 0 0
0 0 0
0 0 0
0 0 0
0 0 0
0 0 0
0 0 0
0 0 0
0 0 0
0 0 0
0 0 0
0 0 0
0 0 0
0 0 0
0 0 0
0 0 0
0 0 0
0 0 0
0 0 0
0 0 0
0 0 0
0 0 0
0 0 0
0 0 0
0 0 0
0 0 0
0 0 0
0 0 0
0 0 0
0 0 0
0 0 0
0 0 0
0 0 0
0 0 0
0 0 0
0 0 0
0 0 0
0 0 0
0 0 0
0 0 0
0 0 0
0 0 0
0 0 0
0 0 0
0 0 0
0 0 0
0 0 0
0 0 0
0 0 0
0 0 0
0 0 0
0 0 0
0 0 0
0 0 0
0 0 0
0 0 0
0 0 0
0 0 0
0 0 0
0 0 0
0 0 0
0 0 0
0 0 0
0 0 0
0 0 0
0 0 0
0 0 0
0 0 0
0 0 0
0 0 0
0 0 0
0 0 0
0 0 0
0 0 0
0 0 0
0 0 0
0 0 0
0 0 0
0 0 0
0 0 0
0 0 0
0 0 0
0 0 0
0 0 0
0 0 0
0 0 0
0 0 0
0 0 0
0 0 0
0 0 0
0 0 0
0 0 0
0 0 0
0 0 0
0 0 0
0 0 0
0 0 0
0 0 0
0 0 0
0 0 0
0 0 0
0 0 0
0 0 0
0 0 0
0 0 0
0 0 0
0 0 0
0 0 0
0 0 0
0 0 0
0 0 0
0 0 0
0 0 0
0 0 0
0 0 0
0 0 0
0 0 0
0 0 0
0 0 0
0 0 0
0 0 0
0 0 0
0 0 0
0 0 0
0 0 0
0 0 0
0 0 0
0 0 0
0 0 0
0 0 0
0 0 0
0 0 0
0 0 0
0 0 0
0 0 0
0 0 0
0 0 0
0 0 0
0 0 0
0 0 0
0 0 0
0 0 0
0 0 0
0 0 0
0 0 0
0 0 0
0 0 0
0 0 0
0 0 0
0 0 0
0 0 0
0 0 0
0 0 0
0 0 0
0 0 0
0 0 0
0 0 0
0 0 0
0 0 0
0 0 0
0 0 0
0 0 0
0 0 0
0 0 0
0 0 0
0 0 0
0 0 0
0 0 0
0 0 0
0 0 0
0 0 0
0 0 0
0 0 0
0 0 0
0 0 0
0 0 0
0 0 0
0 0 0
0 0 0
0 0 0
0 0 0
0 0 0
0 0 0
0 0 0
0 0 0
0 0 0
0 0 0
0 0 0
0 0 0
0 0 0
0 0 0
0 0 0
0 0 0
0 0 0
0 0 0
0 0 0
0 0 0
0 0 0
0 0 0
0 0 0
0 0 0
0 0 0
0 0 0
0 0 0
0 0 0
0 0 0
0 0 0
0 0 0
0 0 0
0 0 0
0 0 0
0 0 0
0 0 0
0 0 0
0 0 0
0 0 0
0 0 0
0 0 0
0 0 0
0 0 0
0 0 0
0 0 0
0 0 0
0 0 0
0 0 0
0 0 0
0 0 0
0 0 0
0 0 0
0 0 0
0 0 0
0 0 0
0 0 0
0 0 0
0 0 0
0 0 0
0 0 0
0 0 0
0 0 0
0 0 0
0 0 0
0 0 0
0 0 0
0 0 0
0 0 0
0 0 0
0 0 0
0 0 0
0 0 0
0 0 0
0 0 0
0 0 0
0 0 0
0 0 0
0 0 0
0 0 0
0 0 0
0 0 0
0 0 0
0 0 0
0 0 0
0 0 0
0 0 0
0 0 0
0 0 0
0 0 0
0 0 0
0 0 0
0 0 0
0 0 0
0 0 0
0 0 0
0 0 0
0 0 0
0 0 0
0 0 0
0 0 0
0 0 0
0 0 0
0 0 0
0 0 0
0 0 0
0 0 0
0 0 0
0 0 0
0 0 0
0 0 0
0 0 0
0 0 0
0 0 0
0 0 0
0 0 0
0 0 0
0 0 0
0 0 0
0 0 0
0 0 0
0 0 0
0 0 0
0 0 0
0 0 0
0 0 0
0 0 0
0 0 0
0 0 0
0 0 0
0 0 0
0 0 0
0 0 0
0 0 0
0 0 0
0 0 0
0 0 0
0 0 0
0 0 0
0 0 0
0 0 0
0 0 0
0 0 0
0 0 0
0 0 0
0 0 0
0 0 0
0 0 0
0 0 0
0 0 0
0 0 0
0 0 0
0 0 0
0 0 0
0 0 0
0 0 0
0 0 0
0 0 0
0 0 0
0 0 0
0 0 0
0 0 0
0 0 0
0 0 0
0 0 0
0 0 0
0 0 0
0 0 0
0 0 0
0 0 0
0 0 0
0 0 0
0 0 0
0 0 0
0 0 0
0 0 0
0 0 0
0 0 0
0 0 0
0 0 0
0 0 0
0 0 0
0 0 0
0 0 0
0 0 0
0 0 0
0 0 0
0 0 0
0 0 0
0 0 0
0 0 0
0 0 0
0 0 0
0 0 0
0 0 0
0 0 0
0 0 0
0 0 0
0 0 0
0 0 0
0 0 0
0 0 0
0 0 0
0 0 0
0 0 0
0 0 0
0 0 0
0 0 0
0 0 0
0 0 0
0 0 0
0 0 0
0 0 0
0 0 0
0 0 0
0 0 0
0 0 0
0 0 0
0 0 0
0 0 0
0 0 0
0 0 0
0 0 0
0 0 0
0 0 0
0 0 0
0 0 0
0 0 0
0 0 0
0 0 0
0 0 0
0 0 0
0 0 0
0 0 0
0 0 0
0 0 0
0 0 0
0 0 0
0 0 0
0 0 0
0 0 0
0 0 0
0 0 0
0 0 0
0 0 0
0 0 0
0 0 0
0 0 0
0 0 0
0 0 0
0 0 0
0 0 0
0 0 0
0 0 0
0 0 0
0 0 0
0 0 0
0 0 0
0 0 0
0 0 0
0 0 0
0 0 0
0 0 0
0 0 0
0 0 0
0 0 0
0 0 0
0 0 0
0 0 0
0 0 0
0 0 0
0 0 0
0 0 0
0 0 0
0 0 0
0 0 0
0 0 0
0 0 0
0 0 0
0 0 0
0 0 0
0 0 0
0 0 0
0 0 0
0 0 0
0 0 0
0 0 0
0 0 0
0 0 0
0 0 0
0 0 0
0 0 0
0 0 0
0 0 0
0 0 0
0 0 0
0 0 0
0 0 0
0 0 0
0 0 0
0 0 0
0 0 0
0 0 0
0 0 0
0 0 0
0 0 0
0 0 0
0 0 0
0 0 0
0 0 0
0 0 0
0 0 0
0 0 0
0 0 0
0 0 0
0 0 0
0 0 0
0 0 0
0 0 0
0 0 0
0 0 0
0 0 0
0 0 0
0 0 0
0 0 0
0 0 0
0 0 0
0 0 0
0 0 0
0 0 0
0 0 0
0 0 0
0 0 0
0 0 0
0 0 0
0 0 0
0 0 0
0 0 0
0 0 0
0 0 0
0 0 0
0 0 0
0 0 0
0 0 0
0 0 0
0 0 0
0 0 0
0 0 0
0 0 0
0 0 0
0 0 0
0 0 0
0 0 0
0 0 0
0 0 0
0 0 0
0 0 0
0 0 0
0 0 0
0 0 0
0 0 0
0 0 0
0 0 0
0 0 0
0 0 0
0 0 0
0 0 0
0 0 0
0 0 0
0 0 0
0 0 0
0 0 0
0 0 0
0 0 0
0 0 0
0 0 0
0 0 0
0 0 0
0 0 0
0 0 0
0 0 0
0 0 0
0 0 0
0 0 0
0 0 0
0 0 0
0 0 0
0 0 0
0 0 0
0 0 0
0 0 0
0 0 0
0 0 0
0 0 0
0 0 0
0 0 0
0 0 0
0 0 0
0 0 0
0 0 0
0 0 0
0 0 0
0 0 0
0 0 0
0 0 0
0 0 0
0 0 0
0 0 0
0 0 0
0 0 0
0 0 0
0 0 0
0 0 0
0 0 0
0 0 0
0 0 0
0 0 0
0 0 0
0 0 0
0 0 0
0 0 0
0 0 0
0 0 0
0 0 0
0 0 0
0 0 0
0 0 0
0 0 0
0 0 0
0 0 0
0 0 0
0 0 0
0 0 0
0 0 0
0 0 0
0 0 0
0 0 0
0 0 0
0 0 0
0 0 0
0 0 0
0 0 0
0 0 0
0 0 0
0 0 0
0 0 0
0 0 0
0 0 0
0 0 0
0 0 0
0 0 0
0 0 0
0 0 0
0 0 0
0 0 0
0 0 0
0 0 0
0 0 0
0 0 0
0 0 0
0 0 0
0 0 0
0 0 0
0 0 0
0 0 0
0 0 0
0 0 0
0 0 0
0 0 0
0 0 0
0 0 0
0 0 0
0 0 0
0 0 0
0 0 0
0 0 0
0 0 0
0 0 0
0 0 0
0 0 0
0 0 0
0 0 0
0 0 0
0 0 0
0 0 0
0 0 0
0 0 0
0 0 0
0 0 0
0 0 0
0 0 0
0 0 0
0 0 0
0 0 0
0 0 0
0 0 0
0 0 0
0 0 0
0 0 0
0 0 0
0 0 0
0 0 0
0 0 0
0 0 0
0 0 0
0 0 0
0 0 0
0 0 0
0 0 0
0 0 0
0 0 0
0 0 0
0 0 0
0 0 0
0 0 0
0 0 0
0 0 0
0 0 0
0 0 0
0 0 0
0 0 0
0 0 0
0 0 0
0 0 0
0 0 0
0 0 0
0 0 0
0 0 0
0 0 0
0 0 0
0 0 0
0 0 0
0 0 0
0 0 0
0 0 0
0 0 0
0 0 0
0 0 0
0 0 0
0 0 0
0 0 0
0 0 0
0 0 0
0 0 0
0 0 0
0 0 0
0 0 0
0 0 0
0 0 0
0 0 0
0 0 0
0 0 0
0 0 0
0 0 0
0 0 0
0 0 0
0 0 0
0 0 0
0 0 0
0 0 0
0 0 0
0 0 0
0 0 0
0 0 0
0 0 0
0 0 0
0 0 0
0 0 0
0 0 0
0 0 0
0 0 0
0 0 0
0 0 0
0 0 0
0 0 0
0 0 0
0 0 0
0 0 0
0 0 0
0 0 0
0 0 0
0 0 0
0 0 0
0 0 0
0 0 0
0 0 0
0 0 0
0 0 0
0 0 0
0 0 0
0 0 0
0 0 0
0 0 0
0 0 0
0 0 0
0 0 0
0 0 0
0 0 0
0 0 0
0 0 0
0 0 0
0 0 0
0 0 0
0 0 0
0 0 0
0 0 0
0 0 0
0 0 0
0 0 0
0 0 0
0 0 0
0 0 0
0 0 0
0 0 0
0 0 0
0 0 0
0 0 0
0 0 0
0 0 0
0 0 0
0 0 0
0 0 0
0 0 0
0 0 0
0 0 0
0 0 0
0 0 0
0 0 0
0 0 0
0 0 0
0 0 0
0 0 0
0 0 0
0 0 0
0 0 0
0 0 0
0 0 0
0 0 0
0 0 0
0 0 0
0 0 0
0 0 0
0 0 0
0 0 0
0 0 0
0 0 0
0 0 0
0 0 0
0 0 0
0 0 0
0 0 0
0 0 0
0 0 0
0 0 0
0 0 0
0 0 0
0 0 0
0 0 0
0 0 0
0 0 0
0 0 0
0 0 0
0 0 0
0 0 0
0 0 0
0 0 0
0 0 0
0 0 0
0 0 0
0 0 0
0 0 0
0 0 0
0 0 0
0 0 0
0 0 0
0 0 0
0 0 0
0 0 0
0 0 0
0 0 0
0 0 0
0 0 0
0 0 0
0 0 0
0 0 0
0 0 0
0 0 0
0 0 0
0 0 0
0 0 0
0 0 0
0 0 0
0 0 0
0 0 0
0 0 0
0 0 0
0 0 0
0 0 0
0 0 0
0 0 0
0 0 0
0 0 0
0 0 0
0 0 0
0 0 0
0 0 0
0 0 0
0 0 0
0 0 0
0 0 0
0 0 0
0 0 0
0 0 0
0 0 0
0 0 0
0 0 0
0 0 0
0 0 0
0 0 0
0 0 0
0 0 0
0 0 0
0 0 0
0 0 0
0 0 0
0 0 0
0 0 0
0 0 0
0 0 0
0 0 0
0 0 0
0 0 0
0 0 0
0 0 0
0 0 0
0 0 0
0 0 0
0 0 0
0 0 0
0 0 0
0 0 0
0 0 0
0 0 0
0 0 0
0 0 0
0 0 0
0 0 0
0 0 0
0 0 0
0 0 0
0 0 0
0 0 0
0 0 0
0 0 0
0 0 0
0 0 0
0 0 0
0 0 0
0 0 0
0 0 0
0 0 0
0 0 0
0 0 0
0 0 0
0 0 0
0 0 0
0 0 0
0 0 0
0 0 0
0 0 0
0 0 0
0 0 0
0 0 0
0 0 0
0 0 0
0 0 0
0 0 0
0 0 0
0 0 0
0 0 0
0 0 0
0 0 0
0 0 0
0 0 0
0 0 0
0 0 0
0 0 0
0 0 0
0 0 0
0 0 0
0 0 0
0 0 0
0 0 0
0 0 0
0 0 0
0 0 0
0 0 0
0 0 0
0 0 0
0 0 0
0 0 0
0 0 0
0 0 0
0 0 0
0 0 0
0 0 0
0 0 0
0 0 0
0 0 0
0 0 0
0 0 0
0 0 0
0 0 0
0 0 0
0 0 0
0 0 0
0 0 0
0 0 0
0 0 0
0 0 0
0 0 0
0 0 0
0 0 0
0 0 0
0 0 0
0 0 0
0 0 0
0 0 0
0 0 0
0 0 0
0 0 0
0 0 0
0 0 0
0 0 0
0 0 0
0 0 0
0 0 0
0 0 0
0 0 0
0 0 0
0 0 0
0 0 0
0 0 0
0 0 0
0 0 0
0 0 0
0 0 0
0 0 0
0 0 0
0 0 0
0 0 0
0 0 0
0 0 0
0 0 0
0 0 0
0 0 0
0 0 0
0 0 0
0 0 0
0 0 0
0 0 0
0 0 0
0 0 0
0 0 0
0 0 0
0 0 0
0 0 0
0 0 0
0 0 0
0 0 0
0 0 0
0 0 0
0 0 0
0 0 0
0 0 0
0 0 0
0 0 0
0 0 0
0 0 0
0 0 0
0 0 0
0 0 0
0 0 0
0 0 0
0 0 0
0 0 0
0 0 0
0 0 0
0 0 0
0 0 0
0 0 0
0 0 0
0 0 0
0 0 0
0 0 0
0 0 0
0 0 0
0 0 0
0 0 0
0 0 0
0 0 0
0 0 0
0 0 0
0 0 0
0 0 0
0 0 0
0 0 0
0 0 0
0 0 0
0 0 0
0 0 0
0 0 0
0 0 0
0 0 0
0 0 0
0 0 0
0 0 0
0 0 0
0 0 0
0 0 0
0 0 0
0 0 0
0 0 0
0 0 0
0 0 0
0 0 0
0 0 0
0 0 0
0 0 0
0 0 0
0 0 0
0 0 0
0 0 0
0 0 0
0 0 0
0 0 0
0 0 0
0 0 0
0 0 0
0 0 0
0 0 0
0 0 0
0 0 0
0 0 0
0 0 0
0 0 0
0 0 0
0 0 0
0 0 0
0 0 0
0 0 0
0 0 0
0 0 0
0 0 0
0 0 0
0 0 0
0 0 0
0 0 0
0 0 0
0 0 0
0 0 0
0 0 0
0 0 0
0 0 0
0 0 0
0 0 0
0 0 0
0 0 0
0 0 0
0 0 0
0 0 0
0 0 0
0 0 0
0 0 0
0 0 0
0 0 0
0 0 0
0 0 0
0 0 0
0 0 0
0 0 0
0 0 0
0 0 0
0 0 0
0 0 0
0 0 0
0 0 0
0 0 0
0 0 0
0 0 0
0 0 0
0 0 0
0 0 0
0 0 0
0 0 0
0 0 0
0 0 0
0 0 0
0 0 0
0 0 0
0 0 0
0 0 0
0 0 0
0 0 0
0 0 0
0 0 0
0 0 0
0 0 0
0 0 0
0 0 0
0 0 0
0 0 0
0 0 0
0 0 0
0 0 0
0 0 0
0 0 0
0 0 0
0 0 0
0 0 0
0 0 0
0 0 0
0 0 0
0 0 0
0 0 0
0 0 0
0 0 0
0 0 0
0 0 0
0 0 0
0 0 0
0 0 0
0 0 0
0 0 0
0 0 0
0 0 0
0 0 0
0 0 0
0 0 0
0 0 0
0 0 0
0 0 0
0 0 0
0 0 0
0 0 0
0 0 0
0 0 0
0 0 0
0 0 0
0 0 0
0 0 0
0 0 0
0 0 0
0 0 0
0 0 0
0 0 0
0 0 0
0 0 0
0 0 0
0 0 0
0 0 0
0 0 0
0 0 0
0 0 0
0 0 0
0 0 0
0 0 0
0 0 0
0 0 0
0 0 0
0 0 0
0 0 0
0 0 0
0 0 0
0 0 0
0 0 0
0 0 0
0 0 0
0 0 0
0 0 0
0 0 0
0 0 0
0 0 0
0 0 0
0 0 0
0 0 0
0 0 0
0 0 0
0 0 0
0 0 0
0 0 0
0 0 0
0 0 0
0 0 0
0 0 0
0 0 0
0 0 0
0 0 0
0 0 0
0 0 0
0 0 0
0 0 0
0 0 0
0 0 0
0 0 0
0 0 0
0 0 0
0 0 0
0 0 0
0 0 0
0 0 0
0 0 0
0 0 0
0 0 0
0 0 0
0 0 0
0 0 0
0 0 0
0 0 0
0 0 0
0 0 0
0 0 0
0 0 0
0 0 0
0 0 0
0 0 0
0 0 0
0 0 0
0 0 0
0 0 0
0 0 0
0 0 0
0 0 0
0 0 0
0 0 0
0 0 0
0 0 0
0 0 0
0 0 0
0 0 0
0 0 0
0 0 0
0 0 0
0 0 0
0 0 0
0 0 0
0 0 0
0 0 0
0 0 0
0 0 0
0 0 0
0 0 0
0 0 0
0 0 0
0 0 0
0 0 0
0 0 0
0 0 0
0 0 0
0 0 0
0 0 0
0 0 0
0 0 0
0 0 0
0 0 0
0 0 0
0 0 0
0 0 0
0 0 0
0 0 0
0 0 0
0 0 0
0 0 0
0 0 0
0 0 0
0 0 0
0 0 0
0 0 0
0 0 0
0 0 0
0 0 0
0 0 0
0 0 0
0 0 0
0 0 0
0 0 0
0 0 0
0 0 0
0 0 0
0 0 0
0 0 0
0 0 0
0 0 0
0 0 0
0 0 0
0 0 0
0 0 0
0 0 0
0 0 0
0 0 0
0 0 0
0 0 0
0 0 0
0 0 0
0 0 0
0 0 0
0 0 0
0 0 0
0 0 0
0 0 0
0 0 0
0 0 0
0 0 0
0 0 0
0 0 0
0 0 0
0 0 0
0 0 0
0 0 0
0 0 0
0 0 0
0 0 0
0 0 0
0 0 0
0 0 0
0 0 0
0 0 0
0 0 0
0 0 0
0 0 0
0 0 0
0 0 0
0 0 0
0 0 0
0 0 0
0 0 0
0 0 0
0 0 0
0 0 0
0 0 0
0 0 0
0 0 0
0 0 0
0 0 0
0 0 0
0 0 0
0 0 0
0 0 0
0 0 0
0 0 0
0 0 0
0 0 0
0 0 0
0 0 0
0 0 0
0 0 0
0 0 0
0 0 0
0 0 0
0 0 0
0 0 0
0 0 0
0 0 0
0 0 0
0 0 0
0 0 0
0 0 0
0 0 0
0 0 0
0 0 0
0 0 0
0 0 0
0 0 0
0 0 0
0 0 0
0 0 0
0 0 0
0 0 0
0 0 0
0 0 0
0 0 0
0 0 0
0 0 0
0 0 0
0 0 0
0 0 0
0 0 0
0 0 0
0 0 0
0 0 0
0 0 0
0 0 0
0 0 0
0 0 0
0 0 0
0 0 0
0 0 0
0 0 0
0 0 0
0 0 0
0 0 0
0 0 0
0 0 0
0 0 0
0 0 0
0 0 0
0 0 0
0 0 0
0 0 0
0 0 0
0 0 0
0 0 0
0 0 0
0 0 0
0 0 0
0 0 0
0 0 0
0 0 0
0 0 0
0 0 0
0 0 0
0 0 0
0 0 0
0 0 0
0 0 0
0 0 0
0 0 0
0 0 0
0 0 0
0 0 0
0 0 0
0 0 0
0 0 0
0 0 0
0 0 0
0 0 0
0 0 0
0 0 0
0 0 0
0 0 0
0 0 0
0 0 0
0 0 0
0 0 0
0 0 0
0 0 0
0 0 0
0 0 0
0 0 0
0 0 0
0 0 0
0 0 0
0 0 0
0 0 0
0 0 0
0 0 0
0 0 0
0 0 0
0 0 0
0 0 0
0 0 0
0 0 0
0 0 0
0 0 0
0 0 0
0 0 0
0 0 0
0 0 0
0 0 0
0 0 0
0 0 0
0 0 0
0 0 0
0 0 0
0 0 0
0 0 0
0 0 0
0 0 0
0 0 0
0 0 0
0 0 0
0 0 0
0 0 0
0 0 0
0 0 0
0 0 0
0 0 0
0 0 0
0 0 0
0 0 0
0 0 0
0 0 0
0 0 0
0 0 0
0 0 0
0 0 0
0 0 0
0 0 0
0 0 0
0 0 0
0 0 0
0 0 0
0 0 0
0 0 0
0 0 0
0 0 0
0 0 0
0 0 0
0 0 0
0 0 0
0 0 0
0 0 0
0 0 0
0 0 0
0 0 0
0 0 0
0 0 0
0 0 0
0 0 0
0 0 0
0 0 0
0 0 0
0 0 0
0 0 0
0 0 0
0 0 0
0 0 0
0 0 0
0 0 0
0 0 0
0 0 0
0 0 0
0 0 0
0 0 0
0 0 0
0 0 0
0 0 0
0 0 0
0 0 0
0 0 0
0 0 0
0 0 0
0 0 0
0 0 0
0 0 0
0 0 0
0 0 0
0 0 0
0 0 0
0 0 0
0 0 0
0 0 0
0 0 0
0 0 0
0 0 0
0 0 0
0 0 0
0 0 0
0 0 0
0 0 0
0 0 0
0 0 0
0 0 0
0 0 0
0 0 0
0 0 0
0 0 0
0 0 0
0 0 0
0 0 0
0 0 0
0 0 0
0 0 0
0 0 0
0 0 0
0 0 0
0 0 0
0 0 0
0 0 0
0 0 0
0 0 0
0 0 0
0 0 0
0 0 0
0 0 0
0 0 0
0 0 0
0 0 0
0 0 0
0 0 0
0 0 0
0 0 0
0 0 0
0 0 0
0 0 0
0 0 0
0 0 0
0 0 0
0 0 0
0 0 0
0 0 0
0 0 0
0 0 0
0 0 0
0 0 0
0 0 0
0 0 0
0 0 0
0 0 0
0 0 0
0 0 0
0 0 0
0 0 0
0 0 0
0 0 0
0 0 0
0 0 0
0 0 0
0 0 0
0 0 0
0 0 0
0 0 0
0 0 0
0 0 0
0 0 0
0 0 0
0 0 0
0 0 0
0 0 0
0 0 0
0 0 0
0 0 0
0 0 0
0 0 0
0 0 0
0 0 0
0 0 0
0 0 0
0 0 0
0 0 0
0 0 0
0 0 0
0 0 0
0 0 0
0 0 0
0 0 0
0 0 0
0 0 0
0 0 0
0 0 0
0 0 0
0 0 0
0 0 0
0 0 0
0 0 0
0 0 0
0 0 0
0 0 0
0 0 0
0 0 0
0 0 0
0 0 0
0 0 0
0 0 0
0 0 0
0 0 0
0 0 0
0 0 0
0 0 0
0 0 0
0 0 0
0 0 0
0 0 0
0 0 0
0 0 0
0 0 0
0 0 0
0 0 0
0 0 0
0 0 0
0 0 0
0 0 0
0 0 0
0 0 0
0 0 0
0 0 0
0 0 0
0 0 0
0 0 0
0 0 0
0 0 0
0 0 0
0 0 0
0 0 0
0 0 0
0 0 0
0 0 0
0 0 0
0 0 0
0 0 0
0 0 0
0 0 0
0 0 0
0 0 0
0 0 0
0 0 0
0 0 0
0 0 0
0 0 0
0 0 0
0 0 0
0 0 0
0 0 0
0 0 0
0 0 0
0 0 0
0 0 0
0 0 0
0 0 0
0 0 0
0 0 0
0 0 0
0 0 0
0 0 0
0 0 0
0 0 0
0 0 0
0 0 0
0 0 0
0 0 0
0 0 0
0 0 0
0 0 0
0 0 0
0 0 0
0 0 0
0 0 0
0 0 0
0 0 0
0 0 0
0 0 0
0 0 0
0 0 0
0 0 0
0 0 0
0 0 0
0 0 0
0 0 0
0 0 0
0 0 0
0 0 0
0 0 0
0 0 0
0 0 0
0 0 0
0 0 0
0 0 0
0 0 0
0 0 0
0 0 0
0 0 0
0 0 0
0 0 0
0 0 0
0 0 0
0 0 0
0 0 0
0 0 0
0 0 0
0 0 0
0 0 0
0 0 0
0 0 0
0 0 0
0 0 0
0 0 0
0 0 0
0 0 0
0 0 0
0 0 0
0 0 0
0 0 0
0 0 0
0 0 0
0 0 0
0 0 0
0 0 0
0 0 0
0 0 0
0 0 0
0 0 0
0 0 0
0 0 0
0 0 0
0 0 0
0 0 0
0 0 0
0 0 0
0 0 0
0 0 0
0 0 0
0 0 0
0 0 0
0 0 0
0 0 0
0 0 0
0 0 0
0 0 0
0 0 0
0 0 0
0 0 0
0 0 0
0 0 0
0 0 0
0 0 0
0 0 0
0 0 0
0 0 0
0 0 0
0 0 0
0 0 0
0 0 0
0 0 0
0 0 0
0 0 0
0 0 0
0 0 0
0 0 0
0 0 0
0 0 0
0 0 0
0 0 0
0 0 0
0 0 0
0 0 0
0 0 0
0 0 0
0 0 0
0 0 0
0 0 0
0 0 0
0 0 0
0 0 0
0 0 0
0 0 0
0 0 0
0 0 0
0 0 0
0 0 0
0 0 0
0 0 0
0 0 0
0 0 0
0 0 0
0 0 0
0 0 0
0 0 0
0 0 0
0 0 0
0 0 0
0 0 0
0 0 0
0 0 0
0 0 0
0 0 0
0 0 0
0 0 0
0 0 0
0 0 0
0 0 0
0 0 0
0 0 0
0 0 0
0 0 0
0 0 0
0 0 0
0 0 0
0 0 0
0 0 0
0 0 0
0 0 0
0 0 0
0 0 0
0 0 0
0 0 0
0 0 0
0 0 0
0 0 0
0 0 0
0 0 0
0 0 0
0 0 0
0 0 0
0 0 0
0 0 0
0 0 0
0 0 0
0 0 0
0 0 0
0 0 0
0 0 0
0 0 0
0 0 0
0 0 0
0 0 0
0 0 0
0 0 0
0 0 0
0 0 0
0 0 0
0 0 0
0 0 0
0 0 0
0 0 0
0 0 0
0 0 0
0 0 0
0 0 0
0 0 0
0 0 0
0 0 0
0 0 0
0 0 0
0 0 0
0 0 0
0 0 0
0 0 0
0 0 0
0 0 0
0 0 0
0 0 0
0 0 0
0 0 0
0 0 0
0 0 0
0 0 0
0 0 0
0 0 0
0 0 0
0 0 0
0 0 0
0 0 0
0 0 0
0 0 0
0 0 0
0 0 0
0 0 0
0 0 0
0 0 0
0 0 0
0 0 0
0 0 0
0 0 0
0 0 0
0 0 0
0 0 0
0 0 0
0 0 0
0 0 0
0 0 0
0 0 0
0 0 0
0 0 0
0 0 0
0 0 0
0 0 0
0 0 0
0 0 0
0 0 0
0 0 0
0 0 0
0 0 0
0 0 0
0 0 0
0 0 0
0 0 0
0 0 0
0 0 0
0 0 0
0 0 0
0 0 0
0 0 0
0 0 0
0 0 0
0 0 0
0 0 0
0 0 0
0 0 0
0 0 0
0 0 0
0 0 0
0 0 0
0 0 0
0 0 0
0 0 0
0 0 0
0 0 0
0 0 0
0 0 0
0 0 0
0 0 0
0 0 0
0 0 0
0 0 0
0 0 0
0 0 0
0 0 0
0 0 0
0 0 0
0 0 0
0 0 0
0 0 0
0 0 0
0 0 0
0 0 0
0 0 0
0 0 0
0 0 0
0 0 0
0 0 0
0 0 0
0 0 0
0 0 0
0 0 0
0 0 0
0 0 0
0 0 0
0 0 0
0 0 0
0 0 0
0 0 0
0 0 0
0 0 0
0 0 0
0 0 0
0 0 0
0 0 0
0 0 0
0 0 0
0 0 0
0 0 0
0 0 0
0 0 0
0 0 0
0 0 0
0 0 0
0 0 0
0 0 0
0 0 0
0 0 0
0 0 0
0 0 0
0 0 0
0 0 0
0 0 0
0 0 0
0 0 0
0 0 0
0 0 0
0 0 0
0 0 0
0 0 0
0 0 0
0 0 0
0 0 0
0 0 0
0 0 0
0 0 0
0 0 0
0 0 0
0 0 0
0 0 0
0 0 0
0 0 0
0 0 0
0 0 0
0 0 0
0 0 0
0 0 0
0 0 0
0 0 0
0 0 0
0 0 0
0 0 0
0 0 0
0 0 0
0 0 0
0 0 0
0 0 0
0 0 0
0 0 0
0 0 0
0 0 0
0 0 0
0 0 0
0 0 0
0 0 0
0 0 0
0 0 0
0 0 0
0 0 0
0 0 0
0 0 0
0 0 0
0 0 0
0 0 0
0 0 0
0 0 0
0 0 0
0 0 0
0 0 0
0 0 0
0 0 0
0 0 0
0 0 0
0 0 0
0 0 0
0 0 0
0 0 0
0 0 0
0 0 0
0 0 0
0 0 0
0 0 0
0 0 0
0 0 0
0 0 0
0 0 0
0 0 0
0 0 0
0 0 0
0 0 0
0 0 0
0 0 0
0 0 0
0 0 0
0 0 0
0 0 0
0 0 0
0 0 0
0 0 0
0 0 0
0 0 0
0 0 0
0 0 0
0 0 0
0 0 0
0 0 0
0 0 0
0 0 0
0 0 0
0 0 0
0 0 0
0 0 0
0 0 0
0 0 0
0 0 0
0 0 0
0 0 0
0 0 0
0 0 0
0 0 0
0 0 0
0 0 0
0 0 0
0 0 0
0 0 0
0 0 0
0 0 0
0 0 0
0 0 0
0 0 0
0 0 0
0 0 0
0 0 0
0 0 0
0 0 0
0 0 0
0 0 0
0 0 0
0 0 0
0 0 0
0 0 0
0 0 0
0 0 0
0 0 0
0 0 0
0 0 0
0 0 0
0 0 0
0 0 0
0 0 0
0 0 0
0 0 0
0 0 0
0 0 0
0 0 0
0 0 0
0 0 0
0 0 0
0 0 0
0 0 0
0 0 0
0 0 0
0 0 0
0 0 0
0 0 0
0 0 0
0 0 0
0 0 0
0 0 0
0 0 0
0 0 0
0 0 0
0 0 0
0 0 0
0 0 0
0 0 0
0 0 0
0 0 0
0 0 0
0 0 0
0 0 0
0 0 0
0 0 0
0 0 0
0 0 0
0 0 0
0 0 0
0 0 0
0 0 0
0 0 0
0 0 0
0 0 0
0 0 0
0 0 0
0 0 0
0 0 0
0 0 0
0 0 0
0 0 0
0 0 0
0 0 0
0 0 0
0 0 0
0 0 0
0 0 0
0 0 0
0 0 0
0 0 0
0 0 0
0 0 0
0 0 0
0 0 0
0 0 0
0 0 0
0 0 0
0 0 0
0 0 0
0 0 0
0 0 0
0 0 0
0 0 0
0 0 0
0 0 0
0 0 0
0 0 0
0 0 0
0 0 0
0 0 0
0 0 0
0 0 0
0 0 0
0 0 0
0 0 0
0 0 0
0 0 0
0 0 0
0 0 0
0 0 0
0 0 0
0 0 0
0 0 0
0 0 0
0 0 0
0 0 0
0 0 0
0 0 0
0 0 0
0 0 0
0 0 0
0 0 0
0 0 0
0 0 0
0 0 0
0 0 0
0 0 0
0 0 0
0 0 0
0 0 0
0 0 0
0 0 0
0 0 0
0 0 0
0 0 0
0 0 0
0 0 0
0 0 0
0 0 0
0 0 0
0 0 0
0 0 0
0 0 0
0 0 0
0 0 0
0 0 0
0 0 0
0 0 0
0 0 0
0 0 0
0 0 0
0 0 0
0 0 0
0 0 0
0 0 0
0 0 0
0 0 0
0 0 0
0 0 0
0 0 0
0 0 0
0 0 0
0 0 0
0 0 0
0 0 0
0 0 0
0 0 0
0 0 0
0 0 0
0 0 0
0 0 0
0 0 0
0 0 0
0 0 0
0 0 0
0 0 0
0 0 0
0 0 0
0 0 0
0 0 0
0 0 0
0 0 0
0 0 0
0 0 0
0 0 0
0 0 0
0 0 0
0 0 0
0 0 0
0 0 0
0 0 0
0 0 0
0 0 0
0 0 0
0 0 0
0 0 0
0 0 0
0 0 0
0 0 0
0 0 0
0 0 0
0 0 0
0 0 0
0 0 0
0 0 0
0 0 0
0 0 0
0 0 0
0 0 0
0 0 0
0 0 0
0 0 0
0 0 0
0 0 0
0 0 0
0 0 0
0 0 0
0 0 0
0 0 0
0 0 0
0 0 0
0 0 0
0 0 0
0 0 0
0 0 0
0 0 0
0 0 0
0 0 0
0 0 0
0 0 0
0 0 0
0 0 0
0 0 0
0 0 0
0 0 0
0 0 0
0 0 0
0 0 0
0 0 0
0 0 0
0 0 0
0 0 0
0 0 0
0 0 0
0 0 0
0 0 0
0 0 0
0 0 0
0 0 0
0 0 0
0 0 0
0 0 0
0 0 0
0 0 0
0 0 0
0 0 0
0 0 0
0 0 0
0 0 0
0 0 0
0 0 0
0 0 0
0 0 0
0 0 0
0 0 0
0 0 0
0 0 0
0 0 0
0 0 0
0 0 0
0 0 0
0 0 0
0 0 0
0 0 0
0 0 0
0 0 0
0 0 0
0 0 0
0 0 0
0 0 0
0 0 0
0 0 0
0 0 0
0 0 0
0 0 0
0 0 0
0 0 0
0 0 0
0 0 0
0 0 0
0 0 0
0 0 0
0 0 0
0 0 0
0 0 0
0 0 0
0 0 0
0 0 0
0 0 0
0 0 0
0 0 0
0 0 0
0 0 0
0 0 0
0 0 0
0 0 0
0 0 0
0 0 0
0 0 0
0 0 0
0 0 0
0 0 0
0 0 0
0 0 0
0 0 0
0 0 0
0 0 0
0 0 0
0 0 0
0 0 0
0 0 0
0 0 0
0 0 0
0 0 0
0 0 0
0 0 0
0 0 0
0 0 0
0 0 0
0 0 0
0 0 0
0 0 0
0 0 0
0 0 0
0 0 0
0 0 0
0 0 0
0 0 0
0 0 0
0 0 0
0 0 0
0 0 0
0 0 0
0 0 0
0 0 0
0 0 0
0 0 0
0 0 0
0 0 0
0 0 0
0 0 0
0 0 0
0 0 0
0 0 0
0 0 0
0 0 0
0 0 0
0 0 0
0 0 0
0 0 0
0 0 0
0 0 0
0 0 0
0 0 0
0 0 0
0 0 0
0 0 0
0 0 0
0 0 0
0 0 0
0 0 0
0 0 0
0 0 0
0 0 0
0 0 0
0 0 0
0 0 0
0 0 0
0 0 0
0 0 0
0 0 0
0 0 0
0 0 0
0 0 0
0 0 0
0 0 0
0 0 0
0 0 0
0 0 0
0 0 0
0 0 0
0 0 0
0 0 0
0 0 0
0 0 0
0 0 0
0 0 0
0 0 0
0 0 0
0 0 0
0 0 0
0 0 0
0 0 0
0 0 0
0 0 0
0 0 0
0 0 0
0 0 0
0 0 0
0 0 0
0 0 0
0 0 0
0 0 0
0 0 0
0 0 0
0 0 0
0 0 0
0 0 0
0 0 0
0 0 0
0 0 0
0 0 0
0 0 0
0 0 0
0 0 0
0 0 0
0 0 0
0 0 0
0 0 0
0 0 0
0 0 0
0 0 0
0 0 0
0 0 0
0 0 0
0 0 0
0 0 0
0 0 0
0 0 0
0 0 0
0 0 0
0 0 0
0 0 0
0 0 0
0 0 0
0 0 0
0 0 0
0 0 0
0 0 0
0 0 0
0 0 0
0 0 0
0 0 0
0 0 0
0 0 0
0 0 0
0 0 0
0 0 0
0 0 0
0 0 0
0 0 0
0 0 0
0 0 0
0 0 0
0 0 0
0 0 0
0 0 0
0 0 0
0 0 0
0 0 0
0 0 0
0 0 0
0 0 0
0 0 0
0 0 0
0 0 0
0 0 0
0 0 0
0 0 0
0 0 0
0 0 0
0 0 0
0 0 0
0 0 0
0 0 0
0 0 0
0 0 0
0 0 0
0 0 0
0 0 0
0 0 0
0 0 0
0 0 0
0 0 0
0 0 0
0 0 0
0 0 0
0 0 0
0 0 0
0 0 0
0 0 0
0 0 0
0 0 0
0 0 0
0 0 0
0 0 0
0 0 0
0 0 0
0 0 0
0 0 0
0 0 0
0 0 0
0 0 0
0 0 0
0 0 0
0 0 0
0 0 0
0 0 0
0 0 0
0 0 0
0 0 0
0 0 0
0 0 0
0 0 0
0 0 0
0 0 0
0 0 0
0 0 0
0 0 0
0 0 0
0 0 0
0 0 0
0 0 0
0 0 0
0 0 0
0 0 0
0 0 0
0 0 0
0 0 0
0 0 0
0 0 0
0 0 0
0 0 0
0 0 0
0 0 0
0 0 0
0 0 0
0 0 0
0 0 0
0 0 0
0 0 0
0 0 0
0 0 0
0 0 0
0 0 0
0 0 0
0 0 0
0 0 0
0 0 0
0 0 0
0 0 0
0 0 0
0 0 0
0 0 0
0 0 0
0 0 0
0 0 0
0 0 0
0 0 0
0 0 0
0 0 0
0 0 0
0 0 0
0 0 0
0 0 0
0 0 0
0 0 0
0 0 0
0 0 0
0 0 0
0 0 0
0 0 0
0 0 0
0 0 0
0 0 0
0 0 0
0 0 0
0 0 0
0 0 0
0 0 0
0 0 0
0 0 0
0 0 0
0 0 0
0 0 0
0 0 0
0 0 0
0 0 0
0 0 0
0 0 0
0 0 0
0 0 0
0 0 0
0 0 0
0 0 0
0 0 0
0 0 0
0 0 0
0 0 0
0 0 0
0 0 0
0 0 0
0 0 0
0 0 0
0 0 0
0 0 0
0 0 0
0 0 0
0 0 0
0 0 0
0 0 0
0 0 0
0 0 0
0 0 0
0 0 0
0 0 0
0 0 0
0 0 0
0 0 0
0 0 0
0 0 0
0 0 0
0 0 0
0 0 0
0 0 0
0 0 0
0 0 0
0 0 0
0 0 0
0 0 0
0 0 0
0 0 0
0 0 0
0 0 0
0 0 0
0 0 0
0 0 0
0 0 0
0 0 0
0 0 0
0 0 0
0 0 0
0 0 0
0 0 0
0 0 0
0 0 0
0 0 0
0 0 0
0 0 0
0 0 0
0 0 0
0 0 0
0 0 0
0 0 0
0 0 0
0 0 0
0 0 0
0 0 0
0 0 0
0 0 0
0 0 0
0 0 0
0 0 0
0 0 0
0 0 0
0 0 0
0 0 0
0 0 0
0 0 0
0 0 0
0 0 0
0 0 0
0 0 0
0 0 0
0 0 0
0 0 0
0 0 0
0 0 0
0 0 0
0 0 0
0 0 0
0 0 0
0 0 0
0 0 0
0 0 0
0 0 0
0 0 0
0 0 0
0 0 0
0 0 0
0 0 0
0 0 0
0 0 0
0 0 0
0 0 0
0 0 0
0 0 0
0 0 0
0 0 0
0 0 0
0 0 0
0 0 0
0 0 0
0 0 0
0 0 0
0 0 0
0 0 0
0 0 0
0 0 0
0 0 0
0 0 0
0 0 0
0 0 0
0 0 0
0 0 0
0 0 0
0 0 0
0 0 0
0 0 0
0 0 0
0 0 0
0 0 0
0 0 0
0 0 0
0 0 0
0 0 0
0 0 0
0 0 0
0 0 0
0 0 0
0 0 0
0 0 0
0 0 0
0 0 0
0 0 0
0 0 0
0 0 0
0 0 0
0 0 0
0 0 0
0 0 0
0 0 0
0 0 0
0 0 0
0 0 0
0 0 0
0 0 0
0 0 0
0 0 0
0 0 0
0 0 0
0 0 0
0 0 0
0 0 0
0 0 0
0 0 0
0 0 0
0 0 0
0 0 0
0 0 0
0 0 0
0 0 0
0 0 0
0 0 0
0 0 0
0 0 0
0 0 0
0 0 0
0 0 0
0 0 0
0 0 0
0 0 0
0 0 0
0 0 0
0 0 0
0 0 0
0 0 0
0 0 0
0 0 0
0 0 0
0 0 0
0 0 0
0 0 0
0 0 0
0 0 0
0 0 0
0 0 0
0 0 0
0 0 0
0 0 0
0 0 0
0 0 0
0 0 0
0 0 0
0 0 0
0 0 0
0 0 0
0 0 0
0 0 0
0 0 0
0 0 0
0 0 0
0 0 0
0 0 0
0 0 0
0 0 0
0 0 0
0 0 0
0 0 0
0 0 0
0 0 0
0 0 0
0 0 0
0 0 0
0 0 0
0 0 0
0 0 0
0 0 0
0 0 0
0 0 0
0 0 0
0 0 0
0 0 0
0 0 0
0 0 0
0 0 0
0 0 0
0 0 0
0 0 0
0 0 0
0 0 0
0 0 0
0 0 0
0 0 0
0 0 0
0 0 0
0 0 0
0 0 0
0 0 0
0 0 0
0 0 0
0 0 0
0 0 0
0 0 0
0 0 0
0 0 0
0 0 0
0 0 0
0 0 0
0 0 0
0 0 0
0 0 0
0 0 0
0 0 0
0 0 0
0 0 0
0 0 0
0 0 0
0 0 0
0 0 0
0 0 0
0 0 0
0 0 0
0 0 0
0 0 0
0 0 0
0 0 0
0 0 0
0 0 0
0 0 0
0 0 0
0 0 0
0 0 0
0 0 0
0 0 0
0 0 0
0 0 0
0 0 0
0 0 0
0 0 0
0 0 0
0 0 0
0 0 0
0 0 0
0 0 0
0 0 0
0 0 0
0 0 0
0 0 0
0 0 0
0 0 0
0 0 0
0 0 0
0 0 0
0 0 0
0 0 0
0 0 0
0 0 0
0 0 0
0 0 0
0 0 0
0 0 0
0 0 0
0 0 0
0 0 0
0 0 0
0 0 0
0 0 0
0 0 0
0 0 0
0 0 0
0 0 0
0 0 0
0 0 0
0 0 0
0 0 0
0 0 0
0 0 0
0 0 0
0 0 0
0 0 0
0 0 0
0 0 0
0 0 0
0 0 0
0 0 0
0 0 0
0 0 0
0 0 0
0 0 0
0 0 0
0 0 0
0 0 0
0 0 0
0 0 0
0 0 0
0 0 0
0 0 0
0 0 0
0 0 0
0 0 0
0 0 0
0 0 0
0 0 0
0 0 0
0 0 0
0 0 0
0 0 0
0 0 0
0 0 0
0 0 0
0 0 0
0 0 0
0 0 0
0 0 0
0 0 0
0 0 0
0 0 0
0 0 0
0 0 0
0 0 0
0 0 0
0 0 0
0 0 0
0 0 0
0 0 0
0 0 0
0 0 0
0 0 0
0 0 0
0 0 0
0 0 0
0 0 0
0 0 0
0 0 0
0 0 0
0 0 0
0 0 0
0 0 0
0 0 0
0 0 0
0 0 0
0 0 0
0 0 0
0 0 0
0 0 0
0 0 0
0 0 0
0 0 0
0 0 0
0 0 0
0 0 0
0 0 0
0 0 0
0 0 0
0 0 0
0 0 0
0 0 0
0 0 0
0 0 0
0 0 0
0 0 0
0 0 0
0 0 0
0 0 0
0 0 0
0 0 0
0 0 0
0 0 0
0 0 0
0 0 0
0 0 0
0 0 0
0 0 0
0 0 0
0 0 0
0 0 0
0 0 0
0 0 0
0 0 0
0 0 0
0 0 0
0 0 0
0 0 0
0 0 0
0 0 0
0 0 0
0 0 0
0 0 0
0 0 0
0 0 0
0 0 0
0 0 0
0 0 0
0 0 0
0 0 0
0 0 0
0 0 0
0 0 0
0 0 0
0 0 0
0 0 0
0 0 0
0 0 0
0 0 0
0 0 0
0 0 0
0 0 0
0 0 0
0 0 0
0 0 0
0 0 0
0 0 0
0 0 0
0 0 0
0 0 0
0 0 0
0 0 0
0 0 0
0 0 0
0 0 0
0 0 0
0 0 0
0 0 0
0 0 0
0 0 0
0 0 0
0 0 0
0 0 0
0 0 0
0 0 0
0 0 0
0 0 0
0 0 0
0 0 0
0 0 0
0 0 0
0 0 0
0 0 0
0 0 0
0 0 0
0 0 0
0 0 0
0 0 0
0 0 0
0 0 0
0 0 0
0 0 0
0 0 0
0 0 0
0 0 0
0 0 0
0 0 0
0 0 0
0 0 0
0 0 0
0 0 0
0 0 0
0 0 0
0 0 0
0 0 0
0 0 0
0 0 0
0 0 0
0 0 0
0 0 0
0 0 0
0 0 0
0 0 0
0 0 0
0 0 0
0 0 0
0 0 0
0 0 0
0 0 0
0 0 0
0 0 0
0 0 0
0 0 0
0 0 0
0 0 0
0 0 0
0 0 0
0 0 0
0 0 0
0 0 0
0 0 0
0 0 0
0 0 0
0 0 0
0 0 0
0 0 0
0 0 0
0 0 0
0 0 0
0 0 0
0 0 0
0 0 0
0 0 0
0 0 0
0 0 0
0 0 0
0 0 0
0 0 0
0 0 0
0 0 0
0 0 0
0 0 0
0 0 0
0 0 0
0 0 0
0 0 0
0 0 0
0 0 0
0 0 0
0 0 0
0 0 0
0 0 0
0 0 0
0 0 0
0 0 0
0 0 0
0 0 0
0 0 0
0 0 0
0 0 0
0 0 0
0 0 0
0 0 0
0 0 0
0 0 0
0 0 0
0 0 0
0 0 0
0 0 0
0 0 0
0 0 0
0 0 0
0 0 0
0 0 0
0 0 0
0 0 0
0 0 0
0 0 0
0 0 0
0 0 0
0 0 0
0 0 0
0 0 0
0 0 0
0 0 0
0 0 0
0 0 0
0 0 0
0 0 0
0 0 0
0 0 0
0 0 0
0 0 0
0 0 0
0 0 0
0 0 0
0 0 0
0 0 0
0 0 0
0 0 0
0 0 0
0 0 0
0 0 0
0 0 0
0 0 0
0 0 0
0 0 0
0 0 0
0 0 0
0 0 0
0 0 0
0 0 0
0 0 0
0 0 0
0 0 0
0 0 0
0 0 0
0 0 0
0 0 0
0 0 0
0 0 0
0 0 0
0 0 0
0 0 0
0 0 0
0 0 0
0 0 0
0 0 0
0 0 0
0 0 0
0 0 0
0 0 0
0 0 0
0 0 0
0 0 0
0 0 0
0 0 0
0 0 0
0 0 0
0 0 0
0 0 0
0 0 0
0 0 0
0 0 0
0 0 0
0 0 0
0 0 0
0 0 0
0 0 0
0 0 0
0 0 0
0 0 0
0 0 0
0 0 0
0 0 0
0 0 0
0 0 0
0 0 0
0 0 0
0 0 0
0 0 0
0 0 0
0 0 0
0 0 0
0 0 0
0 0 0
0 0 0
0 0 0
0 0 0
0 0 0
0 0 0
0 0 0
0 0 0
0 0 0
0 0 0
0 0 0
0 0 0
0 0 0
0 0 0
0 0 0
0 0 0
0 0 0
0 0 0
0 0 0
0 0 0
0 0 0
0 0 0
0 0 0
0 0 0
0 0 0
0 0 0
0 0 0
0 0 0
0 0 0
0 0 0
0 0 0
0 0 0
0 0 0
0 0 0
0 0 0
0 0 0
0 0 0
0 0 0
0 0 0
0 0 0
0 0 0
0 0 0
0 0 0
0 0 0
0 0 0
0 0 0
0 0 0
0 0 0
0 0 0
0 0 0
0 0 0
0 0 0
0 0 0
0 0 0
0 0 0
0 0 0
0 0 0
0 0 0
0 0 0
0 0 0
0 0 0
0 0 0
0 0 0
0 0 0
0 0 0
0 0 0
0 0 0
0 0 0
0 0 0
0 0 0
0 0 0
0 0 0
0 0 0
0 0 0
0 0 0
0 0 0
0 0 0
0 0 0
0 0 0
0 0 0
0 0 0
0 0 0
0 0 0
0 0 0
0 0 0
0 0 0
0 0 0
0 0 0
0 0 0
0 0 0
0 0 0
0 0 0
0 0 0
0 0 0
0 0 0
0 0 0
0 0 0
0 0 0
0 0 0
0 0 0
0 0 0
0 0 0
0 0 0
0 0 0
0 0 0
0 0 0
0 0 0
0 0 0
0 0 0
0 0 0
0 0 0
0 0 0
0 0 0
0 0 0
0 0 0
0 0 0
0 0 0
0 0 0
0 0 0
0 0 0
0 0 0
0 0 0
0 0 0
0 0 0
0 0 0
0 0 0
0 0 0
0 0 0
0 0 0
0 0 0
0 0 0
0 0 0
0 0 0
0 0 0
0 0 0
0 0 0
0 0 0
0 0 0
0 0 0
0 0 0
0 0 0
0 0 0
0 0 0
0 0 0
0 0 0
0 0 0
0 0 0
0 0 0
0 0 0
0 0 0
0 0 0
0 0 0
0 0 0
0 0 0
0 0 0
0 0 0
0 0 0
0 0 0
0 0 0
0 0 0
0 0 0
0 0 0
0 0 0
0 0 0
0 0 0
0 0 0
0 0 0
0 0 0
0 0 0
0 0 0
0 0 0
0 0 0
0 0 0
0 0 0
0 0 0
0 0 0
0 0 0
0 0 0
0 0 0
0 0 0
0 0 0
0 0 0
0 0 0
0 0 0
0 0 0
0 0 0
0 0 0
0 0 0
0 0 0
0 0 0
0 0 0
0 0 0
0 0 0
0 0 0
0 0 0
0 0 0
0 0 0
0 0 0
0 0 0
0 0 0
0 0 0
0 0 0
0 0 0
0 0 0
0 0 0
0 0 0
0 0 0
0 0 0
0 0 0
0 0 0
0 0 0
0 0 0
0 0 0
0 0 0
0 0 0
0 0 0
0 0 0
0 0 0
0 0 0
0 0 0
0 0 0
0 0 0
0 0 0
0 0 0
0 0 0
0 0 0
0 0 0
0 0 0
0 0 0
0 0 0
0 0 0
0 0 0
0 0 0
0 0 0
0 0 0
0 0 0
0 0 0
0 0 0
0 0 0
0 0 0
0 0 0
0 0 0
0 0 0
0 0 0
0 0 0
0 0 0
0 0 0
0 0 0
0 0 0
0 0 0
0 0 0
0 0 0
0 0 0
0 0 0
0 0 0
0 0 0
0 0 0
0 0 0
0 0 0
0 0 0
0 0 0
0 0 0
0 0 0
0 0 0
0 0 0
0 0 0
0 0 0
0 0 0
0 0 0
0 0 0
0 0 0
0 0 0
0 0 0
0 0 0
0 0 0
0 0 0
0 0 0
0 0 0
0 0 0
0 0 0
0 0 0
0 0 0
0 0 0
0 0 0
0 0 0
0 0 0
0 0 0
0 0 0
0 0 0
0 0 0
0 0 0
0 0 0
0 0 0
0 0 0
0 0 0
0 0 0
0 0 0
0 0 0
0 0 0
0 0 0
0 0 0
0 0 0
0 0 0
0 0 0
0 0 0
0 0 0
0 0 0
0 0 0
0 0 0
0 0 0
0 0 0
0 0 0
0 0 0
0 0 0
0 0 0
0 0 0
0 0 0
0 0 0
0 0 0
0 0 0
0 0 0
0 0 0
0 0 0
0 0 0
0 0 0
0 0 0
0 0 0
0 0 0
0 0 0
0 0 0
0 0 0
0 0 0
0 0 0
0 0 0
0 0 0
0 0 0
0 0 0
0 0 0
0 0 0
0 0 0
0 0 0
0 0 0
0 0 0
0 0 0
0 0 0
0 0 0
0 0 0
0 0 0
0 0 0
0 0 0
0 0 0
0 0 0
0 0 0
0 0 0
0 0 0
0 0 0
0 0 0
0 0 0
0 0 0
0 0 0
0 0 0
0 0 0
0 0 0
0 0 0
0 0 0
0 0 0
0 0 0
0 0 0
0 0 0
0 0 0
0 0 0
0 0 0
0 0 0
0 0 0
0 0 0
0 0 0
0 0 0
0 0 0
0 0 0
0 0 0
0 0 0
0 0 0
0 0 0
0 0 0
0 0 0
0 0 0
0 0 0
0 0 0
0 0 0
0 0 0
0 0 0
0 0 0
0 0 0
0 0 0
0 0 0
0 0 0
0 0 0
0 0 0
0 0 0
0 0 0
0 0 0
0 0 0
0 0 0
0 0 0
0 0 0
0 0 0
0 0 0
0 0 0
0 0 0
0 0 0
0 0 0
0 0 0
0 0 0
0 0 0
0 0 0
0 0 0
0 0 0
0 0 0
0 0 0
0 0 0
0 0 0
0 0 0
0 0 0
0 0 0
0 0 0
0 0 0
0 0 0
0 0 0
0 0 0
0 0 0
0 0 0
0 0 0
0 0 0
0 0 0
0 0 0
0 0 0
0 0 0
0 0 0
0 0 0
0 0 0
0 0 0
0 0 0
0 0 0
0 0 0
0 0 0
0 0 0
0 0 0
0 0 0
0 0 0
0 0 0
0 0 0
0 0 0
0 0 0
0 0 0
0 0 0
0 0 0
0 0 0
0 0 0
0 0 0
0 0 0
0 0 0
0 0 0
0 0 0
0 0 0
0 0 0
0 0 0
0 0 0
0 0 0
0 0 0
0 0 0
0 0 0
0 0 0
0 0 0
0 0 0
0 0 0
0 0 0
0 0 0
0 0 0
0 0 0
0 0 0
0 0 0
0 0 0
0 0 0
0 0 0
0 0 0
0 0 0
0 0 0
0 0 0
0 0 0
0 0 0
0 0 0
0 0 0
0 0 0
0 0 0
0 0 0
0 0 0
0 0 0
0 0 0
0 0 0
0 0 0
0 0 0
0 0 0
0 0 0
0 0 0
0 0 0
0 0 0
0 0 0
0 0 0
0 0 0
0 0 0
0 0 0
0 0 0
0 0 0
0 0 0
0 0 0
0 0 0
0 0 0
0 0 0
0 0 0
0 0 0
0 0 0
0 0 0
0 0 0
0 0 0
0 0 0
0 0 0
0 0 0
0 0 0
0 0 0
0 0 0
0 0 0
0 0 0
0 0 0
0 0 0
0 0 0
0 0 0
0 0 0
