P3
64 64
255
165 165 165
165 165 165
165 165 165
165 165 165
165 165 165
165 165 165
165 165 165
165 165 165
152 152 152
152 152 152
152 152 152
152 152 152
152 152 152
152 152 152
152 152 152
152 152 152
137 137 137
137 137 137
137 137 137
137 137 137
137 137 137
137 137 137
137 137 137
137 137 137
152 152 152
152 152 152
152 152 152
152 152 152
152 152 152
152 152 152
152 152 152
152 152 152
165 165 165
165 165 165
165 165 165
165 165 165
165 165 165
165 165 165
165 165 165
165 165 165
177 177 177
177 177 177
177 177 177
177 177 177
177 177 177
177 177 177
177 177 177
177 177 177
188 188 188
188 188 188
188 188 188
188 188 188
188 188 188
188 188 188
188 188 188
188 188 188
198 198 198
198 198 198
198 198 198
198 198 198
198 198 198
198 198 198
198 198 198
198 198 198
165 165 165
165 165 165
165 165 165
165 165 165
165 165 165
165 165 165
165 165 165
165 165 165
152 152 152
152 152 152
152 152 152
152 152 152
152 152 152
152 152 152
152 152 152
152 152 152
137 137 137
137 137 137
137 137 137
137 137 137
137 137 137
137 137 137
137 137 137
137 137 137
152 152 152
152 152 152
152 152 152
152 152 152
152 152 152
152 152 152
152 152 152
152 152 152
165 165 165
165 165 165
165 165 165
165 165 165
165 165 165
165 165 165
165 165 165
165 165 165
177 177 177
177 177 177
177 177 177
177 177 177
177 177 177
177 177 177
177 177 177
177 177 177
188 188 188
188 188 188
188 188 188
188 188 188
188 188 188
188 188 188
188 188 188
188 188 188
198 198 198
198 198 198
198 198 198
198 198 198
198 198 198
198 198 198
198 198 198
198 198 198
165 165 165
165 165 165
165 165 165
165 165 165
165 165 165
165 165 165
165 165 165
165 165 165
152 152 152
152 152 152
152 152 152
152 152 152
152 152 152
152 152 152
152 152 152
152 152 152
137 137 137
137 137 137
137 137 137
137 137 137
137 137 137
137 137 137
137 137 137
137 137 137
152 152 152
152 152 152
152 152 152
152 152 152
152 152 152
152 152 152
152 152 152
152 152 152
165 165 165
165 165 165
165 165 165
165 165 165
165 165 165
165 165 165
165 165 165
165 165 165
177 177 177
177 177 177
177 177 177
177 177 177
177 177 177
177 177 177
177 177 177
177 177 177
188 188 188
188 188 188
188 188 188
188 188 188
188 188 188
188 188 188
188 188 188
188 188 188
198 198 198
198 198 198
198 198 198
198 198 198
198 198 198
198 198 198
198 198 198
198 198 198
165 165 165
165 165 165
165 165 165
165 165 165
165 165 165
165 165 165
165 165 165
165 165 165
152 152 152
152 152 152
152 152 152
152 152 152
152 152 152
152 152 152
152 152 152
152 152 152
137 137 137
137 137 137
137 137 137
137 137 137
137 137 137
137 137 137
137 137 137
137 137 137
152 152 152
152 152 152
152 152 152
152 152 152
152 152 152
152 152 152
152 152 152
152 152 152
165 165 165
165 165 165
165 165 165
165 165 165
165 165 165
165 165 165
165 165 165
165 165 165
177 177 177
177 177 177
177 177 177
177 177 177
177 177 177
177 177 177
177 177 177
177 177 177
188 188 188
188 188 188
188 188 188
188 188 188
188 188 188
188 188 188
188 188 188
188 188 188
198 198 198
198 198 198
198 198 198
198 198 198
198 198 198
198 198 198
198 198 198
198 198 198
165 165 165
165 165 165
165 165 165
165 165 165
165 165 165
165 165 165
165 165 165
165 165 165
152 152 152
152 152 152
152 152 152
152 152 152
152 152 152
152 152 152
152 152 152
152 152 152
137 137 137
137 137 137
137 137 137
137 137 137
137 137 137
137 137 137
137 137 137
137 137 137
152 152 152
152 152 152
152 152 152
152 152 152
152 152 152
152 152 152
152 152 152
152 152 152
165 165 165
165 165 165
165 165 165
165 165 165
165 165 165
165 165 165
165 165 165
165 165 165
177 177 177
177 177 177
177 177 177
177 177 177
177 177 177
177 177 177
177 177 177
177 177 177
188 188 188
188 188 188
188 188 188
188 188 188
188 188 188
188 188 188
188 188 188
188 188 188
198 198 198
198 198 198
198 198 198
198 198 198
198 198 198
198 198 198
198 198 198
198 198 198
165 165 165
165 165 165
165 165 165
165 165 165
165 165 165
165 165 165
165 165 165
165 165 165
152 152 152
152 152 152
152 152 152
152 152 152
152 152 152
152 152 152
152 152 152
152 152 152
137 137 137
137 137 137
137 137 137
137 137 137
137 137 137
137 137 137
137 137 137
137 137 137
152 152 152
152 152 152
152 152 152
152 152 152
152 152 152
152 152 152
152 152 152
152 152 152
165 165 165
165 165 165
165 165 165
165 165 165
165 165 165
165 165 165
165 165 165
165 165 165
177 177 177
177 177 177
177 177 177
177 177 177
177 177 177
177 177 177
177 177 177
177 177 177
188 188 188
188 188 188
188 188 188
188 188 188
188 188 188
188 188 188
188 188 188
188 188 188
198 198 198
198 198 198
198 198 198
198 198 198
198 198 198
198 198 198
198 198 198
198 198 198
165 165 165
165 165 165
165 165 165
165 165 165
165 165 165
165 165 165
165 165 165
165 165 165
152 152 152
152 152 152
152 152 152
152 152 152
152 152 152
152 152 152
152 152 152
152 152 152
137 137 137
137 137 137
137 137 137
137 137 137
137 137 137
137 137 137
137 137 137
137 137 137
152 152 152
152 152 152
152 152 152
152 152 152
152 152 152
152 152 152
152 152 152
152 152 152
165 165 165
165 165 165
165 165 165
165 165 165
165 165 165
165 165 165
165 165 165
165 165 165
177 177 177
177 177 177
177 177 177
177 177 177
177 177 177
177 177 177
177 177 177
177 177 177
188 188 188
188 188 188
188 188 188
188 188 188
188 188 188
188 188 188
188 188 188
188 188 188
198 198 198
198 198 198
198 198 198
198 198 198
198 198 198
198 198 198
198 198 198
198 198 198
165 165 165
165 165 165
165 165 165
165 165 165
165 165 165
165 165 165
165 165 165
165 165 165
152 152 152
152 152 152
152 152 152
152 152 152
152 152 152
152 152 152
152 152 152
152 152 152
137 137 137
137 137 137
137 137 137
137 137 137
137 137 137
137 137 137
137 137 137
137 137 137
152 152 152
152 152 152
152 152 152
152 152 152
152 152 152
152 152 152
152 152 152
152 152 152
165 165 165
165 165 165
165 165 165
165 165 165
165 165 165
165 165 165
165 165 165
165 165 165
177 177 177
177 177 177
177 177 177
177 177 177
177 177 177
177 177 177
177 177 177
177 177 177
188 188 188
188 188 188
188 188 188
188 188 188
188 188 188
188 188 188
188 188 188
188 188 188
198 198 198
198 198 198
198 198 198
198 198 198
198 198 198
198 198 198
198 198 198
198 198 198
165 165 165
165 165 165
165 165 165
165 165 165
165 165 165
165 165 165
165 165 165
165 165 165
152 152 152
152 152 152
152 152 152
152 152 152
152 152 152
152 152 152
152 152 152
152 152 152
137 137 137
137 137 137
137 137 137
137 137 137
137 137 137
137 137 137
137 137 137
137 137 137
152 152 152
152 152 152
152 152 152
152 152 152
152 152 152
152 152 152
152 152 152
152 152 152
165 165 165
165 165 165
165 165 165
165 165 165
165 165 165
165 165 165
165 165 165
165 165 165
177 177 177
177 177 177
177 177 177
177 177 177
177 177 177
177 177 177
177 177 177
177 177 177
188 188 188
188 188 188
188 188 188
188 188 188
188 188 188
188 188 188
188 188 188
188 188 188
198 198 198
198 198 198
198 198 198
198 198 198
198 198 198
198 198 198
198 198 198
198 198 198
165 165 165
165 165 165
165 165 165
165 165 165
165 165 165
165 165 165
165 165 165
165 165 165
152 152 152
152 152 152
152 152 152
152 152 152
152 152 152
152 152 152
152 152 152
152 152 152
137 137 137
137 137 137
137 137 137
137 137 137
137 137 137
137 137 137
137 137 137
137 137 137
152 152 152
152 152 152
152 152 152
152 152 152
152 152 152
152 152 152
152 152 152
152 152 152
165 165 165
165 165 165
165 165 165
165 165 165
165 165 165
165 165 165
165 165 165
165 165 165
177 177 177
177 177 177
177 177 177
177 177 177
177 177 177
177 177 177
177 177 177
177 177 177
188 188 188
188 188 188
188 188 188
188 188 188
188 188 188
188 188 188
188 188 188
188 188 188
198 198 198
198 198 198
198 198 198
198 198 198
198 198 198
198 198 198
198 198 198
198 198 198
165 165 165
165 165 165
165 165 165
165 165 165
165 165 165
165 165 165
165 165 165
165 165 165
152 152 152
152 152 152
152 152 152
152 152 152
152 152 152
152 152 152
152 152 152
152 152 152
137 137 137
137 137 137
137 137 137
137 137 137
137 137 137
137 137 137
137 137 137
137 137 137
152 152 152
152 152 152
152 152 152
152 152 152
152 152 152
152 152 152
152 152 152
152 152 152
165 165 165
165 165 165
165 165 165
165 165 165
165 165 165
165 165 165
165 165 165
165 165 165
177 177 177
177 177 177
177 177 177
177 177 177
177 177 177
177 177 177
177 177 177
177 177 177
188 188 188
188 188 188
188 188 188
188 188 188
188 188 188
188 188 188
188 188 188
188 188 188
198 198 198
198 198 198
198 198 198
198 198 198
198 198 198
198 198 198
198 198 198
198 198 198
165 165 165
165 165 165
165 165 165
165 165 165
165 165 165
165 165 165
165 165 165
165 165 165
152 152 152
152 152 152
152 152 152
152 152 152
152 152 152
152 152 152
152 152 152
152 152 152
137 137 137
137 137 137
137 137 137
137 137 137
137 137 137
137 137 137
137 137 137
137 137 137
152 152 152
152 152 152
152 152 152
152 152 152
152 152 152
152 152 152
152 152 152
152 152 152
165 165 165
165 165 165
165 165 165
165 165 165
165 165 165
165 165 165
165 165 165
165 165 165
177 177 177
177 177 177
177 177 177
177 177 177
177 177 177
177 177 177
177 177 177
177 177 177
188 188 188
188 188 188
188 188 188
188 188 188
188 188 188
188 188 188
188 188 188
188 188 188
198 198 198
198 198 198
198 198 198
198 198 198
198 198 198
198 198 198
198 198 198
198 198 198
165 165 165
165 165 165
165 165 165
165 165 165
165 165 165
165 165 165
165 165 165
165 165 165
152 152 152
152 152 152
152 152 152
152 152 152
152 152 152
152 152 152
152 152 152
152 152 152
137 137 137
137 137 137
137 137 137
137 137 137
137 137 137
137 137 137
137 137 137
137 137 137
152 152 152
152 152 152
152 152 152
152 152 152
152 152 152
152 152 152
152 152 152
152 152 152
165 165 165
165 165 165
165 165 165
165 165 165
165 165 165
165 165 165
165 165 165
165 165 165
177 177 177
177 177 177
177 177 177
177 177 177
177 177 177
177 177 177
177 177 177
177 177 177
188 188 188
188 188 188
188 188 188
188 188 188
188 188 188
188 188 188
188 188 188
188 188 188
198 198 198
198 198 198
198 198 198
198 198 198
198 198 198
198 198 198
198 198 198
198 198 198
165 165 165
165 165 165
165 165 165
165 165 165
165 165 165
165 165 165
165 165 165
165 165 165
152 152 152
152 152 152
152 152 152
152 152 152
152 152 152
152 152 152
152 152 152
152 152 152
137 137 137
137 137 137
137 137 137
137 137 137
137 137 137
137 137 137
137 137 137
137 137 137
152 152 152
152 152 152
152 152 152
152 152 152
152 152 152
152 152 152
152 152 152
152 152 152
165 165 165
165 165 165
165 165 165
165 165 165
165 165 165
165 165 165
165 165 165
165 165 165
177 177 177
177 177 177
177 177 177
177 177 177
177 177 177
177 177 177
177 177 177
177 177 177
188 188 188
188 188 188
188 188 188
188 188 188
188 188 188
188 188 188
188 188 188
188 188 188
198 198 198
198 198 198
198 198 198
198 198 198
198 198 198
198 198 198
198 198 198
198 198 198
165 165 165
165 165 165
165 165 165
165 165 165
165 165 165
165 165 165
165 165 165
165 165 165
152 152 152
152 152 152
152 152 152
152 152 152
152 152 152
152 152 152
152 152 152
152 152 152
137 137 137
137 137 137
137 137 137
137 137 137
137 137 137
137 137 137
137 137 137
137 137 137
152 152 152
152 152 152
152 152 152
152 152 152
152 152 152
152 152 152
152 152 152
152 152 152
165 165 165
165 165 165
165 165 165
165 165 165
165 165 165
165 165 165
165 165 165
165 165 165
177 177 177
177 177 177
177 177 177
177 177 177
177 177 177
177 177 177
177 177 177
177 177 177
188 188 188
188 188 188
188 188 188
188 188 188
188 188 188
188 188 188
188 188 188
188 188 188
198 198 198
198 198 198
198 198 198
198 198 198
198 198 198
198 198 198
198 198 198
198 198 198
165 165 165
165 165 165
165 165 165
165 165 165
165 165 165
165 165 165
165 165 165
165 165 165
152 152 152
152 152 152
152 152 152
152 152 152
152 152 152
152 152 152
152 152 152
152 152 152
137 137 137
137 137 137
137 137 137
137 137 137
137 137 137
137 137 137
137 137 137
137 137 137
152 152 152
152 152 152
152 152 152
152 152 152
152 152 152
152 152 152
152 152 152
152 152 152
165 165 165
165 165 165
165 165 165
165 165 165
165 165 165
165 165 165
165 165 165
165 165 165
177 177 177
177 177 177
177 177 177
177 177 177
177 177 177
177 177 177
177 177 177
177 177 177
188 188 188
188 188 188
188 188 188
188 188 188
188 188 188
188 188 188
188 188 188
188 188 188
198 198 198
198 198 198
198 198 198
198 198 198
198 198 198
198 198 198
198 198 198
198 198 198
165 165 165
165 165 165
165 165 165
165 165 165
165 165 165
165 165 165
165 165 165
165 165 165
152 152 152
152 152 152
152 152 152
152 152 152
152 152 152
152 152 152
152 152 152
152 152 152
137 137 137
137 137 137
137 137 137
137 137 137
137 137 137
137 137 137
137 137 137
137 137 137
152 152 152
152 152 152
152 152 152
152 152 152
152 152 152
152 152 152
152 152 152
152 152 152
165 165 165
165 165 165
165 165 165
165 165 165
165 165 165
165 165 165
165 165 165
165 165 165
177 177 177
177 177 177
177 177 177
177 177 177
177 177 177
177 177 177
177 177 177
177 177 177
188 188 188
188 188 188
188 188 188
188 188 188
188 188 188
188 188 188
188 188 188
188 188 188
198 198 198
198 198 198
198 198 198
198 198 198
198 198 198
198 198 198
198 198 198
198 198 198
165 165 165
165 165 165
165 165 165
165 165 165
165 165 165
165 165 165
165 165 165
165 165 165
152 152 152
152 152 152
152 152 152
152 152 152
152 152 152
152 152 152
152 152 152
152 152 152
137 137 137
137 137 137
137 137 137
137 137 137
137 137 137
137 137 137
137 137 137
137 137 137
152 152 152
152 152 152
152 152 152
152 152 152
152 152 152
152 152 152
152 152 152
152 152 152
165 165 165
165 165 165
165 165 165
165 165 165
165 165 165
165 165 165
165 165 165
165 165 165
177 177 177
177 177 177
177 177 177
177 177 177
177 177 177
177 177 177
177 177 177
177 177 177
188 188 188
188 188 188
188 188 188
188 188 188
188 188 188
188 188 188
188 188 188
188 188 188
198 198 198
198 198 198
198 198 198
198 198 198
198 198 198
198 198 198
198 198 198
198 198 198
165 165 165
165 165 165
165 165 165
165 165 165
165 165 165
165 165 165
165 165 165
165 165 165
152 152 152
152 152 152
152 152 152
152 152 152
152 152 152
152 152 152
152 152 152
152 152 152
137 137 137
137 137 137
137 137 137
137 137 137
137 137 137
137 137 137
137 137 137
137 137 137
152 152 152
152 152 152
152 152 152
152 152 152
152 152 152
152 152 152
152 152 152
152 152 152
165 165 165
165 165 165
165 165 165
165 165 165
165 165 165
165 165 165
165 165 165
165 165 165
177 177 177
177 177 177
177 177 177
177 177 177
177 177 177
177 177 177
177 177 177
177 177 177
188 188 188
188 188 188
188 188 188
188 188 188
188 188 188
188 188 188
188 188 188
188 188 188
198 198 198
198 198 198
198 198 198
198 198 198
198 198 198
198 198 198
198 198 198
198 198 198
165 165 165
165 165 165
165 165 165
165 165 165
165 165 165
165 165 165
165 165 165
165 165 165
152 152 152
152 152 152
152 152 152
152 152 152
152 152 152
152 152 152
152 152 152
152 152 152
137 137 137
137 137 137
137 137 137
137 137 137
137 137 137
137 137 137
137 137 137
137 137 137
152 152 152
152 152 152
152 152 152
152 152 152
152 152 152
152 152 152
152 152 152
152 152 152
165 165 165
165 165 165
165 165 165
165 165 165
165 165 165
165 165 165
165 165 165
165 165 165
177 177 177
177 177 177
177 177 177
177 177 177
177 177 177
177 177 177
177 177 177
177 177 177
188 188 188
188 188 188
188 188 188
188 188 188
188 188 188
188 188 188
188 188 188
188 188 188
198 198 198
198 198 198
198 198 198
198 198 198
198 198 198
198 198 198
198 198 198
198 198 198
165 165 165
165 165 165
165 165 165
165 165 165
165 165 165
165 165 165
165 165 165
165 165 165
152 152 152
152 152 152
152 152 152
152 152 152
152 152 152
152 152 152
152 152 152
152 152 152
137 137 137
137 137 137
137 137 137
137 137 137
137 137 137
137 137 137
137 137 137
137 137 137
152 152 152
152 152 152
152 152 152
152 152 152
152 152 152
152 152 152
152 152 152
152 152 152
165 165 165
165 165 165
165 165 165
165 165 165
165 165 165
165 165 165
165 165 165
165 165 165
177 177 177
177 177 177
177 177 177
177 177 177
177 177 177
177 177 177
177 177 177
177 177 177
188 188 188
188 188 188
188 188 188
188 188 188
188 188 188
188 188 188
188 188 188
188 188 188
198 198 198
198 198 198
198 198 198
198 198 198
198 198 198
198 198 198
198 198 198
198 198 198
165 165 165
165 165 165
165 165 165
165 165 165
165 165 165
165 165 165
165 165 165
165 165 165
152 152 152
152 152 152
152 152 152
152 152 152
152 152 152
152 152 152
152 152 152
152 152 152
137 137 137
137 137 137
137 137 137
137 137 137
137 137 137
137 137 137
137 137 137
137 137 137
152 152 152
152 152 152
152 152 152
152 152 152
152 152 152
152 152 152
152 152 152
152 152 152
165 165 165
165 165 165
165 165 165
165 165 165
165 165 165
165 165 165
165 165 165
165 165 165
177 177 177
177 177 177
177 177 177
177 177 177
177 177 177
177 177 177
177 177 177
177 177 177
188 188 188
188 188 188
188 188 188
188 188 188
188 188 188
188 188 188
188 188 188
188 188 188
198 198 198
198 198 198
198 198 198
198 198 198
198 198 198
198 198 198
198 198 198
198 198 198
165 165 165
165 165 165
165 165 165
165 165 165
165 165 165
165 165 165
165 165 165
165 165 165
152 152 152
152 152 152
152 152 152
152 152 152
152 152 152
152 152 152
152 152 152
152 152 152
137 137 137
137 137 137
137 137 137
137 137 137
137 137 137
137 137 137
137 137 137
137 137 137
152 152 152
152 152 152
152 152 152
152 152 152
152 152 152
152 152 152
152 152 152
152 152 152
165 165 165
165 165 165
165 165 165
165 165 165
165 165 165
165 165 165
165 165 165
165 165 165
177 177 177
177 177 177
177 177 177
177 177 177
177 177 177
177 177 177
177 177 177
177 177 177
188 188 188
188 188 188
188 188 188
188 188 188
188 188 188
188 188 188
188 188 188
188 188 188
198 198 198
198 198 198
198 198 198
198 198 198
198 198 198
198 198 198
198 198 198
198 198 198
165 165 165
165 165 165
165 165 165
165 165 165
165 165 165
165 165 165
165 165 165
165 165 165
152 152 152
152 152 152
152 152 152
152 152 152
152 152 152
152 152 152
152 152 152
152 152 152
137 137 137
137 137 137
137 137 137
137 137 137
137 137 137
137 137 137
137 137 137
137 137 137
152 152 152
152 152 152
152 152 152
152 152 152
152 152 152
152 152 152
152 152 152
152 152 152
165 165 165
165 165 165
165 165 165
165 165 165
165 165 165
165 165 165
165 165 165
165 165 165
177 177 177
177 177 177
177 177 177
177 177 177
177 177 177
177 177 177
177 177 177
177 177 177
188 188 188
188 188 188
188 188 188
188 188 188
188 188 188
188 188 188
188 188 188
188 188 188
198 198 198
198 198 198
198 198 198
198 198 198
198 198 198
198 198 198
198 198 198
198 198 198
165 165 165
165 165 165
165 165 165
165 165 165
165 165 165
165 165 165
165 165 165
165 165 165
152 152 152
152 152 152
152 152 152
152 152 152
152 152 152
152 152 152
152 152 152
152 152 152
137 137 137
137 137 137
137 137 137
137 137 137
137 137 137
137 137 137
137 137 137
137 137 137
152 152 152
152 152 152
152 152 152
152 152 152
152 152 152
152 152 152
152 152 152
152 152 152
165 165 165
165 165 165
165 165 165
165 165 165
165 165 165
165 165 165
165 165 165
165 165 165
177 177 177
177 177 177
177 177 177
177 177 177
177 177 177
177 177 177
177 177 177
177 177 177
188 188 188
188 188 188
188 188 188
188 188 188
188 188 188
188 188 188
188 188 188
188 188 188
198 198 198
198 198 198
198 198 198
198 198 198
198 198 198
198 198 198
198 198 198
198 198 198
165 165 165
165 165 165
165 165 165
165 165 165
165 165 165
165 165 165
165 165 165
165 165 165
152 152 152
152 152 152
152 152 152
152 152 152
152 152 152
152 152 152
152 152 152
152 152 152
137 137 137
137 137 137
137 137 137
137 137 137
137 137 137
137 137 137
137 137 137
137 137 137
152 152 152
152 152 152
152 152 152
152 152 152
152 152 152
152 152 152
152 152 152
152 152 152
165 165 165
165 165 165
165 165 165
165 165 165
165 165 165
165 165 165
165 165 165
165 165 165
177 177 177
177 177 177
177 177 177
177 177 177
177 177 177
177 177 177
177 177 177
177 177 177
188 188 188
188 188 188
188 188 188
188 188 188
188 188 188
188 188 188
188 188 188
188 188 188
198 198 198
198 198 198
198 198 198
198 198 198
198 198 198
198 198 198
198 198 198
198 198 198
165 165 165
165 165 165
165 165 165
165 165 165
165 165 165
165 165 165
165 165 165
165 165 165
152 152 152
152 152 152
152 152 152
152 152 152
152 152 152
152 152 152
152 152 152
152 152 152
137 137 137
137 137 137
137 137 137
137 137 137
137 137 137
137 137 137
137 137 137
137 137 137
152 152 152
152 152 152
152 152 152
152 152 152
152 152 152
152 152 152
152 152 152
152 152 152
165 165 165
165 165 165
165 165 165
165 165 165
165 165 165
165 165 165
165 165 165
165 165 165
177 177 177
177 177 177
177 177 177
177 177 177
177 177 177
177 177 177
177 177 177
177 177 177
188 188 188
188 188 188
188 188 188
188 188 188
188 188 188
188 188 188
188 188 188
188 188 188
198 198 198
198 198 198
198 198 198
198 198 198
198 198 198
198 198 198
198 198 198
198 198 198
165 165 165
165 165 165
165 165 165
165 165 165
165 165 165
165 165 165
165 165 165
165 165 165
152 152 152
152 152 152
152 152 152
152 152 152
152 152 152
152 152 152
152 152 152
152 152 152
137 137 137
137 137 137
137 137 137
137 137 137
137 137 137
137 137 137
137 137 137
137 137 137
152 152 152
152 152 152
152 152 152
152 152 152
152 152 152
152 152 152
152 152 152
152 152 152
165 165 165
165 165 165
165 165 165
165 165 165
165 165 165
165 165 165
165 165 165
165 165 165
177 177 177
177 177 177
177 177 177
177 177 177
177 177 177
177 177 177
177 177 177
177 177 177
188 188 188
188 188 188
188 188 188
188 188 188
188 188 188
188 188 188
188 188 188
188 188 188
198 198 198
198 198 198
198 198 198
198 198 198
198 198 198
198 198 198
198 198 198
198 198 198
165 165 165
165 165 165
165 165 165
165 165 165
165 165 165
165 165 165
165 165 165
165 165 165
152 152 152
152 152 152
152 152 152
152 152 152
152 152 152
152 152 152
152 152 152
152 152 152
137 137 137
137 137 137
137 137 137
137 137 137
137 137 137
137 137 137
137 137 137
137 137 137
152 152 152
152 152 152
152 152 152
152 152 152
152 152 152
152 152 152
152 152 152
152 152 152
165 165 165
165 165 165
165 165 165
165 165 165
165 165 165
165 165 165
165 165 165
165 165 165
177 177 177
177 177 177
177 177 177
177 177 177
177 177 177
177 177 177
177 177 177
177 177 177
188 188 188
188 188 188
188 188 188
188 188 188
188 188 188
188 188 188
188 188 188
188 188 188
198 198 198
198 198 198
198 198 198
198 198 198
198 198 198
198 198 198
198 198 198
198 198 198
165 165 165
165 165 165
165 165 165
165 165 165
165 165 165
165 165 165
165 165 165
165 165 165
152 152 152
152 152 152
152 152 152
152 152 152
152 152 152
152 152 152
152 152 152
152 152 152
137 137 137
137 137 137
137 137 137
137 137 137
137 137 137
137 137 137
137 137 137
137 137 137
152 152 152
152 152 152
152 152 152
152 152 152
152 152 152
152 152 152
152 152 152
152 152 152
165 165 165
165 165 165
165 165 165
165 165 165
165 165 165
165 165 165
165 165 165
165 165 165
177 177 177
177 177 177
177 177 177
177 177 177
177 177 177
177 177 177
177 177 177
177 177 177
188 188 188
188 188 188
188 188 188
188 188 188
188 188 188
188 188 188
188 188 188
188 188 188
198 198 198
198 198 198
198 198 198
198 198 198
198 198 198
198 198 198
198 198 198
198 198 198
165 165 165
165 165 165
165 165 165
165 165 165
165 165 165
165 165 165
165 165 165
165 165 165
152 152 152
152 152 152
152 152 152
152 152 152
152 152 152
152 152 152
152 152 152
152 152 152
137 137 137
137 137 137
137 137 137
137 137 137
137 137 137
137 137 137
137 137 137
137 137 137
152 152 152
152 152 152
152 152 152
152 152 152
152 152 152
152 152 152
152 152 152
152 152 152
165 165 165
165 165 165
165 165 165
165 165 165
165 165 165
165 165 165
165 165 165
165 165 165
177 177 177
177 177 177
177 177 177
177 177 177
177 177 177
177 177 177
177 177 177
177 177 177
188 188 188
188 188 188
188 188 188
188 188 188
188 188 188
188 188 188
188 188 188
188 188 188
198 198 198
198 198 198
198 198 198
198 198 198
198 198 198
198 198 198
198 198 198
198 198 198
165 165 165
165 165 165
165 165 165
165 165 165
165 165 165
165 165 165
165 165 165
165 165 165
152 152 152
152 152 152
152 152 152
152 152 152
152 152 152
152 152 152
152 152 152
152 152 152
137 137 137
137 137 137
137 137 137
137 137 137
137 137 137
137 137 137
137 137 137
137 137 137
152 152 152
152 152 152
152 152 152
152 152 152
152 152 152
152 152 152
152 152 152
152 152 152
165 165 165
165 165 165
165 165 165
165 165 165
165 165 165
165 165 165
165 165 165
165 165 165
177 177 177
177 177 177
177 177 177
177 177 177
177 177 177
177 177 177
177 177 177
177 177 177
188 188 188
188 188 188
188 188 188
188 188 188
188 188 188
188 188 188
188 188 188
188 188 188
198 198 198
198 198 198
198 198 198
198 198 198
198 198 198
198 198 198
198 198 198
198 198 198
165 165 165
165 165 165
165 165 165
165 165 165
165 165 165
165 165 165
165 165 165
165 165 165
152 152 152
152 152 152
152 152 152
152 152 152
152 152 152
152 152 152
152 152 152
152 152 152
137 137 137
137 137 137
137 137 137
137 137 137
137 137 137
137 137 137
137 137 137
137 137 137
152 152 152
152 152 152
152 152 152
152 152 152
152 152 152
152 152 152
152 152 152
152 152 152
165 165 165
165 165 165
165 165 165
165 165 165
165 165 165
165 165 165
165 165 165
165 165 165
177 177 177
177 177 177
177 177 177
177 177 177
177 177 177
177 177 177
177 177 177
177 177 177
188 188 188
188 188 188
188 188 188
188 188 188
188 188 188
188 188 188
188 188 188
188 188 188
198 198 198
198 198 198
198 198 198
198 198 198
198 198 198
198 198 198
198 198 198
198 198 198
165 165 165
165 165 165
165 165 165
165 165 165
165 165 165
165 165 165
165 165 165
165 165 165
152 152 152
152 152 152
152 152 152
152 152 152
152 152 152
152 152 152
152 152 152
152 152 152
137 137 137
137 137 137
137 137 137
137 137 137
137 137 137
137 137 137
137 137 137
137 137 137
152 152 152
152 152 152
152 152 152
152 152 152
152 152 152
152 152 152
152 152 152
152 152 152
165 165 165
165 165 165
165 165 165
165 165 165
165 165 165
165 165 165
165 165 165
165 165 165
177 177 177
177 177 177
177 177 177
177 177 177
177 177 177
177 177 177
177 177 177
177 177 177
188 188 188
188 188 188
188 188 188
188 188 188
188 188 188
188 188 188
188 188 188
188 188 188
198 198 198
198 198 198
198 198 198
198 198 198
198 198 198
198 198 198
198 198 198
198 198 198
165 165 165
165 165 165
165 165 165
165 165 165
165 165 165
165 165 165
165 165 165
165 165 165
152 152 152
152 152 152
152 152 152
152 152 152
152 152 152
152 152 152
152 152 152
152 152 152
137 137 137
137 137 137
137 137 137
137 137 137
137 137 137
137 137 137
137 137 137
137 137 137
152 152 152
152 152 152
152 152 152
152 152 152
152 152 152
152 152 152
152 152 152
152 152 152
165 165 165
165 165 165
165 165 165
165 165 165
165 165 165
165 165 165
165 165 165
165 165 165
177 177 177
177 177 177
177 177 177
177 177 177
177 177 177
177 177 177
177 177 177
177 177 177
188 188 188
188 188 188
188 188 188
188 188 188
188 188 188
188 188 188
188 188 188
188 188 188
198 198 198
198 198 198
198 198 198
198 198 198
198 198 198
198 198 198
198 198 198
198 198 198
165 165 165
165 165 165
165 165 165
165 165 165
165 165 165
165 165 165
165 165 165
165 165 165
152 152 152
152 152 152
152 152 152
152 152 152
152 152 152
152 152 152
152 152 152
152 152 152
137 137 137
137 137 137
137 137 137
137 137 137
137 137 137
137 137 137
137 137 137
137 137 137
152 152 152
152 152 152
152 152 152
152 152 152
152 152 152
152 152 152
152 152 152
152 152 152
165 165 165
165 165 165
165 165 165
165 165 165
165 165 165
165 165 165
165 165 165
165 165 165
177 177 177
177 177 177
177 177 177
177 177 177
177 177 177
177 177 177
177 177 177
177 177 177
188 188 188
188 188 188
188 188 188
188 188 188
188 188 188
188 188 188
188 188 188
188 188 188
198 198 198
198 198 198
198 198 198
198 198 198
198 198 198
198 198 198
198 198 198
198 198 198
165 165 165
165 165 165
165 165 165
165 165 165
165 165 165
165 165 165
165 165 165
165 165 165
152 152 152
152 152 152
152 152 152
152 152 152
152 152 152
152 152 152
152 152 152
152 152 152
137 137 137
137 137 137
137 137 137
137 137 137
137 137 137
137 137 137
137 137 137
137 137 137
152 152 152
152 152 152
152 152 152
152 152 152
152 152 152
152 152 152
152 152 152
152 152 152
165 165 165
165 165 165
165 165 165
165 165 165
165 165 165
165 165 165
165 165 165
165 165 165
177 177 177
177 177 177
177 177 177
177 177 177
177 177 177
177 177 177
177 177 177
177 177 177
188 188 188
188 188 188
188 188 188
188 188 188
188 188 188
188 188 188
188 188 188
188 188 188
198 198 198
198 198 198
198 198 198
198 198 198
198 198 198
198 198 198
198 198 198
198 198 198
165 165 165
165 165 165
165 165 165
165 165 165
165 165 165
165 165 165
165 165 165
165 165 165
152 152 152
152 152 152
152 152 152
152 152 152
152 152 152
152 152 152
152 152 152
152 152 152
137 137 137
137 137 137
137 137 137
137 137 137
137 137 137
137 137 137
137 137 137
137 137 137
152 152 152
152 152 152
152 152 152
152 152 152
152 152 152
152 152 152
152 152 152
152 152 152
165 165 165
165 165 165
165 165 165
165 165 165
165 165 165
165 165 165
165 165 165
165 165 165
177 177 177
177 177 177
177 177 177
177 177 177
177 177 177
177 177 177
177 177 177
177 177 177
188 188 188
188 188 188
188 188 188
188 188 188
188 188 188
188 188 188
188 188 188
188 188 188
198 198 198
198 198 198
198 198 198
198 198 198
198 198 198
198 198 198
198 198 198
198 198 198
165 165 165
165 165 165
165 165 165
165 165 165
165 165 165
165 165 165
165 165 165
165 165 165
152 152 152
152 152 152
152 152 152
152 152 152
152 152 152
152 152 152
152 152 152
152 152 152
137 137 137
137 137 137
137 137 137
137 137 137
137 137 137
137 137 137
137 137 137
137 137 137
152 152 152
152 152 152
152 152 152
152 152 152
152 152 152
152 152 152
152 152 152
152 152 152
165 165 165
165 165 165
165 165 165
165 165 165
165 165 165
165 165 165
165 165 165
165 165 165
177 177 177
177 177 177
177 177 177
177 177 177
177 177 177
177 177 177
177 177 177
177 177 177
188 188 188
188 188 188
188 188 188
188 188 188
188 188 188
188 188 188
188 188 188
188 188 188
198 198 198
198 198 198
198 198 198
198 198 198
198 198 198
198 198 198
198 198 198
198 198 198
165 165 165
165 165 165
165 165 165
165 165 165
165 165 165
165 165 165
165 165 165
165 165 165
152 152 152
152 152 152
152 152 152
152 152 152
152 152 152
152 152 152
152 152 152
152 152 152
137 137 137
137 137 137
137 137 137
137 137 137
137 137 137
137 137 137
137 137 137
137 137 137
152 152 152
152 152 152
152 152 152
152 152 152
152 152 152
152 152 152
152 152 152
152 152 152
165 165 165
165 165 165
165 165 165
165 165 165
165 165 165
165 165 165
165 165 165
165 165 165
177 177 177
177 177 177
177 177 177
177 177 177
177 177 177
177 177 177
177 177 177
177 177 177
188 188 188
188 188 188
188 188 188
188 188 188
188 188 188
188 188 188
188 188 188
188 188 188
198 198 198
198 198 198
198 198 198
198 198 198
198 198 198
198 198 198
198 198 198
198 198 198
165 165 165
165 165 165
165 165 165
165 165 165
165 165 165
165 165 165
165 165 165
165 165 165
152 152 152
152 152 152
152 152 152
152 152 152
152 152 152
152 152 152
152 152 152
152 152 152
137 137 137
137 137 137
137 137 137
137 137 137
137 137 137
137 137 137
137 137 137
137 137 137
152 152 152
152 152 152
152 152 152
152 152 152
152 152 152
152 152 152
152 152 152
152 152 152
165 165 165
165 165 165
165 165 165
165 165 165
165 165 165
165 165 165
165 165 165
165 165 165
177 177 177
177 177 177
177 177 177
177 177 177
177 177 177
177 177 177
177 177 177
177 177 177
188 188 188
188 188 188
188 188 188
188 188 188
188 188 188
188 188 188
188 188 188
188 188 188
198 198 198
198 198 198
198 198 198
198 198 198
198 198 198
198 198 198
198 198 198
198 198 198
165 165 165
165 165 165
165 165 165
165 165 165
165 165 165
165 165 165
165 165 165
165 165 165
152 152 152
152 152 152
152 152 152
152 152 152
152 152 152
152 152 152
152 152 152
152 152 152
137 137 137
137 137 137
137 137 137
137 137 137
137 137 137
137 137 137
137 137 137
137 137 137
152 152 152
152 152 152
152 152 152
152 152 152
152 152 152
152 152 152
152 152 152
152 152 152
165 165 165
165 165 165
165 165 165
165 165 165
165 165 165
165 165 165
165 165 165
165 165 165
177 177 177
177 177 177
177 177 177
177 177 177
177 177 177
177 177 177
177 177 177
177 177 177
188 188 188
188 188 188
188 188 188
188 188 188
188 188 188
188 188 188
188 188 188
188 188 188
198 198 198
198 198 198
198 198 198
198 198 198
198 198 198
198 198 198
198 198 198
198 198 198
165 165 165
165 165 165
165 165 165
165 165 165
165 165 165
165 165 165
165 165 165
165 165 165
152 152 152
152 152 152
152 152 152
152 152 152
152 152 152
152 152 152
152 152 152
152 152 152
137 137 137
137 137 137
137 137 137
137 137 137
137 137 137
137 137 137
137 137 137
137 137 137
152 152 152
152 152 152
152 152 152
152 152 152
152 152 152
152 152 152
152 152 152
152 152 152
165 165 165
165 165 165
165 165 165
165 165 165
165 165 165
165 165 165
165 165 165
165 165 165
177 177 177
177 177 177
177 177 177
177 177 177
177 177 177
177 177 177
177 177 177
177 177 177
188 188 188
188 188 188
188 188 188
188 188 188
188 188 188
188 188 188
188 188 188
188 188 188
198 198 198
198 198 198
198 198 198
198 198 198
198 198 198
198 198 198
198 198 198
198 198 198
165 165 165
165 165 165
165 165 165
165 165 165
165 165 165
165 165 165
165 165 165
165 165 165
152 152 152
152 152 152
152 152 152
152 152 152
152 152 152
152 152 152
152 152 152
152 152 152
137 137 137
137 137 137
137 137 137
137 137 137
137 137 137
137 137 137
137 137 137
137 137 137
152 152 152
152 152 152
152 152 152
152 152 152
152 152 152
152 152 152
152 152 152
152 152 152
165 165 165
165 165 165
165 165 165
165 165 165
165 165 165
165 165 165
165 165 165
165 165 165
177 177 177
177 177 177
177 177 177
177 177 177
177 177 177
177 177 177
177 177 177
177 177 177
188 188 188
188 188 188
188 188 188
188 188 188
188 188 188
188 188 188
188 188 188
188 188 188
198 198 198
198 198 198
198 198 198
198 198 198
198 198 198
198 198 198
198 198 198
198 198 198
165 165 165
165 165 165
165 165 165
165 165 165
165 165 165
165 165 165
165 165 165
165 165 165
152 152 152
152 152 152
152 152 152
152 152 152
152 152 152
152 152 152
152 152 152
152 152 152
137 137 137
137 137 137
137 137 137
137 137 137
137 137 137
137 137 137
137 137 137
137 137 137
152 152 152
152 152 152
152 152 152
152 152 152
152 152 152
152 152 152
152 152 152
152 152 152
165 165 165
165 165 165
165 165 165
165 165 165
165 165 165
165 165 165
165 165 165
165 165 165
177 177 177
177 177 177
177 177 177
177 177 177
177 177 177
177 177 177
177 177 177
177 177 177
188 188 188
188 188 188
188 188 188
188 188 188
188 188 188
188 188 188
188 188 188
188 188 188
198 198 198
198 198 198
198 198 198
198 198 198
198 198 198
198 198 198
198 198 198
198 198 198
165 165 165
165 165 165
165 165 165
165 165 165
165 165 165
165 165 165
165 165 165
165 165 165
152 152 152
152 152 152
152 152 152
152 152 152
152 152 152
152 152 152
152 152 152
152 152 152
137 137 137
137 137 137
137 137 137
137 137 137
137 137 137
137 137 137
137 137 137
137 137 137
152 152 152
152 152 152
152 152 152
152 152 152
152 152 152
152 152 152
152 152 152
152 152 152
165 165 165
165 165 165
165 165 165
165 165 165
165 165 165
165 165 165
165 165 165
165 165 165
177 177 177
177 177 177
177 177 177
177 177 177
177 177 177
177 177 177
177 177 177
177 177 177
188 188 188
188 188 188
188 188 188
188 188 188
188 188 188
188 188 188
188 188 188
188 188 188
198 198 198
198 198 198
198 198 198
198 198 198
198 198 198
198 198 198
198 198 198
198 198 198
165 165 165
165 165 165
165 165 165
165 165 165
165 165 165
165 165 165
165 165 165
165 165 165
152 152 152
152 152 152
152 152 152
152 152 152
152 152 152
152 152 152
152 152 152
152 152 152
137 137 137
137 137 137
137 137 137
137 137 137
137 137 137
137 137 137
137 137 137
137 137 137
152 152 152
152 152 152
152 152 152
152 152 152
152 152 152
152 152 152
152 152 152
152 152 152
165 165 165
165 165 165
165 165 165
165 165 165
165 165 165
165 165 165
165 165 165
165 165 165
177 177 177
177 177 177
177 177 177
177 177 177
177 177 177
177 177 177
177 177 177
177 177 177
188 188 188
188 188 188
188 188 188
188 188 188
188 188 188
188 188 188
188 188 188
188 188 188
198 198 198
198 198 198
198 198 198
198 198 198
198 198 198
198 198 198
198 198 198
198 198 198
165 165 165
165 165 165
165 165 165
165 165 165
165 165 165
165 165 165
165 165 165
165 165 165
152 152 152
152 152 152
152 152 152
152 152 152
152 152 152
152 152 152
152 152 152
152 152 152
137 137 137
137 137 137
137 137 137
137 137 137
137 137 137
137 137 137
137 137 137
137 137 137
152 152 152
152 152 152
152 152 152
152 152 152
152 152 152
152 152 152
152 152 152
152 152 152
165 165 165
165 165 165
165 165 165
165 165 165
165 165 165
165 165 165
165 165 165
165 165 165
177 177 177
177 177 177
177 177 177
177 177 177
177 177 177
177 177 177
177 177 177
177 177 177
188 188 188
188 188 188
188 188 188
188 188 188
188 188 188
188 188 188
188 188 188
188 188 188
198 198 198
198 198 198
198 198 198
198 198 198
198 198 198
198 198 198
198 198 198
198 198 198
165 165 165
165 165 165
165 165 165
165 165 165
165 165 165
165 165 165
165 165 165
165 165 165
152 152 152
152 152 152
152 152 152
152 152 152
152 152 152
152 152 152
152 152 152
152 152 152
137 137 137
137 137 137
137 137 137
137 137 137
137 137 137
137 137 137
137 137 137
137 137 137
152 152 152
152 152 152
152 152 152
152 152 152
152 152 152
152 152 152
152 152 152
152 152 152
165 165 165
165 165 165
165 165 165
165 165 165
165 165 165
165 165 165
165 165 165
165 165 165
177 177 177
177 177 177
177 177 177
177 177 177
177 177 177
177 177 177
177 177 177
177 177 177
188 188 188
188 188 188
188 188 188
188 188 188
188 188 188
188 188 188
188 188 188
188 188 188
198 198 198
198 198 198
198 198 198
198 198 198
198 198 198
198 198 198
198 198 198
198 198 198
165 165 165
165 165 165
165 165 165
165 165 165
165 165 165
165 165 165
165 165 165
165 165 165
152 152 152
152 152 152
152 152 152
152 152 152
152 152 152
152 152 152
152 152 152
152 152 152
137 137 137
137 137 137
137 137 137
137 137 137
137 137 137
137 137 137
137 137 137
137 137 137
152 152 152
152 152 152
152 152 152
152 152 152
152 152 152
152 152 152
152 152 152
152 152 152
165 165 165
165 165 165
165 165 165
165 165 165
165 165 165
165 165 165
165 165 165
165 165 165
177 177 177
177 177 177
177 177 177
177 177 177
177 177 177
177 177 177
177 177 177
177 177 177
188 188 188
188 188 188
188 188 188
188 188 188
188 188 188
188 188 188
188 188 188
188 188 188
198 198 198
198 198 198
198 198 198
198 198 198
198 198 198
198 198 198
198 198 198
198 198 198
165 165 165
165 165 165
165 165 165
165 165 165
165 165 165
165 165 165
165 165 165
165 165 165
152 152 152
152 152 152
152 152 152
152 152 152
152 152 152
152 152 152
152 152 152
152 152 152
137 137 137
137 137 137
137 137 137
137 137 137
137 137 137
137 137 137
137 137 137
137 137 137
152 152 152
152 152 152
152 152 152
152 152 152
152 152 152
152 152 152
152 152 152
152 152 152
165 165 165
165 165 165
165 165 165
165 165 165
165 165 165
165 165 165
165 165 165
165 165 165
177 177 177
177 177 177
177 177 177
177 177 177
177 177 177
177 177 177
177 177 177
177 177 177
188 188 188
188 188 188
188 188 188
188 188 188
188 188 188
188 188 188
188 188 188
188 188 188
198 198 198
198 198 198
198 198 198
198 198 198
198 198 198
198 198 198
198 198 198
198 198 198
165 165 165
165 165 165
165 165 165
165 165 165
165 165 165
165 165 165
165 165 165
165 165 165
152 152 152
152 152 152
152 152 152
152 152 152
152 152 152
152 152 152
152 152 152
152 152 152
137 137 137
137 137 137
137 137 137
137 137 137
137 137 137
137 137 137
137 137 137
137 137 137
152 152 152
152 152 152
152 152 152
152 152 152
152 152 152
152 152 152
152 152 152
152 152 152
165 165 165
165 165 165
165 165 165
165 165 165
165 165 165
165 165 165
165 165 165
165 165 165
177 177 177
177 177 177
177 177 177
177 177 177
177 177 177
177 177 177
177 177 177
177 177 177
188 188 188
188 188 188
188 188 188
188 188 188
188 188 188
188 188 188
188 188 188
188 188 188
198 198 198
198 198 198
198 198 198
198 198 198
198 198 198
198 198 198
198 198 198
198 198 198
165 165 165
165 165 165
165 165 165
165 165 165
165 165 165
165 165 165
165 165 165
165 165 165
152 152 152
152 152 152
152 152 152
152 152 152
152 152 152
152 152 152
152 152 152
152 152 152
137 137 137
137 137 137
137 137 137
137 137 137
137 137 137
137 137 137
137 137 137
137 137 137
152 152 152
152 152 152
152 152 152
152 152 152
152 152 152
152 152 152
152 152 152
152 152 152
165 165 165
165 165 165
165 165 165
165 165 165
165 165 165
165 165 165
165 165 165
165 165 165
177 177 177
177 177 177
177 177 177
177 177 177
177 177 177
177 177 177
177 177 177
177 177 177
188 188 188
188 188 188
188 188 188
188 188 188
188 188 188
188 188 188
188 188 188
188 188 188
198 198 198
198 198 198
198 198 198
198 198 198
198 198 198
198 198 198
198 198 198
198 198 198
165 165 165
165 165 165
165 165 165
165 165 165
165 165 165
165 165 165
165 165 165
165 165 165
152 152 152
152 152 152
152 152 152
152 152 152
152 152 152
152 152 152
152 152 152
152 152 152
137 137 137
137 137 137
137 137 137
137 137 137
137 137 137
137 137 137
137 137 137
137 137 137
152 152 152
152 152 152
152 152 152
152 152 152
152 152 152
152 152 152
152 152 152
152 152 152
165 165 165
165 165 165
165 165 165
165 165 165
165 165 165
165 165 165
165 165 165
165 165 165
177 177 177
177 177 177
177 177 177
177 177 177
177 177 177
177 177 177
177 177 177
177 177 177
188 188 188
188 188 188
188 188 188
188 188 188
188 188 188
188 188 188
188 188 188
188 188 188
198 198 198
198 198 198
198 198 198
198 198 198
198 198 198
198 198 198
198 198 198
198 198 198
165 165 165
165 165 165
165 165 165
165 165 165
165 165 165
165 165 165
165 165 165
165 165 165
152 152 152
152 152 152
152 152 152
152 152 152
152 152 152
152 152 152
152 152 152
152 152 152
137 137 137
137 137 137
137 137 137
137 137 137
137 137 137
137 137 137
137 137 137
137 137 137
152 152 152
152 152 152
152 152 152
152 152 152
152 152 152
152 152 152
152 152 152
152 152 152
165 165 165
165 165 165
165 165 165
165 165 165
165 165 165
165 165 165
165 165 165
165 165 165
177 177 177
177 177 177
177 177 177
177 177 177
177 177 177
177 177 177
177 177 177
177 177 177
188 188 188
188 188 188
188 188 188
188 188 188
188 188 188
188 188 188
188 188 188
188 188 188
198 198 198
198 198 198
198 198 198
198 198 198
198 198 198
198 198 198
198 198 198
198 198 198
165 165 165
165 165 165
165 165 165
165 165 165
165 165 165
165 165 165
165 165 165
165 165 165
152 152 152
152 152 152
152 152 152
152 152 152
152 152 152
152 152 152
152 152 152
152 152 152
137 137 137
137 137 137
137 137 137
137 137 137
137 137 137
137 137 137
137 137 137
137 137 137
152 152 152
152 152 152
152 152 152
152 152 152
152 152 152
152 152 152
152 152 152
152 152 152
165 165 165
165 165 165
165 165 165
165 165 165
165 165 165
165 165 165
165 165 165
165 165 165
177 177 177
177 177 177
177 177 177
177 177 177
177 177 177
177 177 177
177 177 177
177 177 177
188 188 188
188 188 188
188 188 188
188 188 188
188 188 188
188 188 188
188 188 188
188 188 188
198 198 198
198 198 198
198 198 198
198 198 198
198 198 198
198 198 198
198 198 198
198 198 198
165 165 165
165 165 165
165 165 165
165 165 165
165 165 165
165 165 165
165 165 165
165 165 165
152 152 152
152 152 152
152 152 152
152 152 152
152 152 152
152 152 152
152 152 152
152 152 152
137 137 137
137 137 137
137 137 137
137 137 137
137 137 137
137 137 137
137 137 137
137 137 137
152 152 152
152 152 152
152 152 152
152 152 152
152 152 152
152 152 152
152 152 152
152 152 152
165 165 165
165 165 165
165 165 165
165 165 165
165 165 165
165 165 165
165 165 165
165 165 165
177 177 177
177 177 177
177 177 177
177 177 177
177 177 177
177 177 177
177 177 177
177 177 177
188 188 188
188 188 188
188 188 188
188 188 188
188 188 188
188 188 188
188 188 188
188 188 188
198 198 198
198 198 198
198 198 198
198 198 198
198 198 198
198 198 198
198 198 198
198 198 198
165 165 165
165 165 165
165 165 165
165 165 165
165 165 165
165 165 165
165 165 165
165 165 165
152 152 152
152 152 152
152 152 152
152 152 152
152 152 152
152 152 152
152 152 152
152 152 152
137 137 137
137 137 137
137 137 137
137 137 137
137 137 137
137 137 137
137 137 137
137 137 137
152 152 152
152 152 152
152 152 152
152 152 152
152 152 152
152 152 152
152 152 152
152 152 152
165 165 165
165 165 165
165 165 165
165 165 165
165 165 165
165 165 165
165 165 165
165 165 165
177 177 177
177 177 177
177 177 177
177 177 177
177 177 177
177 177 177
177 177 177
177 177 177
188 188 188
188 188 188
188 188 188
188 188 188
188 188 188
188 188 188
188 188 188
188 188 188
198 198 198
198 198 198
198 198 198
198 198 198
198 198 198
198 198 198
198 198 198
198 198 198
165 165 165
165 165 165
165 165 165
165 165 165
165 165 165
165 165 165
165 165 165
165 165 165
152 152 152
152 152 152
152 152 152
152 152 152
152 152 152
152 152 152
152 152 152
152 152 152
137 137 137
137 137 137
137 137 137
137 137 137
137 137 137
137 137 137
137 137 137
137 137 137
152 152 152
152 152 152
152 152 152
152 152 152
152 152 152
152 152 152
152 152 152
152 152 152
165 165 165
165 165 165
165 165 165
165 165 165
165 165 165
165 165 165
165 165 165
165 165 165
177 177 177
177 177 177
177 177 177
177 177 177
177 177 177
177 177 177
177 177 177
177 177 177
188 188 188
188 188 188
188 188 188
188 188 188
188 188 188
188 188 188
188 188 188
188 188 188
198 198 198
198 198 198
198 198 198
198 198 198
198 198 198
198 198 198
198 198 198
198 198 198
165 165 165
165 165 165
165 165 165
165 165 165
165 165 165
165 165 165
165 165 165
165 165 165
152 152 152
152 152 152
152 152 152
152 152 152
152 152 152
152 152 152
152 152 152
152 152 152
137 137 137
137 137 137
137 137 137
137 137 137
137 137 137
137 137 137
137 137 137
137 137 137
152 152 152
152 152 152
152 152 152
152 152 152
152 152 152
152 152 152
152 152 152
152 152 152
165 165 165
165 165 165
165 165 165
165 165 165
165 165 165
165 165 165
165 165 165
165 165 165
177 177 177
177 177 177
177 177 177
177 177 177
177 177 177
177 177 177
177 177 177
177 177 177
188 188 188
188 188 188
188 188 188
188 188 188
188 188 188
188 188 188
188 188 188
188 188 188
198 198 198
198 198 198
198 198 198
198 198 198
198 198 198
198 198 198
198 198 198
198 198 198
165 165 165
165 165 165
165 165 165
165 165 165
165 165 165
165 165 165
165 165 165
165 165 165
152 152 152
152 152 152
152 152 152
152 152 152
152 152 152
152 152 152
152 152 152
152 152 152
137 137 137
137 137 137
137 137 137
137 137 137
137 137 137
137 137 137
137 137 137
137 137 137
152 152 152
152 152 152
152 152 152
152 152 152
152 152 152
152 152 152
152 152 152
152 152 152
165 165 165
165 165 165
165 165 165
165 165 165
165 165 165
165 165 165
165 165 165
165 165 165
177 177 177
177 177 177
177 177 177
177 177 177
177 177 177
177 177 177
177 177 177
177 177 177
188 188 188
188 188 188
188 188 188
188 188 188
188 188 188
188 188 188
188 188 188
188 188 188
198 198 198
198 198 198
198 198 198
198 198 198
198 198 198
198 198 198
198 198 198
198 198 198
165 165 165
165 165 165
165 165 165
165 165 165
165 165 165
165 165 165
165 165 165
165 165 165
152 152 152
152 152 152
152 152 152
152 152 152
152 152 152
152 152 152
152 152 152
152 152 152
137 137 137
137 137 137
137 137 137
137 137 137
137 137 137
137 137 137
137 137 137
137 137 137
152 152 152
152 152 152
152 152 152
152 152 152
152 152 152
152 152 152
152 152 152
152 152 152
165 165 165
165 165 165
165 165 165
165 165 165
165 165 165
165 165 165
165 165 165
165 165 165
177 177 177
177 177 177
177 177 177
177 177 177
177 177 177
177 177 177
177 177 177
177 177 177
188 188 188
188 188 188
188 188 188
188 188 188
188 188 188
188 188 188
188 188 188
188 188 188
198 198 198
198 198 198
198 198 198
198 198 198
198 198 198
198 198 198
198 198 198
198 198 198
165 165 165
165 165 165
165 165 165
165 165 165
165 165 165
165 165 165
165 165 165
165 165 165
152 152 152
152 152 152
152 152 152
152 152 152
152 152 152
152 152 152
152 152 152
152 152 152
137 137 137
137 137 137
137 137 137
137 137 137
137 137 137
137 137 137
137 137 137
137 137 137
152 152 152
152 152 152
152 152 152
152 152 152
152 152 152
152 152 152
152 152 152
152 152 152
165 165 165
165 165 165
165 165 165
165 165 165
165 165 165
165 165 165
165 165 165
165 165 165
177 177 177
177 177 177
177 177 177
177 177 177
177 177 177
177 177 177
177 177 177
177 177 177
188 188 188
188 188 188
188 188 188
188 188 188
188 188 188
188 188 188
188 188 188
188 188 188
198 198 198
198 198 198
198 198 198
198 198 198
198 198 198
198 198 198
198 198 198
198 198 198
165 165 165
165 165 165
165 165 165
165 165 165
165 165 165
165 165 165
165 165 165
165 165 165
152 152 152
152 152 152
152 152 152
152 152 152
152 152 152
152 152 152
152 152 152
152 152 152
137 137 137
137 137 137
137 137 137
137 137 137
137 137 137
137 137 137
137 137 137
137 137 137
152 152 152
152 152 152
152 152 152
152 152 152
152 152 152
152 152 152
152 152 152
152 152 152
165 165 165
165 165 165
165 165 165
165 165 165
165 165 165
165 165 165
165 165 165
165 165 165
177 177 177
177 177 177
177 177 177
177 177 177
177 177 177
177 177 177
177 177 177
177 177 177
188 188 188
188 188 188
188 188 188
188 188 188
188 188 188
188 188 188
188 188 188
188 188 188
198 198 198
198 198 198
198 198 198
198 198 198
198 198 198
198 198 198
198 198 198
198 198 198
