P3
64 64
255
188 188 188
188 188 188
188 188 188
188 188 188
188 188 188
188 188 188
188 188 188
188 188 188
188 188 188
188 188 188
188 188 188
188 188 188
188 188 188
188 188 188
188 188 188
188 188 188
188 188 188
188 188 188
188 188 188
188 188 188
188 188 188
188 188 188
188 188 188
188 188 188
188 188 188
188 188 188
188 188 188
188 188 188
188 188 188
188 188 188
188 188 188
188 188 188
188 188 188
188 188 188
188 188 188
188 188 188
188 188 188
188 188 188
188 188 188
188 188 188
188 188 188
188 188 188
188 188 188
188 188 188
188 188 188
188 188 188
188 188 188
188 188 188
188 188 188
188 188 188
188 188 188
188 188 188
188 188 188
188 188 188
188 188 188
188 188 188
188 188 188
188 188 188
188 188 188
188 188 188
188 188 188
188 188 188
188 188 188
188 188 188
188 188 188
188 188 188
188 188 188
188 188 188
188 188 188
188 188 188
188 188 188
188 188 188
188 188 188
188 188 188
188 188 188
188 188 188
188 188 188
188 188 188
188 188 188
188 188 188
188 188 188
188 188 188
188 188 188
188 188 188
188 188 188
188 188 188
188 188 188
188 188 188
188 188 188
188 188 188
188 188 188
188 188 188
188 188 188
188 188 188
188 188 188
188 188 188
188 188 188
188 188 188
188 188 188
188 188 188
188 188 188
188 188 188
188 188 188
188 188 188
188 188 188
188 188 188
188 188 188
188 188 188
188 188 188
188 188 188
188 188 188
188 188 188
188 188 188
188 188 188
188 188 188
188 188 188
188 188 188
188 188 188
188 188 188
188 188 188
188 188 188
188 188 188
188 188 188
188 188 188
188 188 188
188 188 188
188 188 188
188 188 188
188 188 188
188 188 188
188 188 188
188 188 188
188 188 188
188 188 188
188 188 188
188 188 188
188 188 188
188 188 188
188 188 188
188 188 188
188 188 188
188 188 188
188 188 188
188 188 188
188 188 188
188 188 188
188 188 188
188 188 188
188 188 188
188 188 188
188 188 188
188 188 188
188 188 188
188 188 188
188 188 188
188 188 188
188 188 188
188 188 188
188 188 188
188 188 188
188 188 188
188 188 188
188 188 188
188 188 188
188 188 188
188 188 188
188 188 188
188 188 188
188 188 188
188 188 188
188 188 188
188 188 188
188 188 188
188 188 188
188 188 188
188 188 188
188 188 188
188 188 188
188 188 188
188 188 188
188 188 188
188 188 188
188 188 188
188 188 188
188 188 188
188 188 188
188 188 188
188 188 188
188 188 188
188 188 188
188 188 188
188 188 188
188 188 188
188 188 188
188 188 188
188 188 188
188 188 188
188 188 188
188 188 188
188 188 188
188 188 188
188 188 188
188 188 188
188 188 188
188 188 188
188 188 188
188 188 188
188 188 188
188 188 188
188 188 188
188 188 188
188 188 188
188 188 188
188 188 188
188 188 188
188 188 188
188 188 188
188 188 188
188 188 188
188 188 188
188 188 188
188 188 188
188 188 188
188 188 188
188 188 188
188 188 188
188 188 188
188 188 188
188 188 188
188 188 188
188 188 188
188 188 188
188 188 188
188 188 188
188 188 188
188 188 188
188 188 188
188 188 188
188 188 188
188 188 188
188 188 188
188 188 188
188 188 188
188 188 188
188 188 188
188 188 188
188 188 188
188 188 188
188 188 188
188 188 188
188 188 188
188 188 188
188 188 188
188 188 188
188 188 188
188 188 188
188 188 188
188 188 188
188 188 188
188 188 188
188 188 188
188 188 188
188 188 188
188 188 188
188 188 188
188 188 188
188 188 188
188 188 188
188 188 188
188 188 188
188 188 188
188 188 188
188 188 188
188 188 188
188 188 188
188 188 188
188 188 188
188 188 188
188 188 188
188 188 188
188 188 188
188 188 188
188 188 188
188 188 188
188 188 188
188 188 188
188 188 188
188 188 188
188 188 188
188 188 188
188 188 188
188 188 188
188 188 188
188 188 188
188 188 188
188 188 188
188 188 188
188 188 188
188 188 188
188 188 188
188 188 188
188 188 188
188 188 188
188 188 188
188 188 188
188 188 188
188 188 188
188 188 188
188 188 188
188 188 188
188 188 188
188 188 188
188 188 188
188 188 188
188 188 188
188 188 188
188 188 188
188 188 188
188 188 188
188 188 188
188 188 188
188 188 188
188 188 188
188 188 188
188 188 188
188 188 188
188 188 188
188 188 188
188 188 188
188 188 188
188 188 188
188 188 188
188 188 188
188 188 188
188 188 188
188 188 188
188 188 188
188 188 188
188 188 188
188 188 188
188 188 188
188 188 188
188 188 188
188 188 188
188 188 188
188 188 188
188 188 188
188 188 188
188 188 188
188 188 188
188 188 188
188 188 188
188 188 188
188 188 188
188 188 188
188 188 188
188 188 188
188 188 188
188 188 188
188 188 188
188 188 188
188 188 188
188 188 188
188 188 188
188 188 188
188 188 188
188 188 188
188 188 188
188 188 188
188 188 188
188 188 188
188 188 188
188 188 188
188 188 188
188 188 188
188 188 188
188 188 188
188 188 188
188 188 188
188 188 188
188 188 188
188 188 188
188 188 188
188 188 188
188 188 188
188 188 188
188 188 188
188 188 188
188 188 188
188 188 188
188 188 188
188 188 188
188 188 188
188 188 188
188 188 188
188 188 188
188 188 188
188 188 188
188 188 188
188 188 188
188 188 188
188 188 188
188 188 188
188 188 188
188 188 188
188 188 188
188 188 188
188 188 188
188 188 188
188 188 188
188 188 188
188 188 188
188 188 188
188 188 188
188 188 188
188 188 188
188 188 188
188 188 188
188 188 188
188 188 188
188 188 188
188 188 188
188 188 188
188 188 188
188 188 188
188 188 188
188 188 188
188 188 188
188 188 188
188 188 188
188 188 188
188 188 188
188 188 188
188 188 188
188 188 188
188 188 188
188 188 188
188 188 188
188 188 188
188 188 188
188 188 188
188 188 188
188 188 188
188 188 188
188 188 188
188 188 188
188 188 188
188 188 188
188 188 188
188 188 188
188 188 188
188 188 188
188 188 188
188 188 188
188 188 188
188 188 188
188 188 188
188 188 188
188 188 188
188 188 188
188 188 188
188 188 188
188 188 188
188 188 188
188 188 188
188 188 188
188 188 188
188 188 188
188 188 188
188 188 188
188 188 188
188 188 188
188 188 188
188 188 188
188 188 188
188 188 188
188 188 188
188 188 188
188 188 188
188 188 188
188 188 188
188 188 188
188 188 188
188 188 188
188 188 188
188 188 188
188 188 188
188 188 188
188 188 188
188 188 188
188 188 188
188 188 188
188 188 188
188 188 188
188 188 188
188 188 188
188 188 188
188 188 188
188 188 188
188 188 188
188 188 188
188 188 188
188 188 188
188 188 188
188 188 188
188 188 188
188 188 188
188 188 188
188 188 188
188 188 188
188 188 188
188 188 188
188 188 188
188 188 188
188 188 188
188 188 188
188 188 188
188 188 188
188 188 188
188 188 188
188 188 188
188 188 188
188 188 188
188 188 188
188 188 188
188 188 188
188 188 188
188 188 188
188 188 188
188 188 188
188 188 188
188 188 188
188 188 188
188 188 188
188 188 188
188 188 188
188 188 188
188 188 188
188 188 188
188 188 188
188 188 188
188 188 188
188 188 188
188 188 188
188 188 188
188 188 188
188 188 188
188 188 188
188 188 188
188 188 188
188 188 188
188 188 188
188 188 188
188 188 188
188 188 188
188 188 188
188 188 188
188 188 188
188 188 188
188 188 188
188 188 188
188 188 188
188 188 188
188 188 188
188 188 188
188 188 188
188 188 188
188 188 188
188 188 188
188 188 188
188 188 188
188 188 188
188 188 188
188 188 188
188 188 188
188 188 188
188 188 188
188 188 188
188 188 188
188 188 188
188 188 188
188 188 188
188 188 188
188 188 188
188 188 188
188 188 188
188 188 188
188 188 188
188 188 188
188 188 188
188 188 188
188 188 188
188 188 188
188 188 188
188 188 188
188 188 188
188 188 188
188 188 188
188 188 188
188 188 188
188 188 188
188 188 188
188 188 188
188 188 188
188 188 188
188 188 188
188 188 188
188 188 188
188 188 188
188 188 188
188 188 188
188 188 188
188 188 188
188 188 188
188 188 188
188 188 188
188 188 188
188 188 188
188 188 188
188 188 188
188 188 188
188 188 188
188 188 188
188 188 188
188 188 188
188 188 188
188 188 188
188 188 188
188 188 188
188 188 188
188 188 188
188 188 188
188 188 188
188 188 188
188 188 188
188 188 188
188 188 188
188 188 188
188 188 188
188 188 188
188 188 188
188 188 188
188 188 188
188 188 188
188 188 188
188 188 188
188 188 188
188 188 188
188 188 188
188 188 188
188 188 188
188 188 188
188 188 188
188 188 188
188 188 188
188 188 188
188 188 188
188 188 188
188 188 188
188 188 188
188 188 188
188 188 188
188 188 188
188 188 188
188 188 188
188 188 188
188 188 188
188 188 188
188 188 188
188 188 188
188 188 188
188 188 188
188 188 188
188 188 188
188 188 188
188 188 188
188 188 188
188 188 188
188 188 188
188 188 188
188 188 188
188 188 188
188 188 188
188 188 188
188 188 188
188 188 188
188 188 188
188 188 188
188 188 188
188 188 188
188 188 188
188 188 188
188 188 188
188 188 188
188 188 188
188 188 188
188 188 188
188 188 188
188 188 188
188 188 188
188 188 188
188 188 188
188 188 188
188 188 188
188 188 188
188 188 188
188 188 188
188 188 188
188 188 188
188 188 188
188 188 188
188 188 188
188 188 188
188 188 188
188 188 188
188 188 188
188 188 188
188 188 188
188 188 188
188 188 188
188 188 188
188 188 188
188 188 188
188 188 188
188 188 188
188 188 188
188 188 188
188 188 188
188 188 188
188 188 188
188 188 188
188 188 188
188 188 188
188 188 188
188 188 188
188 188 188
188 188 188
188 188 188
188 188 188
188 188 188
188 188 188
188 188 188
188 188 188
188 188 188
188 188 188
188 188 188
188 188 188
188 188 188
188 188 188
188 188 188
188 188 188
188 188 188
188 188 188
188 188 188
188 188 188
188 188 188
188 188 188
188 188 188
188 188 188
188 188 188
188 188 188
188 188 188
188 188 188
188 188 188
188 188 188
188 188 188
188 188 188
188 188 188
188 188 188
188 188 188
188 188 188
188 188 188
188 188 188
188 188 188
188 188 188
188 188 188
188 188 188
188 188 188
188 188 188
188 188 188
188 188 188
188 188 188
188 188 188
188 188 188
188 188 188
188 188 188
188 188 188
188 188 188
188 188 188
188 188 188
188 188 188
188 188 188
188 188 188
188 188 188
188 188 188
188 188 188
188 188 188
188 188 188
188 188 188
188 188 188
188 188 188
188 188 188
188 188 188
188 188 188
188 188 188
188 188 188
188 188 188
188 188 188
188 188 188
188 188 188
188 188 188
188 188 188
188 188 188
188 188 188
188 188 188
188 188 188
188 188 188
188 188 188
188 188 188
188 188 188
188 188 188
188 188 188
188 188 188
188 188 188
188 188 188
188 188 188
188 188 188
188 188 188
188 188 188
188 188 188
188 188 188
188 188 188
188 188 188
188 188 188
188 188 188
188 188 188
188 188 188
188 188 188
188 188 188
188 188 188
188 188 188
188 188 188
188 188 188
188 188 188
188 188 188
188 188 188
188 188 188
188 188 188
188 188 188
188 188 188
188 188 188
188 188 188
188 188 188
188 188 188
188 188 188
188 188 188
188 188 188
188 188 188
188 188 188
188 188 188
188 188 188
188 188 188
188 188 188
188 188 188
188 188 188
188 188 188
188 188 188
188 188 188
188 188 188
188 188 188
188 188 188
188 188 188
188 188 188
188 188 188
188 188 188
188 188 188
188 188 188
188 188 188
188 188 188
188 188 188
188 188 188
188 188 188
188 188 188
188 188 188
188 188 188
188 188 188
188 188 188
188 188 188
188 188 188
188 188 188
188 188 188
188 188 188
188 188 188
188 188 188
188 188 188
188 188 188
188 188 188
188 188 188
188 188 188
188 188 188
188 188 188
188 188 188
188 188 188
188 188 188
188 188 188
188 188 188
188 188 188
188 188 188
188 188 188
188 188 188
188 188 188
188 188 188
188 188 188
188 188 188
188 188 188
188 188 188
188 188 188
188 188 188
188 188 188
188 188 188
188 188 188
188 188 188
188 188 188
188 188 188
188 188 188
188 188 188
188 188 188
188 188 188
188 188 188
188 188 188
188 188 188
188 188 188
188 188 188
188 188 188
188 188 188
188 188 188
188 188 188
188 188 188
188 188 188
188 188 188
188 188 188
188 188 188
188 188 188
188 188 188
188 188 188
188 188 188
188 188 188
188 188 188
188 188 188
188 188 188
188 188 188
188 188 188
188 188 188
188 188 188
188 188 188
188 188 188
188 188 188
188 188 188
188 188 188
188 188 188
188 188 188
188 188 188
188 188 188
188 188 188
188 188 188
188 188 188
188 188 188
188 188 188
188 188 188
188 188 188
188 188 188
188 188 188
188 188 188
188 188 188
188 188 188
188 188 188
188 188 188
188 188 188
188 188 188
188 188 188
188 188 188
188 188 188
188 188 188
188 188 188
188 188 188
188 188 188
188 188 188
188 188 188
188 188 188
188 188 188
188 188 188
188 188 188
188 188 188
188 188 188
188 188 188
188 188 188
188 188 188
188 188 188
188 188 188
188 188 188
188 188 188
188 188 188
188 188 188
188 188 188
188 188 188
188 188 188
188 188 188
188 188 188
188 188 188
188 188 188
188 188 188
188 188 188
188 188 188
188 188 188
188 188 188
188 188 188
188 188 188
188 188 188
188 188 188
188 188 188
188 188 188
188 188 188
188 188 188
188 188 188
188 188 188
188 188 188
188 188 188
188 188 188
188 188 188
188 188 188
188 188 188
188 188 188
188 188 188
188 188 188
188 188 188
188 188 188
188 188 188
188 188 188
188 188 188
188 188 188
188 188 188
188 188 188
188 188 188
188 188 188
188 188 188
188 188 188
188 188 188
188 188 188
188 188 188
188 188 188
188 188 188
188 188 188
188 188 188
188 188 188
188 188 188
188 188 188
188 188 188
188 188 188
188 188 188
188 188 188
188 188 188
188 188 188
188 188 188
188 188 188
188 188 188
188 188 188
188 188 188
188 188 188
188 188 188
188 188 188
188 188 188
188 188 188
188 188 188
188 188 188
188 188 188
188 188 188
188 188 188
188 188 188
188 188 188
188 188 188
188 188 188
188 188 188
188 188 188
188 188 188
188 188 188
188 188 188
188 188 188
188 188 188
188 188 188
188 188 188
188 188 188
188 188 188
188 188 188
188 188 188
188 188 188
188 188 188
188 188 188
188 188 188
188 188 188
188 188 188
188 188 188
188 188 188
188 188 188
188 188 188
188 188 188
188 188 188
188 188 188
188 188 188
188 188 188
188 188 188
188 188 188
188 188 188
188 188 188
188 188 188
188 188 188
188 188 188
188 188 188
188 188 188
188 188 188
188 188 188
188 188 188
188 188 188
188 188 188
188 188 188
188 188 188
188 188 188
188 188 188
188 188 188
188 188 188
188 188 188
188 188 188
188 188 188
188 188 188
188 188 188
188 188 188
188 188 188
188 188 188
188 188 188
188 188 188
188 188 188
188 188 188
188 188 188
188 188 188
188 188 188
188 188 188
188 188 188
188 188 188
188 188 188
188 188 188
188 188 188
188 188 188
188 188 188
188 188 188
188 188 188
188 188 188
188 188 188
188 188 188
188 188 188
188 188 188
188 188 188
188 188 188
188 188 188
188 188 188
188 188 188
188 188 188
188 188 188
188 188 188
188 188 188
188 188 188
188 188 188
188 188 188
188 188 188
188 188 188
188 188 188
188 188 188
188 188 188
188 188 188
188 188 188
188 188 188
188 188 188
188 188 188
188 188 188
188 188 188
188 188 188
188 188 188
188 188 188
188 188 188
188 188 188
188 188 188
188 188 188
188 188 188
188 188 188
188 188 188
188 188 188
188 188 188
188 188 188
188 188 188
188 188 188
188 188 188
188 188 188
188 188 188
188 188 188
188 188 188
188 188 188
188 188 188
188 188 188
188 188 188
188 188 188
188 188 188
188 188 188
188 188 188
188 188 188
188 188 188
188 188 188
188 188 188
188 188 188
188 188 188
188 188 188
188 188 188
188 188 188
188 188 188
188 188 188
188 188 188
188 188 188
188 188 188
188 188 188
188 188 188
188 188 188
188 188 188
188 188 188
188 188 188
188 188 188
188 188 188
188 188 188
188 188 188
188 188 188
188 188 188
188 188 188
188 188 188
188 188 188
188 188 188
188 188 188
188 188 188
188 188 188
188 188 188
188 188 188
188 188 188
188 188 188
188 188 188
188 188 188
188 188 188
188 188 188
188 188 188
188 188 188
188 188 188
188 188 188
188 188 188
188 188 188
188 188 188
188 188 188
188 188 188
188 188 188
188 188 188
188 188 188
188 188 188
188 188 188
188 188 188
188 188 188
188 188 188
188 188 188
188 188 188
188 188 188
188 188 188
188 188 188
188 188 188
188 188 188
188 188 188
188 188 188
188 188 188
188 188 188
188 188 188
188 188 188
188 188 188
188 188 188
188 188 188
188 188 188
188 188 188
188 188 188
188 188 188
188 188 188
188 188 188
188 188 188
188 188 188
188 188 188
188 188 188
188 188 188
188 188 188
188 188 188
188 188 188
188 188 188
188 188 188
188 188 188
188 188 188
188 188 188
188 188 188
188 188 188
188 188 188
188 188 188
188 188 188
188 188 188
188 188 188
188 188 188
188 188 188
188 188 188
188 188 188
188 188 188
188 188 188
188 188 188
188 188 188
188 188 188
188 188 188
188 188 188
188 188 188
188 188 188
188 188 188
188 188 188
188 188 188
188 188 188
188 188 188
188 188 188
188 188 188
188 188 188
188 188 188
188 188 188
188 188 188
188 188 188
188 188 188
188 188 188
188 188 188
188 188 188
188 188 188
188 188 188
188 188 188
188 188 188
188 188 188
188 188 188
188 188 188
188 188 188
188 188 188
188 188 188
188 188 188
188 188 188
188 188 188
188 188 188
188 188 188
188 188 188
188 188 188
188 188 188
188 188 188
188 188 188
188 188 188
188 188 188
188 188 188
188 188 188
188 188 188
188 188 188
188 188 188
188 188 188
188 188 188
188 188 188
188 188 188
188 188 188
188 188 188
188 188 188
188 188 188
188 188 188
188 188 188
188 188 188
188 188 188
188 188 188
188 188 188
188 188 188
188 188 188
188 188 188
188 188 188
188 188 188
188 188 188
188 188 188
188 188 188
188 188 188
188 188 188
188 188 188
188 188 188
188 188 188
188 188 188
188 188 188
188 188 188
188 188 188
188 188 188
188 188 188
188 188 188
188 188 188
188 188 188
188 188 188
188 188 188
188 188 188
188 188 188
188 188 188
188 188 188
188 188 188
188 188 188
188 188 188
188 188 188
188 188 188
188 188 188
188 188 188
188 188 188
188 188 188
188 188 188
188 188 188
188 188 188
188 188 188
188 188 188
188 188 188
188 188 188
188 188 188
188 188 188
188 188 188
188 188 188
188 188 188
188 188 188
188 188 188
188 188 188
188 188 188
188 188 188
188 188 188
188 188 188
188 188 188
188 188 188
188 188 188
188 188 188
188 188 188
188 188 188
188 188 188
188 188 188
188 188 188
188 188 188
188 188 188
188 188 188
188 188 188
188 188 188
188 188 188
188 188 188
188 188 188
188 188 188
188 188 188
188 188 188
188 188 188
188 188 188
188 188 188
188 188 188
188 188 188
188 188 188
188 188 188
188 188 188
188 188 188
188 188 188
188 188 188
188 188 188
188 188 188
188 188 188
188 188 188
188 188 188
188 188 188
188 188 188
188 188 188
188 188 188
188 188 188
188 188 188
188 188 188
188 188 188
188 188 188
188 188 188
188 188 188
188 188 188
188 188 188
188 188 188
188 188 188
188 188 188
188 188 188
188 188 188
188 188 188
188 188 188
188 188 188
188 188 188
188 188 188
188 188 188
188 188 188
188 188 188
188 188 188
188 188 188
188 188 188
188 188 188
188 188 188
188 188 188
188 188 188
188 188 188
188 188 188
188 188 188
188 188 188
188 188 188
188 188 188
188 188 188
188 188 188
188 188 188
188 188 188
188 188 188
188 188 188
188 188 188
188 188 188
188 188 188
188 188 188
188 188 188
188 188 188
188 188 188
188 188 188
188 188 188
188 188 188
188 188 188
188 188 188
188 188 188
188 188 188
188 188 188
188 188 188
188 188 188
188 188 188
188 188 188
188 188 188
188 188 188
188 188 188
188 188 188
188 188 188
188 188 188
188 188 188
188 188 188
188 188 188
188 188 188
188 188 188
188 188 188
188 188 188
188 188 188
188 188 188
188 188 188
188 188 188
188 188 188
188 188 188
188 188 188
188 188 188
188 188 188
188 188 188
188 188 188
188 188 188
188 188 188
188 188 188
188 188 188
188 188 188
188 188 188
188 188 188
188 188 188
188 188 188
188 188 188
188 188 188
188 188 188
188 188 188
188 188 188
188 188 188
188 188 188
188 188 188
188 188 188
188 188 188
188 188 188
188 188 188
188 188 188
188 188 188
188 188 188
188 188 188
188 188 188
188 188 188
188 188 188
188 188 188
188 188 188
188 188 188
188 188 188
188 188 188
188 188 188
188 188 188
188 188 188
188 188 188
188 188 188
188 188 188
188 188 188
188 188 188
188 188 188
188 188 188
188 188 188
188 188 188
188 188 188
188 188 188
188 188 188
188 188 188
188 188 188
188 188 188
188 188 188
188 188 188
188 188 188
188 188 188
188 188 188
188 188 188
188 188 188
188 188 188
188 188 188
188 188 188
188 188 188
188 188 188
188 188 188
188 188 188
188 188 188
188 188 188
188 188 188
188 188 188
188 188 188
188 188 188
188 188 188
188 188 188
188 188 188
188 188 188
188 188 188
188 188 188
188 188 188
188 188 188
188 188 188
188 188 188
188 188 188
188 188 188
188 188 188
188 188 188
188 188 188
188 188 188
188 188 188
188 188 188
188 188 188
188 188 188
188 188 188
188 188 188
188 188 188
188 188 188
188 188 188
188 188 188
188 188 188
188 188 188
188 188 188
188 188 188
188 188 188
188 188 188
188 188 188
188 188 188
188 188 188
188 188 188
188 188 188
188 188 188
188 188 188
188 188 188
188 188 188
188 188 188
188 188 188
188 188 188
188 188 188
188 188 188
188 188 188
188 188 188
188 188 188
188 188 188
188 188 188
188 188 188
188 188 188
188 188 188
188 188 188
188 188 188
188 188 188
188 188 188
188 188 188
188 188 188
188 188 188
188 188 188
188 188 188
188 188 188
188 188 188
188 188 188
188 188 188
188 188 188
188 188 188
188 188 188
188 188 188
188 188 188
188 188 188
188 188 188
188 188 188
188 188 188
188 188 188
188 188 188
188 188 188
188 188 188
188 188 188
188 188 188
188 188 188
188 188 188
188 188 188
188 188 188
188 188 188
188 188 188
188 188 188
188 188 188
188 188 188
188 188 188
188 188 188
188 188 188
188 188 188
188 188 188
188 188 188
188 188 188
188 188 188
188 188 188
188 188 188
188 188 188
188 188 188
188 188 188
188 188 188
188 188 188
188 188 188
188 188 188
188 188 188
188 188 188
188 188 188
188 188 188
188 188 188
188 188 188
188 188 188
188 188 188
188 188 188
188 188 188
188 188 188
188 188 188
188 188 188
188 188 188
188 188 188
188 188 188
188 188 188
188 188 188
188 188 188
188 188 188
188 188 188
188 188 188
188 188 188
188 188 188
188 188 188
188 188 188
188 188 188
188 188 188
188 188 188
188 188 188
188 188 188
188 188 188
188 188 188
188 188 188
188 188 188
188 188 188
188 188 188
188 188 188
188 188 188
188 188 188
188 188 188
188 188 188
188 188 188
188 188 188
188 188 188
188 188 188
188 188 188
188 188 188
188 188 188
188 188 188
188 188 188
188 188 188
188 188 188
188 188 188
188 188 188
188 188 188
188 188 188
188 188 188
188 188 188
188 188 188
188 188 188
188 188 188
188 188 188
188 188 188
188 188 188
188 188 188
188 188 188
188 188 188
188 188 188
188 188 188
188 188 188
188 188 188
188 188 188
188 188 188
188 188 188
188 188 188
188 188 188
188 188 188
188 188 188
188 188 188
188 188 188
188 188 188
188 188 188
188 188 188
188 188 188
188 188 188
188 188 188
188 188 188
188 188 188
188 188 188
188 188 188
188 188 188
188 188 188
188 188 188
188 188 188
188 188 188
188 188 188
188 188 188
188 188 188
188 188 188
188 188 188
188 188 188
188 188 188
188 188 188
188 188 188
188 188 188
188 188 188
188 188 188
188 188 188
188 188 188
188 188 188
188 188 188
188 188 188
188 188 188
188 188 188
188 188 188
188 188 188
188 188 188
188 188 188
188 188 188
188 188 188
188 188 188
188 188 188
188 188 188
188 188 188
188 188 188
188 188 188
188 188 188
188 188 188
188 188 188
188 188 188
188 188 188
188 188 188
188 188 188
188 188 188
188 188 188
188 188 188
188 188 188
188 188 188
188 188 188
188 188 188
188 188 188
188 188 188
188 188 188
188 188 188
188 188 188
188 188 188
188 188 188
188 188 188
188 188 188
188 188 188
188 188 188
188 188 188
188 188 188
188 188 188
188 188 188
188 188 188
188 188 188
188 188 188
188 188 188
188 188 188
188 188 188
188 188 188
188 188 188
188 188 188
188 188 188
188 188 188
188 188 188
188 188 188
188 188 188
188 188 188
188 188 188
188 188 188
188 188 188
188 188 188
188 188 188
188 188 188
188 188 188
188 188 188
188 188 188
188 188 188
188 188 188
188 188 188
188 188 188
188 188 188
188 188 188
188 188 188
188 188 188
188 188 188
188 188 188
188 188 188
188 188 188
188 188 188
188 188 188
188 188 188
188 188 188
188 188 188
188 188 188
188 188 188
188 188 188
188 188 188
188 188 188
188 188 188
188 188 188
188 188 188
188 188 188
188 188 188
188 188 188
188 188 188
188 188 188
188 188 188
188 188 188
188 188 188
188 188 188
188 188 188
188 188 188
188 188 188
188 188 188
188 188 188
188 188 188
188 188 188
188 188 188
188 188 188
188 188 188
188 188 188
188 188 188
188 188 188
188 188 188
188 188 188
188 188 188
188 188 188
188 188 188
188 188 188
188 188 188
188 188 188
188 188 188
188 188 188
188 188 188
188 188 188
188 188 188
188 188 188
188 188 188
188 188 188
188 188 188
188 188 188
188 188 188
188 188 188
188 188 188
188 188 188
188 188 188
188 188 188
188 188 188
188 188 188
188 188 188
188 188 188
188 188 188
188 188 188
188 188 188
188 188 188
188 188 188
188 188 188
188 188 188
188 188 188
188 188 188
188 188 188
188 188 188
188 188 188
188 188 188
188 188 188
188 188 188
188 188 188
188 188 188
188 188 188
188 188 188
188 188 188
188 188 188
188 188 188
188 188 188
188 188 188
188 188 188
188 188 188
188 188 188
188 188 188
188 188 188
188 188 188
188 188 188
188 188 188
188 188 188
188 188 188
188 188 188
188 188 188
188 188 188
188 188 188
188 188 188
188 188 188
188 188 188
188 188 188
188 188 188
188 188 188
188 188 188
188 188 188
188 188 188
188 188 188
188 188 188
188 188 188
188 188 188
188 188 188
188 188 188
188 188 188
188 188 188
188 188 188
188 188 188
188 188 188
188 188 188
188 188 188
188 188 188
188 188 188
188 188 188
188 188 188
188 188 188
188 188 188
188 188 188
188 188 188
188 188 188
188 188 188
188 188 188
188 188 188
188 188 188
188 188 188
188 188 188
188 188 188
188 188 188
188 188 188
188 188 188
188 188 188
188 188 188
188 188 188
188 188 188
188 188 188
188 188 188
188 188 188
188 188 188
188 188 188
188 188 188
188 188 188
188 188 188
188 188 188
188 188 188
188 188 188
188 188 188
188 188 188
188 188 188
188 188 188
188 188 188
188 188 188
188 188 188
188 188 188
188 188 188
188 188 188
188 188 188
188 188 188
188 188 188
188 188 188
188 188 188
188 188 188
188 188 188
188 188 188
188 188 188
188 188 188
188 188 188
188 188 188
188 188 188
188 188 188
188 188 188
188 188 188
188 188 188
188 188 188
188 188 188
188 188 188
188 188 188
188 188 188
188 188 188
188 188 188
188 188 188
188 188 188
188 188 188
188 188 188
188 188 188
188 188 188
188 188 188
188 188 188
188 188 188
188 188 188
188 188 188
188 188 188
188 188 188
188 188 188
188 188 188
188 188 188
188 188 188
188 188 188
188 188 188
188 188 188
188 188 188
188 188 188
188 188 188
188 188 188
188 188 188
188 188 188
188 188 188
188 188 188
188 188 188
188 188 188
188 188 188
188 188 188
188 188 188
188 188 188
188 188 188
188 188 188
188 188 188
188 188 188
188 188 188
188 188 188
188 188 188
188 188 188
188 188 188
188 188 188
188 188 188
188 188 188
188 188 188
188 188 188
188 188 188
188 188 188
188 188 188
188 188 188
188 188 188
188 188 188
188 188 188
188 188 188
188 188 188
188 188 188
188 188 188
188 188 188
188 188 188
188 188 188
188 188 188
188 188 188
188 188 188
188 188 188
188 188 188
188 188 188
188 188 188
188 188 188
188 188 188
188 188 188
188 188 188
188 188 188
188 188 188
188 188 188
188 188 188
188 188 188
188 188 188
188 188 188
188 188 188
188 188 188
188 188 188
188 188 188
188 188 188
188 188 188
188 188 188
188 188 188
188 188 188
188 188 188
188 188 188
188 188 188
188 188 188
188 188 188
188 188 188
188 188 188
188 188 188
188 188 188
188 188 188
188 188 188
188 188 188
188 188 188
188 188 188
188 188 188
188 188 188
188 188 188
188 188 188
188 188 188
188 188 188
188 188 188
188 188 188
188 188 188
188 188 188
188 188 188
188 188 188
188 188 188
188 188 188
188 188 188
188 188 188
188 188 188
188 188 188
188 188 188
188 188 188
188 188 188
188 188 188
188 188 188
188 188 188
188 188 188
188 188 188
188 188 188
188 188 188
188 188 188
188 188 188
188 188 188
188 188 188
188 188 188
188 188 188
188 188 188
188 188 188
188 188 188
188 188 188
188 188 188
188 188 188
188 188 188
188 188 188
188 188 188
188 188 188
188 188 188
188 188 188
188 188 188
188 188 188
188 188 188
188 188 188
188 188 188
188 188 188
188 188 188
188 188 188
188 188 188
188 188 188
188 188 188
188 188 188
188 188 188
188 188 188
188 188 188
188 188 188
188 188 188
188 188 188
188 188 188
188 188 188
188 188 188
188 188 188
188 188 188
188 188 188
188 188 188
188 188 188
188 188 188
188 188 188
188 188 188
188 188 188
188 188 188
188 188 188
188 188 188
188 188 188
188 188 188
188 188 188
188 188 188
188 188 188
188 188 188
188 188 188
188 188 188
188 188 188
188 188 188
188 188 188
188 188 188
188 188 188
188 188 188
188 188 188
188 188 188
188 188 188
188 188 188
188 188 188
188 188 188
188 188 188
188 188 188
188 188 188
188 188 188
188 188 188
188 188 188
188 188 188
188 188 188
188 188 188
188 188 188
188 188 188
188 188 188
188 188 188
188 188 188
188 188 188
188 188 188
188 188 188
188 188 188
188 188 188
188 188 188
188 188 188
188 188 188
188 188 188
188 188 188
188 188 188
188 188 188
188 188 188
188 188 188
188 188 188
188 188 188
188 188 188
188 188 188
188 188 188
188 188 188
188 188 188
188 188 188
188 188 188
188 188 188
188 188 188
188 188 188
188 188 188
188 188 188
188 188 188
188 188 188
188 188 188
188 188 188
188 188 188
188 188 188
188 188 188
188 188 188
188 188 188
188 188 188
188 188 188
188 188 188
188 188 188
188 188 188
188 188 188
188 188 188
188 188 188
188 188 188
188 188 188
188 188 188
188 188 188
188 188 188
188 188 188
188 188 188
188 188 188
188 188 188
188 188 188
188 188 188
188 188 188
188 188 188
188 188 188
188 188 188
188 188 188
188 188 188
188 188 188
188 188 188
188 188 188
188 188 188
188 188 188
188 188 188
188 188 188
188 188 188
188 188 188
188 188 188
188 188 188
188 188 188
188 188 188
188 188 188
188 188 188
188 188 188
188 188 188
188 188 188
188 188 188
188 188 188
188 188 188
188 188 188
188 188 188
188 188 188
188 188 188
188 188 188
188 188 188
188 188 188
188 188 188
188 188 188
188 188 188
188 188 188
188 188 188
188 188 188
188 188 188
188 188 188
188 188 188
188 188 188
188 188 188
188 188 188
188 188 188
188 188 188
188 188 188
188 188 188
188 188 188
188 188 188
188 188 188
188 188 188
188 188 188
188 188 188
188 188 188
188 188 188
188 188 188
188 188 188
188 188 188
188 188 188
188 188 188
188 188 188
188 188 188
188 188 188
188 188 188
188 188 188
188 188 188
188 188 188
188 188 188
188 188 188
188 188 188
188 188 188
188 188 188
188 188 188
188 188 188
188 188 188
188 188 188
188 188 188
188 188 188
188 188 188
188 188 188
188 188 188
188 188 188
188 188 188
188 188 188
188 188 188
188 188 188
188 188 188
188 188 188
188 188 188
188 188 188
188 188 188
188 188 188
188 188 188
188 188 188
188 188 188
188 188 188
188 188 188
188 188 188
188 188 188
188 188 188
188 188 188
188 188 188
188 188 188
188 188 188
188 188 188
188 188 188
188 188 188
188 188 188
188 188 188
188 188 188
188 188 188
188 188 188
188 188 188
188 188 188
188 188 188
188 188 188
188 188 188
188 188 188
188 188 188
188 188 188
188 188 188
188 188 188
188 188 188
188 188 188
188 188 188
188 188 188
188 188 188
188 188 188
188 188 188
188 188 188
188 188 188
188 188 188
188 188 188
188 188 188
188 188 188
188 188 188
188 188 188
188 188 188
188 188 188
188 188 188
188 188 188
188 188 188
188 188 188
188 188 188
188 188 188
188 188 188
188 188 188
188 188 188
188 188 188
188 188 188
188 188 188
188 188 188
188 188 188
188 188 188
188 188 188
188 188 188
188 188 188
188 188 188
188 188 188
188 188 188
188 188 188
188 188 188
188 188 188
188 188 188
188 188 188
188 188 188
188 188 188
188 188 188
188 188 188
188 188 188
188 188 188
188 188 188
188 188 188
188 188 188
188 188 188
188 188 188
188 188 188
188 188 188
188 188 188
188 188 188
188 188 188
188 188 188
188 188 188
188 188 188
188 188 188
188 188 188
188 188 188
188 188 188
188 188 188
188 188 188
188 188 188
188 188 188
188 188 188
188 188 188
188 188 188
188 188 188
188 188 188
188 188 188
188 188 188
188 188 188
188 188 188
188 188 188
188 188 188
188 188 188
188 188 188
188 188 188
188 188 188
188 188 188
188 188 188
188 188 188
188 188 188
188 188 188
188 188 188
188 188 188
188 188 188
188 188 188
188 188 188
188 188 188
188 188 188
188 188 188
188 188 188
188 188 188
188 188 188
188 188 188
188 188 188
188 188 188
188 188 188
188 188 188
188 188 188
188 188 188
188 188 188
188 188 188
188 188 188
188 188 188
188 188 188
188 188 188
188 188 188
188 188 188
188 188 188
188 188 188
188 188 188
188 188 188
188 188 188
188 188 188
188 188 188
188 188 188
188 188 188
188 188 188
188 188 188
188 188 188
188 188 188
188 188 188
188 188 188
188 188 188
188 188 188
188 188 188
188 188 188
188 188 188
188 188 188
188 188 188
188 188 188
188 188 188
188 188 188
188 188 188
188 188 188
188 188 188
188 188 188
188 188 188
188 188 188
188 188 188
188 188 188
188 188 188
188 188 188
188 188 188
188 188 188
188 188 188
188 188 188
188 188 188
188 188 188
188 188 188
188 188 188
188 188 188
188 188 188
188 188 188
188 188 188
188 188 188
188 188 188
188 188 188
188 188 188
188 188 188
188 188 188
188 188 188
188 188 188
188 188 188
188 188 188
188 188 188
188 188 188
188 188 188
188 188 188
188 188 188
188 188 188
188 188 188
188 188 188
188 188 188
188 188 188
188 188 188
188 188 188
188 188 188
188 188 188
188 188 188
188 188 188
188 188 188
188 188 188
188 188 188
188 188 188
188 188 188
188 188 188
188 188 188
188 188 188
188 188 188
188 188 188
188 188 188
188 188 188
188 188 188
188 188 188
188 188 188
188 188 188
188 188 188
188 188 188
188 188 188
188 188 188
188 188 188
188 188 188
188 188 188
188 188 188
188 188 188
188 188 188
188 188 188
188 188 188
188 188 188
188 188 188
188 188 188
188 188 188
188 188 188
188 188 188
188 188 188
188 188 188
188 188 188
188 188 188
188 188 188
188 188 188
188 188 188
188 188 188
188 188 188
188 188 188
188 188 188
188 188 188
188 188 188
188 188 188
188 188 188
188 188 188
188 188 188
188 188 188
188 188 188
188 188 188
188 188 188
188 188 188
188 188 188
188 188 188
188 188 188
188 188 188
188 188 188
188 188 188
188 188 188
188 188 188
188 188 188
188 188 188
188 188 188
188 188 188
188 188 188
188 188 188
188 188 188
188 188 188
188 188 188
188 188 188
188 188 188
188 188 188
188 188 188
188 188 188
188 188 188
188 188 188
188 188 188
188 188 188
188 188 188
188 188 188
188 188 188
188 188 188
188 188 188
188 188 188
188 188 188
188 188 188
188 188 188
188 188 188
188 188 188
188 188 188
188 188 188
188 188 188
188 188 188
188 188 188
188 188 188
188 188 188
188 188 188
188 188 188
188 188 188
188 188 188
188 188 188
188 188 188
188 188 188
188 188 188
188 188 188
188 188 188
188 188 188
188 188 188
188 188 188
188 188 188
188 188 188
188 188 188
188 188 188
188 188 188
188 188 188
188 188 188
188 188 188
188 188 188
188 188 188
188 188 188
188 188 188
188 188 188
188 188 188
188 188 188
188 188 188
188 188 188
188 188 188
188 188 188
188 188 188
188 188 188
188 188 188
188 188 188
188 188 188
188 188 188
188 188 188
188 188 188
188 188 188
188 188 188
188 188 188
188 188 188
188 188 188
188 188 188
188 188 188
188 188 188
188 188 188
188 188 188
188 188 188
188 188 188
188 188 188
188 188 188
188 188 188
188 188 188
188 188 188
188 188 188
188 188 188
188 188 188
188 188 188
188 188 188
188 188 188
188 188 188
188 188 188
188 188 188
188 188 188
188 188 188
188 188 188
188 188 188
188 188 188
188 188 188
188 188 188
188 188 188
188 188 188
188 188 188
188 188 188
188 188 188
188 188 188
188 188 188
188 188 188
188 188 188
188 188 188
188 188 188
188 188 188
188 188 188
188 188 188
188 188 188
188 188 188
188 188 188
188 188 188
188 188 188
188 188 188
188 188 188
188 188 188
188 188 188
188 188 188
188 188 188
188 188 188
188 188 188
188 188 188
188 188 188
188 188 188
188 188 188
188 188 188
188 188 188
188 188 188
188 188 188
188 188 188
188 188 188
188 188 188
188 188 188
188 188 188
188 188 188
188 188 188
188 188 188
188 188 188
188 188 188
188 188 188
188 188 188
188 188 188
188 188 188
188 188 188
188 188 188
188 188 188
188 188 188
188 188 188
188 188 188
188 188 188
188 188 188
188 188 188
188 188 188
188 188 188
188 188 188
188 188 188
188 188 188
188 188 188
188 188 188
188 188 188
188 188 188
188 188 188
188 188 188
188 188 188
188 188 188
188 188 188
188 188 188
188 188 188
188 188 188
188 188 188
188 188 188
188 188 188
188 188 188
188 188 188
188 188 188
188 188 188
188 188 188
188 188 188
188 188 188
188 188 188
188 188 188
188 188 188
188 188 188
188 188 188
188 188 188
188 188 188
188 188 188
188 188 188
188 188 188
188 188 188
188 188 188
188 188 188
188 188 188
188 188 188
188 188 188
188 188 188
188 188 188
188 188 188
188 188 188
188 188 188
188 188 188
188 188 188
188 188 188
188 188 188
188 188 188
188 188 188
188 188 188
188 188 188
188 188 188
188 188 188
188 188 188
188 188 188
188 188 188
188 188 188
188 188 188
188 188 188
188 188 188
188 188 188
188 188 188
188 188 188
188 188 188
188 188 188
188 188 188
188 188 188
188 188 188
188 188 188
188 188 188
188 188 188
188 188 188
188 188 188
188 188 188
188 188 188
188 188 188
188 188 188
188 188 188
188 188 188
188 188 188
188 188 188
188 188 188
188 188 188
188 188 188
188 188 188
188 188 188
188 188 188
188 188 188
188 188 188
188 188 188
188 188 188
188 188 188
188 188 188
188 188 188
188 188 188
188 188 188
188 188 188
188 188 188
188 188 188
188 188 188
188 188 188
188 188 188
188 188 188
188 188 188
188 188 188
188 188 188
188 188 188
188 188 188
188 188 188
188 188 188
188 188 188
188 188 188
188 188 188
188 188 188
188 188 188
188 188 188
188 188 188
188 188 188
188 188 188
188 188 188
188 188 188
188 188 188
188 188 188
188 188 188
188 188 188
188 188 188
188 188 188
188 188 188
188 188 188
188 188 188
188 188 188
188 188 188
188 188 188
188 188 188
188 188 188
188 188 188
188 188 188
188 188 188
188 188 188
188 188 188
188 188 188
188 188 188
188 188 188
188 188 188
188 188 188
188 188 188
188 188 188
188 188 188
188 188 188
188 188 188
188 188 188
188 188 188
188 188 188
188 188 188
188 188 188
188 188 188
188 188 188
188 188 188
188 188 188
188 188 188
188 188 188
188 188 188
188 188 188
188 188 188
188 188 188
188 188 188
188 188 188
188 188 188
188 188 188
188 188 188
188 188 188
188 188 188
188 188 188
188 188 188
188 188 188
188 188 188
188 188 188
188 188 188
188 188 188
188 188 188
188 188 188
188 188 188
188 188 188
188 188 188
188 188 188
188 188 188
188 188 188
188 188 188
188 188 188
188 188 188
188 188 188
188 188 188
188 188 188
188 188 188
188 188 188
188 188 188
188 188 188
188 188 188
188 188 188
188 188 188
188 188 188
188 188 188
188 188 188
188 188 188
188 188 188
188 188 188
188 188 188
188 188 188
188 188 188
188 188 188
188 188 188
188 188 188
188 188 188
188 188 188
188 188 188
188 188 188
188 188 188
188 188 188
188 188 188
188 188 188
188 188 188
188 188 188
188 188 188
188 188 188
188 188 188
188 188 188
188 188 188
188 188 188
188 188 188
188 188 188
188 188 188
188 188 188
188 188 188
188 188 188
188 188 188
188 188 188
188 188 188
188 188 188
188 188 188
188 188 188
188 188 188
188 188 188
188 188 188
188 188 188
188 188 188
188 188 188
188 188 188
188 188 188
188 188 188
188 188 188
188 188 188
188 188 188
188 188 188
188 188 188
188 188 188
188 188 188
188 188 188
188 188 188
188 188 188
188 188 188
188 188 188
188 188 188
188 188 188
188 188 188
188 188 188
188 188 188
188 188 188
188 188 188
188 188 188
188 188 188
188 188 188
188 188 188
188 188 188
188 188 188
188 188 188
188 188 188
188 188 188
188 188 188
188 188 188
188 188 188
188 188 188
188 188 188
188 188 188
188 188 188
188 188 188
188 188 188
188 188 188
188 188 188
188 188 188
188 188 188
188 188 188
188 188 188
188 188 188
188 188 188
188 188 188
188 188 188
188 188 188
188 188 188
188 188 188
188 188 188
188 188 188
188 188 188
188 188 188
188 188 188
188 188 188
188 188 188
188 188 188
188 188 188
188 188 188
188 188 188
188 188 188
188 188 188
188 188 188
188 188 188
188 188 188
188 188 188
188 188 188
188 188 188
188 188 188
188 188 188
188 188 188
188 188 188
188 188 188
188 188 188
188 188 188
188 188 188
188 188 188
188 188 188
188 188 188
188 188 188
188 188 188
188 188 188
188 188 188
188 188 188
188 188 188
188 188 188
188 188 188
188 188 188
188 188 188
188 188 188
188 188 188
188 188 188
188 188 188
188 188 188
188 188 188
188 188 188
188 188 188
188 188 188
188 188 188
188 188 188
188 188 188
188 188 188
188 188 188
188 188 188
188 188 188
188 188 188
188 188 188
188 188 188
188 188 188
188 188 188
188 188 188
188 188 188
188 188 188
188 188 188
188 188 188
188 188 188
188 188 188
188 188 188
188 188 188
188 188 188
188 188 188
188 188 188
188 188 188
188 188 188
188 188 188
188 188 188
188 188 188
188 188 188
188 188 188
188 188 188
188 188 188
188 188 188
188 188 188
188 188 188
188 188 188
188 188 188
188 188 188
188 188 188
188 188 188
188 188 188
188 188 188
188 188 188
188 188 188
188 188 188
188 188 188
188 188 188
188 188 188
188 188 188
188 188 188
188 188 188
188 188 188
188 188 188
188 188 188
188 188 188
188 188 188
188 188 188
188 188 188
188 188 188
188 188 188
188 188 188
188 188 188
188 188 188
188 188 188
188 188 188
188 188 188
188 188 188
188 188 188
188 188 188
188 188 188
188 188 188
188 188 188
188 188 188
188 188 188
188 188 188
188 188 188
188 188 188
188 188 188
188 188 188
188 188 188
188 188 188
188 188 188
188 188 188
188 188 188
188 188 188
188 188 188
188 188 188
188 188 188
188 188 188
188 188 188
188 188 188
188 188 188
188 188 188
188 188 188
188 188 188
188 188 188
188 188 188
188 188 188
188 188 188
188 188 188
188 188 188
188 188 188
188 188 188
188 188 188
188 188 188
188 188 188
188 188 188
188 188 188
188 188 188
188 188 188
188 188 188
188 188 188
188 188 188
188 188 188
188 188 188
188 188 188
188 188 188
188 188 188
188 188 188
188 188 188
188 188 188
188 188 188
188 188 188
188 188 188
188 188 188
188 188 188
188 188 188
188 188 188
188 188 188
188 188 188
188 188 188
188 188 188
188 188 188
188 188 188
188 188 188
188 188 188
188 188 188
188 188 188
188 188 188
188 188 188
188 188 188
188 188 188
188 188 188
188 188 188
188 188 188
188 188 188
188 188 188
188 188 188
188 188 188
188 188 188
188 188 188
188 188 188
188 188 188
188 188 188
188 188 188
188 188 188
188 188 188
188 188 188
188 188 188
188 188 188
188 188 188
188 188 188
188 188 188
188 188 188
188 188 188
188 188 188
188 188 188
188 188 188
188 188 188
188 188 188
188 188 188
188 188 188
188 188 188
188 188 188
188 188 188
188 188 188
188 188 188
188 188 188
188 188 188
188 188 188
188 188 188
188 188 188
188 188 188
188 188 188
188 188 188
188 188 188
188 188 188
188 188 188
188 188 188
188 188 188
188 188 188
188 188 188
188 188 188
188 188 188
188 188 188
188 188 188
188 188 188
188 188 188
188 188 188
188 188 188
188 188 188
188 188 188
188 188 188
188 188 188
188 188 188
188 188 188
188 188 188
188 188 188
188 188 188
188 188 188
188 188 188
188 188 188
188 188 188
188 188 188
188 188 188
188 188 188
188 188 188
188 188 188
188 188 188
188 188 188
188 188 188
188 188 188
188 188 188
188 188 188
188 188 188
188 188 188
188 188 188
188 188 188
188 188 188
188 188 188
188 188 188
188 188 188
188 188 188
188 188 188
188 188 188
188 188 188
188 188 188
188 188 188
188 188 188
188 188 188
188 188 188
188 188 188
188 188 188
188 188 188
188 188 188
188 188 188
188 188 188
188 188 188
188 188 188
188 188 188
188 188 188
188 188 188
188 188 188
188 188 188
188 188 188
188 188 188
188 188 188
188 188 188
188 188 188
188 188 188
188 188 188
188 188 188
188 188 188
188 188 188
188 188 188
188 188 188
188 188 188
188 188 188
188 188 188
188 188 188
188 188 188
188 188 188
188 188 188
188 188 188
188 188 188
188 188 188
188 188 188
188 188 188
188 188 188
188 188 188
188 188 188
188 188 188
188 188 188
188 188 188
188 188 188
188 188 188
188 188 188
188 188 188
188 188 188
188 188 188
188 188 188
188 188 188
188 188 188
188 188 188
188 188 188
188 188 188
188 188 188
188 188 188
188 188 188
188 188 188
188 188 188
188 188 188
188 188 188
188 188 188
188 188 188
188 188 188
188 188 188
188 188 188
188 188 188
188 188 188
188 188 188
188 188 188
188 188 188
188 188 188
188 188 188
188 188 188
188 188 188
188 188 188
188 188 188
188 188 188
188 188 188
188 188 188
188 188 188
188 188 188
188 188 188
188 188 188
188 188 188
188 188 188
188 188 188
188 188 188
188 188 188
188 188 188
188 188 188
188 188 188
188 188 188
188 188 188
188 188 188
188 188 188
188 188 188
188 188 188
188 188 188
188 188 188
188 188 188
188 188 188
188 188 188
188 188 188
188 188 188
188 188 188
188 188 188
188 188 188
188 188 188
188 188 188
188 188 188
188 188 188
188 188 188
188 188 188
188 188 188
188 188 188
188 188 188
188 188 188
188 188 188
188 188 188
188 188 188
188 188 188
188 188 188
188 188 188
188 188 188
188 188 188
188 188 188
188 188 188
188 188 188
188 188 188
188 188 188
188 188 188
188 188 188
188 188 188
188 188 188
188 188 188
188 188 188
188 188 188
188 188 188
188 188 188
188 188 188
188 188 188
188 188 188
188 188 188
188 188 188
188 188 188
188 188 188
188 188 188
188 188 188
188 188 188
188 188 188
188 188 188
188 188 188
188 188 188
188 188 188
188 188 188
188 188 188
188 188 188
188 188 188
188 188 188
188 188 188
188 188 188
188 188 188
188 188 188
188 188 188
188 188 188
188 188 188
188 188 188
188 188 188
188 188 188
188 188 188
188 188 188
188 188 188
188 188 188
188 188 188
188 188 188
188 188 188
188 188 188
188 188 188
188 188 188
188 188 188
188 188 188
188 188 188
188 188 188
188 188 188
188 188 188
188 188 188
188 188 188
188 188 188
188 188 188
188 188 188
188 188 188
188 188 188
188 188 188
188 188 188
188 188 188
188 188 188
188 188 188
188 188 188
188 188 188
188 188 188
188 188 188
188 188 188
188 188 188
188 188 188
188 188 188
188 188 188
188 188 188
188 188 188
188 188 188
188 188 188
188 188 188
188 188 188
188 188 188
188 188 188
188 188 188
188 188 188
188 188 188
188 188 188
188 188 188
188 188 188
188 188 188
188 188 188
188 188 188
188 188 188
188 188 188
188 188 188
188 188 188
188 188 188
188 188 188
188 188 188
188 188 188
188 188 188
188 188 188
188 188 188
188 188 188
188 188 188
188 188 188
188 188 188
188 188 188
188 188 188
188 188 188
188 188 188
188 188 188
188 188 188
188 188 188
188 188 188
188 188 188
188 188 188
188 188 188
188 188 188
188 188 188
188 188 188
188 188 188
188 188 188
188 188 188
188 188 188
188 188 188
188 188 188
188 188 188
188 188 188
188 188 188
188 188 188
188 188 188
188 188 188
188 188 188
188 188 188
188 188 188
188 188 188
188 188 188
188 188 188
188 188 188
188 188 188
188 188 188
188 188 188
188 188 188
188 188 188
188 188 188
188 188 188
188 188 188
188 188 188
188 188 188
188 188 188
188 188 188
188 188 188
188 188 188
188 188 188
188 188 188
188 188 188
188 188 188
188 188 188
188 188 188
188 188 188
188 188 188
188 188 188
188 188 188
188 188 188
188 188 188
188 188 188
188 188 188
188 188 188
188 188 188
188 188 188
188 188 188
188 188 188
188 188 188
188 188 188
188 188 188
188 188 188
188 188 188
188 188 188
188 188 188
188 188 188
188 188 188
188 188 188
188 188 188
188 188 188
188 188 188
188 188 188
188 188 188
188 188 188
188 188 188
188 188 188
188 188 188
188 188 188
188 188 188
188 188 188
188 188 188
188 188 188
188 188 188
188 188 188
188 188 188
188 188 188
188 188 188
188 188 188
188 188 188
188 188 188
188 188 188
188 188 188
188 188 188
188 188 188
188 188 188
188 188 188
188 188 188
188 188 188
188 188 188
188 188 188
188 188 188
188 188 188
188 188 188
188 188 188
188 188 188
188 188 188
188 188 188
188 188 188
188 188 188
188 188 188
188 188 188
188 188 188
188 188 188
188 188 188
188 188 188
188 188 188
188 188 188
188 188 188
188 188 188
188 188 188
188 188 188
188 188 188
188 188 188
188 188 188
188 188 188
188 188 188
188 188 188
188 188 188
188 188 188
188 188 188
188 188 188
188 188 188
188 188 188
188 188 188
188 188 188
188 188 188
188 188 188
188 188 188
188 188 188
188 188 188
188 188 188
188 188 188
188 188 188
188 188 188
188 188 188
188 188 188
188 188 188
188 188 188
188 188 188
188 188 188
188 188 188
188 188 188
188 188 188
188 188 188
188 188 188
188 188 188
188 188 188
188 188 188
188 188 188
188 188 188
188 188 188
188 188 188
188 188 188
188 188 188
188 188 188
188 188 188
188 188 188
188 188 188
188 188 188
188 188 188
188 188 188
188 188 188
188 188 188
188 188 188
188 188 188
188 188 188
188 188 188
188 188 188
188 188 188
188 188 188
188 188 188
188 188 188
188 188 188
188 188 188
188 188 188
188 188 188
188 188 188
188 188 188
188 188 188
188 188 188
188 188 188
188 188 188
188 188 188
188 188 188
188 188 188
188 188 188
188 188 188
188 188 188
188 188 188
188 188 188
188 188 188
188 188 188
188 188 188
188 188 188
188 188 188
188 188 188
188 188 188
188 188 188
188 188 188
188 188 188
188 188 188
188 188 188
188 188 188
188 188 188
188 188 188
188 188 188
188 188 188
188 188 188
188 188 188
188 188 188
188 188 188
188 188 188
188 188 188
188 188 188
188 188 188
188 188 188
188 188 188
188 188 188
188 188 188
188 188 188
188 188 188
188 188 188
188 188 188
188 188 188
188 188 188
188 188 188
188 188 188
188 188 188
188 188 188
188 188 188
188 188 188
188 188 188
188 188 188
188 188 188
188 188 188
188 188 188
188 188 188
188 188 188
188 188 188
188 188 188
188 188 188
188 188 188
188 188 188
188 188 188
188 188 188
188 188 188
188 188 188
188 188 188
188 188 188
188 188 188
188 188 188
188 188 188
188 188 188
188 188 188
188 188 188
188 188 188
188 188 188
188 188 188
188 188 188
188 188 188
188 188 188
188 188 188
188 188 188
188 188 188
188 188 188
188 188 188
188 188 188
188 188 188
188 188 188
188 188 188
188 188 188
188 188 188
188 188 188
188 188 188
188 188 188
188 188 188
188 188 188
188 188 188
188 188 188
188 188 188
188 188 188
188 188 188
188 188 188
188 188 188
188 188 188
188 188 188
188 188 188
188 188 188
188 188 188
188 188 188
188 188 188
188 188 188
188 188 188
188 188 188
188 188 188
188 188 188
188 188 188
188 188 188
188 188 188
188 188 188
188 188 188
188 188 188
188 188 188
