P3
128 32
255
0 0 0
50 50 50
71 71 71
87 87 87
99 99 99
111 111 111
120 120 120
129 129 129
137 137 137
145 145 145
152 152 152
159 159 159
165 165 165
171 171 171
177 177 177
183 183 183
188 188 188
193 193 193
198 198 198
203 203 203
208 208 208
212 212 212
217 217 217
221 221 221
225 225 225
229 229 229
234 234 234
237 237 237
241 241 241
245 245 245
249 249 249
252 252 252
255 255 255
255 255 255
255 255 255
255 255 255
255 255 255
255 255 255
255 255 255
255 255 255
255 255 255
255 255 255
255 255 255
255 255 255
255 255 255
255 255 255
255 255 255
255 255 255
255 255 255
255 255 255
255 255 255
255 255 255
255 255 255
255 255 255
255 255 255
255 255 255
255 255 255
255 255 255
255 255 255
255 255 255
255 255 255
255 255 255
255 255 255
255 255 255
255 255 255
255 255 255
255 255 255
255 255 255
255 255 255
255 255 255
255 255 255
255 255 255
255 255 255
255 255 255
255 255 255
255 255 255
255 255 255
255 255 255
255 255 255
255 255 255
255 255 255
255 255 255
255 255 255
255 255 255
255 255 255
255 255 255
255 255 255
255 255 255
255 255 255
255 255 255
255 255 255
255 255 255
255 255 255
255 255 255
255 255 255
255 255 255
255 255 255
255 255 255
255 255 255
255 255 255
255 255 255
255 255 255
255 255 255
255 255 255
255 255 255
255 255 255
255 255 255
255 255 255
255 255 255
255 255 255
255 255 255
255 255 255
255 255 255
255 255 255
255 255 255
255 255 255
255 255 255
255 255 255
255 255 255
255 255 255
255 255 255
255 255 255
255 255 255
255 255 255
255 255 255
255 255 255
255 255 255
255 255 255
0 0 0
50 50 50
71 71 71
87 87 87
99 99 99
111 111 111
120 120 120
129 129 129
137 137 137
145 145 145
152 152 152
159 159 159
165 165 165
171 171 171
177 177 177
183 183 183
188 188 188
193 193 193
198 198 198
203 203 203
208 208 208
212 212 212
217 217 217
221 221 221
225 225 225
229 229 229
234 234 234
237 237 237
241 241 241
245 245 245
249 249 249
252 252 252
255 255 255
255 255 255
255 255 255
255 255 255
255 255 255
255 255 255
255 255 255
255 255 255
255 255 255
255 255 255
255 255 255
255 255 255
255 255 255
255 255 255
255 255 255
255 255 255
255 255 255
255 255 255
255 255 255
255 255 255
255 255 255
255 255 255
255 255 255
255 255 255
255 255 255
255 255 255
255 255 255
255 255 255
255 255 255
255 255 255
255 255 255
255 255 255
255 255 255
255 255 255
255 255 255
255 255 255
255 255 255
255 255 255
255 255 255
255 255 255
255 255 255
255 255 255
255 255 255
255 255 255
255 255 255
255 255 255
255 255 255
255 255 255
255 255 255
255 255 255
255 255 255
255 255 255
255 255 255
255 255 255
255 255 255
255 255 255
255 255 255
255 255 255
255 255 255
255 255 255
255 255 255
255 255 255
255 255 255
255 255 255
255 255 255
255 255 255
255 255 255
255 255 255
255 255 255
255 255 255
255 255 255
255 255 255
255 255 255
255 255 255
255 255 255
255 255 255
255 255 255
255 255 255
255 255 255
255 255 255
255 255 255
255 255 255
255 255 255
255 255 255
255 255 255
255 255 255
255 255 255
255 255 255
255 255 255
255 255 255
255 255 255
255 255 255
255 255 255
255 255 255
255 255 255
255 255 255
0 0 0
50 50 50
71 71 71
87 87 87
99 99 99
111 111 111
120 120 120
129 129 129
137 137 137
145 145 145
152 152 152
159 159 159
165 165 165
171 171 171
177 177 177
183 183 183
188 188 188
193 193 193
198 198 198
203 203 203
208 208 208
212 212 212
217 217 217
221 221 221
225 225 225
229 229 229
234 234 234
237 237 237
241 241 241
245 245 245
249 249 249
252 252 252
255 255 255
255 255 255
255 255 255
255 255 255
255 255 255
255 255 255
255 255 255
255 255 255
255 255 255
255 255 255
255 255 255
255 255 255
255 255 255
255 255 255
255 255 255
255 255 255
255 255 255
255 255 255
255 255 255
255 255 255
255 255 255
255 255 255
255 255 255
255 255 255
255 255 255
255 255 255
255 255 255
255 255 255
255 255 255
255 255 255
255 255 255
255 255 255
255 255 255
255 255 255
255 255 255
255 255 255
255 255 255
255 255 255
255 255 255
255 255 255
255 255 255
255 255 255
255 255 255
255 255 255
255 255 255
255 255 255
255 255 255
255 255 255
255 255 255
255 255 255
255 255 255
255 255 255
255 255 255
255 255 255
255 255 255
255 255 255
255 255 255
255 255 255
255 255 255
255 255 255
255 255 255
255 255 255
255 255 255
255 255 255
255 255 255
255 255 255
255 255 255
255 255 255
255 255 255
255 255 255
255 255 255
255 255 255
255 255 255
255 255 255
255 255 255
255 255 255
255 255 255
255 255 255
255 255 255
255 255 255
255 255 255
255 255 255
255 255 255
255 255 255
255 255 255
255 255 255
255 255 255
255 255 255
255 255 255
255 255 255
255 255 255
255 255 255
255 255 255
255 255 255
255 255 255
255 255 255
0 0 0
50 50 50
71 71 71
87 87 87
99 99 99
111 111 111
120 120 120
129 129 129
137 137 137
145 145 145
152 152 152
159 159 159
165 165 165
171 171 171
177 177 177
183 183 183
188 188 188
193 193 193
198 198 198
203 203 203
208 208 208
212 212 212
217 217 217
221 221 221
225 225 225
229 229 229
234 234 234
237 237 237
241 241 241
245 245 245
249 249 249
252 252 252
255 255 255
255 255 255
255 255 255
255 255 255
255 255 255
255 255 255
255 255 255
255 255 255
255 255 255
255 255 255
255 255 255
255 255 255
255 255 255
255 255 255
255 255 255
255 255 255
255 255 255
255 255 255
255 255 255
255 255 255
255 255 255
255 255 255
255 255 255
255 255 255
255 255 255
255 255 255
255 255 255
255 255 255
255 255 255
255 255 255
255 255 255
255 255 255
255 255 255
255 255 255
255 255 255
255 255 255
255 255 255
255 255 255
255 255 255
255 255 255
255 255 255
255 255 255
255 255 255
255 255 255
255 255 255
255 255 255
255 255 255
255 255 255
255 255 255
255 255 255
255 255 255
255 255 255
255 255 255
255 255 255
255 255 255
255 255 255
255 255 255
255 255 255
255 255 255
255 255 255
255 255 255
255 255 255
255 255 255
255 255 255
255 255 255
255 255 255
255 255 255
255 255 255
255 255 255
255 255 255
255 255 255
255 255 255
255 255 255
255 255 255
255 255 255
255 255 255
255 255 255
255 255 255
255 255 255
255 255 255
255 255 255
255 255 255
255 255 255
255 255 255
255 255 255
255 255 255
255 255 255
255 255 255
255 255 255
255 255 255
255 255 255
255 255 255
255 255 255
255 255 255
255 255 255
255 255 255
0 0 0
50 50 50
71 71 71
87 87 87
99 99 99
111 111 111
120 120 120
129 129 129
137 137 137
145 145 145
152 152 152
159 159 159
165 165 165
171 171 171
177 177 177
183 183 183
188 188 188
193 193 193
198 198 198
203 203 203
208 208 208
212 212 212
217 217 217
221 221 221
225 225 225
229 229 229
234 234 234
237 237 237
241 241 241
245 245 245
249 249 249
252 252 252
255 255 255
255 255 255
255 255 255
255 255 255
255 255 255
255 255 255
255 255 255
255 255 255
255 255 255
255 255 255
255 255 255
255 255 255
255 255 255
255 255 255
255 255 255
255 255 255
255 255 255
255 255 255
255 255 255
255 255 255
255 255 255
255 255 255
255 255 255
255 255 255
255 255 255
255 255 255
255 255 255
255 255 255
255 255 255
255 255 255
255 255 255
255 255 255
255 255 255
255 255 255
255 255 255
255 255 255
255 255 255
255 255 255
255 255 255
255 255 255
255 255 255
255 255 255
255 255 255
255 255 255
255 255 255
255 255 255
255 255 255
255 255 255
255 255 255
255 255 255
255 255 255
255 255 255
255 255 255
255 255 255
255 255 255
255 255 255
255 255 255
255 255 255
255 255 255
255 255 255
255 255 255
255 255 255
255 255 255
255 255 255
255 255 255
255 255 255
255 255 255
255 255 255
255 255 255
255 255 255
255 255 255
255 255 255
255 255 255
255 255 255
255 255 255
255 255 255
255 255 255
255 255 255
255 255 255
255 255 255
255 255 255
255 255 255
255 255 255
255 255 255
255 255 255
255 255 255
255 255 255
255 255 255
255 255 255
255 255 255
255 255 255
255 255 255
255 255 255
255 255 255
255 255 255
255 255 255
0 0 0
50 50 50
71 71 71
87 87 87
99 99 99
111 111 111
120 120 120
129 129 129
137 137 137
145 145 145
152 152 152
159 159 159
165 165 165
171 171 171
177 177 177
183 183 183
188 188 188
193 193 193
198 198 198
203 203 203
208 208 208
212 212 212
217 217 217
221 221 221
225 225 225
229 229 229
234 234 234
237 237 237
241 241 241
245 245 245
249 249 249
252 252 252
255 255 255
255 255 255
255 255 255
255 255 255
255 255 255
255 255 255
255 255 255
255 255 255
255 255 255
255 255 255
255 255 255
255 255 255
255 255 255
255 255 255
255 255 255
255 255 255
255 255 255
255 255 255
255 255 255
255 255 255
255 255 255
255 255 255
255 255 255
255 255 255
255 255 255
255 255 255
255 255 255
255 255 255
255 255 255
255 255 255
255 255 255
255 255 255
255 255 255
255 255 255
255 255 255
255 255 255
255 255 255
255 255 255
255 255 255
255 255 255
255 255 255
255 255 255
255 255 255
255 255 255
255 255 255
255 255 255
255 255 255
255 255 255
255 255 255
255 255 255
255 255 255
255 255 255
255 255 255
255 255 255
255 255 255
255 255 255
255 255 255
255 255 255
255 255 255
255 255 255
255 255 255
255 255 255
255 255 255
255 255 255
255 255 255
255 255 255
255 255 255
255 255 255
255 255 255
255 255 255
255 255 255
255 255 255
255 255 255
255 255 255
255 255 255
255 255 255
255 255 255
255 255 255
255 255 255
255 255 255
255 255 255
255 255 255
255 255 255
255 255 255
255 255 255
255 255 255
255 255 255
255 255 255
255 255 255
255 255 255
255 255 255
255 255 255
255 255 255
255 255 255
255 255 255
255 255 255
0 0 0
50 50 50
71 71 71
87 87 87
99 99 99
111 111 111
120 120 120
129 129 129
137 137 137
145 145 145
152 152 152
159 159 159
165 165 165
171 171 171
177 177 177
183 183 183
188 188 188
193 193 193
198 198 198
203 203 203
208 208 208
212 212 212
217 217 217
221 221 221
225 225 225
229 229 229
234 234 234
237 237 237
241 241 241
245 245 245
249 249 249
252 252 252
255 255 255
255 255 255
255 255 255
255 255 255
255 255 255
255 255 255
255 255 255
255 255 255
255 255 255
255 255 255
255 255 255
255 255 255
255 255 255
255 255 255
255 255 255
255 255 255
255 255 255
255 255 255
255 255 255
255 255 255
255 255 255
255 255 255
255 255 255
255 255 255
255 255 255
255 255 255
255 255 255
255 255 255
255 255 255
255 255 255
255 255 255
255 255 255
255 255 255
255 255 255
255 255 255
255 255 255
255 255 255
255 255 255
255 255 255
255 255 255
255 255 255
255 255 255
255 255 255
255 255 255
255 255 255
255 255 255
255 255 255
255 255 255
255 255 255
255 255 255
255 255 255
255 255 255
255 255 255
255 255 255
255 255 255
255 255 255
255 255 255
255 255 255
255 255 255
255 255 255
255 255 255
255 255 255
255 255 255
255 255 255
255 255 255
255 255 255
255 255 255
255 255 255
255 255 255
255 255 255
255 255 255
255 255 255
255 255 255
255 255 255
255 255 255
255 255 255
255 255 255
255 255 255
255 255 255
255 255 255
255 255 255
255 255 255
255 255 255
255 255 255
255 255 255
255 255 255
255 255 255
255 255 255
255 255 255
255 255 255
255 255 255
255 255 255
255 255 255
255 255 255
255 255 255
255 255 255
0 0 0
50 50 50
71 71 71
87 87 87
99 99 99
111 111 111
120 120 120
129 129 129
137 137 137
145 145 145
152 152 152
159 159 159
165 165 165
171 171 171
177 177 177
183 183 183
188 188 188
193 193 193
198 198 198
203 203 203
208 208 208
212 212 212
217 217 217
221 221 221
225 225 225
229 229 229
234 234 234
237 237 237
241 241 241
245 245 245
249 249 249
252 252 252
255 255 255
255 255 255
255 255 255
255 255 255
255 255 255
255 255 255
255 255 255
255 255 255
255 255 255
255 255 255
255 255 255
255 255 255
255 255 255
255 255 255
255 255 255
255 255 255
255 255 255
255 255 255
255 255 255
255 255 255
255 255 255
255 255 255
255 255 255
255 255 255
255 255 255
255 255 255
255 255 255
255 255 255
255 255 255
255 255 255
255 255 255
255 255 255
255 255 255
255 255 255
255 255 255
255 255 255
255 255 255
255 255 255
255 255 255
255 255 255
255 255 255
255 255 255
255 255 255
255 255 255
255 255 255
255 255 255
255 255 255
255 255 255
255 255 255
255 255 255
255 255 255
255 255 255
255 255 255
255 255 255
255 255 255
255 255 255
255 255 255
255 255 255
255 255 255
255 255 255
255 255 255
255 255 255
255 255 255
255 255 255
255 255 255
255 255 255
255 255 255
255 255 255
255 255 255
255 255 255
255 255 255
255 255 255
255 255 255
255 255 255
255 255 255
255 255 255
255 255 255
255 255 255
255 255 255
255 255 255
255 255 255
255 255 255
255 255 255
255 255 255
255 255 255
255 255 255
255 255 255
255 255 255
255 255 255
255 255 255
255 255 255
255 255 255
255 255 255
255 255 255
255 255 255
255 255 255
0 0 0
50 50 50
71 71 71
87 87 87
99 99 99
111 111 111
120 120 120
129 129 129
137 137 137
145 145 145
152 152 152
159 159 159
165 165 165
171 171 171
177 177 177
183 183 183
188 188 188
193 193 193
198 198 198
203 203 203
208 208 208
212 212 212
217 217 217
221 221 221
225 225 225
229 229 229
234 234 234
237 237 237
241 241 241
245 245 245
249 249 249
252 252 252
255 255 255
255 255 255
255 255 255
255 255 255
255 255 255
255 255 255
255 255 255
255 255 255
255 255 255
255 255 255
255 255 255
255 255 255
255 255 255
255 255 255
255 255 255
255 255 255
255 255 255
255 255 255
255 255 255
255 255 255
255 255 255
255 255 255
255 255 255
255 255 255
255 255 255
255 255 255
255 255 255
255 255 255
255 255 255
255 255 255
255 255 255
255 255 255
255 255 255
255 255 255
255 255 255
255 255 255
255 255 255
255 255 255
255 255 255
255 255 255
255 255 255
255 255 255
255 255 255
255 255 255
255 255 255
255 255 255
255 255 255
255 255 255
255 255 255
255 255 255
255 255 255
255 255 255
255 255 255
255 255 255
255 255 255
255 255 255
255 255 255
255 255 255
255 255 255
255 255 255
255 255 255
255 255 255
255 255 255
255 255 255
255 255 255
255 255 255
255 255 255
255 255 255
255 255 255
255 255 255
255 255 255
255 255 255
255 255 255
255 255 255
255 255 255
255 255 255
255 255 255
255 255 255
255 255 255
255 255 255
255 255 255
255 255 255
255 255 255
255 255 255
255 255 255
255 255 255
255 255 255
255 255 255
255 255 255
255 255 255
255 255 255
255 255 255
255 255 255
255 255 255
255 255 255
255 255 255
0 0 0
50 50 50
71 71 71
87 87 87
99 99 99
111 111 111
120 120 120
129 129 129
137 137 137
145 145 145
152 152 152
159 159 159
165 165 165
171 171 171
177 177 177
183 183 183
188 188 188
193 193 193
198 198 198
203 203 203
208 208 208
212 212 212
217 217 217
221 221 221
225 225 225
229 229 229
234 234 234
237 237 237
241 241 241
245 245 245
249 249 249
252 252 252
255 255 255
255 255 255
255 255 255
255 255 255
255 255 255
255 255 255
255 255 255
255 255 255
255 255 255
255 255 255
255 255 255
255 255 255
255 255 255
255 255 255
255 255 255
255 255 255
255 255 255
255 255 255
255 255 255
255 255 255
255 255 255
255 255 255
255 255 255
255 255 255
255 255 255
255 255 255
255 255 255
255 255 255
255 255 255
255 255 255
255 255 255
255 255 255
255 255 255
255 255 255
255 255 255
255 255 255
255 255 255
255 255 255
255 255 255
255 255 255
255 255 255
255 255 255
255 255 255
255 255 255
255 255 255
255 255 255
255 255 255
255 255 255
255 255 255
255 255 255
255 255 255
255 255 255
255 255 255
255 255 255
255 255 255
255 255 255
255 255 255
255 255 255
255 255 255
255 255 255
255 255 255
255 255 255
255 255 255
255 255 255
255 255 255
255 255 255
255 255 255
255 255 255
255 255 255
255 255 255
255 255 255
255 255 255
255 255 255
255 255 255
255 255 255
255 255 255
255 255 255
255 255 255
255 255 255
255 255 255
255 255 255
255 255 255
255 255 255
255 255 255
255 255 255
255 255 255
255 255 255
255 255 255
255 255 255
255 255 255
255 255 255
255 255 255
255 255 255
255 255 255
255 255 255
255 255 255
0 0 0
50 50 50
71 71 71
87 87 87
99 99 99
111 111 111
120 120 120
129 129 129
137 137 137
145 145 145
152 152 152
159 159 159
165 165 165
171 171 171
177 177 177
183 183 183
188 188 188
193 193 193
198 198 198
203 203 203
208 208 208
212 212 212
217 217 217
221 221 221
225 225 225
229 229 229
234 234 234
237 237 237
241 241 241
245 245 245
249 249 249
252 252 252
255 255 255
255 255 255
255 255 255
255 255 255
255 255 255
255 255 255
255 255 255
255 255 255
255 255 255
255 255 255
255 255 255
255 255 255
255 255 255
255 255 255
255 255 255
255 255 255
255 255 255
255 255 255
255 255 255
255 255 255
255 255 255
255 255 255
255 255 255
255 255 255
255 255 255
255 255 255
255 255 255
255 255 255
255 255 255
255 255 255
255 255 255
255 255 255
255 255 255
255 255 255
255 255 255
255 255 255
255 255 255
255 255 255
255 255 255
255 255 255
255 255 255
255 255 255
255 255 255
255 255 255
255 255 255
255 255 255
255 255 255
255 255 255
255 255 255
255 255 255
255 255 255
255 255 255
255 255 255
255 255 255
255 255 255
255 255 255
255 255 255
255 255 255
255 255 255
255 255 255
255 255 255
255 255 255
255 255 255
255 255 255
255 255 255
255 255 255
255 255 255
255 255 255
255 255 255
255 255 255
255 255 255
255 255 255
255 255 255
255 255 255
255 255 255
255 255 255
255 255 255
255 255 255
255 255 255
255 255 255
255 255 255
255 255 255
255 255 255
255 255 255
255 255 255
255 255 255
255 255 255
255 255 255
255 255 255
255 255 255
255 255 255
255 255 255
255 255 255
255 255 255
255 255 255
255 255 255
0 0 0
50 50 50
71 71 71
87 87 87
99 99 99
111 111 111
120 120 120
129 129 129
137 137 137
145 145 145
152 152 152
159 159 159
165 165 165
171 171 171
177 177 177
183 183 183
188 188 188
193 193 193
198 198 198
203 203 203
208 208 208
212 212 212
217 217 217
221 221 221
225 225 225
229 229 229
234 234 234
237 237 237
241 241 241
245 245 245
249 249 249
252 252 252
255 255 255
255 255 255
255 255 255
255 255 255
255 255 255
255 255 255
255 255 255
255 255 255
255 255 255
255 255 255
255 255 255
255 255 255
255 255 255
255 255 255
255 255 255
255 255 255
255 255 255
255 255 255
255 255 255
255 255 255
255 255 255
255 255 255
255 255 255
255 255 255
255 255 255
255 255 255
255 255 255
255 255 255
255 255 255
255 255 255
255 255 255
255 255 255
255 255 255
255 255 255
255 255 255
255 255 255
255 255 255
255 255 255
255 255 255
255 255 255
255 255 255
255 255 255
255 255 255
255 255 255
255 255 255
255 255 255
255 255 255
255 255 255
255 255 255
255 255 255
255 255 255
255 255 255
255 255 255
255 255 255
255 255 255
255 255 255
255 255 255
255 255 255
255 255 255
255 255 255
255 255 255
255 255 255
255 255 255
255 255 255
255 255 255
255 255 255
255 255 255
255 255 255
255 255 255
255 255 255
255 255 255
255 255 255
255 255 255
255 255 255
255 255 255
255 255 255
255 255 255
255 255 255
255 255 255
255 255 255
255 255 255
255 255 255
255 255 255
255 255 255
255 255 255
255 255 255
255 255 255
255 255 255
255 255 255
255 255 255
255 255 255
255 255 255
255 255 255
255 255 255
255 255 255
255 255 255
0 0 0
50 50 50
71 71 71
87 87 87
99 99 99
111 111 111
120 120 120
129 129 129
137 137 137
145 145 145
152 152 152
159 159 159
165 165 165
171 171 171
177 177 177
183 183 183
188 188 188
193 193 193
198 198 198
203 203 203
208 208 208
212 212 212
217 217 217
221 221 221
225 225 225
229 229 229
234 234 234
237 237 237
241 241 241
245 245 245
249 249 249
252 252 252
255 255 255
255 255 255
255 255 255
255 255 255
255 255 255
255 255 255
255 255 255
255 255 255
255 255 255
255 255 255
255 255 255
255 255 255
255 255 255
255 255 255
255 255 255
255 255 255
255 255 255
255 255 255
255 255 255
255 255 255
255 255 255
255 255 255
255 255 255
255 255 255
255 255 255
255 255 255
255 255 255
255 255 255
255 255 255
255 255 255
255 255 255
255 255 255
255 255 255
255 255 255
255 255 255
255 255 255
255 255 255
255 255 255
255 255 255
255 255 255
255 255 255
255 255 255
255 255 255
255 255 255
255 255 255
255 255 255
255 255 255
255 255 255
255 255 255
255 255 255
255 255 255
255 255 255
255 255 255
255 255 255
255 255 255
255 255 255
255 255 255
255 255 255
255 255 255
255 255 255
255 255 255
255 255 255
255 255 255
255 255 255
255 255 255
255 255 255
255 255 255
255 255 255
255 255 255
255 255 255
255 255 255
255 255 255
255 255 255
255 255 255
255 255 255
255 255 255
255 255 255
255 255 255
255 255 255
255 255 255
255 255 255
255 255 255
255 255 255
255 255 255
255 255 255
255 255 255
255 255 255
255 255 255
255 255 255
255 255 255
255 255 255
255 255 255
255 255 255
255 255 255
255 255 255
255 255 255
0 0 0
50 50 50
71 71 71
87 87 87
99 99 99
111 111 111
120 120 120
129 129 129
137 137 137
145 145 145
152 152 152
159 159 159
165 165 165
171 171 171
177 177 177
183 183 183
188 188 188
193 193 193
198 198 198
203 203 203
208 208 208
212 212 212
217 217 217
221 221 221
225 225 225
229 229 229
234 234 234
237 237 237
241 241 241
245 245 245
249 249 249
252 252 252
255 255 255
255 255 255
255 255 255
255 255 255
255 255 255
255 255 255
255 255 255
255 255 255
255 255 255
255 255 255
255 255 255
255 255 255
255 255 255
255 255 255
255 255 255
255 255 255
255 255 255
255 255 255
255 255 255
255 255 255
255 255 255
255 255 255
255 255 255
255 255 255
255 255 255
255 255 255
255 255 255
255 255 255
255 255 255
255 255 255
255 255 255
255 255 255
255 255 255
255 255 255
255 255 255
255 255 255
255 255 255
255 255 255
255 255 255
255 255 255
255 255 255
255 255 255
255 255 255
255 255 255
255 255 255
255 255 255
255 255 255
255 255 255
255 255 255
255 255 255
255 255 255
255 255 255
255 255 255
255 255 255
255 255 255
255 255 255
255 255 255
255 255 255
255 255 255
255 255 255
255 255 255
255 255 255
255 255 255
255 255 255
255 255 255
255 255 255
255 255 255
255 255 255
255 255 255
255 255 255
255 255 255
255 255 255
255 255 255
255 255 255
255 255 255
255 255 255
255 255 255
255 255 255
255 255 255
255 255 255
255 255 255
255 255 255
255 255 255
255 255 255
255 255 255
255 255 255
255 255 255
255 255 255
255 255 255
255 255 255
255 255 255
255 255 255
255 255 255
255 255 255
255 255 255
255 255 255
0 0 0
50 50 50
71 71 71
87 87 87
99 99 99
111 111 111
120 120 120
129 129 129
137 137 137
145 145 145
152 152 152
159 159 159
165 165 165
171 171 171
177 177 177
183 183 183
188 188 188
193 193 193
198 198 198
203 203 203
208 208 208
212 212 212
217 217 217
221 221 221
225 225 225
229 229 229
234 234 234
237 237 237
241 241 241
245 245 245
249 249 249
252 252 252
255 255 255
255 255 255
255 255 255
255 255 255
255 255 255
255 255 255
255 255 255
255 255 255
255 255 255
255 255 255
255 255 255
255 255 255
255 255 255
255 255 255
255 255 255
255 255 255
255 255 255
255 255 255
255 255 255
255 255 255
255 255 255
255 255 255
255 255 255
255 255 255
255 255 255
255 255 255
255 255 255
255 255 255
255 255 255
255 255 255
255 255 255
255 255 255
255 255 255
255 255 255
255 255 255
255 255 255
255 255 255
255 255 255
255 255 255
255 255 255
255 255 255
255 255 255
255 255 255
255 255 255
255 255 255
255 255 255
255 255 255
255 255 255
255 255 255
255 255 255
255 255 255
255 255 255
255 255 255
255 255 255
255 255 255
255 255 255
255 255 255
255 255 255
255 255 255
255 255 255
255 255 255
255 255 255
255 255 255
255 255 255
255 255 255
255 255 255
255 255 255
255 255 255
255 255 255
255 255 255
255 255 255
255 255 255
255 255 255
255 255 255
255 255 255
255 255 255
255 255 255
255 255 255
255 255 255
255 255 255
255 255 255
255 255 255
255 255 255
255 255 255
255 255 255
255 255 255
255 255 255
255 255 255
255 255 255
255 255 255
255 255 255
255 255 255
255 255 255
255 255 255
255 255 255
255 255 255
0 0 0
50 50 50
71 71 71
87 87 87
99 99 99
111 111 111
120 120 120
129 129 129
137 137 137
145 145 145
152 152 152
159 159 159
165 165 165
171 171 171
177 177 177
183 183 183
188 188 188
193 193 193
198 198 198
203 203 203
208 208 208
212 212 212
217 217 217
221 221 221
225 225 225
229 229 229
234 234 234
237 237 237
241 241 241
245 245 245
249 249 249
252 252 252
255 255 255
255 255 255
255 255 255
255 255 255
255 255 255
255 255 255
255 255 255
255 255 255
255 255 255
255 255 255
255 255 255
255 255 255
255 255 255
255 255 255
255 255 255
255 255 255
255 255 255
255 255 255
255 255 255
255 255 255
255 255 255
255 255 255
255 255 255
255 255 255
255 255 255
255 255 255
255 255 255
255 255 255
255 255 255
255 255 255
255 255 255
255 255 255
255 255 255
255 255 255
255 255 255
255 255 255
255 255 255
255 255 255
255 255 255
255 255 255
255 255 255
255 255 255
255 255 255
255 255 255
255 255 255
255 255 255
255 255 255
255 255 255
255 255 255
255 255 255
255 255 255
255 255 255
255 255 255
255 255 255
255 255 255
255 255 255
255 255 255
255 255 255
255 255 255
255 255 255
255 255 255
255 255 255
255 255 255
255 255 255
255 255 255
255 255 255
255 255 255
255 255 255
255 255 255
255 255 255
255 255 255
255 255 255
255 255 255
255 255 255
255 255 255
255 255 255
255 255 255
255 255 255
255 255 255
255 255 255
255 255 255
255 255 255
255 255 255
255 255 255
255 255 255
255 255 255
255 255 255
255 255 255
255 255 255
255 255 255
255 255 255
255 255 255
255 255 255
255 255 255
255 255 255
255 255 255
0 0 0
49 49 49
69 69 69
83 83 83
94 94 94
103 103 103
111 111 111
118 118 118
124 124 124
129 129 129
134 134 134
139 139 139
143 143 143
147 147 147
150 150 150
154 154 154
157 157 157
159 159 159
162 162 162
165 165 165
167 167 167
169 169 169
171 171 171
173 173 173
175 175 175
177 177 177
179 179 179
181 181 181
182 182 182
184 184 184
185 185 185
187 187 187
188 188 188
189 189 189
190 190 190
192 192 192
193 193 193
194 194 194
195 195 195
196 196 196
197 197 197
198 198 198
199 199 199
200 200 200
201 201 201
201 201 201
202 202 202
203 203 203
204 204 204
204 204 204
205 205 205
206 206 206
207 207 207
207 207 207
208 208 208
208 208 208
209 209 209
210 210 210
210 210 210
211 211 211
211 211 211
212 212 212
212 212 212
213 213 213
213 213 213
214 214 214
214 214 214
215 215 215
215 215 215
216 216 216
216 216 216
217 217 217
217 217 217
217 217 217
218 218 218
218 218 218
219 219 219
219 219 219
219 219 219
220 220 220
220 220 220
220 220 220
221 221 221
221 221 221
221 221 221
222 222 222
222 222 222
222 222 222
223 223 223
223 223 223
223 223 223
223 223 223
224 224 224
224 224 224
224 224 224
225 225 225
225 225 225
225 225 225
225 225 225
226 226 226
226 226 226
226 226 226
226 226 226
227 227 227
227 227 227
227 227 227
227 227 227
227 227 227
228 228 228
228 228 228
228 228 228
228 228 228
228 228 228
229 229 229
229 229 229
229 229 229
229 229 229
229 229 229
230 230 230
230 230 230
230 230 230
230 230 230
230 230 230
230 230 230
231 231 231
231 231 231
231 231 231
231 231 231
0 0 0
49 49 49
69 69 69
83 83 83
94 94 94
103 103 103
111 111 111
118 118 118
124 124 124
129 129 129
134 134 134
139 139 139
143 143 143
147 147 147
150 150 150
154 154 154
157 157 157
159 159 159
162 162 162
165 165 165
167 167 167
169 169 169
171 171 171
173 173 173
175 175 175
177 177 177
179 179 179
181 181 181
182 182 182
184 184 184
185 185 185
187 187 187
188 188 188
189 189 189
190 190 190
192 192 192
193 193 193
194 194 194
195 195 195
196 196 196
197 197 197
198 198 198
199 199 199
200 200 200
201 201 201
201 201 201
202 202 202
203 203 203
204 204 204
204 204 204
205 205 205
206 206 206
207 207 207
207 207 207
208 208 208
208 208 208
209 209 209
210 210 210
210 210 210
211 211 211
211 211 211
212 212 212
212 212 212
213 213 213
213 213 213
214 214 214
214 214 214
215 215 215
215 215 215
216 216 216
216 216 216
217 217 217
217 217 217
217 217 217
218 218 218
218 218 218
219 219 219
219 219 219
219 219 219
220 220 220
220 220 220
220 220 220
221 221 221
221 221 221
221 221 221
222 222 222
222 222 222
222 222 222
223 223 223
223 223 223
223 223 223
223 223 223
224 224 224
224 224 224
224 224 224
225 225 225
225 225 225
225 225 225
225 225 225
226 226 226
226 226 226
226 226 226
226 226 226
227 227 227
227 227 227
227 227 227
227 227 227
227 227 227
228 228 228
228 228 228
228 228 228
228 228 228
228 228 228
229 229 229
229 229 229
229 229 229
229 229 229
229 229 229
230 230 230
230 230 230
230 230 230
230 230 230
230 230 230
230 230 230
231 231 231
231 231 231
231 231 231
231 231 231
0 0 0
49 49 49
69 69 69
83 83 83
94 94 94
103 103 103
111 111 111
118 118 118
124 124 124
129 129 129
134 134 134
139 139 139
143 143 143
147 147 147
150 150 150
154 154 154
157 157 157
159 159 159
162 162 162
165 165 165
167 167 167
169 169 169
171 171 171
173 173 173
175 175 175
177 177 177
179 179 179
181 181 181
182 182 182
184 184 184
185 185 185
187 187 187
188 188 188
189 189 189
190 190 190
192 192 192
193 193 193
194 194 194
195 195 195
196 196 196
197 197 197
198 198 198
199 199 199
200 200 200
201 201 201
201 201 201
202 202 202
203 203 203
204 204 204
204 204 204
205 205 205
206 206 206
207 207 207
207 207 207
208 208 208
208 208 208
209 209 209
210 210 210
210 210 210
211 211 211
211 211 211
212 212 212
212 212 212
213 213 213
213 213 213
214 214 214
214 214 214
215 215 215
215 215 215
216 216 216
216 216 216
217 217 217
217 217 217
217 217 217
218 218 218
218 218 218
219 219 219
219 219 219
219 219 219
220 220 220
220 220 220
220 220 220
221 221 221
221 221 221
221 221 221
222 222 222
222 222 222
222 222 222
223 223 223
223 223 223
223 223 223
223 223 223
224 224 224
224 224 224
224 224 224
225 225 225
225 225 225
225 225 225
225 225 225
226 226 226
226 226 226
226 226 226
226 226 226
227 227 227
227 227 227
227 227 227
227 227 227
227 227 227
228 228 228
228 228 228
228 228 228
228 228 228
228 228 228
229 229 229
229 229 229
229 229 229
229 229 229
229 229 229
230 230 230
230 230 230
230 230 230
230 230 230
230 230 230
230 230 230
231 231 231
231 231 231
231 231 231
231 231 231
0 0 0
49 49 49
69 69 69
83 83 83
94 94 94
103 103 103
111 111 111
118 118 118
124 124 124
129 129 129
134 134 134
139 139 139
143 143 143
147 147 147
150 150 150
154 154 154
157 157 157
159 159 159
162 162 162
165 165 165
167 167 167
169 169 169
171 171 171
173 173 173
175 175 175
177 177 177
179 179 179
181 181 181
182 182 182
184 184 184
185 185 185
187 187 187
188 188 188
189 189 189
190 190 190
192 192 192
193 193 193
194 194 194
195 195 195
196 196 196
197 197 197
198 198 198
199 199 199
200 200 200
201 201 201
201 201 201
202 202 202
203 203 203
204 204 204
204 204 204
205 205 205
206 206 206
207 207 207
207 207 207
208 208 208
208 208 208
209 209 209
210 210 210
210 210 210
211 211 211
211 211 211
212 212 212
212 212 212
213 213 213
213 213 213
214 214 214
214 214 214
215 215 215
215 215 215
216 216 216
216 216 216
217 217 217
217 217 217
217 217 217
218 218 218
218 218 218
219 219 219
219 219 219
219 219 219
220 220 220
220 220 220
220 220 220
221 221 221
221 221 221
221 221 221
222 222 222
222 222 222
222 222 222
223 223 223
223 223 223
223 223 223
223 223 223
224 224 224
224 224 224
224 224 224
225 225 225
225 225 225
225 225 225
225 225 225
226 226 226
226 226 226
226 226 226
226 226 226
227 227 227
227 227 227
227 227 227
227 227 227
227 227 227
228 228 228
228 228 228
228 228 228
228 228 228
228 228 228
229 229 229
229 229 229
229 229 229
229 229 229
229 229 229
230 230 230
230 230 230
230 230 230
230 230 230
230 230 230
230 230 230
231 231 231
231 231 231
231 231 231
231 231 231
0 0 0
49 49 49
69 69 69
83 83 83
94 94 94
103 103 103
111 111 111
118 118 118
124 124 124
129 129 129
134 134 134
139 139 139
143 143 143
147 147 147
150 150 150
154 154 154
157 157 157
159 159 159
162 162 162
165 165 165
167 167 167
169 169 169
171 171 171
173 173 173
175 175 175
177 177 177
179 179 179
181 181 181
182 182 182
184 184 184
185 185 185
187 187 187
188 188 188
189 189 189
190 190 190
192 192 192
193 193 193
194 194 194
195 195 195
196 196 196
197 197 197
198 198 198
199 199 199
200 200 200
201 201 201
201 201 201
202 202 202
203 203 203
204 204 204
204 204 204
205 205 205
206 206 206
207 207 207
207 207 207
208 208 208
208 208 208
209 209 209
210 210 210
210 210 210
211 211 211
211 211 211
212 212 212
212 212 212
213 213 213
213 213 213
214 214 214
214 214 214
215 215 215
215 215 215
216 216 216
216 216 216
217 217 217
217 217 217
217 217 217
218 218 218
218 218 218
219 219 219
219 219 219
219 219 219
220 220 220
220 220 220
220 220 220
221 221 221
221 221 221
221 221 221
222 222 222
222 222 222
222 222 222
223 223 223
223 223 223
223 223 223
223 223 223
224 224 224
224 224 224
224 224 224
225 225 225
225 225 225
225 225 225
225 225 225
226 226 226
226 226 226
226 226 226
226 226 226
227 227 227
227 227 227
227 227 227
227 227 227
227 227 227
228 228 228
228 228 228
228 228 228
228 228 228
228 228 228
229 229 229
229 229 229
229 229 229
229 229 229
229 229 229
230 230 230
230 230 230
230 230 230
230 230 230
230 230 230
230 230 230
231 231 231
231 231 231
231 231 231
231 231 231
0 0 0
49 49 49
69 69 69
83 83 83
94 94 94
103 103 103
111 111 111
118 118 118
124 124 124
129 129 129
134 134 134
139 139 139
143 143 143
147 147 147
150 150 150
154 154 154
157 157 157
159 159 159
162 162 162
165 165 165
167 167 167
169 169 169
171 171 171
173 173 173
175 175 175
177 177 177
179 179 179
181 181 181
182 182 182
184 184 184
185 185 185
187 187 187
188 188 188
189 189 189
190 190 190
192 192 192
193 193 193
194 194 194
195 195 195
196 196 196
197 197 197
198 198 198
199 199 199
200 200 200
201 201 201
201 201 201
202 202 202
203 203 203
204 204 204
204 204 204
205 205 205
206 206 206
207 207 207
207 207 207
208 208 208
208 208 208
209 209 209
210 210 210
210 210 210
211 211 211
211 211 211
212 212 212
212 212 212
213 213 213
213 213 213
214 214 214
214 214 214
215 215 215
215 215 215
216 216 216
216 216 216
217 217 217
217 217 217
217 217 217
218 218 218
218 218 218
219 219 219
219 219 219
219 219 219
220 220 220
220 220 220
220 220 220
221 221 221
221 221 221
221 221 221
222 222 222
222 222 222
222 222 222
223 223 223
223 223 223
223 223 223
223 223 223
224 224 224
224 224 224
224 224 224
225 225 225
225 225 225
225 225 225
225 225 225
226 226 226
226 226 226
226 226 226
226 226 226
227 227 227
227 227 227
227 227 227
227 227 227
227 227 227
228 228 228
228 228 228
228 228 228
228 228 228
228 228 228
229 229 229
229 229 229
229 229 229
229 229 229
229 229 229
230 230 230
230 230 230
230 230 230
230 230 230
230 230 230
230 230 230
231 231 231
231 231 231
231 231 231
231 231 231
0 0 0
49 49 49
69 69 69
83 83 83
94 94 94
103 103 103
111 111 111
118 118 118
124 124 124
129 129 129
134 134 134
139 139 139
143 143 143
147 147 147
150 150 150
154 154 154
157 157 157
159 159 159
162 162 162
165 165 165
167 167 167
169 169 169
171 171 171
173 173 173
175 175 175
177 177 177
179 179 179
181 181 181
182 182 182
184 184 184
185 185 185
187 187 187
188 188 188
189 189 189
190 190 190
192 192 192
193 193 193
194 194 194
195 195 195
196 196 196
197 197 197
198 198 198
199 199 199
200 200 200
201 201 201
201 201 201
202 202 202
203 203 203
204 204 204
204 204 204
205 205 205
206 206 206
207 207 207
207 207 207
208 208 208
208 208 208
209 209 209
210 210 210
210 210 210
211 211 211
211 211 211
212 212 212
212 212 212
213 213 213
213 213 213
214 214 214
214 214 214
215 215 215
215 215 215
216 216 216
216 216 216
217 217 217
217 217 217
217 217 217
218 218 218
218 218 218
219 219 219
219 219 219
219 219 219
220 220 220
220 220 220
220 220 220
221 221 221
221 221 221
221 221 221
222 222 222
222 222 222
222 222 222
223 223 223
223 223 223
223 223 223
223 223 223
224 224 224
224 224 224
224 224 224
225 225 225
225 225 225
225 225 225
225 225 225
226 226 226
226 226 226
226 226 226
226 226 226
227 227 227
227 227 227
227 227 227
227 227 227
227 227 227
228 228 228
228 228 228
228 228 228
228 228 228
228 228 228
229 229 229
229 229 229
229 229 229
229 229 229
229 229 229
230 230 230
230 230 230
230 230 230
230 230 230
230 230 230
230 230 230
231 231 231
231 231 231
231 231 231
231 231 231
0 0 0
49 49 49
69 69 69
83 83 83
94 94 94
103 103 103
111 111 111
118 118 118
124 124 124
129 129 129
134 134 134
139 139 139
143 143 143
147 147 147
150 150 150
154 154 154
157 157 157
159 159 159
162 162 162
165 165 165
167 167 167
169 169 169
171 171 171
173 173 173
175 175 175
177 177 177
179 179 179
181 181 181
182 182 182
184 184 184
185 185 185
187 187 187
188 188 188
189 189 189
190 190 190
192 192 192
193 193 193
194 194 194
195 195 195
196 196 196
197 197 197
198 198 198
199 199 199
200 200 200
201 201 201
201 201 201
202 202 202
203 203 203
204 204 204
204 204 204
205 205 205
206 206 206
207 207 207
207 207 207
208 208 208
208 208 208
209 209 209
210 210 210
210 210 210
211 211 211
211 211 211
212 212 212
212 212 212
213 213 213
213 213 213
214 214 214
214 214 214
215 215 215
215 215 215
216 216 216
216 216 216
217 217 217
217 217 217
217 217 217
218 218 218
218 218 218
219 219 219
219 219 219
219 219 219
220 220 220
220 220 220
220 220 220
221 221 221
221 221 221
221 221 221
222 222 222
222 222 222
222 222 222
223 223 223
223 223 223
223 223 223
223 223 223
224 224 224
224 224 224
224 224 224
225 225 225
225 225 225
225 225 225
225 225 225
226 226 226
226 226 226
226 226 226
226 226 226
227 227 227
227 227 227
227 227 227
227 227 227
227 227 227
228 228 228
228 228 228
228 228 228
228 228 228
228 228 228
229 229 229
229 229 229
229 229 229
229 229 229
229 229 229
230 230 230
230 230 230
230 230 230
230 230 230
230 230 230
230 230 230
231 231 231
231 231 231
231 231 231
231 231 231
0 0 0
49 49 49
69 69 69
83 83 83
94 94 94
103 103 103
111 111 111
118 118 118
124 124 124
129 129 129
134 134 134
139 139 139
143 143 143
147 147 147
150 150 150
154 154 154
157 157 157
159 159 159
162 162 162
165 165 165
167 167 167
169 169 169
171 171 171
173 173 173
175 175 175
177 177 177
179 179 179
181 181 181
182 182 182
184 184 184
185 185 185
187 187 187
188 188 188
189 189 189
190 190 190
192 192 192
193 193 193
194 194 194
195 195 195
196 196 196
197 197 197
198 198 198
199 199 199
200 200 200
201 201 201
201 201 201
202 202 202
203 203 203
204 204 204
204 204 204
205 205 205
206 206 206
207 207 207
207 207 207
208 208 208
208 208 208
209 209 209
210 210 210
210 210 210
211 211 211
211 211 211
212 212 212
212 212 212
213 213 213
213 213 213
214 214 214
214 214 214
215 215 215
215 215 215
216 216 216
216 216 216
217 217 217
217 217 217
217 217 217
218 218 218
218 218 218
219 219 219
219 219 219
219 219 219
220 220 220
220 220 220
220 220 220
221 221 221
221 221 221
221 221 221
222 222 222
222 222 222
222 222 222
223 223 223
223 223 223
223 223 223
223 223 223
224 224 224
224 224 224
224 224 224
225 225 225
225 225 225
225 225 225
225 225 225
226 226 226
226 226 226
226 226 226
226 226 226
227 227 227
227 227 227
227 227 227
227 227 227
227 227 227
228 228 228
228 228 228
228 228 228
228 228 228
228 228 228
229 229 229
229 229 229
229 229 229
229 229 229
229 229 229
230 230 230
230 230 230
230 230 230
230 230 230
230 230 230
230 230 230
231 231 231
231 231 231
231 231 231
231 231 231
0 0 0
49 49 49
69 69 69
83 83 83
94 94 94
103 103 103
111 111 111
118 118 118
124 124 124
129 129 129
134 134 134
139 139 139
143 143 143
147 147 147
150 150 150
154 154 154
157 157 157
159 159 159
162 162 162
165 165 165
167 167 167
169 169 169
171 171 171
173 173 173
175 175 175
177 177 177
179 179 179
181 181 181
182 182 182
184 184 184
185 185 185
187 187 187
188 188 188
189 189 189
190 190 190
192 192 192
193 193 193
194 194 194
195 195 195
196 196 196
197 197 197
198 198 198
199 199 199
200 200 200
201 201 201
201 201 201
202 202 202
203 203 203
204 204 204
204 204 204
205 205 205
206 206 206
207 207 207
207 207 207
208 208 208
208 208 208
209 209 209
210 210 210
210 210 210
211 211 211
211 211 211
212 212 212
212 212 212
213 213 213
213 213 213
214 214 214
214 214 214
215 215 215
215 215 215
216 216 216
216 216 216
217 217 217
217 217 217
217 217 217
218 218 218
218 218 218
219 219 219
219 219 219
219 219 219
220 220 220
220 220 220
220 220 220
221 221 221
221 221 221
221 221 221
222 222 222
222 222 222
222 222 222
223 223 223
223 223 223
223 223 223
223 223 223
224 224 224
224 224 224
224 224 224
225 225 225
225 225 225
225 225 225
225 225 225
226 226 226
226 226 226
226 226 226
226 226 226
227 227 227
227 227 227
227 227 227
227 227 227
227 227 227
228 228 228
228 228 228
228 228 228
228 228 228
228 228 228
229 229 229
229 229 229
229 229 229
229 229 229
229 229 229
230 230 230
230 230 230
230 230 230
230 230 230
230 230 230
230 230 230
231 231 231
231 231 231
231 231 231
231 231 231
0 0 0
49 49 49
69 69 69
83 83 83
94 94 94
103 103 103
111 111 111
118 118 118
124 124 124
129 129 129
134 134 134
139 139 139
143 143 143
147 147 147
150 150 150
154 154 154
157 157 157
159 159 159
162 162 162
165 165 165
167 167 167
169 169 169
171 171 171
173 173 173
175 175 175
177 177 177
179 179 179
181 181 181
182 182 182
184 184 184
185 185 185
187 187 187
188 188 188
189 189 189
190 190 190
192 192 192
193 193 193
194 194 194
195 195 195
196 196 196
197 197 197
198 198 198
199 199 199
200 200 200
201 201 201
201 201 201
202 202 202
203 203 203
204 204 204
204 204 204
205 205 205
206 206 206
207 207 207
207 207 207
208 208 208
208 208 208
209 209 209
210 210 210
210 210 210
211 211 211
211 211 211
212 212 212
212 212 212
213 213 213
213 213 213
214 214 214
214 214 214
215 215 215
215 215 215
216 216 216
216 216 216
217 217 217
217 217 217
217 217 217
218 218 218
218 218 218
219 219 219
219 219 219
219 219 219
220 220 220
220 220 220
220 220 220
221 221 221
221 221 221
221 221 221
222 222 222
222 222 222
222 222 222
223 223 223
223 223 223
223 223 223
223 223 223
224 224 224
224 224 224
224 224 224
225 225 225
225 225 225
225 225 225
225 225 225
226 226 226
226 226 226
226 226 226
226 226 226
227 227 227
227 227 227
227 227 227
227 227 227
227 227 227
228 228 228
228 228 228
228 228 228
228 228 228
228 228 228
229 229 229
229 229 229
229 229 229
229 229 229
229 229 229
230 230 230
230 230 230
230 230 230
230 230 230
230 230 230
230 230 230
231 231 231
231 231 231
231 231 231
231 231 231
0 0 0
49 49 49
69 69 69
83 83 83
94 94 94
103 103 103
111 111 111
118 118 118
124 124 124
129 129 129
134 134 134
139 139 139
143 143 143
147 147 147
150 150 150
154 154 154
157 157 157
159 159 159
162 162 162
165 165 165
167 167 167
169 169 169
171 171 171
173 173 173
175 175 175
177 177 177
179 179 179
181 181 181
182 182 182
184 184 184
185 185 185
187 187 187
188 188 188
189 189 189
190 190 190
192 192 192
193 193 193
194 194 194
195 195 195
196 196 196
197 197 197
198 198 198
199 199 199
200 200 200
201 201 201
201 201 201
202 202 202
203 203 203
204 204 204
204 204 204
205 205 205
206 206 206
207 207 207
207 207 207
208 208 208
208 208 208
209 209 209
210 210 210
210 210 210
211 211 211
211 211 211
212 212 212
212 212 212
213 213 213
213 213 213
214 214 214
214 214 214
215 215 215
215 215 215
216 216 216
216 216 216
217 217 217
217 217 217
217 217 217
218 218 218
218 218 218
219 219 219
219 219 219
219 219 219
220 220 220
220 220 220
220 220 220
221 221 221
221 221 221
221 221 221
222 222 222
222 222 222
222 222 222
223 223 223
223 223 223
223 223 223
223 223 223
224 224 224
224 224 224
224 224 224
225 225 225
225 225 225
225 225 225
225 225 225
226 226 226
226 226 226
226 226 226
226 226 226
227 227 227
227 227 227
227 227 227
227 227 227
227 227 227
228 228 228
228 228 228
228 228 228
228 228 228
228 228 228
229 229 229
229 229 229
229 229 229
229 229 229
229 229 229
230 230 230
230 230 230
230 230 230
230 230 230
230 230 230
230 230 230
231 231 231
231 231 231
231 231 231
231 231 231
0 0 0
49 49 49
69 69 69
83 83 83
94 94 94
103 103 103
111 111 111
118 118 118
124 124 124
129 129 129
134 134 134
139 139 139
143 143 143
147 147 147
150 150 150
154 154 154
157 157 157
159 159 159
162 162 162
165 165 165
167 167 167
169 169 169
171 171 171
173 173 173
175 175 175
177 177 177
179 179 179
181 181 181
182 182 182
184 184 184
185 185 185
187 187 187
188 188 188
189 189 189
190 190 190
192 192 192
193 193 193
194 194 194
195 195 195
196 196 196
197 197 197
198 198 198
199 199 199
200 200 200
201 201 201
201 201 201
202 202 202
203 203 203
204 204 204
204 204 204
205 205 205
206 206 206
207 207 207
207 207 207
208 208 208
208 208 208
209 209 209
210 210 210
210 210 210
211 211 211
211 211 211
212 212 212
212 212 212
213 213 213
213 213 213
214 214 214
214 214 214
215 215 215
215 215 215
216 216 216
216 216 216
217 217 217
217 217 217
217 217 217
218 218 218
218 218 218
219 219 219
219 219 219
219 219 219
220 220 220
220 220 220
220 220 220
221 221 221
221 221 221
221 221 221
222 222 222
222 222 222
222 222 222
223 223 223
223 223 223
223 223 223
223 223 223
224 224 224
224 224 224
224 224 224
225 225 225
225 225 225
225 225 225
225 225 225
226 226 226
226 226 226
226 226 226
226 226 226
227 227 227
227 227 227
227 227 227
227 227 227
227 227 227
228 228 228
228 228 228
228 228 228
228 228 228
228 228 228
229 229 229
229 229 229
229 229 229
229 229 229
229 229 229
230 230 230
230 230 230
230 230 230
230 230 230
230 230 230
230 230 230
231 231 231
231 231 231
231 231 231
231 231 231
0 0 0
49 49 49
69 69 69
83 83 83
94 94 94
103 103 103
111 111 111
118 118 118
124 124 124
129 129 129
134 134 134
139 139 139
143 143 143
147 147 147
150 150 150
154 154 154
157 157 157
159 159 159
162 162 162
165 165 165
167 167 167
169 169 169
171 171 171
173 173 173
175 175 175
177 177 177
179 179 179
181 181 181
182 182 182
184 184 184
185 185 185
187 187 187
188 188 188
189 189 189
190 190 190
192 192 192
193 193 193
194 194 194
195 195 195
196 196 196
197 197 197
198 198 198
199 199 199
200 200 200
201 201 201
201 201 201
202 202 202
203 203 203
204 204 204
204 204 204
205 205 205
206 206 206
207 207 207
207 207 207
208 208 208
208 208 208
209 209 209
210 210 210
210 210 210
211 211 211
211 211 211
212 212 212
212 212 212
213 213 213
213 213 213
214 214 214
214 214 214
215 215 215
215 215 215
216 216 216
216 216 216
217 217 217
217 217 217
217 217 217
218 218 218
218 218 218
219 219 219
219 219 219
219 219 219
220 220 220
220 220 220
220 220 220
221 221 221
221 221 221
221 221 221
222 222 222
222 222 222
222 222 222
223 223 223
223 223 223
223 223 223
223 223 223
224 224 224
224 224 224
224 224 224
225 225 225
225 225 225
225 225 225
225 225 225
226 226 226
226 226 226
226 226 226
226 226 226
227 227 227
227 227 227
227 227 227
227 227 227
227 227 227
228 228 228
228 228 228
228 228 228
228 228 228
228 228 228
229 229 229
229 229 229
229 229 229
229 229 229
229 229 229
230 230 230
230 230 230
230 230 230
230 230 230
230 230 230
230 230 230
231 231 231
231 231 231
231 231 231
231 231 231
0 0 0
49 49 49
69 69 69
83 83 83
94 94 94
103 103 103
111 111 111
118 118 118
124 124 124
129 129 129
134 134 134
139 139 139
143 143 143
147 147 147
150 150 150
154 154 154
157 157 157
159 159 159
162 162 162
165 165 165
167 167 167
169 169 169
171 171 171
173 173 173
175 175 175
177 177 177
179 179 179
181 181 181
182 182 182
184 184 184
185 185 185
187 187 187
188 188 188
189 189 189
190 190 190
192 192 192
193 193 193
194 194 194
195 195 195
196 196 196
197 197 197
198 198 198
199 199 199
200 200 200
201 201 201
201 201 201
202 202 202
203 203 203
204 204 204
204 204 204
205 205 205
206 206 206
207 207 207
207 207 207
208 208 208
208 208 208
209 209 209
210 210 210
210 210 210
211 211 211
211 211 211
212 212 212
212 212 212
213 213 213
213 213 213
214 214 214
214 214 214
215 215 215
215 215 215
216 216 216
216 216 216
217 217 217
217 217 217
217 217 217
218 218 218
218 218 218
219 219 219
219 219 219
219 219 219
220 220 220
220 220 220
220 220 220
221 221 221
221 221 221
221 221 221
222 222 222
222 222 222
222 222 222
223 223 223
223 223 223
223 223 223
223 223 223
224 224 224
224 224 224
224 224 224
225 225 225
225 225 225
225 225 225
225 225 225
226 226 226
226 226 226
226 226 226
226 226 226
227 227 227
227 227 227
227 227 227
227 227 227
227 227 227
228 228 228
228 228 228
228 228 228
228 228 228
228 228 228
229 229 229
229 229 229
229 229 229
229 229 229
229 229 229
230 230 230
230 230 230
230 230 230
230 230 230
230 230 230
230 230 230
231 231 231
231 231 231
231 231 231
231 231 231
0 0 0
49 49 49
69 69 69
83 83 83
94 94 94
103 103 103
111 111 111
118 118 118
124 124 124
129 129 129
134 134 134
139 139 139
143 143 143
147 147 147
150 150 150
154 154 154
157 157 157
159 159 159
162 162 162
165 165 165
167 167 167
169 169 169
171 171 171
173 173 173
175 175 175
177 177 177
179 179 179
181 181 181
182 182 182
184 184 184
185 185 185
187 187 187
188 188 188
189 189 189
190 190 190
192 192 192
193 193 193
194 194 194
195 195 195
196 196 196
197 197 197
198 198 198
199 199 199
200 200 200
201 201 201
201 201 201
202 202 202
203 203 203
204 204 204
204 204 204
205 205 205
206 206 206
207 207 207
207 207 207
208 208 208
208 208 208
209 209 209
210 210 210
210 210 210
211 211 211
211 211 211
212 212 212
212 212 212
213 213 213
213 213 213
214 214 214
214 214 214
215 215 215
215 215 215
216 216 216
216 216 216
217 217 217
217 217 217
217 217 217
218 218 218
218 218 218
219 219 219
219 219 219
219 219 219
220 220 220
220 220 220
220 220 220
221 221 221
221 221 221
221 221 221
222 222 222
222 222 222
222 222 222
223 223 223
223 223 223
223 223 223
223 223 223
224 224 224
224 224 224
224 224 224
225 225 225
225 225 225
225 225 225
225 225 225
226 226 226
226 226 226
226 226 226
226 226 226
227 227 227
227 227 227
227 227 227
227 227 227
227 227 227
228 228 228
228 228 228
228 228 228
228 228 228
228 228 228
229 229 229
229 229 229
229 229 229
229 229 229
229 229 229
230 230 230
230 230 230
230 230 230
230 230 230
230 230 230
230 230 230
231 231 231
231 231 231
231 231 231
231 231 231
