P3
64 32
255
128 128 128
128 128 128
128 128 128
128 128 128
128 128 128
128 128 128
128 128 128
128 128 128
128 128 128
128 128 128
128 128 128
128 128 128
128 128 128
128 128 128
128 128 128
128 128 128
128 128 128
128 128 128
128 128 128
128 128 128
128 128 128
128 128 128
128 128 128
128 128 128
128 128 128
128 128 128
128 128 128
128 128 128
128 128 128
128 128 128
128 128 128
128 128 128
188 188 188
188 188 188
188 188 188
188 188 188
188 188 188
188 188 188
188 188 188
188 188 188
188 188 188
188 188 188
188 188 188
188 188 188
188 188 188
188 188 188
188 188 188
188 188 188
188 188 188
188 188 188
188 188 188
188 188 188
188 188 188
188 188 188
188 188 188
188 188 188
188 188 188
188 188 188
188 188 188
188 188 188
188 188 188
188 188 188
188 188 188
188 188 188
128 128 128
128 128 128
128 128 128
128 128 128
128 128 128
128 128 128
128 128 128
128 128 128
128 128 128
128 128 128
128 128 128
128 128 128
128 128 128
128 128 128
128 128 128
128 128 128
128 128 128
128 128 128
128 128 128
128 128 128
128 128 128
128 128 128
128 128 128
128 128 128
128 128 128
128 128 128
128 128 128
128 128 128
128 128 128
128 128 128
128 128 128
128 128 128
188 188 188
188 188 188
188 188 188
188 188 188
188 188 188
188 188 188
188 188 188
188 188 188
188 188 188
188 188 188
188 188 188
188 188 188
188 188 188
188 188 188
188 188 188
188 188 188
188 188 188
188 188 188
188 188 188
188 188 188
188 188 188
188 188 188
188 188 188
188 188 188
188 188 188
188 188 188
188 188 188
188 188 188
188 188 188
188 188 188
188 188 188
188 188 188
128 128 128
128 128 128
128 128 128
128 128 128
128 128 128
128 128 128
128 128 128
128 128 128
128 128 128
128 128 128
128 128 128
128 128 128
128 128 128
128 128 128
128 128 128
128 128 128
128 128 128
128 128 128
128 128 128
128 128 128
128 128 128
128 128 128
128 128 128
128 128 128
128 128 128
128 128 128
128 128 128
128 128 128
128 128 128
128 128 128
128 128 128
128 128 128
188 188 188
188 188 188
188 188 188
188 188 188
188 188 188
188 188 188
188 188 188
188 188 188
188 188 188
188 188 188
188 188 188
188 188 188
188 188 188
188 188 188
188 188 188
188 188 188
188 188 188
188 188 188
188 188 188
188 188 188
188 188 188
188 188 188
188 188 188
188 188 188
188 188 188
188 188 188
188 188 188
188 188 188
188 188 188
188 188 188
188 188 188
188 188 188
128 128 128
128 128 128
128 128 128
128 128 128
128 128 128
128 128 128
128 128 128
128 128 128
128 128 128
128 128 128
128 128 128
128 128 128
128 128 128
128 128 128
128 128 128
128 128 128
128 128 128
128 128 128
128 128 128
128 128 128
128 128 128
128 128 128
128 128 128
128 128 128
128 128 128
128 128 128
128 128 128
128 128 128
128 128 128
128 128 128
128 128 128
128 128 128
188 188 188
188 188 188
188 188 188
188 188 188
188 188 188
188 188 188
188 188 188
188 188 188
188 188 188
188 188 188
188 188 188
188 188 188
188 188 188
188 188 188
188 188 188
188 188 188
188 188 188
188 188 188
188 188 188
188 188 188
188 188 188
188 188 188
188 188 188
188 188 188
188 188 188
188 188 188
188 188 188
188 188 188
188 188 188
188 188 188
188 188 188
188 188 188
128 128 128
128 128 128
128 128 128
128 128 128
128 128 128
128 128 128
128 128 128
128 128 128
128 128 128
128 128 128
128 128 128
128 128 128
128 128 128
128 128 128
128 128 128
128 128 128
128 128 128
128 128 128
128 128 128
128 128 128
128 128 128
128 128 128
128 128 128
128 128 128
128 128 128
128 128 128
128 128 128
128 128 128
128 128 128
128 128 128
128 128 128
128 128 128
188 188 188
188 188 188
188 188 188
188 188 188
188 188 188
188 188 188
188 188 188
188 188 188
188 188 188
188 188 188
188 188 188
188 188 188
188 188 188
188 188 188
188 188 188
188 188 188
188 188 188
188 188 188
188 188 188
188 188 188
188 188 188
188 188 188
188 188 188
188 188 188
188 188 188
188 188 188
188 188 188
188 188 188
188 188 188
188 188 188
188 188 188
188 188 188
128 128 128
128 128 128
128 128 128
128 128 128
128 128 128
128 128 128
128 128 128
128 128 128
128 128 128
128 128 128
128 128 128
128 128 128
128 128 128
128 128 128
128 128 128
128 128 128
128 128 128
128 128 128
128 128 128
128 128 128
128 128 128
128 128 128
128 128 128
128 128 128
128 128 128
128 128 128
128 128 128
128 128 128
128 128 128
128 128 128
128 128 128
128 128 128
188 188 188
188 188 188
188 188 188
188 188 188
188 188 188
188 188 188
188 188 188
188 188 188
188 188 188
188 188 188
188 188 188
188 188 188
188 188 188
188 188 188
188 188 188
188 188 188
188 188 188
188 188 188
188 188 188
188 188 188
188 188 188
188 188 188
188 188 188
188 188 188
188 188 188
188 188 188
188 188 188
188 188 188
188 188 188
188 188 188
188 188 188
188 188 188
128 128 128
128 128 128
128 128 128
128 128 128
128 128 128
128 128 128
128 128 128
128 128 128
128 128 128
128 128 128
128 128 128
128 128 128
128 128 128
128 128 128
128 128 128
128 128 128
128 128 128
128 128 128
128 128 128
128 128 128
128 128 128
128 128 128
128 128 128
128 128 128
128 128 128
128 128 128
128 128 128
128 128 128
128 128 128
128 128 128
128 128 128
128 128 128
188 188 188
188 188 188
188 188 188
188 188 188
188 188 188
188 188 188
188 188 188
188 188 188
188 188 188
188 188 188
188 188 188
188 188 188
188 188 188
188 188 188
188 188 188
188 188 188
188 188 188
188 188 188
188 188 188
188 188 188
188 188 188
188 188 188
188 188 188
188 188 188
188 188 188
188 188 188
188 188 188
188 188 188
188 188 188
188 188 188
188 188 188
188 188 188
128 128 128
128 128 128
128 128 128
128 128 128
128 128 128
128 128 128
128 128 128
128 128 128
128 128 128
128 128 128
128 128 128
128 128 128
128 128 128
128 128 128
128 128 128
128 128 128
128 128 128
128 128 128
128 128 128
128 128 128
128 128 128
128 128 128
128 128 128
128 128 128
128 128 128
128 128 128
128 128 128
128 128 128
128 128 128
128 128 128
128 128 128
128 128 128
188 188 188
188 188 188
188 188 188
188 188 188
188 188 188
188 188 188
188 188 188
188 188 188
188 188 188
188 188 188
188 188 188
188 188 188
188 188 188
188 188 188
188 188 188
188 188 188
188 188 188
188 188 188
188 188 188
188 188 188
188 188 188
188 188 188
188 188 188
188 188 188
188 188 188
188 188 188
188 188 188
188 188 188
188 188 188
188 188 188
188 188 188
188 188 188
128 128 128
128 128 128
128 128 128
128 128 128
128 128 128
128 128 128
128 128 128
128 128 128
128 128 128
128 128 128
128 128 128
128 128 128
128 128 128
128 128 128
128 128 128
128 128 128
128 128 128
128 128 128
128 128 128
128 128 128
128 128 128
128 128 128
128 128 128
128 128 128
128 128 128
128 128 128
128 128 128
128 128 128
128 128 128
128 128 128
128 128 128
128 128 128
188 188 188
188 188 188
188 188 188
188 188 188
188 188 188
188 188 188
188 188 188
188 188 188
188 188 188
188 188 188
188 188 188
188 188 188
188 188 188
188 188 188
188 188 188
188 188 188
188 188 188
188 188 188
188 188 188
188 188 188
188 188 188
188 188 188
188 188 188
188 188 188
188 188 188
188 188 188
188 188 188
188 188 188
188 188 188
188 188 188
188 188 188
188 188 188
128 128 128
128 128 128
128 128 128
128 128 128
128 128 128
128 128 128
128 128 128
128 128 128
128 128 128
128 128 128
128 128 128
128 128 128
128 128 128
128 128 128
128 128 128
128 128 128
128 128 128
128 128 128
128 128 128
128 128 128
128 128 128
128 128 128
128 128 128
128 128 128
128 128 128
128 128 128
128 128 128
128 128 128
128 128 128
128 128 128
128 128 128
128 128 128
188 188 188
188 188 188
188 188 188
188 188 188
188 188 188
188 188 188
188 188 188
188 188 188
188 188 188
188 188 188
188 188 188
188 188 188
188 188 188
188 188 188
188 188 188
188 188 188
188 188 188
188 188 188
188 188 188
188 188 188
188 188 188
188 188 188
188 188 188
188 188 188
188 188 188
188 188 188
188 188 188
188 188 188
188 188 188
188 188 188
188 188 188
188 188 188
128 128 128
128 128 128
128 128 128
128 128 128
128 128 128
128 128 128
128 128 128
128 128 128
128 128 128
128 128 128
128 128 128
128 128 128
128 128 128
128 128 128
128 128 128
128 128 128
128 128 128
128 128 128
128 128 128
128 128 128
128 128 128
128 128 128
128 128 128
128 128 128
128 128 128
128 128 128
128 128 128
128 128 128
128 128 128
128 128 128
128 128 128
128 128 128
188 188 188
188 188 188
188 188 188
188 188 188
188 188 188
188 188 188
188 188 188
188 188 188
188 188 188
188 188 188
188 188 188
188 188 188
188 188 188
188 188 188
188 188 188
188 188 188
188 188 188
188 188 188
188 188 188
188 188 188
188 188 188
188 188 188
188 188 188
188 188 188
188 188 188
188 188 188
188 188 188
188 188 188
188 188 188
188 188 188
188 188 188
188 188 188
128 128 128
128 128 128
128 128 128
128 128 128
128 128 128
128 128 128
128 128 128
128 128 128
128 128 128
128 128 128
128 128 128
128 128 128
128 128 128
128 128 128
128 128 128
128 128 128
128 128 128
128 128 128
128 128 128
128 128 128
128 128 128
128 128 128
128 128 128
128 128 128
128 128 128
128 128 128
128 128 128
128 128 128
128 128 128
128 128 128
128 128 128
128 128 128
188 188 188
188 188 188
188 188 188
188 188 188
188 188 188
188 188 188
188 188 188
188 188 188
188 188 188
188 188 188
188 188 188
188 188 188
188 188 188
188 188 188
188 188 188
188 188 188
188 188 188
188 188 188
188 188 188
188 188 188
188 188 188
188 188 188
188 188 188
188 188 188
188 188 188
188 188 188
188 188 188
188 188 188
188 188 188
188 188 188
188 188 188
188 188 188
128 128 128
128 128 128
128 128 128
128 128 128
128 128 128
128 128 128
128 128 128
128 128 128
128 128 128
128 128 128
128 128 128
128 128 128
128 128 128
128 128 128
128 128 128
128 128 128
128 128 128
128 128 128
128 128 128
128 128 128
128 128 128
128 128 128
128 128 128
128 128 128
128 128 128
128 128 128
128 128 128
128 128 128
128 128 128
128 128 128
128 128 128
128 128 128
188 188 188
188 188 188
188 188 188
188 188 188
188 188 188
188 188 188
188 188 188
188 188 188
188 188 188
188 188 188
188 188 188
188 188 188
188 188 188
188 188 188
188 188 188
188 188 188
188 188 188
188 188 188
188 188 188
188 188 188
188 188 188
188 188 188
188 188 188
188 188 188
188 188 188
188 188 188
188 188 188
188 188 188
188 188 188
188 188 188
188 188 188
188 188 188
128 128 128
128 128 128
128 128 128
128 128 128
128 128 128
128 128 128
128 128 128
128 128 128
128 128 128
128 128 128
128 128 128
128 128 128
128 128 128
128 128 128
128 128 128
128 128 128
128 128 128
128 128 128
128 128 128
128 128 128
128 128 128
128 128 128
128 128 128
128 128 128
128 128 128
128 128 128
128 128 128
128 128 128
128 128 128
128 128 128
128 128 128
128 128 128
188 188 188
188 188 188
188 188 188
188 188 188
188 188 188
188 188 188
188 188 188
188 188 188
188 188 188
188 188 188
188 188 188
188 188 188
188 188 188
188 188 188
188 188 188
188 188 188
188 188 188
188 188 188
188 188 188
188 188 188
188 188 188
188 188 188
188 188 188
188 188 188
188 188 188
188 188 188
188 188 188
188 188 188
188 188 188
188 188 188
188 188 188
188 188 188
128 128 128
128 128 128
128 128 128
128 128 128
128 128 128
128 128 128
128 128 128
128 128 128
128 128 128
128 128 128
128 128 128
128 128 128
128 128 128
128 128 128
128 128 128
128 128 128
128 128 128
128 128 128
128 128 128
128 128 128
128 128 128
128 128 128
128 128 128
128 128 128
128 128 128
128 128 128
128 128 128
128 128 128
128 128 128
128 128 128
128 128 128
128 128 128
188 188 188
188 188 188
188 188 188
188 188 188
188 188 188
188 188 188
188 188 188
188 188 188
188 188 188
188 188 188
188 188 188
188 188 188
188 188 188
188 188 188
188 188 188
188 188 188
188 188 188
188 188 188
188 188 188
188 188 188
188 188 188
188 188 188
188 188 188
188 188 188
188 188 188
188 188 188
188 188 188
188 188 188
188 188 188
188 188 188
188 188 188
188 188 188
128 128 128
128 128 128
128 128 128
128 128 128
128 128 128
128 128 128
128 128 128
128 128 128
128 128 128
128 128 128
128 128 128
128 128 128
128 128 128
128 128 128
128 128 128
128 128 128
128 128 128
128 128 128
128 128 128
128 128 128
128 128 128
128 128 128
128 128 128
128 128 128
128 128 128
128 128 128
128 128 128
128 128 128
128 128 128
128 128 128
128 128 128
128 128 128
188 188 188
188 188 188
188 188 188
188 188 188
188 188 188
188 188 188
188 188 188
188 188 188
188 188 188
188 188 188
188 188 188
188 188 188
188 188 188
188 188 188
188 188 188
188 188 188
188 188 188
188 188 188
188 188 188
188 188 188
188 188 188
188 188 188
188 188 188
188 188 188
188 188 188
188 188 188
188 188 188
188 188 188
188 188 188
188 188 188
188 188 188
188 188 188
128 128 128
128 128 128
128 128 128
128 128 128
128 128 128
128 128 128
128 128 128
128 128 128
128 128 128
128 128 128
128 128 128
128 128 128
128 128 128
128 128 128
128 128 128
128 128 128
128 128 128
128 128 128
128 128 128
128 128 128
128 128 128
128 128 128
128 128 128
128 128 128
128 128 128
128 128 128
128 128 128
128 128 128
128 128 128
128 128 128
128 128 128
128 128 128
188 188 188
188 188 188
188 188 188
188 188 188
188 188 188
188 188 188
188 188 188
188 188 188
188 188 188
188 188 188
188 188 188
188 188 188
188 188 188
188 188 188
188 188 188
188 188 188
188 188 188
188 188 188
188 188 188
188 188 188
188 188 188
188 188 188
188 188 188
188 188 188
188 188 188
188 188 188
188 188 188
188 188 188
188 188 188
188 188 188
188 188 188
188 188 188
128 128 128
128 128 128
128 128 128
128 128 128
128 128 128
128 128 128
128 128 128
128 128 128
128 128 128
128 128 128
128 128 128
128 128 128
128 128 128
128 128 128
128 128 128
128 128 128
128 128 128
128 128 128
128 128 128
128 128 128
128 128 128
128 128 128
128 128 128
128 128 128
128 128 128
128 128 128
128 128 128
128 128 128
128 128 128
128 128 128
128 128 128
128 128 128
188 188 188
188 188 188
188 188 188
188 188 188
188 188 188
188 188 188
188 188 188
188 188 188
188 188 188
188 188 188
188 188 188
188 188 188
188 188 188
188 188 188
188 188 188
188 188 188
188 188 188
188 188 188
188 188 188
188 188 188
188 188 188
188 188 188
188 188 188
188 188 188
188 188 188
188 188 188
188 188 188
188 188 188
188 188 188
188 188 188
188 188 188
188 188 188
128 128 128
128 128 128
128 128 128
128 128 128
128 128 128
128 128 128
128 128 128
128 128 128
128 128 128
128 128 128
128 128 128
128 128 128
128 128 128
128 128 128
128 128 128
128 128 128
128 128 128
128 128 128
128 128 128
128 128 128
128 128 128
128 128 128
128 128 128
128 128 128
128 128 128
128 128 128
128 128 128
128 128 128
128 128 128
128 128 128
128 128 128
128 128 128
188 188 188
188 188 188
188 188 188
188 188 188
188 188 188
188 188 188
188 188 188
188 188 188
188 188 188
188 188 188
188 188 188
188 188 188
188 188 188
188 188 188
188 188 188
188 188 188
188 188 188
188 188 188
188 188 188
188 188 188
188 188 188
188 188 188
188 188 188
188 188 188
188 188 188
188 188 188
188 188 188
188 188 188
188 188 188
188 188 188
188 188 188
188 188 188
128 128 128
128 128 128
128 128 128
128 128 128
128 128 128
128 128 128
128 128 128
128 128 128
128 128 128
128 128 128
128 128 128
128 128 128
128 128 128
128 128 128
128 128 128
128 128 128
128 128 128
128 128 128
128 128 128
128 128 128
128 128 128
128 128 128
128 128 128
128 128 128
128 128 128
128 128 128
128 128 128
128 128 128
128 128 128
128 128 128
128 128 128
128 128 128
188 188 188
188 188 188
188 188 188
188 188 188
188 188 188
188 188 188
188 188 188
188 188 188
188 188 188
188 188 188
188 188 188
188 188 188
188 188 188
188 188 188
188 188 188
188 188 188
188 188 188
188 188 188
188 188 188
188 188 188
188 188 188
188 188 188
188 188 188
188 188 188
188 188 188
188 188 188
188 188 188
188 188 188
188 188 188
188 188 188
188 188 188
188 188 188
128 128 128
128 128 128
128 128 128
128 128 128
128 128 128
128 128 128
128 128 128
128 128 128
128 128 128
128 128 128
128 128 128
128 128 128
128 128 128
128 128 128
128 128 128
128 128 128
128 128 128
128 128 128
128 128 128
128 128 128
128 128 128
128 128 128
128 128 128
128 128 128
128 128 128
128 128 128
128 128 128
128 128 128
128 128 128
128 128 128
128 128 128
128 128 128
188 188 188
188 188 188
188 188 188
188 188 188
188 188 188
188 188 188
188 188 188
188 188 188
188 188 188
188 188 188
188 188 188
188 188 188
188 188 188
188 188 188
188 188 188
188 188 188
188 188 188
188 188 188
188 188 188
188 188 188
188 188 188
188 188 188
188 188 188
188 188 188
188 188 188
188 188 188
188 188 188
188 188 188
188 188 188
188 188 188
188 188 188
188 188 188
128 128 128
128 128 128
128 128 128
128 128 128
128 128 128
128 128 128
128 128 128
128 128 128
128 128 128
128 128 128
128 128 128
128 128 128
128 128 128
128 128 128
128 128 128
128 128 128
128 128 128
128 128 128
128 128 128
128 128 128
128 128 128
128 128 128
128 128 128
128 128 128
128 128 128
128 128 128
128 128 128
128 128 128
128 128 128
128 128 128
128 128 128
128 128 128
188 188 188
188 188 188
188 188 188
188 188 188
188 188 188
188 188 188
188 188 188
188 188 188
188 188 188
188 188 188
188 188 188
188 188 188
188 188 188
188 188 188
188 188 188
188 188 188
188 188 188
188 188 188
188 188 188
188 188 188
188 188 188
188 188 188
188 188 188
188 188 188
188 188 188
188 188 188
188 188 188
188 188 188
188 188 188
188 188 188
188 188 188
188 188 188
128 128 128
128 128 128
128 128 128
128 128 128
128 128 128
128 128 128
128 128 128
128 128 128
128 128 128
128 128 128
128 128 128
128 128 128
128 128 128
128 128 128
128 128 128
128 128 128
128 128 128
128 128 128
128 128 128
128 128 128
128 128 128
128 128 128
128 128 128
128 128 128
128 128 128
128 128 128
128 128 128
128 128 128
128 128 128
128 128 128
128 128 128
128 128 128
188 188 188
188 188 188
188 188 188
188 188 188
188 188 188
188 188 188
188 188 188
188 188 188
188 188 188
188 188 188
188 188 188
188 188 188
188 188 188
188 188 188
188 188 188
188 188 188
188 188 188
188 188 188
188 188 188
188 188 188
188 188 188
188 188 188
188 188 188
188 188 188
188 188 188
188 188 188
188 188 188
188 188 188
188 188 188
188 188 188
188 188 188
188 188 188
128 128 128
128 128 128
128 128 128
128 128 128
128 128 128
128 128 128
128 128 128
128 128 128
128 128 128
128 128 128
128 128 128
128 128 128
128 128 128
128 128 128
128 128 128
128 128 128
128 128 128
128 128 128
128 128 128
128 128 128
128 128 128
128 128 128
128 128 128
128 128 128
128 128 128
128 128 128
128 128 128
128 128 128
128 128 128
128 128 128
128 128 128
128 128 128
188 188 188
188 188 188
188 188 188
188 188 188
188 188 188
188 188 188
188 188 188
188 188 188
188 188 188
188 188 188
188 188 188
188 188 188
188 188 188
188 188 188
188 188 188
188 188 188
188 188 188
188 188 188
188 188 188
188 188 188
188 188 188
188 188 188
188 188 188
188 188 188
188 188 188
188 188 188
188 188 188
188 188 188
188 188 188
188 188 188
188 188 188
188 188 188
128 128 128
128 128 128
128 128 128
128 128 128
128 128 128
128 128 128
128 128 128
128 128 128
128 128 128
128 128 128
128 128 128
128 128 128
128 128 128
128 128 128
128 128 128
128 128 128
128 128 128
128 128 128
128 128 128
128 128 128
128 128 128
128 128 128
128 128 128
128 128 128
128 128 128
128 128 128
128 128 128
128 128 128
128 128 128
128 128 128
128 128 128
128 128 128
188 188 188
188 188 188
188 188 188
188 188 188
188 188 188
188 188 188
188 188 188
188 188 188
188 188 188
188 188 188
188 188 188
188 188 188
188 188 188
188 188 188
188 188 188
188 188 188
188 188 188
188 188 188
188 188 188
188 188 188
188 188 188
188 188 188
188 188 188
188 188 188
188 188 188
188 188 188
188 188 188
188 188 188
188 188 188
188 188 188
188 188 188
188 188 188
128 128 128
128 128 128
128 128 128
128 128 128
128 128 128
128 128 128
128 128 128
128 128 128
128 128 128
128 128 128
128 128 128
128 128 128
128 128 128
128 128 128
128 128 128
128 128 128
128 128 128
128 128 128
128 128 128
128 128 128
128 128 128
128 128 128
128 128 128
128 128 128
128 128 128
128 128 128
128 128 128
128 128 128
128 128 128
128 128 128
128 128 128
128 128 128
188 188 188
188 188 188
188 188 188
188 188 188
188 188 188
188 188 188
188 188 188
188 188 188
188 188 188
188 188 188
188 188 188
188 188 188
188 188 188
188 188 188
188 188 188
188 188 188
188 188 188
188 188 188
188 188 188
188 188 188
188 188 188
188 188 188
188 188 188
188 188 188
188 188 188
188 188 188
188 188 188
188 188 188
188 188 188
188 188 188
188 188 188
188 188 188
128 128 128
128 128 128
128 128 128
128 128 128
128 128 128
128 128 128
128 128 128
128 128 128
128 128 128
128 128 128
128 128 128
128 128 128
128 128 128
128 128 128
128 128 128
128 128 128
128 128 128
128 128 128
128 128 128
128 128 128
128 128 128
128 128 128
128 128 128
128 128 128
128 128 128
128 128 128
128 128 128
128 128 128
128 128 128
128 128 128
128 128 128
128 128 128
188 188 188
188 188 188
188 188 188
188 188 188
188 188 188
188 188 188
188 188 188
188 188 188
188 188 188
188 188 188
188 188 188
188 188 188
188 188 188
188 188 188
188 188 188
188 188 188
188 188 188
188 188 188
188 188 188
188 188 188
188 188 188
188 188 188
188 188 188
188 188 188
188 188 188
188 188 188
188 188 188
188 188 188
188 188 188
188 188 188
188 188 188
188 188 188
128 128 128
128 128 128
128 128 128
128 128 128
128 128 128
128 128 128
128 128 128
128 128 128
128 128 128
128 128 128
128 128 128
128 128 128
128 128 128
128 128 128
128 128 128
128 128 128
128 128 128
128 128 128
128 128 128
128 128 128
128 128 128
128 128 128
128 128 128
128 128 128
128 128 128
128 128 128
128 128 128
128 128 128
128 128 128
128 128 128
128 128 128
128 128 128
188 188 188
188 188 188
188 188 188
188 188 188
188 188 188
188 188 188
188 188 188
188 188 188
188 188 188
188 188 188
188 188 188
188 188 188
188 188 188
188 188 188
188 188 188
188 188 188
188 188 188
188 188 188
188 188 188
188 188 188
188 188 188
188 188 188
188 188 188
188 188 188
188 188 188
188 188 188
188 188 188
188 188 188
188 188 188
188 188 188
188 188 188
188 188 188
128 128 128
128 128 128
128 128 128
128 128 128
128 128 128
128 128 128
128 128 128
128 128 128
128 128 128
128 128 128
128 128 128
128 128 128
128 128 128
128 128 128
128 128 128
128 128 128
128 128 128
128 128 128
128 128 128
128 128 128
128 128 128
128 128 128
128 128 128
128 128 128
128 128 128
128 128 128
128 128 128
128 128 128
128 128 128
128 128 128
128 128 128
128 128 128
188 188 188
188 188 188
188 188 188
188 188 188
188 188 188
188 188 188
188 188 188
188 188 188
188 188 188
188 188 188
188 188 188
188 188 188
188 188 188
188 188 188
188 188 188
188 188 188
188 188 188
188 188 188
188 188 188
188 188 188
188 188 188
188 188 188
188 188 188
188 188 188
188 188 188
188 188 188
188 188 188
188 188 188
188 188 188
188 188 188
188 188 188
188 188 188
128 128 128
128 128 128
128 128 128
128 128 128
128 128 128
128 128 128
128 128 128
128 128 128
128 128 128
128 128 128
128 128 128
128 128 128
128 128 128
128 128 128
128 128 128
128 128 128
128 128 128
128 128 128
128 128 128
128 128 128
128 128 128
128 128 128
128 128 128
128 128 128
128 128 128
128 128 128
128 128 128
128 128 128
128 128 128
128 128 128
128 128 128
128 128 128
188 188 188
188 188 188
188 188 188
188 188 188
188 188 188
188 188 188
188 188 188
188 188 188
188 188 188
188 188 188
188 188 188
188 188 188
188 188 188
188 188 188
188 188 188
188 188 188
188 188 188
188 188 188
188 188 188
188 188 188
188 188 188
188 188 188
188 188 188
188 188 188
188 188 188
188 188 188
188 188 188
188 188 188
188 188 188
188 188 188
188 188 188
188 188 188
128 128 128
128 128 128
128 128 128
128 128 128
128 128 128
128 128 128
128 128 128
128 128 128
128 128 128
128 128 128
128 128 128
128 128 128
128 128 128
128 128 128
128 128 128
128 128 128
128 128 128
128 128 128
128 128 128
128 128 128
128 128 128
128 128 128
128 128 128
128 128 128
128 128 128
128 128 128
128 128 128
128 128 128
128 128 128
128 128 128
128 128 128
128 128 128
188 188 188
188 188 188
188 188 188
188 188 188
188 188 188
188 188 188
188 188 188
188 188 188
188 188 188
188 188 188
188 188 188
188 188 188
188 188 188
188 188 188
188 188 188
188 188 188
188 188 188
188 188 188
188 188 188
188 188 188
188 188 188
188 188 188
188 188 188
188 188 188
188 188 188
188 188 188
188 188 188
188 188 188
188 188 188
188 188 188
188 188 188
188 188 188
128 128 128
128 128 128
128 128 128
128 128 128
128 128 128
128 128 128
128 128 128
128 128 128
128 128 128
128 128 128
128 128 128
128 128 128
128 128 128
128 128 128
128 128 128
128 128 128
128 128 128
128 128 128
128 128 128
128 128 128
128 128 128
128 128 128
128 128 128
128 128 128
128 128 128
128 128 128
128 128 128
128 128 128
128 128 128
128 128 128
128 128 128
128 128 128
188 188 188
188 188 188
188 188 188
188 188 188
188 188 188
188 188 188
188 188 188
188 188 188
188 188 188
188 188 188
188 188 188
188 188 188
188 188 188
188 188 188
188 188 188
188 188 188
188 188 188
188 188 188
188 188 188
188 188 188
188 188 188
188 188 188
188 188 188
188 188 188
188 188 188
188 188 188
188 188 188
188 188 188
188 188 188
188 188 188
188 188 188
188 188 188
