P3
32 32
255
0 0 0
0 0 0
0 0 0
0 0 0
0 0 0
0 0 0
0 0 0
0 0 0
0 0 0
0 0 0
0 0 0
0 0 0
0 0 0
0 0 0
0 0 0
0 0 0
0 0 0
0 0 0
0 0 0
0 0 0
0 0 0
0 0 0
0 0 0
0 0 0
0 0 0
0 0 0
0 0 0
0 0 0
0 0 0
0 0 0
0 0 0
0 0 0
0 0 0
0 0 0
0 0 0
0 0 0
0 0 0
0 0 0
0 0 0
0 0 0
0 0 0
0 0 0
0 0 0
0 0 0
0 0 0
0 0 0
0 0 0
0 0 0
0 0 0
0 0 0
0 0 0
0 0 0
0 0 0
0 0 0
0 0 0
0 0 0
0 0 0
0 0 0
0 0 0
0 0 0
0 0 0
0 0 0
0 0 0
0 0 0
0 0 0
0 0 0
0 0 0
0 0 0
0 0 0
0 0 0
0 0 0
0 0 0
0 0 0
0 0 0
0 0 0
0 0 0
0 0 0
0 0 0
0 0 0
0 0 0
0 0 0
0 0 0
0 0 0
0 0 0
0 0 0
0 0 0
0 0 0
0 0 0
0 0 0
0 0 0
0 0 0
0 0 0
0 0 0
0 0 0
0 0 0
0 0 0
0 0 0
0 0 0
0 0 0
0 0 0
0 0 0
0 0 0
0 0 0
0 0 0
0 0 0
0 0 0
0 0 0
0 0 0
0 0 0
0 0 0
0 0 0
0 0 0
0 0 0
0 0 0
0 0 0
0 0 0
0 0 0
0 0 0
0 0 0
0 0 0
0 0 0
0 0 0
0 0 0
0 0 0
0 0 0
0 0 0
0 0 0
0 0 0
0 0 0
0 0 0
0 0 0
0 0 0
255 0 0
231 124 39
231 124 39
231 124 39
231 124 39
231 124 39
231 124 39
231 124 39
231 124 39
231 124 39
231 124 39
231 124 39
231 124 39
231 124 39
231 124 39
231 124 39
231 124 39
231 124 39
231 124 39
231 124 39
231 124 39
231 124 39
231 124 39
231 124 39
0 0 0
0 0 0
0 0 0
0 0 0
0 0 0
0 0 0
0 0 0
0 0 0
39 137 231
255 0 0
231 124 39
231 124 39
231 124 39
231 124 39
231 124 39
231 124 39
231 124 39
231 124 39
231 124 39
231 124 39
231 124 39
231 124 39
231 124 39
231 124 39
231 124 39
231 124 39
231 124 39
231 124 39
231 124 39
231 124 39
231 124 39
231 124 39
0 0 0
0 0 0
0 0 0
0 0 0
0 0 0
0 0 0
0 0 0
0 0 0
39 137 231
39 137 231
255 0 0
231 124 39
231 124 39
231 124 39
231 124 39
231 124 39
231 124 39
231 124 39
231 124 39
231 124 39
231 124 39
231 124 39
231 124 39
231 124 39
231 124 39
231 124 39
231 124 39
231 124 39
231 124 39
231 124 39
231 124 39
231 124 39
0 0 0
0 0 0
0 0 0
0 0 0
0 0 0
0 0 0
0 0 0
0 0 0
39 137 231
39 137 231
39 137 231
255 0 0
231 124 39
231 124 39
231 124 39
231 124 39
231 124 39
231 124 39
231 124 39
231 124 39
231 124 39
231 124 39
231 124 39
231 124 39
231 124 39
231 124 39
231 124 39
231 124 39
231 124 39
231 124 39
231 124 39
231 124 39
0 0 0
0 0 0
0 0 0
0 0 0
0 0 0
0 0 0
0 0 0
0 0 0
39 137 231
39 137 231
39 137 231
39 137 231
255 0 0
231 124 39
231 124 39
231 124 39
231 124 39
231 124 39
231 124 39
231 124 39
231 124 39
231 124 39
231 124 39
231 124 39
231 124 39
231 124 39
231 124 39
231 124 39
231 124 39
231 124 39
231 124 39
231 124 39
0 0 0
0 0 0
0 0 0
0 0 0
0 0 0
0 0 0
0 0 0
0 0 0
39 137 231
39 137 231
39 137 231
39 137 231
39 137 231
255 0 0
231 124 39
231 124 39
231 124 39
231 124 39
231 124 39
231 124 39
231 124 39
231 124 39
231 124 39
231 124 39
231 124 39
231 124 39
231 124 39
231 124 39
231 124 39
231 124 39
231 124 39
231 124 39
0 0 0
0 0 0
0 0 0
0 0 0
0 0 0
0 0 0
0 0 0
0 0 0
39 137 231
39 137 231
39 137 231
39 137 231
39 137 231
39 137 231
255 0 0
231 124 39
231 124 39
231 124 39
231 124 39
231 124 39
231 124 39
231 124 39
231 124 39
231 124 39
231 124 39
231 124 39
231 124 39
231 124 39
231 124 39
231 124 39
231 124 39
231 124 39
0 0 0
0 0 0
0 0 0
0 0 0
0 0 0
0 0 0
0 0 0
0 0 0
39 137 231
39 137 231
39 137 231
39 137 231
39 137 231
39 137 231
39 137 231
255 0 0
231 124 39
231 124 39
231 124 39
231 124 39
231 124 39
231 124 39
231 124 39
231 124 39
231 124 39
231 124 39
231 124 39
231 124 39
231 124 39
231 124 39
231 124 39
231 124 39
0 0 0
0 0 0
0 0 0
0 0 0
0 0 0
0 0 0
0 0 0
0 0 0
39 137 231
39 137 231
39 137 231
39 137 231
39 137 231
39 137 231
39 137 231
39 137 231
255 0 0
231 124 39
231 124 39
231 124 39
231 124 39
231 124 39
231 124 39
231 124 39
231 124 39
231 124 39
231 124 39
231 124 39
231 124 39
231 124 39
231 124 39
231 124 39
0 0 0
0 0 0
0 0 0
0 0 0
0 0 0
0 0 0
0 0 0
0 0 0
39 137 231
39 137 231
39 137 231
39 137 231
39 137 231
39 137 231
39 137 231
39 137 231
39 137 231
255 0 0
231 124 39
231 124 39
231 124 39
231 124 39
231 124 39
231 124 39
231 124 39
231 124 39
231 124 39
231 124 39
231 124 39
231 124 39
231 124 39
231 124 39
0 0 0
0 0 0
0 0 0
0 0 0
0 0 0
0 0 0
0 0 0
0 0 0
39 137 231
39 137 231
39 137 231
39 137 231
39 137 231
39 137 231
39 137 231
39 137 231
39 137 231
39 137 231
255 0 0
231 124 39
231 124 39
231 124 39
231 124 39
231 124 39
231 124 39
231 124 39
231 124 39
231 124 39
231 124 39
231 124 39
231 124 39
231 124 39
0 0 0
0 0 0
0 0 0
0 0 0
0 0 0
0 0 0
0 0 0
0 0 0
39 137 231
39 137 231
39 137 231
39 137 231
39 137 231
39 137 231
39 137 231
39 137 231
39 137 231
39 137 231
39 137 231
255 0 0
231 124 39
231 124 39
231 124 39
231 124 39
231 124 39
231 124 39
231 124 39
231 124 39
231 124 39
231 124 39
231 124 39
231 124 39
0 0 0
0 0 0
0 0 0
0 0 0
0 0 0
0 0 0
0 0 0
0 0 0
39 137 231
39 137 231
39 137 231
39 137 231
39 137 231
39 137 231
39 137 231
39 137 231
39 137 231
39 137 231
39 137 231
39 137 231
255 0 0
231 124 39
231 124 39
231 124 39
231 124 39
231 124 39
231 124 39
231 124 39
231 124 39
231 124 39
231 124 39
231 124 39
0 0 0
0 0 0
0 0 0
0 0 0
0 0 0
0 0 0
0 0 0
0 0 0
39 137 231
39 137 231
39 137 231
39 137 231
39 137 231
39 137 231
39 137 231
39 137 231
39 137 231
39 137 231
39 137 231
39 137 231
39 137 231
255 0 0
231 124 39
231 124 39
231 124 39
231 124 39
231 124 39
231 124 39
231 124 39
231 124 39
231 124 39
231 124 39
0 0 0
0 0 0
0 0 0
0 0 0
0 0 0
0 0 0
0 0 0
0 0 0
39 137 231
39 137 231
39 137 231
39 137 231
39 137 231
39 137 231
39 137 231
39 137 231
39 137 231
39 137 231
39 137 231
39 137 231
39 137 231
39 137 231
255 0 0
231 124 39
231 124 39
231 124 39
231 124 39
231 124 39
231 124 39
231 124 39
231 124 39
231 124 39
0 0 0
0 0 0
0 0 0
0 0 0
0 0 0
0 0 0
0 0 0
0 0 0
39 137 231
39 137 231
39 137 231
39 137 231
39 137 231
39 137 231
39 137 231
39 137 231
39 137 231
39 137 231
39 137 231
39 137 231
39 137 231
39 137 231
39 137 231
255 0 0
231 124 39
231 124 39
231 124 39
231 124 39
231 124 39
231 124 39
231 124 39
231 124 39
0 0 0
0 0 0
0 0 0
0 0 0
0 0 0
0 0 0
0 0 0
0 0 0
39 137 231
39 137 231
39 137 231
39 137 231
39 137 231
39 137 231
39 137 231
39 137 231
39 137 231
39 137 231
39 137 231
39 137 231
39 137 231
39 137 231
39 137 231
39 137 231
255 0 0
231 124 39
231 124 39
231 124 39
231 124 39
231 124 39
231 124 39
231 124 39
0 0 0
0 0 0
0 0 0
0 0 0
0 0 0
0 0 0
0 0 0
0 0 0
39 137 231
39 137 231
39 137 231
39 137 231
39 137 231
39 137 231
39 137 231
39 137 231
39 137 231
39 137 231
39 137 231
39 137 231
39 137 231
39 137 231
39 137 231
39 137 231
39 137 231
255 0 0
231 124 39
231 124 39
231 124 39
231 124 39
231 124 39
231 124 39
0 0 0
0 0 0
0 0 0
0 0 0
0 0 0
0 0 0
0 0 0
0 0 0
39 137 231
39 137 231
39 137 231
39 137 231
39 137 231
39 137 231
39 137 231
39 137 231
39 137 231
39 137 231
39 137 231
39 137 231
39 137 231
39 137 231
39 137 231
39 137 231
39 137 231
39 137 231
255 0 0
231 124 39
231 124 39
231 124 39
231 124 39
231 124 39
0 0 0
0 0 0
0 0 0
0 0 0
0 0 0
0 0 0
0 0 0
0 0 0
39 137 231
39 137 231
39 137 231
39 137 231
39 137 231
39 137 231
39 137 231
39 137 231
39 137 231
39 137 231
39 137 231
39 137 231
39 137 231
39 137 231
39 137 231
39 137 231
39 137 231
39 137 231
39 137 231
255 0 0
231 124 39
231 124 39
231 124 39
231 124 39
0 0 0
0 0 0
0 0 0
0 0 0
0 0 0
0 0 0
0 0 0
0 0 0
39 137 231
39 137 231
39 137 231
39 137 231
39 137 231
39 137 231
39 137 231
39 137 231
39 137 231
39 137 231
39 137 231
39 137 231
39 137 231
39 137 231
39 137 231
39 137 231
39 137 231
39 137 231
39 137 231
39 137 231
255 0 0
231 124 39
231 124 39
231 124 39
0 0 0
0 0 0
0 0 0
0 0 0
0 0 0
0 0 0
0 0 0
0 0 0
39 137 231
39 137 231
39 137 231
39 137 231
39 137 231
39 137 231
39 137 231
39 137 231
39 137 231
39 137 231
39 137 231
39 137 231
39 137 231
39 137 231
39 137 231
39 137 231
39 137 231
39 137 231
39 137 231
39 137 231
39 137 231
255 0 0
231 124 39
231 124 39
0 0 0
0 0 0
0 0 0
0 0 0
0 0 0
0 0 0
0 0 0
0 0 0
39 137 231
39 137 231
39 137 231
39 137 231
39 137 231
39 137 231
39 137 231
39 137 231
39 137 231
39 137 231
39 137 231
39 137 231
39 137 231
39 137 231
39 137 231
39 137 231
39 137 231
39 137 231
39 137 231
39 137 231
39 137 231
39 137 231
255 0 0
231 124 39
0 0 0
0 0 0
0 0 0
0 0 0
0 0 0
0 0 0
0 0 0
0 0 0
39 137 231
39 137 231
39 137 231
39 137 231
39 137 231
39 137 231
39 137 231
39 137 231
39 137 231
39 137 231
39 137 231
39 137 231
39 137 231
39 137 231
39 137 231
39 137 231
39 137 231
39 137 231
39 137 231
39 137 231
39 137 231
39 137 231
39 137 231
255 0 0
0 0 0
0 0 0
0 0 0
0 0 0
0 0 0
0 0 0
0 0 0
0 0 0
0 0 0
0 0 0
0 0 0
0 0 0
0 0 0
0 0 0
0 0 0
0 0 0
0 0 0
0 0 0
0 0 0
0 0 0
0 0 0
0 0 0
0 0 0
0 0 0
0 0 0
0 0 0
0 0 0
0 0 0
0 0 0
0 0 0
0 0 0
0 0 0
0 0 0
0 0 0
0 0 0
0 0 0
0 0 0
0 0 0
0 0 0
0 0 0
0 0 0
0 0 0
0 0 0
0 0 0
0 0 0
0 0 0
0 0 0
0 0 0
0 0 0
0 0 0
0 0 0
0 0 0
0 0 0
0 0 0
0 0 0
0 0 0
0 0 0
0 0 0
0 0 0
0 0 0
0 0 0
0 0 0
0 0 0
0 0 0
0 0 0
0 0 0
0 0 0
0 0 0
0 0 0
0 0 0
0 0 0
0 0 0
0 0 0
0 0 0
0 0 0
0 0 0
0 0 0
0 0 0
0 0 0
0 0 0
0 0 0
0 0 0
0 0 0
0 0 0
0 0 0
0 0 0
0 0 0
0 0 0
0 0 0
0 0 0
0 0 0
0 0 0
0 0 0
0 0 0
0 0 0
0 0 0
0 0 0
0 0 0
0 0 0
0 0 0
0 0 0
0 0 0
0 0 0
0 0 0
0 0 0
0 0 0
0 0 0
0 0 0
0 0 0
0 0 0
0 0 0
0 0 0
0 0 0
0 0 0
0 0 0
0 0 0
0 0 0
0 0 0
0 0 0
0 0 0
0 0 0
0 0 0
0 0 0
0 0 0
0 0 0
0 0 0
0 0 0
0 0 0
0 0 0
0 0 0
0 0 0
0 0 0
