P3
16 16
255
255 0 0
255 0 0
0 0 0
255 0 0
0 0 0
255 0 0
0 0 0
255 0 0
0 0 0
255 0 0
0 0 0
255 0 0
0 0 0
255 0 0
0 0 0
0 255 0
0 0 0
255 0 0
0 0 0
255 0 0
0 0 0
255 0 0
0 0 0
255 0 0
0 0 0
255 0 0
0 0 0
255 0 0
0 0 0
255 0 0
0 0 0
255 0 0
0 0 0
255 0 0
0 0 0
255 0 0
0 0 0
255 0 0
0 0 0
255 0 0
0 0 0
255 0 0
0 0 0
255 0 0
0 0 0
255 0 0
0 0 0
255 0 0
0 0 0
255 0 0
0 0 0
255 0 0
0 0 0
255 0 0
0 0 0
255 0 0
0 0 0
255 0 0
0 0 0
255 0 0
0 0 0
255 0 0
0 0 0
255 0 0
0 85 0
255 85 0
0 85 0
255 85 0
0 85 0
255 85 0
0 85 0
255 85 0
0 85 0
255 85 0
0 85 0
255 85 0
0 85 0
255 85 0
0 85 0
255 85 0
0 85 0
255 85 0
0 85 0
255 0 255
0 85 0
255 85 0
0 85 0
255 85 0
0 85 0
255 85 0
0 85 0
255 85 0
0 85 0
255 85 0
0 85 0
255 85 0
0 85 0
255 85 0
0 85 0
255 85 0
0 85 0
255 85 0
0 85 0
255 85 0
0 85 0
255 85 0
0 85 0
255 85 0
0 85 0
255 85 0
0 85 0
255 85 0
0 85 0
255 85 0
0 85 0
255 85 0
0 85 0
255 85 0
0 85 0
255 85 0
0 85 0
255 85 0
0 85 0
255 85 0
0 85 0
255 85 0
0 85 0
255 85 0
0 170 0
255 170 0
0 170 0
255 170 0
0 170 0
255 170 0
0 170 0
255 170 0
0 170 0
255 170 0
0 170 0
255 170 0
0 170 0
255 170 0
0 170 0
255 170 0
0 170 0
255 170 0
0 170 0
255 170 0
0 170 0
255 170 0
0 170 0
255 170 0
0 170 0
255 170 0
0 170 0
255 170 0
0 170 0
255 170 0
0 170 0
255 170 0
0 170 0
255 170 0
0 170 0
255 170 0
0 170 0
255 170 0
0 170 0
255 170 0
0 170 0
255 170 0
0 170 0
255 170 0
0 170 0
255 170 0
0 170 0
255 170 0
0 170 0
255 170 0
0 170 0
255 170 0
0 170 0
255 170 0
0 170 0
255 170 0
0 170 0
255 170 0
0 170 0
255 170 0
0 170 0
255 170 0
0 170 0
255 170 0
0 255 0
255 255 0
0 255 0
255 255 0
0 255 0
255 255 0
0 255 0
255 255 0
0 255 0
255 255 0
0 255 0
255 255 0
0 255 0
255 255 0
0 255 0
255 255 0
0 255 0
255 255 0
0 255 0
255 255 0
0 255 0
255 255 0
0 255 0
255 255 0
0 255 0
255 255 0
0 255 0
255 255 0
0 255 0
255 255 0
0 255 0
255 255 0
0 255 0
255 255 0
0 255 0
255 255 0
0 255 0
255 255 0
0 255 0
255 255 0
0 255 0
255 255 0
0 255 0
255 255 0
0 255 0
255 255 0
0 255 0
255 255 0
0 0 255
255 255 0
0 255 0
255 255 0
0 255 0
255 255 0
0 255 0
255 255 0
0 255 0
255 255 0
0 255 0
255 255 0
0 255 0
255 255 0
0 255 0
255 255 0
