P3
128 128
255
0 0 0
0 0 0
0 0 0
0 0 0
0 0 0
0 0 0
0 0 0
0 0 0
0 0 0
0 0 0
0 0 0
0 0 0
0 0 0
0 0 0
0 0 0
0 0 0
0 0 0
0 0 0
0 0 0
0 0 0
0 0 0
0 0 0
0 0 0
0 0 0
0 0 0
0 0 0
0 0 0
0 0 0
0 0 0
0 0 0
0 0 0
0 0 0
0 0 0
0 0 0
0 0 0
0 0 0
0 0 0
0 0 0
0 0 0
0 0 0
0 0 0
0 0 0
0 0 0
0 0 0
0 0 0
0 0 0
0 0 0
0 0 0
0 0 0
0 0 0
0 0 0
0 0 0
0 0 0
0 0 0
0 0 0
0 0 0
0 0 0
0 0 0
0 0 0
0 0 0
0 0 0
0 0 0
0 0 0
0 0 0
0 0 0
0 0 0
0 0 0
0 0 0
0 0 0
0 0 0
0 0 0
0 0 0
0 0 0
0 0 0
0 0 0
0 0 0
0 0 0
0 0 0
0 0 0
0 0 0
0 0 0
0 0 0
0 0 0
0 0 0
0 0 0
0 0 0
0 0 0
0 0 0
0 0 0
0 0 0
0 0 0
0 0 0
0 0 0
0 0 0
0 0 0
0 0 0
0 0 0
0 0 0
0 0 0
0 0 0
0 0 0
0 0 0
0 0 0
0 0 0
0 0 0
0 0 0
0 0 0
0 0 0
0 0 0
0 0 0
0 0 0
0 0 0
0 0 0
0 0 0
0 0 0
0 0 0
0 0 0
0 0 0
0 0 0
0 0 0
0 0 0
0 0 0
0 0 0
0 0 0
0 0 0
0 0 0
0 0 0
0 0 0
0 0 0
0 0 0
0 0 0
0 0 0
0 0 0
0 0 0
0 0 0
0 0 0
0 0 0
0 0 0
0 0 0
0 0 0
0 0 0
0 0 0
0 0 0
0 0 0
0 0 0
0 0 0
0 0 0
0 0 0
0 0 0
0 0 0
0 0 0
0 0 0
0 0 0
0 0 0
0 0 0
0 0 0
0 0 0
0 0 0
0 0 0
0 0 0
0 0 0
0 0 0
0 0 0
0 0 0
0 0 0
0 0 0
0 0 0
0 0 0
0 0 0
0 0 0
0 0 0
0 0 0
0 0 0
0 0 0
0 0 0
0 0 0
0 0 0
0 0 0
0 0 0
0 0 0
0 0 0
0 0 0
0 0 0
0 0 0
0 0 0
0 0 0
0 0 0
0 0 0
0 0 0
0 0 0
0 0 0
0 0 0
0 0 0
0 0 0
0 0 0
0 0 0
0 0 0
0 0 0
0 0 0
0 0 0
0 0 0
0 0 0
0 0 0
0 0 0
0 0 0
0 0 0
0 0 0
0 0 0
0 0 0
0 0 0
0 0 0
0 0 0
0 0 0
0 0 0
0 0 0
0 0 0
0 0 0
0 0 0
0 0 0
0 0 0
0 0 0
0 0 0
0 0 0
0 0 0
0 0 0
0 0 0
0 0 0
0 0 0
0 0 0
0 0 0
0 0 0
0 0 0
0 0 0
0 0 0
0 0 0
0 0 0
0 0 0
0 0 0
0 0 0
0 0 0
0 0 0
0 0 0
0 0 0
0 0 0
0 0 0
0 0 0
0 0 0
0 0 0
0 0 0
0 0 0
0 0 0
0 0 0
0 0 0
0 0 0
0 0 0
0 0 0
0 0 0
0 0 0
0 0 0
0 0 0
0 0 0
0 0 0
0 0 0
0 0 0
0 0 0
0 0 0
0 0 0
0 0 0
0 0 0
0 0 0
0 0 0
0 0 0
0 0 0
0 0 0
0 0 0
0 0 0
0 0 0
0 0 0
0 0 0
0 0 0
0 0 0
0 0 0
0 0 0
0 0 0
0 0 0
0 0 0
0 0 0
0 0 0
0 0 0
0 0 0
0 0 0
0 0 0
0 0 0
0 0 0
0 0 0
0 0 0
0 0 0
0 0 0
0 0 0
0 0 0
0 0 0
0 0 0
0 0 0
0 0 0
0 0 0
0 0 0
0 0 0
0 0 0
0 0 0
0 0 0
0 0 0
0 0 0
0 0 0
0 0 0
0 0 0
0 0 0
0 0 0
0 0 0
0 0 0
0 0 0
0 0 0
0 0 0
0 0 0
0 0 0
0 0 0
0 0 0
0 0 0
0 0 0
0 0 0
0 0 0
0 0 0
0 0 0
0 0 0
0 0 0
0 0 0
0 0 0
0 0 0
0 0 0
0 0 0
0 0 0
0 0 0
0 0 0
0 0 0
0 0 0
0 0 0
0 0 0
0 0 0
0 0 0
0 0 0
0 0 0
0 0 0
0 0 0
0 0 0
0 0 0
0 0 0
0 0 0
0 0 0
0 0 0
0 0 0
0 0 0
0 0 0
0 0 0
0 0 0
0 0 0
0 0 0
0 0 0
0 0 0
0 0 0
0 0 0
0 0 0
0 0 0
0 0 0
0 0 0
0 0 0
0 0 0
0 0 0
0 0 0
0 0 0
0 0 0
0 0 0
0 0 0
0 0 0
0 0 0
0 0 0
0 0 0
0 0 0
0 0 0
0 0 0
0 0 0
0 0 0
0 0 0
0 0 0
0 0 0
0 0 0
0 0 0
0 0 0
0 0 0
0 0 0
0 0 0
0 0 0
0 0 0
0 0 0
0 0 0
0 0 0
0 0 0
0 0 0
0 0 0
0 0 0
0 0 0
0 0 0
0 0 0
0 0 0
0 0 0
0 0 0
0 0 0
0 0 0
0 0 0
0 0 0
0 0 0
0 0 0
0 0 0
0 0 0
0 0 0
0 0 0
0 0 0
0 0 0
0 0 0
0 0 0
0 0 0
0 0 0
0 0 0
0 0 0
0 0 0
0 0 0
0 0 0
0 0 0
0 0 0
0 0 0
0 0 0
0 0 0
0 0 0
0 0 0
0 0 0
0 0 0
0 0 0
0 0 0
0 0 0
0 0 0
0 0 0
0 0 0
0 0 0
0 0 0
0 0 0
0 0 0
0 0 0
0 0 0
0 0 0
0 0 0
0 0 0
0 0 0
0 0 0
0 0 0
0 0 0
0 0 0
0 0 0
0 0 0
0 0 0
0 0 0
0 0 0
0 0 0
0 0 0
0 0 0
0 0 0
0 0 0
0 0 0
0 0 0
0 0 0
0 0 0
0 0 0
0 0 0
0 0 0
0 0 0
0 0 0
0 0 0
0 0 0
0 0 0
0 0 0
0 0 0
0 0 0
0 0 0
0 0 0
0 0 0
0 0 0
0 0 0
0 0 0
0 0 0
0 0 0
0 0 0
0 0 0
0 0 0
0 0 0
0 0 0
0 0 0
0 0 0
0 0 0
0 0 0
0 0 0
0 0 0
0 0 0
0 0 0
0 0 0
0 0 0
0 0 0
0 0 0
0 0 0
0 0 0
0 0 0
0 0 0
0 0 0
0 0 0
0 0 0
0 0 0
0 0 0
0 0 0
0 0 0
0 0 0
0 0 0
0 0 0
0 0 0
0 0 0
0 0 0
0 0 0
0 0 0
0 0 0
0 0 0
0 0 0
0 0 0
0 0 0
0 0 0
0 0 0
0 0 0
0 0 0
0 0 0
0 0 0
0 0 0
0 0 0
0 0 0
0 0 0
0 0 0
0 0 0
0 0 0
0 0 0
0 0 0
0 0 0
0 0 0
0 0 0
0 0 0
0 0 0
0 0 0
0 0 0
0 0 0
0 0 0
0 0 0
0 0 0
0 0 0
0 0 0
0 0 0
0 0 0
0 0 0
0 0 0
0 0 0
0 0 0
0 0 0
0 0 0
0 0 0
0 0 0
0 0 0
0 0 0
0 0 0
0 0 0
0 0 0
0 0 0
0 0 0
0 0 0
0 0 0
0 0 0
0 0 0
0 0 0
0 0 0
0 0 0
0 0 0
0 0 0
0 0 0
0 0 0
0 0 0
0 0 0
0 0 0
0 0 0
0 0 0
0 0 0
0 0 0
0 0 0
0 0 0
0 0 0
0 0 0
0 0 0
0 0 0
0 0 0
0 0 0
0 0 0
0 0 0
0 0 0
0 0 0
0 0 0
0 0 0
0 0 0
0 0 0
0 0 0
0 0 0
0 0 0
0 0 0
0 0 0
0 0 0
0 0 0
0 0 0
0 0 0
0 0 0
0 0 0
0 0 0
0 0 0
0 0 0
0 0 0
0 0 0
0 0 0
0 0 0
0 0 0
0 0 0
0 0 0
0 0 0
0 0 0
0 0 0
0 0 0
0 0 0
0 0 0
0 0 0
0 0 0
0 0 0
0 0 0
0 0 0
0 0 0
0 0 0
0 0 0
0 0 0
0 0 0
0 0 0
0 0 0
0 0 0
0 0 0
0 0 0
0 0 0
0 0 0
0 0 0
0 0 0
0 0 0
0 0 0
0 0 0
0 0 0
0 0 0
0 0 0
0 0 0
0 0 0
0 0 0
0 0 0
0 0 0
0 0 0
0 0 0
0 0 0
0 0 0
0 0 0
0 0 0
0 0 0
0 0 0
0 0 0
0 0 0
0 0 0
0 0 0
0 0 0
0 0 0
0 0 0
0 0 0
0 0 0
0 0 0
0 0 0
0 0 0
0 0 0
0 0 0
0 0 0
0 0 0
0 0 0
0 0 0
0 0 0
0 0 0
0 0 0
0 0 0
0 0 0
0 0 0
0 0 0
0 0 0
0 0 0
0 0 0
0 0 0
0 0 0
0 0 0
0 0 0
0 0 0
0 0 0
0 0 0
0 0 0
0 0 0
0 0 0
0 0 0
0 0 0
0 0 0
0 0 0
0 0 0
0 0 0
0 0 0
0 0 0
0 0 0
0 0 0
0 0 0
0 0 0
0 0 0
0 0 0
0 0 0
0 0 0
0 0 0
0 0 0
0 0 0
0 0 0
0 0 0
0 0 0
0 0 0
0 0 0
0 0 0
0 0 0
0 0 0
0 0 0
0 0 0
0 0 0
0 0 0
0 0 0
0 0 0
0 0 0
0 0 0
0 0 0
0 0 0
0 0 0
0 0 0
0 0 0
0 0 0
0 0 0
0 0 0
0 0 0
0 0 0
0 0 0
0 0 0
0 0 0
0 0 0
0 0 0
0 0 0
0 0 0
0 0 0
0 0 0
0 0 0
0 0 0
0 0 0
0 0 0
0 0 0
0 0 0
0 0 0
0 0 0
0 0 0
0 0 0
0 0 0
0 0 0
0 0 0
0 0 0
0 0 0
0 0 0
0 0 0
0 0 0
0 0 0
0 0 0
0 0 0
0 0 0
0 0 0
0 0 0
0 0 0
0 0 0
0 0 0
0 0 0
0 0 0
0 0 0
0 0 0
0 0 0
0 0 0
0 0 0
0 0 0
0 0 0
0 0 0
0 0 0
0 0 0
0 0 0
0 0 0
0 0 0
0 0 0
0 0 0
0 0 0
0 0 0
0 0 0
0 0 0
0 0 0
0 0 0
0 0 0
0 0 0
0 0 0
0 0 0
0 0 0
0 0 0
0 0 0
0 0 0
0 0 0
0 0 0
0 0 0
0 0 0
0 0 0
0 0 0
0 0 0
0 0 0
0 0 0
0 0 0
0 0 0
0 0 0
0 0 0
0 0 0
0 0 0
0 0 0
0 0 0
0 0 0
0 0 0
0 0 0
0 0 0
0 0 0
0 0 0
0 0 0
0 0 0
0 0 0
0 0 0
0 0 0
0 0 0
0 0 0
0 0 0
0 0 0
0 0 0
0 0 0
0 0 0
0 0 0
0 0 0
0 0 0
0 0 0
0 0 0
0 0 0
0 0 0
0 0 0
0 0 0
0 0 0
0 0 0
0 0 0
0 0 0
0 0 0
0 0 0
0 0 0
0 0 0
0 0 0
0 0 0
0 0 0
0 0 0
0 0 0
0 0 0
0 0 0
0 0 0
0 0 0
0 0 0
0 0 0
0 0 0
0 0 0
0 0 0
0 0 0
0 0 0
0 0 0
0 0 0
0 0 0
0 0 0
0 0 0
0 0 0
0 0 0
0 0 0
0 0 0
0 0 0
0 0 0
0 0 0
0 0 0
0 0 0
0 0 0
0 0 0
0 0 0
0 0 0
0 0 0
0 0 0
0 0 0
0 0 0
0 0 0
0 0 0
0 0 0
0 0 0
0 0 0
0 0 0
0 0 0
0 0 0
0 0 0
0 0 0
0 0 0
0 0 0
0 0 0
0 0 0
0 0 0
0 0 0
0 0 0
0 0 0
0 0 0
0 0 0
0 0 0
0 0 0
0 0 0
0 0 0
0 0 0
0 0 0
0 0 0
0 0 0
0 0 0
0 0 0
0 0 0
0 0 0
0 0 0
0 0 0
0 0 0
0 0 0
0 0 0
0 0 0
0 0 0
0 0 0
0 0 0
0 0 0
0 0 0
0 0 0
0 0 0
0 0 0
0 0 0
0 0 0
0 0 0
0 0 0
0 0 0
0 0 0
0 0 0
0 0 0
0 0 0
0 0 0
0 0 0
0 0 0
0 0 0
0 0 0
0 0 0
0 0 0
0 0 0
0 0 0
0 0 0
0 0 0
0 0 0
0 0 0
0 0 0
0 0 0
0 0 0
0 0 0
0 0 0
0 0 0
0 0 0
0 0 0
0 0 0
0 0 0
0 0 0
0 0 0
0 0 0
0 0 0
0 0 0
0 0 0
0 0 0
0 0 0
0 0 0
0 0 0
0 0 0
0 0 0
0 0 0
0 0 0
0 0 0
0 0 0
0 0 0
0 0 0
0 0 0
0 0 0
0 0 0
0 0 0
0 0 0
0 0 0
0 0 0
0 0 0
0 0 0
0 0 0
0 0 0
0 0 0
0 0 0
0 0 0
0 0 0
0 0 0
0 0 0
0 0 0
0 0 0
0 0 0
0 0 0
0 0 0
0 0 0
0 0 0
0 0 0
0 0 0
0 0 0
0 0 0
0 0 0
0 0 0
0 0 0
0 0 0
0 0 0
0 0 0
0 0 0
0 0 0
0 0 0
0 0 0
0 0 0
0 0 0
0 0 0
0 0 0
0 0 0
0 0 0
0 0 0
0 0 0
0 0 0
0 0 0
0 0 0
0 0 0
0 0 0
0 0 0
0 0 0
0 0 0
0 0 0
0 0 0
0 0 0
0 0 0
0 0 0
0 0 0
0 0 0
0 0 0
0 0 0
0 0 0
0 0 0
0 0 0
0 0 0
0 0 0
0 0 0
0 0 0
0 0 0
0 0 0
0 0 0
0 0 0
0 0 0
0 0 0
0 0 0
0 0 0
0 0 0
0 0 0
0 0 0
0 0 0
0 0 0
0 0 0
0 0 0
0 0 0
0 0 0
0 0 0
0 0 0
0 0 0
0 0 0
0 0 0
0 0 0
0 0 0
0 0 0
0 0 0
0 0 0
0 0 0
0 0 0
0 0 0
0 0 0
0 0 0
0 0 0
0 0 0
0 0 0
0 0 0
0 0 0
0 0 0
0 0 0
0 0 0
0 0 0
0 0 0
0 0 0
0 0 0
0 0 0
0 0 0
0 0 0
0 0 0
0 0 0
0 0 0
0 0 0
0 0 0
0 0 0
0 0 0
0 0 0
0 0 0
0 0 0
0 0 0
0 0 0
0 0 0
0 0 0
0 0 0
0 0 0
0 0 0
0 0 0
0 0 0
0 0 0
0 0 0
0 0 0
0 0 0
0 0 0
0 0 0
0 0 0
0 0 0
0 0 0
0 0 0
0 0 0
0 0 0
0 0 0
0 0 0
0 0 0
0 0 0
0 0 0
0 0 0
0 0 0
0 0 0
0 0 0
0 0 0
0 0 0
0 0 0
0 0 0
0 0 0
0 0 0
0 0 0
0 0 0
0 0 0
0 0 0
0 0 0
0 0 0
0 0 0
0 0 0
0 0 0
0 0 0
0 0 0
0 0 0
0 0 0
0 0 0
0 0 0
0 0 0
0 0 0
0 0 0
0 0 0
0 0 0
0 0 0
0 0 0
0 0 0
0 0 0
0 0 0
0 0 0
0 0 0
0 0 0
0 0 0
0 0 0
0 0 0
0 0 0
0 0 0
0 0 0
0 0 0
0 0 0
0 0 0
0 0 0
0 0 0
0 0 0
0 0 0
0 0 0
0 0 0
0 0 0
0 0 0
0 0 0
0 0 0
0 0 0
0 0 0
0 0 0
0 0 0
0 0 0
0 0 0
0 0 0
0 0 0
0 0 0
0 0 0
0 0 0
0 0 0
0 0 0
0 0 0
0 0 0
0 0 0
0 0 0
0 0 0
0 0 0
0 0 0
0 0 0
0 0 0
0 0 0
0 0 0
0 0 0
0 0 0
0 0 0
0 0 0
0 0 0
0 0 0
0 0 0
0 0 0
0 0 0
0 0 0
0 0 0
0 0 0
0 0 0
0 0 0
0 0 0
0 0 0
0 0 0
0 0 0
0 0 0
0 0 0
0 0 0
0 0 0
0 0 0
0 0 0
0 0 0
0 0 0
0 0 0
0 0 0
0 0 0
0 0 0
0 0 0
0 0 0
0 0 0
0 0 0
0 0 0
0 0 0
0 0 0
0 0 0
0 0 0
0 0 0
0 0 0
0 0 0
0 0 0
0 0 0
0 0 0
0 0 0
0 0 0
0 0 0
0 0 0
0 0 0
0 0 0
0 0 0
0 0 0
0 0 0
0 0 0
0 0 0
0 0 0
0 0 0
0 0 0
0 0 0
0 0 0
0 0 0
0 0 0
0 0 0
0 0 0
0 0 0
0 0 0
0 0 0
0 0 0
0 0 0
0 0 0
0 0 0
0 0 0
0 0 0
0 0 0
0 0 0
0 0 0
0 0 0
0 0 0
0 0 0
0 0 0
0 0 0
0 0 0
0 0 0
0 0 0
0 0 0
0 0 0
0 0 0
0 0 0
0 0 0
0 0 0
0 0 0
0 0 0
0 0 0
0 0 0
0 0 0
0 0 0
0 0 0
0 0 0
0 0 0
0 0 0
0 0 0
0 0 0
0 0 0
0 0 0
0 0 0
0 0 0
0 0 0
0 0 0
0 0 0
0 0 0
0 0 0
0 0 0
0 0 0
0 0 0
0 0 0
0 0 0
0 0 0
0 0 0
0 0 0
0 0 0
0 0 0
0 0 0
0 0 0
0 0 0
0 0 0
0 0 0
0 0 0
0 0 0
0 0 0
0 0 0
0 0 0
0 0 0
0 0 0
0 0 0
0 0 0
0 0 0
0 0 0
0 0 0
0 0 0
0 0 0
0 0 0
0 0 0
0 0 0
0 0 0
0 0 0
0 0 0
0 0 0
0 0 0
0 0 0
0 0 0
0 0 0
0 0 0
0 0 0
0 0 0
0 0 0
0 0 0
0 0 0
0 0 0
0 0 0
0 0 0
0 0 0
0 0 0
0 0 0
0 0 0
0 0 0
0 0 0
0 0 0
0 0 0
0 0 0
0 0 0
0 0 0
0 0 0
0 0 0
0 0 0
0 0 0
0 0 0
0 0 0
0 0 0
0 0 0
0 0 0
0 0 0
0 0 0
0 0 0
0 0 0
0 0 0
0 0 0
0 0 0
0 0 0
0 0 0
0 0 0
0 0 0
0 0 0
0 0 0
0 0 0
0 0 0
0 0 0
0 0 0
0 0 0
0 0 0
0 0 0
0 0 0
0 0 0
0 0 0
0 0 0
0 0 0
0 0 0
0 0 0
0 0 0
0 0 0
0 0 0
0 0 0
0 0 0
0 0 0
0 0 0
0 0 0
0 0 0
0 0 0
0 0 0
0 0 0
0 0 0
0 0 0
0 0 0
0 0 0
0 0 0
0 0 0
0 0 0
0 0 0
0 0 0
0 0 0
0 0 0
0 0 0
0 0 0
0 0 0
0 0 0
0 0 0
0 0 0
0 0 0
0 0 0
0 0 0
0 0 0
0 0 0
0 0 0
0 0 0
0 0 0
0 0 0
0 0 0
0 0 0
0 0 0
0 0 0
0 0 0
0 0 0
0 0 0
0 0 0
0 0 0
0 0 0
0 0 0
0 0 0
0 0 0
0 0 0
0 0 0
0 0 0
0 0 0
0 0 0
0 0 0
0 0 0
0 0 0
0 0 0
0 0 0
0 0 0
0 0 0
0 0 0
0 0 0
0 0 0
0 0 0
0 0 0
0 0 0
0 0 0
0 0 0
0 0 0
0 0 0
0 0 0
0 0 0
0 0 0
0 0 0
0 0 0
0 0 0
0 0 0
0 0 0
0 0 0
0 0 0
0 0 0
0 0 0
0 0 0
0 0 0
0 0 0
0 0 0
0 0 0
0 0 0
0 0 0
0 0 0
0 0 0
0 0 0
0 0 0
0 0 0
0 0 0
0 0 0
0 0 0
0 0 0
0 0 0
0 0 0
0 0 0
0 0 0
0 0 0
0 0 0
0 0 0
0 0 0
0 0 0
0 0 0
0 0 0
0 0 0
0 0 0
0 0 0
0 0 0
0 0 0
0 0 0
0 0 0
0 0 0
0 0 0
0 0 0
0 0 0
0 0 0
0 0 0
0 0 0
0 0 0
0 0 0
0 0 0
0 0 0
0 0 0
0 0 0
0 0 0
0 0 0
0 0 0
0 0 0
0 0 0
0 0 0
0 0 0
0 0 0
0 0 0
0 0 0
0 0 0
0 0 0
0 0 0
0 0 0
0 0 0
0 0 0
0 0 0
0 0 0
0 0 0
0 0 0
0 0 0
0 0 0
0 0 0
0 0 0
0 0 0
0 0 0
0 0 0
0 0 0
0 0 0
0 0 0
0 0 0
0 0 0
0 0 0
0 0 0
0 0 0
0 0 0
0 0 0
0 0 0
0 0 0
0 0 0
0 0 0
0 0 0
0 0 0
0 0 0
0 0 0
0 0 0
0 0 0
0 0 0
0 0 0
0 0 0
0 0 0
0 0 0
0 0 0
0 0 0
0 0 0
0 0 0
0 0 0
0 0 0
0 0 0
0 0 0
0 0 0
0 0 0
0 0 0
0 0 0
0 0 0
0 0 0
0 0 0
0 0 0
0 0 0
0 0 0
0 0 0
0 0 0
0 0 0
0 0 0
0 0 0
0 0 0
0 0 0
0 0 0
0 0 0
0 0 0
0 0 0
0 0 0
0 0 0
0 0 0
0 0 0
0 0 0
0 0 0
0 0 0
0 0 0
0 0 0
0 0 0
0 0 0
0 0 0
0 0 0
0 0 0
0 0 0
0 0 0
0 0 0
0 0 0
0 0 0
0 0 0
0 0 0
0 0 0
0 0 0
0 0 0
0 0 0
0 0 0
0 0 0
0 0 0
0 0 0
0 0 0
0 0 0
0 0 0
0 0 0
0 0 0
0 0 0
0 0 0
0 0 0
0 0 0
0 0 0
0 0 0
0 0 0
0 0 0
0 0 0
0 0 0
0 0 0
0 0 0
0 0 0
0 0 0
0 0 0
0 0 0
0 0 0
0 0 0
0 0 0
0 0 0
0 0 0
0 0 0
0 0 0
0 0 0
0 0 0
0 0 0
0 0 0
0 0 0
0 0 0
0 0 0
0 0 0
0 0 0
0 0 0
0 0 0
0 0 0
0 0 0
0 0 0
0 0 0
0 0 0
0 0 0
0 0 0
0 0 0
0 0 0
0 0 0
0 0 0
0 0 0
0 0 0
0 0 0
0 0 0
0 0 0
0 0 0
0 0 0
0 0 0
0 0 0
0 0 0
0 0 0
0 0 0
0 0 0
0 0 0
0 0 0
0 0 0
0 0 0
0 0 0
0 0 0
0 0 0
0 0 0
0 0 0
0 0 0
0 0 0
0 0 0
0 0 0
0 0 0
0 0 0
0 0 0
0 0 0
0 0 0
0 0 0
0 0 0
0 0 0
0 0 0
0 0 0
0 0 0
0 0 0
0 0 0
0 0 0
0 0 0
0 0 0
0 0 0
0 0 0
0 0 0
0 0 0
0 0 0
0 0 0
0 0 0
0 0 0
0 0 0
0 0 0
0 0 0
0 0 0
0 0 0
0 0 0
0 0 0
0 0 0
0 0 0
0 0 0
0 0 0
0 0 0
0 0 0
0 0 0
0 0 0
0 0 0
0 0 0
0 0 0
0 0 0
0 0 0
0 0 0
0 0 0
0 0 0
0 0 0
0 0 0
0 0 0
0 0 0
0 0 0
0 0 0
0 0 0
0 0 0
0 0 0
0 0 0
0 0 0
0 0 0
0 0 0
0 0 0
0 0 0
0 0 0
0 0 0
0 0 0
0 0 0
0 0 0
0 0 0
0 0 0
0 0 0
0 0 0
0 0 0
0 0 0
0 0 0
0 0 0
0 0 0
0 0 0
231 124 39
231 124 39
0 0 0
0 0 0
0 0 0
0 0 0
0 0 0
0 0 0
0 0 0
0 0 0
0 0 0
0 0 0
0 0 0
0 0 0
0 0 0
0 0 0
0 0 0
0 0 0
0 0 0
0 0 0
0 0 0
0 0 0
0 0 0
0 0 0
0 0 0
0 0 0
0 0 0
0 0 0
0 0 0
0 0 0
0 0 0
0 0 0
0 0 0
0 0 0
0 0 0
0 0 0
0 0 0
0 0 0
0 0 0
0 0 0
0 0 0
0 0 0
0 0 0
0 0 0
0 0 0
0 0 0
0 0 0
0 0 0
0 0 0
0 0 0
0 0 0
0 0 0
0 0 0
0 0 0
0 0 0
0 0 0
0 0 0
0 0 0
0 0 0
0 0 0
0 0 0
0 0 0
0 0 0
0 0 0
0 0 0
0 0 0
0 0 0
0 0 0
0 0 0
0 0 0
0 0 0
0 0 0
0 0 0
0 0 0
0 0 0
0 0 0
0 0 0
0 0 0
0 0 0
0 0 0
0 0 0
0 0 0
0 0 0
0 0 0
0 0 0
0 0 0
0 0 0
0 0 0
0 0 0
0 0 0
0 0 0
0 0 0
0 0 0
0 0 0
0 0 0
0 0 0
0 0 0
0 0 0
0 0 0
0 0 0
0 0 0
0 0 0
0 0 0
0 0 0
0 0 0
0 0 0
0 0 0
0 0 0
0 0 0
0 0 0
0 0 0
0 0 0
0 0 0
0 0 0
0 0 0
0 0 0
0 0 0
0 0 0
0 0 0
0 0 0
0 0 0
0 0 0
0 0 0
0 0 0
0 0 0
0 0 0
0 0 0
0 0 0
231 124 39
231 124 39
0 0 0
0 0 0
0 0 0
0 0 0
0 0 0
0 0 0
0 0 0
0 0 0
0 0 0
0 0 0
0 0 0
0 0 0
0 0 0
0 0 0
0 0 0
0 0 0
0 0 0
0 0 0
0 0 0
0 0 0
0 0 0
0 0 0
0 0 0
0 0 0
0 0 0
0 0 0
0 0 0
0 0 0
0 0 0
0 0 0
0 0 0
0 0 0
0 0 0
0 0 0
0 0 0
0 0 0
0 0 0
0 0 0
0 0 0
0 0 0
0 0 0
0 0 0
0 0 0
0 0 0
0 0 0
0 0 0
0 0 0
0 0 0
0 0 0
0 0 0
0 0 0
0 0 0
0 0 0
0 0 0
0 0 0
0 0 0
0 0 0
0 0 0
0 0 0
0 0 0
0 0 0
0 0 0
0 0 0
0 0 0
0 0 0
0 0 0
0 0 0
0 0 0
0 0 0
0 0 0
0 0 0
0 0 0
0 0 0
0 0 0
0 0 0
0 0 0
0 0 0
0 0 0
0 0 0
0 0 0
0 0 0
0 0 0
0 0 0
0 0 0
0 0 0
0 0 0
0 0 0
0 0 0
0 0 0
0 0 0
0 0 0
0 0 0
0 0 0
0 0 0
0 0 0
0 0 0
0 0 0
0 0 0
0 0 0
0 0 0
0 0 0
0 0 0
0 0 0
0 0 0
0 0 0
0 0 0
0 0 0
0 0 0
0 0 0
0 0 0
0 0 0
0 0 0
0 0 0
0 0 0
0 0 0
0 0 0
0 0 0
0 0 0
0 0 0
0 0 0
0 0 0
0 0 0
0 0 0
0 0 0
0 0 0
231 124 39
231 124 39
231 124 39
231 124 39
0 0 0
0 0 0
0 0 0
0 0 0
0 0 0
0 0 0
0 0 0
0 0 0
0 0 0
0 0 0
0 0 0
0 0 0
0 0 0
0 0 0
0 0 0
0 0 0
0 0 0
0 0 0
0 0 0
0 0 0
0 0 0
0 0 0
0 0 0
0 0 0
0 0 0
0 0 0
0 0 0
0 0 0
0 0 0
0 0 0
0 0 0
0 0 0
0 0 0
0 0 0
0 0 0
0 0 0
0 0 0
0 0 0
0 0 0
0 0 0
0 0 0
0 0 0
0 0 0
0 0 0
0 0 0
0 0 0
0 0 0
0 0 0
0 0 0
0 0 0
0 0 0
0 0 0
0 0 0
0 0 0
0 0 0
0 0 0
0 0 0
0 0 0
0 0 0
0 0 0
0 0 0
0 0 0
0 0 0
0 0 0
0 0 0
0 0 0
0 0 0
0 0 0
0 0 0
0 0 0
0 0 0
0 0 0
0 0 0
0 0 0
0 0 0
0 0 0
0 0 0
0 0 0
0 0 0
0 0 0
0 0 0
0 0 0
0 0 0
0 0 0
0 0 0
0 0 0
0 0 0
0 0 0
0 0 0
0 0 0
0 0 0
0 0 0
0 0 0
0 0 0
0 0 0
0 0 0
0 0 0
0 0 0
0 0 0
0 0 0
0 0 0
0 0 0
0 0 0
0 0 0
0 0 0
0 0 0
0 0 0
0 0 0
0 0 0
0 0 0
0 0 0
0 0 0
0 0 0
0 0 0
0 0 0
0 0 0
0 0 0
0 0 0
0 0 0
0 0 0
0 0 0
0 0 0
0 0 0
0 0 0
231 124 39
231 124 39
231 124 39
231 124 39
0 0 0
0 0 0
0 0 0
0 0 0
0 0 0
0 0 0
0 0 0
0 0 0
0 0 0
0 0 0
0 0 0
0 0 0
0 0 0
0 0 0
0 0 0
0 0 0
0 0 0
0 0 0
0 0 0
0 0 0
0 0 0
0 0 0
0 0 0
0 0 0
0 0 0
0 0 0
0 0 0
0 0 0
0 0 0
0 0 0
0 0 0
0 0 0
0 0 0
0 0 0
0 0 0
0 0 0
0 0 0
0 0 0
0 0 0
0 0 0
0 0 0
0 0 0
0 0 0
0 0 0
0 0 0
0 0 0
0 0 0
0 0 0
0 0 0
0 0 0
0 0 0
0 0 0
0 0 0
0 0 0
0 0 0
0 0 0
0 0 0
0 0 0
0 0 0
0 0 0
0 0 0
0 0 0
0 0 0
0 0 0
0 0 0
0 0 0
0 0 0
0 0 0
0 0 0
0 0 0
0 0 0
0 0 0
0 0 0
0 0 0
0 0 0
0 0 0
0 0 0
0 0 0
0 0 0
0 0 0
0 0 0
0 0 0
0 0 0
0 0 0
0 0 0
0 0 0
0 0 0
0 0 0
0 0 0
0 0 0
0 0 0
0 0 0
0 0 0
0 0 0
0 0 0
0 0 0
0 0 0
0 0 0
0 0 0
0 0 0
0 0 0
0 0 0
0 0 0
0 0 0
0 0 0
0 0 0
0 0 0
0 0 0
0 0 0
0 0 0
0 0 0
0 0 0
0 0 0
0 0 0
0 0 0
0 0 0
0 0 0
0 0 0
0 0 0
0 0 0
0 0 0
0 0 0
0 0 0
231 124 39
231 124 39
231 124 39
231 124 39
231 124 39
231 124 39
0 0 0
0 0 0
0 0 0
0 0 0
0 0 0
0 0 0
0 0 0
0 0 0
0 0 0
0 0 0
0 0 0
0 0 0
0 0 0
0 0 0
0 0 0
0 0 0
0 0 0
0 0 0
0 0 0
0 0 0
0 0 0
0 0 0
0 0 0
0 0 0
0 0 0
0 0 0
0 0 0
0 0 0
0 0 0
0 0 0
0 0 0
0 0 0
0 0 0
0 0 0
0 0 0
0 0 0
0 0 0
0 0 0
0 0 0
0 0 0
0 0 0
0 0 0
0 0 0
0 0 0
0 0 0
0 0 0
0 0 0
0 0 0
0 0 0
0 0 0
0 0 0
0 0 0
0 0 0
0 0 0
0 0 0
0 0 0
0 0 0
0 0 0
0 0 0
0 0 0
0 0 0
0 0 0
0 0 0
0 0 0
0 0 0
0 0 0
0 0 0
0 0 0
0 0 0
0 0 0
0 0 0
0 0 0
0 0 0
0 0 0
0 0 0
0 0 0
0 0 0
0 0 0
0 0 0
0 0 0
0 0 0
0 0 0
0 0 0
0 0 0
0 0 0
0 0 0
0 0 0
0 0 0
0 0 0
0 0 0
0 0 0
0 0 0
0 0 0
0 0 0
0 0 0
0 0 0
0 0 0
0 0 0
0 0 0
0 0 0
0 0 0
0 0 0
0 0 0
0 0 0
0 0 0
0 0 0
0 0 0
0 0 0
0 0 0
0 0 0
0 0 0
0 0 0
0 0 0
0 0 0
0 0 0
0 0 0
0 0 0
0 0 0
0 0 0
0 0 0
0 0 0
0 0 0
231 124 39
231 124 39
231 124 39
231 124 39
231 124 39
231 124 39
0 0 0
0 0 0
0 0 0
0 0 0
0 0 0
0 0 0
0 0 0
0 0 0
0 0 0
0 0 0
0 0 0
0 0 0
0 0 0
0 0 0
0 0 0
0 0 0
0 0 0
0 0 0
0 0 0
0 0 0
0 0 0
0 0 0
0 0 0
0 0 0
0 0 0
0 0 0
0 0 0
0 0 0
0 0 0
0 0 0
0 0 0
0 0 0
0 0 0
0 0 0
0 0 0
0 0 0
0 0 0
0 0 0
0 0 0
0 0 0
0 0 0
0 0 0
0 0 0
0 0 0
0 0 0
0 0 0
0 0 0
0 0 0
0 0 0
0 0 0
0 0 0
0 0 0
0 0 0
0 0 0
0 0 0
0 0 0
0 0 0
0 0 0
0 0 0
0 0 0
0 0 0
0 0 0
0 0 0
0 0 0
0 0 0
0 0 0
0 0 0
0 0 0
0 0 0
0 0 0
0 0 0
0 0 0
0 0 0
0 0 0
0 0 0
0 0 0
0 0 0
0 0 0
0 0 0
0 0 0
0 0 0
0 0 0
0 0 0
0 0 0
0 0 0
0 0 0
0 0 0
0 0 0
0 0 0
0 0 0
0 0 0
0 0 0
0 0 0
0 0 0
0 0 0
0 0 0
0 0 0
0 0 0
0 0 0
0 0 0
0 0 0
0 0 0
0 0 0
0 0 0
0 0 0
0 0 0
0 0 0
0 0 0
0 0 0
0 0 0
0 0 0
0 0 0
0 0 0
0 0 0
0 0 0
0 0 0
0 0 0
0 0 0
0 0 0
0 0 0
0 0 0
231 124 39
231 124 39
231 124 39
231 124 39
231 124 39
231 124 39
231 124 39
231 124 39
0 0 0
0 0 0
0 0 0
0 0 0
0 0 0
0 0 0
0 0 0
0 0 0
0 0 0
0 0 0
0 0 0
0 0 0
0 0 0
0 0 0
0 0 0
0 0 0
0 0 0
0 0 0
0 0 0
0 0 0
0 0 0
0 0 0
0 0 0
0 0 0
0 0 0
0 0 0
0 0 0
0 0 0
0 0 0
0 0 0
0 0 0
0 0 0
0 0 0
0 0 0
0 0 0
0 0 0
0 0 0
0 0 0
0 0 0
0 0 0
0 0 0
0 0 0
0 0 0
0 0 0
0 0 0
0 0 0
0 0 0
0 0 0
0 0 0
0 0 0
0 0 0
0 0 0
0 0 0
0 0 0
0 0 0
0 0 0
0 0 0
0 0 0
0 0 0
0 0 0
0 0 0
0 0 0
0 0 0
0 0 0
0 0 0
0 0 0
0 0 0
0 0 0
0 0 0
0 0 0
0 0 0
0 0 0
0 0 0
0 0 0
0 0 0
0 0 0
0 0 0
0 0 0
0 0 0
0 0 0
0 0 0
0 0 0
0 0 0
0 0 0
0 0 0
0 0 0
0 0 0
0 0 0
0 0 0
0 0 0
0 0 0
0 0 0
0 0 0
0 0 0
0 0 0
0 0 0
0 0 0
0 0 0
0 0 0
0 0 0
0 0 0
0 0 0
0 0 0
0 0 0
0 0 0
0 0 0
0 0 0
0 0 0
0 0 0
0 0 0
0 0 0
0 0 0
0 0 0
0 0 0
0 0 0
0 0 0
0 0 0
0 0 0
0 0 0
0 0 0
231 124 39
231 124 39
231 124 39
231 124 39
231 124 39
231 124 39
231 124 39
231 124 39
0 0 0
0 0 0
0 0 0
0 0 0
0 0 0
0 0 0
0 0 0
0 0 0
0 0 0
0 0 0
0 0 0
0 0 0
0 0 0
0 0 0
0 0 0
0 0 0
0 0 0
0 0 0
0 0 0
0 0 0
0 0 0
0 0 0
0 0 0
0 0 0
0 0 0
0 0 0
0 0 0
0 0 0
0 0 0
0 0 0
0 0 0
0 0 0
0 0 0
0 0 0
0 0 0
0 0 0
0 0 0
0 0 0
0 0 0
0 0 0
0 0 0
0 0 0
0 0 0
0 0 0
0 0 0
0 0 0
0 0 0
0 0 0
0 0 0
0 0 0
0 0 0
0 0 0
0 0 0
0 0 0
0 0 0
0 0 0
0 0 0
0 0 0
0 0 0
0 0 0
0 0 0
0 0 0
0 0 0
0 0 0
0 0 0
0 0 0
0 0 0
0 0 0
0 0 0
0 0 0
0 0 0
0 0 0
0 0 0
0 0 0
0 0 0
0 0 0
0 0 0
0 0 0
0 0 0
0 0 0
0 0 0
0 0 0
0 0 0
0 0 0
0 0 0
0 0 0
0 0 0
0 0 0
0 0 0
0 0 0
0 0 0
0 0 0
0 0 0
0 0 0
0 0 0
0 0 0
0 0 0
0 0 0
0 0 0
0 0 0
0 0 0
0 0 0
0 0 0
0 0 0
0 0 0
0 0 0
0 0 0
0 0 0
0 0 0
0 0 0
0 0 0
0 0 0
0 0 0
0 0 0
0 0 0
0 0 0
0 0 0
0 0 0
0 0 0
231 124 39
231 124 39
231 124 39
231 124 39
231 124 39
231 124 39
231 124 39
231 124 39
231 124 39
231 124 39
0 0 0
0 0 0
0 0 0
0 0 0
0 0 0
0 0 0
0 0 0
0 0 0
0 0 0
0 0 0
0 0 0
0 0 0
0 0 0
0 0 0
0 0 0
0 0 0
0 0 0
0 0 0
0 0 0
0 0 0
0 0 0
0 0 0
0 0 0
0 0 0
0 0 0
0 0 0
0 0 0
0 0 0
0 0 0
0 0 0
0 0 0
0 0 0
0 0 0
0 0 0
0 0 0
0 0 0
0 0 0
0 0 0
0 0 0
0 0 0
0 0 0
0 0 0
0 0 0
0 0 0
0 0 0
0 0 0
0 0 0
0 0 0
0 0 0
0 0 0
0 0 0
0 0 0
0 0 0
0 0 0
0 0 0
0 0 0
0 0 0
0 0 0
0 0 0
0 0 0
0 0 0
0 0 0
0 0 0
0 0 0
0 0 0
0 0 0
0 0 0
0 0 0
0 0 0
0 0 0
0 0 0
0 0 0
0 0 0
0 0 0
0 0 0
0 0 0
0 0 0
0 0 0
0 0 0
0 0 0
0 0 0
0 0 0
0 0 0
0 0 0
0 0 0
0 0 0
0 0 0
0 0 0
0 0 0
0 0 0
0 0 0
0 0 0
0 0 0
0 0 0
0 0 0
0 0 0
0 0 0
0 0 0
0 0 0
0 0 0
0 0 0
0 0 0
0 0 0
0 0 0
0 0 0
0 0 0
0 0 0
0 0 0
0 0 0
0 0 0
0 0 0
0 0 0
0 0 0
0 0 0
0 0 0
0 0 0
0 0 0
0 0 0
231 124 39
231 124 39
231 124 39
231 124 39
231 124 39
231 124 39
231 124 39
231 124 39
231 124 39
231 124 39
0 0 0
0 0 0
0 0 0
0 0 0
0 0 0
0 0 0
0 0 0
0 0 0
0 0 0
0 0 0
0 0 0
0 0 0
0 0 0
0 0 0
0 0 0
0 0 0
0 0 0
0 0 0
0 0 0
0 0 0
0 0 0
0 0 0
0 0 0
0 0 0
0 0 0
0 0 0
0 0 0
0 0 0
0 0 0
0 0 0
0 0 0
0 0 0
0 0 0
0 0 0
0 0 0
0 0 0
0 0 0
0 0 0
0 0 0
0 0 0
0 0 0
0 0 0
0 0 0
0 0 0
0 0 0
0 0 0
0 0 0
0 0 0
0 0 0
0 0 0
0 0 0
0 0 0
0 0 0
0 0 0
0 0 0
0 0 0
0 0 0
0 0 0
0 0 0
0 0 0
0 0 0
0 0 0
0 0 0
0 0 0
0 0 0
0 0 0
0 0 0
0 0 0
0 0 0
0 0 0
0 0 0
0 0 0
0 0 0
0 0 0
0 0 0
0 0 0
0 0 0
0 0 0
0 0 0
0 0 0
0 0 0
0 0 0
0 0 0
0 0 0
0 0 0
0 0 0
0 0 0
0 0 0
0 0 0
0 0 0
0 0 0
0 0 0
0 0 0
0 0 0
0 0 0
0 0 0
0 0 0
0 0 0
0 0 0
0 0 0
0 0 0
0 0 0
0 0 0
0 0 0
0 0 0
0 0 0
0 0 0
0 0 0
0 0 0
0 0 0
0 0 0
0 0 0
0 0 0
0 0 0
0 0 0
0 0 0
0 0 0
231 124 39
231 124 39
231 124 39
231 124 39
231 124 39
231 124 39
231 124 39
231 124 39
231 124 39
231 124 39
231 124 39
231 124 39
0 0 0
0 0 0
0 0 0
0 0 0
0 0 0
0 0 0
0 0 0
0 0 0
0 0 0
0 0 0
0 0 0
0 0 0
0 0 0
0 0 0
0 0 0
0 0 0
0 0 0
0 0 0
0 0 0
0 0 0
0 0 0
0 0 0
0 0 0
0 0 0
0 0 0
0 0 0
0 0 0
0 0 0
0 0 0
0 0 0
0 0 0
0 0 0
0 0 0
0 0 0
0 0 0
0 0 0
0 0 0
0 0 0
0 0 0
0 0 0
0 0 0
0 0 0
0 0 0
0 0 0
0 0 0
0 0 0
0 0 0
0 0 0
0 0 0
0 0 0
0 0 0
0 0 0
0 0 0
0 0 0
0 0 0
0 0 0
0 0 0
0 0 0
0 0 0
0 0 0
0 0 0
0 0 0
0 0 0
0 0 0
0 0 0
0 0 0
0 0 0
0 0 0
0 0 0
0 0 0
0 0 0
0 0 0
0 0 0
0 0 0
0 0 0
0 0 0
0 0 0
0 0 0
0 0 0
0 0 0
0 0 0
0 0 0
0 0 0
0 0 0
0 0 0
0 0 0
0 0 0
0 0 0
0 0 0
0 0 0
0 0 0
0 0 0
0 0 0
0 0 0
0 0 0
0 0 0
0 0 0
0 0 0
0 0 0
0 0 0
0 0 0
0 0 0
0 0 0
0 0 0
0 0 0
0 0 0
0 0 0
0 0 0
0 0 0
0 0 0
0 0 0
0 0 0
0 0 0
0 0 0
0 0 0
0 0 0
231 124 39
231 124 39
231 124 39
231 124 39
231 124 39
231 124 39
231 124 39
231 124 39
231 124 39
231 124 39
231 124 39
231 124 39
0 0 0
0 0 0
0 0 0
0 0 0
0 0 0
0 0 0
0 0 0
0 0 0
0 0 0
0 0 0
0 0 0
0 0 0
0 0 0
0 0 0
0 0 0
0 0 0
0 0 0
0 0 0
0 0 0
0 0 0
0 0 0
0 0 0
0 0 0
0 0 0
0 0 0
0 0 0
0 0 0
0 0 0
0 0 0
0 0 0
0 0 0
0 0 0
0 0 0
0 0 0
0 0 0
0 0 0
0 0 0
0 0 0
0 0 0
0 0 0
0 0 0
0 0 0
0 0 0
0 0 0
0 0 0
0 0 0
0 0 0
0 0 0
0 0 0
0 0 0
0 0 0
0 0 0
0 0 0
0 0 0
0 0 0
0 0 0
0 0 0
0 0 0
0 0 0
0 0 0
0 0 0
0 0 0
0 0 0
0 0 0
0 0 0
0 0 0
0 0 0
0 0 0
0 0 0
0 0 0
0 0 0
0 0 0
0 0 0
0 0 0
0 0 0
0 0 0
0 0 0
0 0 0
0 0 0
0 0 0
0 0 0
0 0 0
0 0 0
0 0 0
0 0 0
0 0 0
0 0 0
0 0 0
0 0 0
0 0 0
0 0 0
0 0 0
0 0 0
0 0 0
0 0 0
0 0 0
0 0 0
0 0 0
0 0 0
0 0 0
0 0 0
0 0 0
0 0 0
0 0 0
0 0 0
0 0 0
0 0 0
0 0 0
0 0 0
0 0 0
0 0 0
0 0 0
0 0 0
0 0 0
0 0 0
231 124 39
231 124 39
231 124 39
231 124 39
231 124 39
231 124 39
231 124 39
231 124 39
231 124 39
231 124 39
231 124 39
231 124 39
231 124 39
231 124 39
0 0 0
0 0 0
0 0 0
0 0 0
0 0 0
0 0 0
0 0 0
0 0 0
0 0 0
0 0 0
0 0 0
0 0 0
0 0 0
0 0 0
0 0 0
0 0 0
0 0 0
0 0 0
0 0 0
0 0 0
0 0 0
0 0 0
0 0 0
0 0 0
0 0 0
0 0 0
0 0 0
0 0 0
0 0 0
0 0 0
0 0 0
0 0 0
0 0 0
0 0 0
0 0 0
0 0 0
0 0 0
0 0 0
0 0 0
0 0 0
0 0 0
0 0 0
0 0 0
0 0 0
0 0 0
0 0 0
0 0 0
0 0 0
0 0 0
0 0 0
0 0 0
0 0 0
0 0 0
0 0 0
0 0 0
0 0 0
0 0 0
0 0 0
0 0 0
0 0 0
0 0 0
0 0 0
0 0 0
0 0 0
0 0 0
0 0 0
0 0 0
0 0 0
0 0 0
0 0 0
0 0 0
0 0 0
0 0 0
0 0 0
0 0 0
0 0 0
0 0 0
0 0 0
0 0 0
0 0 0
0 0 0
0 0 0
0 0 0
0 0 0
0 0 0
0 0 0
0 0 0
0 0 0
0 0 0
0 0 0
0 0 0
0 0 0
0 0 0
0 0 0
0 0 0
0 0 0
0 0 0
0 0 0
0 0 0
0 0 0
0 0 0
0 0 0
0 0 0
0 0 0
0 0 0
0 0 0
0 0 0
0 0 0
0 0 0
0 0 0
0 0 0
0 0 0
0 0 0
0 0 0
231 124 39
231 124 39
231 124 39
231 124 39
231 124 39
231 124 39
231 124 39
231 124 39
231 124 39
231 124 39
231 124 39
231 124 39
231 124 39
231 124 39
0 0 0
0 0 0
0 0 0
0 0 0
0 0 0
0 0 0
0 0 0
0 0 0
0 0 0
0 0 0
0 0 0
0 0 0
0 0 0
0 0 0
0 0 0
0 0 0
0 0 0
0 0 0
0 0 0
0 0 0
0 0 0
0 0 0
0 0 0
0 0 0
0 0 0
0 0 0
0 0 0
0 0 0
0 0 0
0 0 0
0 0 0
0 0 0
0 0 0
0 0 0
0 0 0
0 0 0
0 0 0
0 0 0
0 0 0
0 0 0
0 0 0
0 0 0
0 0 0
0 0 0
0 0 0
0 0 0
0 0 0
0 0 0
0 0 0
0 0 0
0 0 0
0 0 0
0 0 0
0 0 0
0 0 0
0 0 0
0 0 0
0 0 0
0 0 0
0 0 0
0 0 0
0 0 0
0 0 0
0 0 0
0 0 0
0 0 0
0 0 0
0 0 0
0 0 0
0 0 0
0 0 0
0 0 0
0 0 0
0 0 0
0 0 0
0 0 0
0 0 0
0 0 0
0 0 0
0 0 0
0 0 0
0 0 0
0 0 0
0 0 0
0 0 0
0 0 0
0 0 0
0 0 0
0 0 0
0 0 0
0 0 0
0 0 0
0 0 0
0 0 0
0 0 0
0 0 0
0 0 0
0 0 0
0 0 0
0 0 0
0 0 0
0 0 0
0 0 0
0 0 0
0 0 0
0 0 0
0 0 0
0 0 0
0 0 0
0 0 0
0 0 0
0 0 0
0 0 0
231 124 39
231 124 39
231 124 39
231 124 39
231 124 39
231 124 39
231 124 39
231 124 39
231 124 39
231 124 39
231 124 39
231 124 39
231 124 39
231 124 39
231 124 39
231 124 39
0 0 0
0 0 0
0 0 0
0 0 0
0 0 0
0 0 0
0 0 0
0 0 0
0 0 0
0 0 0
0 0 0
0 0 0
0 0 0
0 0 0
0 0 0
0 0 0
0 0 0
0 0 0
0 0 0
0 0 0
0 0 0
0 0 0
0 0 0
0 0 0
0 0 0
0 0 0
0 0 0
0 0 0
0 0 0
0 0 0
0 0 0
0 0 0
0 0 0
0 0 0
0 0 0
0 0 0
0 0 0
0 0 0
0 0 0
0 0 0
0 0 0
0 0 0
0 0 0
0 0 0
0 0 0
0 0 0
0 0 0
0 0 0
0 0 0
0 0 0
0 0 0
0 0 0
0 0 0
0 0 0
0 0 0
0 0 0
0 0 0
0 0 0
0 0 0
0 0 0
0 0 0
0 0 0
0 0 0
0 0 0
0 0 0
0 0 0
0 0 0
0 0 0
0 0 0
0 0 0
0 0 0
0 0 0
0 0 0
0 0 0
0 0 0
0 0 0
0 0 0
0 0 0
0 0 0
0 0 0
0 0 0
0 0 0
0 0 0
0 0 0
0 0 0
0 0 0
0 0 0
0 0 0
0 0 0
0 0 0
0 0 0
0 0 0
0 0 0
0 0 0
0 0 0
0 0 0
0 0 0
0 0 0
0 0 0
0 0 0
0 0 0
0 0 0
0 0 0
0 0 0
0 0 0
0 0 0
0 0 0
0 0 0
0 0 0
0 0 0
0 0 0
0 0 0
231 124 39
231 124 39
231 124 39
231 124 39
231 124 39
231 124 39
231 124 39
231 124 39
231 124 39
231 124 39
231 124 39
231 124 39
231 124 39
231 124 39
231 124 39
231 124 39
0 0 0
0 0 0
0 0 0
0 0 0
0 0 0
0 0 0
0 0 0
0 0 0
0 0 0
0 0 0
0 0 0
0 0 0
0 0 0
0 0 0
0 0 0
0 0 0
0 0 0
0 0 0
0 0 0
0 0 0
0 0 0
0 0 0
0 0 0
0 0 0
0 0 0
0 0 0
0 0 0
0 0 0
0 0 0
0 0 0
0 0 0
0 0 0
0 0 0
0 0 0
0 0 0
0 0 0
0 0 0
0 0 0
0 0 0
0 0 0
0 0 0
0 0 0
0 0 0
0 0 0
0 0 0
0 0 0
0 0 0
0 0 0
0 0 0
0 0 0
0 0 0
0 0 0
0 0 0
0 0 0
0 0 0
0 0 0
0 0 0
0 0 0
0 0 0
0 0 0
0 0 0
0 0 0
0 0 0
0 0 0
0 0 0
0 0 0
0 0 0
0 0 0
0 0 0
0 0 0
0 0 0
0 0 0
0 0 0
0 0 0
0 0 0
0 0 0
0 0 0
0 0 0
0 0 0
0 0 0
0 0 0
0 0 0
0 0 0
0 0 0
0 0 0
0 0 0
0 0 0
0 0 0
0 0 0
0 0 0
0 0 0
0 0 0
0 0 0
0 0 0
0 0 0
0 0 0
0 0 0
0 0 0
0 0 0
0 0 0
0 0 0
0 0 0
0 0 0
0 0 0
0 0 0
0 0 0
0 0 0
0 0 0
0 0 0
0 0 0
0 0 0
231 124 39
231 124 39
231 124 39
231 124 39
231 124 39
231 124 39
231 124 39
231 124 39
231 124 39
231 124 39
231 124 39
231 124 39
231 124 39
231 124 39
231 124 39
231 124 39
231 124 39
231 124 39
0 0 0
0 0 0
0 0 0
0 0 0
0 0 0
0 0 0
0 0 0
0 0 0
0 0 0
0 0 0
0 0 0
0 0 0
0 0 0
0 0 0
0 0 0
0 0 0
0 0 0
0 0 0
0 0 0
0 0 0
0 0 0
0 0 0
0 0 0
0 0 0
0 0 0
0 0 0
0 0 0
0 0 0
0 0 0
0 0 0
0 0 0
0 0 0
0 0 0
0 0 0
0 0 0
0 0 0
0 0 0
0 0 0
0 0 0
0 0 0
0 0 0
0 0 0
0 0 0
0 0 0
0 0 0
0 0 0
0 0 0
0 0 0
0 0 0
0 0 0
0 0 0
0 0 0
0 0 0
0 0 0
0 0 0
0 0 0
0 0 0
0 0 0
0 0 0
0 0 0
0 0 0
0 0 0
0 0 0
0 0 0
0 0 0
0 0 0
0 0 0
0 0 0
0 0 0
0 0 0
0 0 0
0 0 0
0 0 0
0 0 0
0 0 0
0 0 0
0 0 0
0 0 0
0 0 0
0 0 0
0 0 0
0 0 0
0 0 0
0 0 0
0 0 0
0 0 0
0 0 0
0 0 0
0 0 0
0 0 0
0 0 0
0 0 0
0 0 0
0 0 0
0 0 0
0 0 0
0 0 0
0 0 0
0 0 0
0 0 0
0 0 0
0 0 0
0 0 0
0 0 0
0 0 0
0 0 0
0 0 0
0 0 0
0 0 0
0 0 0
231 124 39
231 124 39
231 124 39
231 124 39
231 124 39
231 124 39
231 124 39
231 124 39
231 124 39
231 124 39
231 124 39
231 124 39
231 124 39
231 124 39
231 124 39
231 124 39
231 124 39
231 124 39
0 0 0
0 0 0
0 0 0
0 0 0
0 0 0
0 0 0
0 0 0
0 0 0
0 0 0
0 0 0
0 0 0
0 0 0
0 0 0
0 0 0
0 0 0
0 0 0
0 0 0
0 0 0
0 0 0
0 0 0
0 0 0
0 0 0
0 0 0
0 0 0
0 0 0
0 0 0
0 0 0
0 0 0
0 0 0
0 0 0
0 0 0
0 0 0
0 0 0
0 0 0
0 0 0
0 0 0
0 0 0
0 0 0
0 0 0
0 0 0
0 0 0
0 0 0
0 0 0
0 0 0
0 0 0
0 0 0
0 0 0
0 0 0
0 0 0
0 0 0
0 0 0
0 0 0
0 0 0
0 0 0
0 0 0
0 0 0
0 0 0
0 0 0
0 0 0
0 0 0
0 0 0
0 0 0
0 0 0
0 0 0
0 0 0
0 0 0
0 0 0
0 0 0
0 0 0
0 0 0
0 0 0
0 0 0
0 0 0
0 0 0
0 0 0
0 0 0
0 0 0
0 0 0
0 0 0
0 0 0
0 0 0
0 0 0
0 0 0
0 0 0
0 0 0
0 0 0
0 0 0
0 0 0
0 0 0
0 0 0
0 0 0
0 0 0
0 0 0
0 0 0
0 0 0
0 0 0
0 0 0
0 0 0
0 0 0
0 0 0
0 0 0
0 0 0
0 0 0
0 0 0
0 0 0
0 0 0
0 0 0
0 0 0
0 0 0
231 124 39
231 124 39
231 124 39
231 124 39
231 124 39
231 124 39
231 124 39
231 124 39
231 124 39
231 124 39
231 124 39
231 124 39
231 124 39
231 124 39
231 124 39
231 124 39
231 124 39
231 124 39
231 124 39
231 124 39
0 0 0
0 0 0
0 0 0
0 0 0
0 0 0
0 0 0
0 0 0
0 0 0
0 0 0
0 0 0
0 0 0
0 0 0
0 0 0
0 0 0
0 0 0
0 0 0
0 0 0
0 0 0
0 0 0
0 0 0
0 0 0
0 0 0
0 0 0
0 0 0
0 0 0
0 0 0
0 0 0
0 0 0
0 0 0
0 0 0
0 0 0
0 0 0
0 0 0
0 0 0
0 0 0
0 0 0
0 0 0
0 0 0
0 0 0
0 0 0
0 0 0
0 0 0
0 0 0
0 0 0
0 0 0
0 0 0
0 0 0
0 0 0
0 0 0
0 0 0
0 0 0
0 0 0
0 0 0
0 0 0
0 0 0
0 0 0
0 0 0
0 0 0
0 0 0
0 0 0
0 0 0
0 0 0
0 0 0
0 0 0
0 0 0
0 0 0
0 0 0
0 0 0
0 0 0
0 0 0
0 0 0
0 0 0
0 0 0
0 0 0
0 0 0
0 0 0
0 0 0
0 0 0
0 0 0
0 0 0
0 0 0
0 0 0
0 0 0
0 0 0
0 0 0
0 0 0
0 0 0
0 0 0
0 0 0
0 0 0
0 0 0
0 0 0
0 0 0
0 0 0
0 0 0
0 0 0
0 0 0
0 0 0
0 0 0
0 0 0
0 0 0
0 0 0
0 0 0
0 0 0
0 0 0
0 0 0
0 0 0
0 0 0
231 124 39
231 124 39
231 124 39
231 124 39
231 124 39
231 124 39
231 124 39
231 124 39
231 124 39
231 124 39
231 124 39
231 124 39
231 124 39
231 124 39
231 124 39
231 124 39
231 124 39
231 124 39
231 124 39
231 124 39
0 0 0
0 0 0
0 0 0
0 0 0
0 0 0
0 0 0
0 0 0
0 0 0
0 0 0
0 0 0
0 0 0
0 0 0
0 0 0
0 0 0
0 0 0
0 0 0
0 0 0
0 0 0
0 0 0
0 0 0
0 0 0
0 0 0
0 0 0
0 0 0
0 0 0
0 0 0
0 0 0
0 0 0
0 0 0
0 0 0
0 0 0
0 0 0
0 0 0
0 0 0
0 0 0
0 0 0
0 0 0
0 0 0
0 0 0
0 0 0
0 0 0
0 0 0
0 0 0
0 0 0
0 0 0
0 0 0
0 0 0
0 0 0
0 0 0
0 0 0
0 0 0
0 0 0
0 0 0
0 0 0
0 0 0
0 0 0
0 0 0
0 0 0
0 0 0
0 0 0
0 0 0
0 0 0
0 0 0
0 0 0
0 0 0
0 0 0
0 0 0
0 0 0
0 0 0
0 0 0
0 0 0
0 0 0
0 0 0
0 0 0
0 0 0
0 0 0
0 0 0
0 0 0
0 0 0
0 0 0
0 0 0
0 0 0
0 0 0
0 0 0
0 0 0
0 0 0
0 0 0
0 0 0
0 0 0
0 0 0
0 0 0
0 0 0
0 0 0
0 0 0
0 0 0
0 0 0
0 0 0
0 0 0
0 0 0
0 0 0
0 0 0
0 0 0
0 0 0
0 0 0
0 0 0
0 0 0
0 0 0
231 124 39
231 124 39
231 124 39
231 124 39
231 124 39
231 124 39
231 124 39
231 124 39
231 124 39
231 124 39
231 124 39
231 124 39
231 124 39
231 124 39
231 124 39
231 124 39
231 124 39
231 124 39
231 124 39
231 124 39
231 124 39
231 124 39
0 0 0
0 0 0
0 0 0
0 0 0
0 0 0
0 0 0
0 0 0
0 0 0
0 0 0
0 0 0
0 0 0
0 0 0
0 0 0
0 0 0
0 0 0
0 0 0
0 0 0
0 0 0
0 0 0
0 0 0
0 0 0
0 0 0
0 0 0
0 0 0
0 0 0
0 0 0
0 0 0
0 0 0
0 0 0
0 0 0
0 0 0
0 0 0
0 0 0
0 0 0
0 0 0
0 0 0
0 0 0
0 0 0
0 0 0
0 0 0
0 0 0
0 0 0
0 0 0
0 0 0
0 0 0
0 0 0
0 0 0
0 0 0
0 0 0
0 0 0
0 0 0
0 0 0
0 0 0
0 0 0
0 0 0
0 0 0
0 0 0
0 0 0
0 0 0
0 0 0
0 0 0
0 0 0
0 0 0
0 0 0
0 0 0
0 0 0
0 0 0
0 0 0
0 0 0
0 0 0
0 0 0
0 0 0
0 0 0
0 0 0
0 0 0
0 0 0
0 0 0
0 0 0
0 0 0
0 0 0
0 0 0
0 0 0
0 0 0
0 0 0
0 0 0
0 0 0
0 0 0
0 0 0
0 0 0
0 0 0
0 0 0
0 0 0
0 0 0
0 0 0
0 0 0
0 0 0
0 0 0
0 0 0
0 0 0
0 0 0
0 0 0
0 0 0
0 0 0
0 0 0
0 0 0
0 0 0
231 124 39
231 124 39
231 124 39
231 124 39
231 124 39
231 124 39
231 124 39
231 124 39
231 124 39
231 124 39
231 124 39
231 124 39
231 124 39
231 124 39
231 124 39
231 124 39
231 124 39
231 124 39
231 124 39
231 124 39
231 124 39
231 124 39
0 0 0
0 0 0
0 0 0
0 0 0
0 0 0
0 0 0
0 0 0
0 0 0
0 0 0
0 0 0
0 0 0
0 0 0
0 0 0
0 0 0
0 0 0
0 0 0
0 0 0
0 0 0
0 0 0
0 0 0
0 0 0
0 0 0
0 0 0
0 0 0
0 0 0
0 0 0
0 0 0
0 0 0
0 0 0
0 0 0
0 0 0
0 0 0
0 0 0
0 0 0
0 0 0
0 0 0
0 0 0
0 0 0
0 0 0
0 0 0
0 0 0
0 0 0
0 0 0
0 0 0
0 0 0
0 0 0
0 0 0
0 0 0
0 0 0
0 0 0
0 0 0
0 0 0
0 0 0
0 0 0
0 0 0
0 0 0
0 0 0
0 0 0
0 0 0
0 0 0
0 0 0
0 0 0
0 0 0
0 0 0
0 0 0
0 0 0
0 0 0
0 0 0
0 0 0
0 0 0
0 0 0
0 0 0
0 0 0
0 0 0
0 0 0
0 0 0
0 0 0
0 0 0
0 0 0
0 0 0
0 0 0
0 0 0
0 0 0
0 0 0
0 0 0
0 0 0
0 0 0
0 0 0
0 0 0
0 0 0
0 0 0
0 0 0
0 0 0
0 0 0
0 0 0
0 0 0
0 0 0
0 0 0
0 0 0
0 0 0
0 0 0
0 0 0
0 0 0
0 0 0
0 0 0
231 124 39
231 124 39
231 124 39
231 124 39
231 124 39
231 124 39
231 124 39
231 124 39
231 124 39
231 124 39
231 124 39
231 124 39
231 124 39
231 124 39
231 124 39
231 124 39
231 124 39
231 124 39
231 124 39
231 124 39
231 124 39
231 124 39
231 124 39
231 124 39
0 0 0
0 0 0
0 0 0
0 0 0
0 0 0
0 0 0
0 0 0
0 0 0
0 0 0
0 0 0
0 0 0
0 0 0
0 0 0
0 0 0
0 0 0
0 0 0
0 0 0
0 0 0
0 0 0
0 0 0
0 0 0
0 0 0
0 0 0
0 0 0
0 0 0
0 0 0
0 0 0
0 0 0
0 0 0
0 0 0
0 0 0
0 0 0
0 0 0
0 0 0
0 0 0
0 0 0
0 0 0
0 0 0
0 0 0
0 0 0
0 0 0
0 0 0
0 0 0
0 0 0
0 0 0
0 0 0
0 0 0
0 0 0
0 0 0
0 0 0
0 0 0
0 0 0
0 0 0
0 0 0
0 0 0
0 0 0
0 0 0
0 0 0
0 0 0
0 0 0
0 0 0
0 0 0
0 0 0
0 0 0
0 0 0
0 0 0
0 0 0
0 0 0
0 0 0
0 0 0
0 0 0
0 0 0
0 0 0
0 0 0
0 0 0
0 0 0
0 0 0
0 0 0
0 0 0
0 0 0
0 0 0
0 0 0
0 0 0
0 0 0
0 0 0
0 0 0
0 0 0
0 0 0
0 0 0
0 0 0
0 0 0
0 0 0
0 0 0
0 0 0
0 0 0
0 0 0
0 0 0
0 0 0
0 0 0
0 0 0
0 0 0
0 0 0
0 0 0
0 0 0
231 124 39
231 124 39
231 124 39
231 124 39
231 124 39
231 124 39
231 124 39
231 124 39
231 124 39
231 124 39
231 124 39
231 124 39
231 124 39
231 124 39
231 124 39
231 124 39
231 124 39
231 124 39
231 124 39
231 124 39
231 124 39
231 124 39
231 124 39
231 124 39
0 0 0
0 0 0
0 0 0
0 0 0
0 0 0
0 0 0
0 0 0
0 0 0
0 0 0
0 0 0
0 0 0
0 0 0
0 0 0
0 0 0
0 0 0
0 0 0
0 0 0
0 0 0
0 0 0
0 0 0
0 0 0
0 0 0
0 0 0
0 0 0
0 0 0
0 0 0
0 0 0
0 0 0
0 0 0
0 0 0
0 0 0
0 0 0
0 0 0
0 0 0
0 0 0
0 0 0
0 0 0
0 0 0
0 0 0
0 0 0
0 0 0
0 0 0
0 0 0
0 0 0
0 0 0
0 0 0
0 0 0
0 0 0
0 0 0
0 0 0
0 0 0
0 0 0
0 0 0
0 0 0
0 0 0
0 0 0
0 0 0
0 0 0
0 0 0
0 0 0
0 0 0
0 0 0
0 0 0
0 0 0
0 0 0
0 0 0
0 0 0
0 0 0
0 0 0
0 0 0
0 0 0
0 0 0
0 0 0
0 0 0
0 0 0
0 0 0
0 0 0
0 0 0
0 0 0
0 0 0
0 0 0
0 0 0
0 0 0
0 0 0
0 0 0
0 0 0
0 0 0
0 0 0
0 0 0
0 0 0
0 0 0
0 0 0
0 0 0
0 0 0
0 0 0
0 0 0
0 0 0
0 0 0
0 0 0
0 0 0
0 0 0
0 0 0
0 0 0
231 124 39
231 124 39
231 124 39
231 124 39
231 124 39
231 124 39
231 124 39
231 124 39
231 124 39
231 124 39
231 124 39
231 124 39
231 124 39
231 124 39
231 124 39
231 124 39
231 124 39
231 124 39
231 124 39
231 124 39
231 124 39
231 124 39
231 124 39
231 124 39
231 124 39
231 124 39
0 0 0
0 0 0
0 0 0
0 0 0
0 0 0
0 0 0
0 0 0
0 0 0
0 0 0
0 0 0
0 0 0
0 0 0
0 0 0
0 0 0
0 0 0
0 0 0
0 0 0
0 0 0
0 0 0
0 0 0
0 0 0
0 0 0
0 0 0
0 0 0
0 0 0
0 0 0
0 0 0
0 0 0
0 0 0
0 0 0
0 0 0
0 0 0
0 0 0
0 0 0
0 0 0
0 0 0
0 0 0
0 0 0
0 0 0
0 0 0
0 0 0
0 0 0
0 0 0
0 0 0
0 0 0
0 0 0
0 0 0
0 0 0
0 0 0
0 0 0
0 0 0
0 0 0
0 0 0
0 0 0
0 0 0
0 0 0
0 0 0
0 0 0
0 0 0
0 0 0
0 0 0
0 0 0
0 0 0
0 0 0
0 0 0
0 0 0
0 0 0
0 0 0
0 0 0
0 0 0
0 0 0
0 0 0
0 0 0
0 0 0
0 0 0
0 0 0
0 0 0
0 0 0
0 0 0
0 0 0
0 0 0
0 0 0
0 0 0
0 0 0
0 0 0
0 0 0
0 0 0
0 0 0
0 0 0
0 0 0
0 0 0
0 0 0
0 0 0
0 0 0
0 0 0
0 0 0
0 0 0
0 0 0
0 0 0
0 0 0
0 0 0
0 0 0
231 124 39
231 124 39
231 124 39
231 124 39
231 124 39
231 124 39
231 124 39
231 124 39
231 124 39
231 124 39
231 124 39
231 124 39
231 124 39
231 124 39
231 124 39
231 124 39
231 124 39
231 124 39
231 124 39
231 124 39
231 124 39
231 124 39
231 124 39
231 124 39
231 124 39
231 124 39
0 0 0
0 0 0
0 0 0
0 0 0
0 0 0
0 0 0
0 0 0
0 0 0
0 0 0
0 0 0
0 0 0
0 0 0
0 0 0
0 0 0
0 0 0
0 0 0
0 0 0
0 0 0
0 0 0
0 0 0
0 0 0
0 0 0
0 0 0
0 0 0
0 0 0
0 0 0
0 0 0
0 0 0
0 0 0
0 0 0
0 0 0
0 0 0
0 0 0
0 0 0
0 0 0
0 0 0
0 0 0
0 0 0
0 0 0
0 0 0
0 0 0
0 0 0
0 0 0
0 0 0
0 0 0
0 0 0
0 0 0
0 0 0
0 0 0
0 0 0
0 0 0
0 0 0
0 0 0
0 0 0
0 0 0
0 0 0
0 0 0
0 0 0
0 0 0
0 0 0
0 0 0
0 0 0
0 0 0
0 0 0
0 0 0
0 0 0
0 0 0
0 0 0
0 0 0
0 0 0
0 0 0
0 0 0
0 0 0
0 0 0
0 0 0
0 0 0
0 0 0
0 0 0
0 0 0
0 0 0
0 0 0
0 0 0
0 0 0
0 0 0
0 0 0
0 0 0
0 0 0
0 0 0
0 0 0
0 0 0
0 0 0
0 0 0
0 0 0
0 0 0
0 0 0
0 0 0
0 0 0
0 0 0
0 0 0
0 0 0
0 0 0
231 124 39
231 124 39
231 124 39
231 124 39
231 124 39
231 124 39
231 124 39
231 124 39
231 124 39
231 124 39
231 124 39
231 124 39
231 124 39
231 124 39
231 124 39
231 124 39
231 124 39
231 124 39
231 124 39
231 124 39
231 124 39
231 124 39
231 124 39
231 124 39
231 124 39
231 124 39
231 124 39
231 124 39
0 0 0
0 0 0
0 0 0
0 0 0
0 0 0
0 0 0
0 0 0
0 0 0
0 0 0
0 0 0
0 0 0
0 0 0
0 0 0
0 0 0
0 0 0
0 0 0
0 0 0
0 0 0
0 0 0
0 0 0
0 0 0
0 0 0
0 0 0
0 0 0
0 0 0
0 0 0
0 0 0
0 0 0
0 0 0
0 0 0
0 0 0
0 0 0
0 0 0
0 0 0
0 0 0
0 0 0
0 0 0
0 0 0
0 0 0
0 0 0
0 0 0
0 0 0
0 0 0
0 0 0
0 0 0
0 0 0
0 0 0
0 0 0
0 0 0
0 0 0
0 0 0
0 0 0
0 0 0
0 0 0
0 0 0
0 0 0
0 0 0
0 0 0
0 0 0
0 0 0
0 0 0
0 0 0
0 0 0
0 0 0
0 0 0
0 0 0
0 0 0
0 0 0
0 0 0
0 0 0
0 0 0
0 0 0
0 0 0
0 0 0
0 0 0
0 0 0
0 0 0
0 0 0
0 0 0
0 0 0
0 0 0
0 0 0
0 0 0
0 0 0
0 0 0
0 0 0
0 0 0
0 0 0
0 0 0
0 0 0
0 0 0
0 0 0
0 0 0
0 0 0
0 0 0
0 0 0
0 0 0
0 0 0
0 0 0
0 0 0
231 124 39
231 124 39
231 124 39
231 124 39
231 124 39
231 124 39
231 124 39
231 124 39
231 124 39
231 124 39
231 124 39
231 124 39
231 124 39
231 124 39
231 124 39
231 124 39
231 124 39
231 124 39
231 124 39
231 124 39
231 124 39
231 124 39
231 124 39
231 124 39
231 124 39
231 124 39
231 124 39
231 124 39
0 0 0
0 0 0
0 0 0
0 0 0
0 0 0
0 0 0
0 0 0
0 0 0
0 0 0
0 0 0
0 0 0
0 0 0
0 0 0
0 0 0
0 0 0
0 0 0
0 0 0
0 0 0
0 0 0
0 0 0
0 0 0
0 0 0
0 0 0
0 0 0
0 0 0
0 0 0
0 0 0
0 0 0
0 0 0
0 0 0
0 0 0
0 0 0
0 0 0
0 0 0
0 0 0
0 0 0
0 0 0
0 0 0
0 0 0
0 0 0
0 0 0
0 0 0
0 0 0
0 0 0
0 0 0
0 0 0
0 0 0
0 0 0
0 0 0
0 0 0
0 0 0
0 0 0
0 0 0
0 0 0
0 0 0
0 0 0
0 0 0
0 0 0
0 0 0
0 0 0
0 0 0
0 0 0
0 0 0
0 0 0
0 0 0
0 0 0
0 0 0
0 0 0
0 0 0
0 0 0
0 0 0
0 0 0
0 0 0
0 0 0
0 0 0
0 0 0
0 0 0
0 0 0
0 0 0
0 0 0
0 0 0
0 0 0
0 0 0
0 0 0
0 0 0
0 0 0
0 0 0
0 0 0
0 0 0
0 0 0
0 0 0
0 0 0
0 0 0
0 0 0
0 0 0
0 0 0
0 0 0
0 0 0
0 0 0
231 124 39
231 124 39
231 124 39
231 124 39
231 124 39
231 124 39
231 124 39
231 124 39
231 124 39
231 124 39
231 124 39
231 124 39
231 124 39
231 124 39
231 124 39
231 124 39
231 124 39
231 124 39
231 124 39
231 124 39
231 124 39
231 124 39
231 124 39
231 124 39
231 124 39
231 124 39
231 124 39
231 124 39
231 124 39
231 124 39
0 0 0
0 0 0
0 0 0
0 0 0
0 0 0
0 0 0
0 0 0
0 0 0
0 0 0
0 0 0
0 0 0
0 0 0
0 0 0
0 0 0
0 0 0
0 0 0
0 0 0
0 0 0
0 0 0
0 0 0
0 0 0
0 0 0
0 0 0
0 0 0
0 0 0
0 0 0
0 0 0
0 0 0
0 0 0
0 0 0
0 0 0
0 0 0
0 0 0
0 0 0
0 0 0
0 0 0
0 0 0
0 0 0
0 0 0
0 0 0
0 0 0
0 0 0
0 0 0
0 0 0
0 0 0
0 0 0
0 0 0
0 0 0
0 0 0
0 0 0
0 0 0
0 0 0
0 0 0
0 0 0
0 0 0
0 0 0
0 0 0
0 0 0
0 0 0
0 0 0
0 0 0
0 0 0
0 0 0
0 0 0
0 0 0
0 0 0
0 0 0
0 0 0
0 0 0
0 0 0
0 0 0
0 0 0
0 0 0
0 0 0
0 0 0
0 0 0
0 0 0
0 0 0
0 0 0
0 0 0
0 0 0
0 0 0
0 0 0
0 0 0
0 0 0
0 0 0
0 0 0
0 0 0
0 0 0
0 0 0
0 0 0
0 0 0
0 0 0
0 0 0
0 0 0
0 0 0
0 0 0
0 0 0
231 124 39
231 124 39
231 124 39
231 124 39
231 124 39
231 124 39
231 124 39
231 124 39
231 124 39
231 124 39
231 124 39
231 124 39
231 124 39
231 124 39
231 124 39
231 124 39
231 124 39
231 124 39
231 124 39
231 124 39
231 124 39
231 124 39
231 124 39
231 124 39
231 124 39
231 124 39
231 124 39
231 124 39
231 124 39
231 124 39
0 0 0
0 0 0
0 0 0
0 0 0
0 0 0
0 0 0
0 0 0
0 0 0
0 0 0
0 0 0
0 0 0
0 0 0
0 0 0
0 0 0
0 0 0
0 0 0
0 0 0
0 0 0
0 0 0
0 0 0
0 0 0
0 0 0
0 0 0
0 0 0
0 0 0
0 0 0
0 0 0
0 0 0
0 0 0
0 0 0
0 0 0
0 0 0
0 0 0
0 0 0
0 0 0
0 0 0
0 0 0
0 0 0
0 0 0
0 0 0
0 0 0
0 0 0
0 0 0
0 0 0
0 0 0
0 0 0
0 0 0
0 0 0
0 0 0
0 0 0
0 0 0
0 0 0
0 0 0
0 0 0
0 0 0
0 0 0
0 0 0
0 0 0
0 0 0
0 0 0
0 0 0
0 0 0
0 0 0
0 0 0
0 0 0
0 0 0
0 0 0
0 0 0
0 0 0
0 0 0
0 0 0
0 0 0
0 0 0
0 0 0
0 0 0
0 0 0
0 0 0
0 0 0
0 0 0
0 0 0
0 0 0
0 0 0
0 0 0
0 0 0
0 0 0
0 0 0
0 0 0
0 0 0
0 0 0
0 0 0
0 0 0
0 0 0
0 0 0
0 0 0
0 0 0
0 0 0
0 0 0
231 124 39
231 124 39
231 124 39
231 124 39
231 124 39
231 124 39
231 124 39
231 124 39
231 124 39
231 124 39
231 124 39
231 124 39
231 124 39
231 124 39
231 124 39
231 124 39
231 124 39
231 124 39
231 124 39
231 124 39
231 124 39
231 124 39
231 124 39
231 124 39
231 124 39
231 124 39
231 124 39
231 124 39
231 124 39
231 124 39
231 124 39
231 124 39
0 0 0
0 0 0
0 0 0
0 0 0
0 0 0
0 0 0
0 0 0
0 0 0
0 0 0
0 0 0
0 0 0
0 0 0
0 0 0
0 0 0
0 0 0
0 0 0
0 0 0
0 0 0
0 0 0
0 0 0
0 0 0
0 0 0
0 0 0
0 0 0
0 0 0
0 0 0
0 0 0
0 0 0
0 0 0
0 0 0
0 0 0
0 0 0
0 0 0
0 0 0
0 0 0
0 0 0
0 0 0
0 0 0
0 0 0
0 0 0
0 0 0
0 0 0
0 0 0
0 0 0
0 0 0
0 0 0
0 0 0
0 0 0
0 0 0
0 0 0
0 0 0
0 0 0
0 0 0
0 0 0
0 0 0
0 0 0
0 0 0
0 0 0
0 0 0
0 0 0
0 0 0
0 0 0
0 0 0
0 0 0
0 0 0
0 0 0
0 0 0
0 0 0
0 0 0
0 0 0
0 0 0
0 0 0
0 0 0
0 0 0
0 0 0
0 0 0
0 0 0
0 0 0
0 0 0
0 0 0
0 0 0
0 0 0
0 0 0
0 0 0
0 0 0
0 0 0
0 0 0
0 0 0
0 0 0
0 0 0
0 0 0
0 0 0
0 0 0
0 0 0
0 0 0
0 0 0
231 124 39
231 124 39
231 124 39
231 124 39
231 124 39
231 124 39
231 124 39
231 124 39
231 124 39
231 124 39
231 124 39
231 124 39
231 124 39
231 124 39
231 124 39
231 124 39
231 124 39
231 124 39
231 124 39
231 124 39
231 124 39
231 124 39
231 124 39
231 124 39
231 124 39
231 124 39
231 124 39
231 124 39
231 124 39
231 124 39
231 124 39
231 124 39
0 0 0
0 0 0
0 0 0
0 0 0
0 0 0
0 0 0
0 0 0
0 0 0
0 0 0
0 0 0
0 0 0
0 0 0
0 0 0
0 0 0
0 0 0
0 0 0
0 0 0
0 0 0
0 0 0
0 0 0
0 0 0
0 0 0
0 0 0
0 0 0
0 0 0
0 0 0
0 0 0
0 0 0
0 0 0
0 0 0
0 0 0
0 0 0
0 0 0
0 0 0
0 0 0
0 0 0
0 0 0
0 0 0
0 0 0
0 0 0
0 0 0
0 0 0
0 0 0
0 0 0
0 0 0
0 0 0
0 0 0
0 0 0
0 0 0
0 0 0
0 0 0
0 0 0
0 0 0
0 0 0
0 0 0
0 0 0
0 0 0
0 0 0
0 0 0
0 0 0
0 0 0
0 0 0
0 0 0
0 0 0
0 0 0
0 0 0
0 0 0
0 0 0
0 0 0
0 0 0
0 0 0
0 0 0
0 0 0
0 0 0
0 0 0
0 0 0
0 0 0
0 0 0
0 0 0
0 0 0
0 0 0
0 0 0
0 0 0
0 0 0
0 0 0
0 0 0
0 0 0
0 0 0
0 0 0
0 0 0
0 0 0
0 0 0
0 0 0
0 0 0
0 0 0
231 124 39
231 124 39
231 124 39
231 124 39
231 124 39
231 124 39
231 124 39
231 124 39
231 124 39
231 124 39
231 124 39
231 124 39
231 124 39
231 124 39
231 124 39
231 124 39
231 124 39
231 124 39
231 124 39
231 124 39
231 124 39
231 124 39
231 124 39
231 124 39
231 124 39
231 124 39
231 124 39
231 124 39
231 124 39
231 124 39
231 124 39
231 124 39
231 124 39
231 124 39
0 0 0
0 0 0
0 0 0
0 0 0
0 0 0
0 0 0
0 0 0
0 0 0
0 0 0
0 0 0
0 0 0
0 0 0
0 0 0
0 0 0
0 0 0
0 0 0
0 0 0
0 0 0
0 0 0
0 0 0
0 0 0
0 0 0
0 0 0
0 0 0
0 0 0
0 0 0
0 0 0
0 0 0
0 0 0
0 0 0
0 0 0
0 0 0
0 0 0
0 0 0
0 0 0
0 0 0
0 0 0
0 0 0
0 0 0
0 0 0
0 0 0
0 0 0
0 0 0
0 0 0
0 0 0
0 0 0
0 0 0
0 0 0
0 0 0
0 0 0
0 0 0
0 0 0
0 0 0
0 0 0
0 0 0
0 0 0
0 0 0
0 0 0
0 0 0
0 0 0
0 0 0
0 0 0
0 0 0
0 0 0
0 0 0
0 0 0
0 0 0
0 0 0
0 0 0
0 0 0
0 0 0
0 0 0
0 0 0
0 0 0
0 0 0
0 0 0
0 0 0
0 0 0
0 0 0
0 0 0
0 0 0
0 0 0
0 0 0
0 0 0
0 0 0
0 0 0
0 0 0
0 0 0
0 0 0
0 0 0
0 0 0
0 0 0
0 0 0
0 0 0
231 124 39
231 124 39
231 124 39
231 124 39
231 124 39
231 124 39
231 124 39
231 124 39
231 124 39
231 124 39
231 124 39
231 124 39
231 124 39
231 124 39
231 124 39
231 124 39
231 124 39
231 124 39
231 124 39
231 124 39
231 124 39
231 124 39
231 124 39
231 124 39
231 124 39
231 124 39
231 124 39
231 124 39
231 124 39
231 124 39
231 124 39
231 124 39
231 124 39
231 124 39
0 0 0
0 0 0
0 0 0
0 0 0
0 0 0
0 0 0
0 0 0
0 0 0
0 0 0
0 0 0
0 0 0
0 0 0
0 0 0
0 0 0
0 0 0
0 0 0
0 0 0
0 0 0
0 0 0
0 0 0
0 0 0
0 0 0
0 0 0
0 0 0
0 0 0
0 0 0
0 0 0
0 0 0
0 0 0
0 0 0
0 0 0
0 0 0
0 0 0
0 0 0
0 0 0
0 0 0
0 0 0
0 0 0
0 0 0
0 0 0
0 0 0
0 0 0
0 0 0
0 0 0
0 0 0
0 0 0
0 0 0
0 0 0
0 0 0
0 0 0
0 0 0
0 0 0
0 0 0
0 0 0
0 0 0
0 0 0
0 0 0
0 0 0
0 0 0
0 0 0
0 0 0
0 0 0
0 0 0
0 0 0
0 0 0
0 0 0
0 0 0
0 0 0
0 0 0
0 0 0
0 0 0
0 0 0
0 0 0
0 0 0
0 0 0
0 0 0
0 0 0
0 0 0
0 0 0
0 0 0
0 0 0
0 0 0
0 0 0
0 0 0
0 0 0
0 0 0
0 0 0
0 0 0
0 0 0
0 0 0
0 0 0
0 0 0
0 0 0
231 124 39
231 124 39
231 124 39
231 124 39
231 124 39
231 124 39
231 124 39
231 124 39
231 124 39
231 124 39
231 124 39
231 124 39
231 124 39
231 124 39
231 124 39
231 124 39
231 124 39
231 124 39
231 124 39
231 124 39
231 124 39
231 124 39
231 124 39
231 124 39
231 124 39
231 124 39
231 124 39
231 124 39
231 124 39
231 124 39
231 124 39
231 124 39
231 124 39
231 124 39
231 124 39
231 124 39
0 0 0
0 0 0
0 0 0
0 0 0
0 0 0
0 0 0
0 0 0
0 0 0
0 0 0
0 0 0
0 0 0
0 0 0
0 0 0
0 0 0
0 0 0
0 0 0
0 0 0
0 0 0
0 0 0
0 0 0
0 0 0
0 0 0
0 0 0
0 0 0
0 0 0
0 0 0
0 0 0
0 0 0
0 0 0
0 0 0
0 0 0
0 0 0
0 0 0
0 0 0
0 0 0
0 0 0
0 0 0
0 0 0
0 0 0
0 0 0
0 0 0
0 0 0
0 0 0
0 0 0
0 0 0
0 0 0
0 0 0
0 0 0
0 0 0
0 0 0
0 0 0
0 0 0
0 0 0
0 0 0
0 0 0
0 0 0
0 0 0
0 0 0
0 0 0
0 0 0
0 0 0
0 0 0
0 0 0
0 0 0
0 0 0
0 0 0
0 0 0
0 0 0
0 0 0
0 0 0
0 0 0
0 0 0
0 0 0
0 0 0
0 0 0
0 0 0
0 0 0
0 0 0
0 0 0
0 0 0
0 0 0
0 0 0
0 0 0
0 0 0
0 0 0
0 0 0
0 0 0
0 0 0
0 0 0
0 0 0
0 0 0
0 0 0
231 124 39
231 124 39
231 124 39
231 124 39
231 124 39
231 124 39
231 124 39
231 124 39
231 124 39
231 124 39
231 124 39
231 124 39
231 124 39
231 124 39
231 124 39
231 124 39
231 124 39
231 124 39
231 124 39
231 124 39
231 124 39
231 124 39
231 124 39
231 124 39
231 124 39
231 124 39
231 124 39
231 124 39
231 124 39
231 124 39
231 124 39
231 124 39
231 124 39
231 124 39
231 124 39
231 124 39
0 0 0
0 0 0
0 0 0
0 0 0
0 0 0
0 0 0
0 0 0
0 0 0
0 0 0
0 0 0
0 0 0
0 0 0
0 0 0
0 0 0
0 0 0
0 0 0
0 0 0
0 0 0
0 0 0
0 0 0
0 0 0
0 0 0
0 0 0
0 0 0
0 0 0
0 0 0
0 0 0
0 0 0
0 0 0
0 0 0
0 0 0
0 0 0
0 0 0
0 0 0
0 0 0
0 0 0
0 0 0
0 0 0
0 0 0
0 0 0
0 0 0
0 0 0
0 0 0
0 0 0
0 0 0
0 0 0
0 0 0
0 0 0
0 0 0
0 0 0
0 0 0
0 0 0
0 0 0
0 0 0
0 0 0
0 0 0
0 0 0
0 0 0
0 0 0
0 0 0
0 0 0
0 0 0
0 0 0
0 0 0
0 0 0
0 0 0
0 0 0
0 0 0
0 0 0
0 0 0
0 0 0
0 0 0
0 0 0
0 0 0
0 0 0
0 0 0
0 0 0
0 0 0
0 0 0
0 0 0
0 0 0
0 0 0
0 0 0
0 0 0
0 0 0
0 0 0
0 0 0
0 0 0
0 0 0
0 0 0
0 0 0
231 124 39
231 124 39
231 124 39
231 124 39
231 124 39
231 124 39
231 124 39
231 124 39
231 124 39
231 124 39
231 124 39
231 124 39
231 124 39
231 124 39
231 124 39
231 124 39
231 124 39
231 124 39
231 124 39
231 124 39
231 124 39
231 124 39
231 124 39
231 124 39
231 124 39
231 124 39
231 124 39
231 124 39
231 124 39
231 124 39
231 124 39
231 124 39
231 124 39
231 124 39
231 124 39
231 124 39
231 124 39
231 124 39
0 0 0
0 0 0
0 0 0
0 0 0
0 0 0
0 0 0
0 0 0
0 0 0
0 0 0
0 0 0
0 0 0
0 0 0
0 0 0
0 0 0
0 0 0
0 0 0
0 0 0
0 0 0
0 0 0
0 0 0
0 0 0
0 0 0
0 0 0
0 0 0
0 0 0
0 0 0
0 0 0
0 0 0
0 0 0
0 0 0
0 0 0
0 0 0
0 0 0
0 0 0
0 0 0
0 0 0
0 0 0
0 0 0
0 0 0
0 0 0
0 0 0
0 0 0
0 0 0
0 0 0
0 0 0
0 0 0
0 0 0
0 0 0
0 0 0
0 0 0
0 0 0
0 0 0
0 0 0
0 0 0
0 0 0
0 0 0
0 0 0
0 0 0
0 0 0
0 0 0
0 0 0
0 0 0
0 0 0
0 0 0
0 0 0
0 0 0
0 0 0
0 0 0
0 0 0
0 0 0
0 0 0
0 0 0
0 0 0
0 0 0
0 0 0
0 0 0
0 0 0
0 0 0
0 0 0
0 0 0
0 0 0
0 0 0
0 0 0
0 0 0
0 0 0
0 0 0
0 0 0
0 0 0
0 0 0
0 0 0
231 124 39
231 124 39
231 124 39
231 124 39
231 124 39
231 124 39
231 124 39
231 124 39
231 124 39
231 124 39
231 124 39
231 124 39
231 124 39
231 124 39
231 124 39
231 124 39
231 124 39
231 124 39
231 124 39
231 124 39
231 124 39
231 124 39
231 124 39
231 124 39
231 124 39
231 124 39
231 124 39
231 124 39
231 124 39
231 124 39
231 124 39
231 124 39
231 124 39
231 124 39
231 124 39
231 124 39
231 124 39
231 124 39
0 0 0
0 0 0
0 0 0
0 0 0
0 0 0
0 0 0
0 0 0
0 0 0
0 0 0
0 0 0
0 0 0
0 0 0
0 0 0
0 0 0
0 0 0
0 0 0
0 0 0
0 0 0
0 0 0
0 0 0
0 0 0
0 0 0
0 0 0
0 0 0
0 0 0
0 0 0
0 0 0
0 0 0
0 0 0
0 0 0
0 0 0
0 0 0
0 0 0
0 0 0
0 0 0
0 0 0
0 0 0
0 0 0
0 0 0
0 0 0
0 0 0
0 0 0
0 0 0
0 0 0
0 0 0
0 0 0
0 0 0
0 0 0
0 0 0
0 0 0
0 0 0
0 0 0
0 0 0
0 0 0
0 0 0
0 0 0
0 0 0
0 0 0
0 0 0
0 0 0
0 0 0
0 0 0
0 0 0
0 0 0
0 0 0
0 0 0
0 0 0
0 0 0
0 0 0
0 0 0
0 0 0
0 0 0
0 0 0
0 0 0
0 0 0
0 0 0
0 0 0
0 0 0
0 0 0
0 0 0
0 0 0
0 0 0
0 0 0
0 0 0
0 0 0
0 0 0
0 0 0
0 0 0
0 0 0
231 124 39
231 124 39
231 124 39
231 124 39
231 124 39
231 124 39
231 124 39
231 124 39
231 124 39
231 124 39
231 124 39
231 124 39
231 124 39
231 124 39
231 124 39
231 124 39
231 124 39
231 124 39
231 124 39
231 124 39
231 124 39
231 124 39
231 124 39
231 124 39
231 124 39
231 124 39
231 124 39
231 124 39
231 124 39
231 124 39
231 124 39
231 124 39
231 124 39
231 124 39
231 124 39
231 124 39
231 124 39
231 124 39
231 124 39
231 124 39
0 0 0
0 0 0
0 0 0
0 0 0
0 0 0
0 0 0
0 0 0
0 0 0
0 0 0
0 0 0
0 0 0
0 0 0
0 0 0
0 0 0
0 0 0
0 0 0
0 0 0
0 0 0
0 0 0
0 0 0
0 0 0
0 0 0
0 0 0
0 0 0
0 0 0
0 0 0
0 0 0
0 0 0
0 0 0
0 0 0
0 0 0
0 0 0
0 0 0
0 0 0
0 0 0
0 0 0
0 0 0
0 0 0
0 0 0
0 0 0
0 0 0
0 0 0
0 0 0
0 0 0
0 0 0
0 0 0
0 0 0
0 0 0
0 0 0
0 0 0
0 0 0
0 0 0
0 0 0
0 0 0
0 0 0
0 0 0
0 0 0
0 0 0
0 0 0
0 0 0
0 0 0
0 0 0
0 0 0
0 0 0
0 0 0
0 0 0
0 0 0
0 0 0
0 0 0
0 0 0
0 0 0
0 0 0
0 0 0
0 0 0
0 0 0
0 0 0
0 0 0
0 0 0
0 0 0
0 0 0
0 0 0
0 0 0
0 0 0
0 0 0
0 0 0
0 0 0
0 0 0
0 0 0
231 124 39
231 124 39
231 124 39
231 124 39
231 124 39
231 124 39
231 124 39
231 124 39
231 124 39
231 124 39
231 124 39
231 124 39
231 124 39
231 124 39
231 124 39
231 124 39
231 124 39
231 124 39
231 124 39
231 124 39
231 124 39
231 124 39
231 124 39
231 124 39
231 124 39
231 124 39
231 124 39
231 124 39
231 124 39
231 124 39
231 124 39
231 124 39
231 124 39
231 124 39
231 124 39
231 124 39
231 124 39
231 124 39
231 124 39
231 124 39
0 0 0
0 0 0
0 0 0
0 0 0
0 0 0
0 0 0
0 0 0
0 0 0
0 0 0
0 0 0
0 0 0
0 0 0
0 0 0
0 0 0
0 0 0
0 0 0
0 0 0
0 0 0
0 0 0
0 0 0
0 0 0
0 0 0
0 0 0
0 0 0
0 0 0
0 0 0
0 0 0
0 0 0
0 0 0
0 0 0
0 0 0
0 0 0
0 0 0
0 0 0
0 0 0
0 0 0
0 0 0
0 0 0
0 0 0
0 0 0
0 0 0
0 0 0
0 0 0
0 0 0
0 0 0
0 0 0
0 0 0
0 0 0
0 0 0
0 0 0
0 0 0
0 0 0
0 0 0
0 0 0
0 0 0
0 0 0
0 0 0
0 0 0
0 0 0
0 0 0
0 0 0
0 0 0
0 0 0
0 0 0
0 0 0
0 0 0
0 0 0
0 0 0
0 0 0
0 0 0
0 0 0
0 0 0
0 0 0
0 0 0
0 0 0
0 0 0
0 0 0
0 0 0
0 0 0
0 0 0
0 0 0
0 0 0
0 0 0
0 0 0
0 0 0
0 0 0
0 0 0
231 124 39
231 124 39
231 124 39
231 124 39
231 124 39
231 124 39
231 124 39
231 124 39
231 124 39
231 124 39
231 124 39
231 124 39
231 124 39
231 124 39
231 124 39
231 124 39
231 124 39
231 124 39
231 124 39
231 124 39
231 124 39
231 124 39
231 124 39
231 124 39
231 124 39
231 124 39
231 124 39
231 124 39
231 124 39
231 124 39
231 124 39
231 124 39
231 124 39
231 124 39
231 124 39
231 124 39
231 124 39
231 124 39
231 124 39
231 124 39
231 124 39
231 124 39
0 0 0
0 0 0
0 0 0
0 0 0
0 0 0
0 0 0
0 0 0
0 0 0
0 0 0
0 0 0
0 0 0
0 0 0
0 0 0
0 0 0
0 0 0
0 0 0
0 0 0
0 0 0
0 0 0
0 0 0
0 0 0
0 0 0
0 0 0
0 0 0
0 0 0
0 0 0
0 0 0
0 0 0
0 0 0
0 0 0
0 0 0
0 0 0
0 0 0
0 0 0
0 0 0
0 0 0
0 0 0
0 0 0
0 0 0
0 0 0
0 0 0
0 0 0
0 0 0
0 0 0
0 0 0
0 0 0
0 0 0
0 0 0
0 0 0
0 0 0
0 0 0
0 0 0
0 0 0
0 0 0
0 0 0
0 0 0
0 0 0
0 0 0
0 0 0
0 0 0
0 0 0
0 0 0
0 0 0
0 0 0
0 0 0
0 0 0
0 0 0
0 0 0
0 0 0
0 0 0
0 0 0
0 0 0
0 0 0
0 0 0
0 0 0
0 0 0
0 0 0
0 0 0
0 0 0
0 0 0
0 0 0
0 0 0
0 0 0
0 0 0
0 0 0
0 0 0
231 124 39
231 124 39
231 124 39
231 124 39
231 124 39
231 124 39
231 124 39
231 124 39
231 124 39
231 124 39
231 124 39
231 124 39
231 124 39
231 124 39
231 124 39
231 124 39
231 124 39
231 124 39
231 124 39
231 124 39
231 124 39
231 124 39
231 124 39
231 124 39
231 124 39
231 124 39
231 124 39
231 124 39
231 124 39
231 124 39
231 124 39
231 124 39
231 124 39
231 124 39
231 124 39
231 124 39
231 124 39
231 124 39
231 124 39
231 124 39
231 124 39
231 124 39
0 0 0
0 0 0
0 0 0
0 0 0
0 0 0
0 0 0
0 0 0
0 0 0
0 0 0
0 0 0
0 0 0
0 0 0
0 0 0
0 0 0
0 0 0
0 0 0
0 0 0
0 0 0
0 0 0
0 0 0
0 0 0
0 0 0
0 0 0
0 0 0
0 0 0
0 0 0
0 0 0
0 0 0
0 0 0
0 0 0
0 0 0
0 0 0
0 0 0
0 0 0
0 0 0
0 0 0
0 0 0
0 0 0
0 0 0
0 0 0
0 0 0
0 0 0
0 0 0
0 0 0
0 0 0
0 0 0
0 0 0
0 0 0
0 0 0
0 0 0
0 0 0
0 0 0
0 0 0
0 0 0
0 0 0
0 0 0
0 0 0
0 0 0
0 0 0
0 0 0
0 0 0
0 0 0
0 0 0
0 0 0
0 0 0
0 0 0
0 0 0
0 0 0
0 0 0
0 0 0
0 0 0
0 0 0
0 0 0
0 0 0
0 0 0
0 0 0
0 0 0
0 0 0
0 0 0
0 0 0
0 0 0
0 0 0
0 0 0
0 0 0
0 0 0
231 124 39
231 124 39
231 124 39
231 124 39
231 124 39
231 124 39
231 124 39
231 124 39
231 124 39
231 124 39
231 124 39
231 124 39
231 124 39
231 124 39
231 124 39
231 124 39
231 124 39
231 124 39
231 124 39
231 124 39
231 124 39
231 124 39
231 124 39
231 124 39
231 124 39
231 124 39
231 124 39
231 124 39
231 124 39
231 124 39
231 124 39
231 124 39
231 124 39
231 124 39
231 124 39
231 124 39
231 124 39
231 124 39
231 124 39
231 124 39
231 124 39
231 124 39
231 124 39
231 124 39
0 0 0
0 0 0
0 0 0
0 0 0
0 0 0
0 0 0
0 0 0
0 0 0
0 0 0
0 0 0
0 0 0
0 0 0
0 0 0
0 0 0
0 0 0
0 0 0
0 0 0
0 0 0
0 0 0
0 0 0
0 0 0
0 0 0
0 0 0
0 0 0
0 0 0
0 0 0
0 0 0
0 0 0
0 0 0
0 0 0
0 0 0
0 0 0
0 0 0
0 0 0
0 0 0
0 0 0
0 0 0
0 0 0
0 0 0
0 0 0
0 0 0
0 0 0
0 0 0
0 0 0
0 0 0
0 0 0
0 0 0
0 0 0
0 0 0
0 0 0
0 0 0
0 0 0
0 0 0
0 0 0
0 0 0
0 0 0
0 0 0
0 0 0
0 0 0
0 0 0
0 0 0
0 0 0
0 0 0
0 0 0
0 0 0
0 0 0
0 0 0
0 0 0
0 0 0
0 0 0
0 0 0
0 0 0
0 0 0
0 0 0
0 0 0
0 0 0
0 0 0
0 0 0
0 0 0
0 0 0
0 0 0
0 0 0
0 0 0
0 0 0
231 124 39
231 124 39
231 124 39
231 124 39
231 124 39
231 124 39
231 124 39
231 124 39
231 124 39
231 124 39
231 124 39
231 124 39
231 124 39
231 124 39
231 124 39
231 124 39
231 124 39
231 124 39
231 124 39
231 124 39
231 124 39
231 124 39
231 124 39
231 124 39
231 124 39
231 124 39
231 124 39
231 124 39
231 124 39
231 124 39
231 124 39
231 124 39
231 124 39
231 124 39
231 124 39
231 124 39
231 124 39
231 124 39
231 124 39
231 124 39
231 124 39
231 124 39
231 124 39
231 124 39
0 0 0
0 0 0
0 0 0
0 0 0
0 0 0
0 0 0
0 0 0
0 0 0
0 0 0
0 0 0
0 0 0
0 0 0
0 0 0
0 0 0
0 0 0
0 0 0
0 0 0
0 0 0
0 0 0
0 0 0
0 0 0
0 0 0
0 0 0
0 0 0
0 0 0
0 0 0
0 0 0
0 0 0
0 0 0
0 0 0
0 0 0
0 0 0
0 0 0
0 0 0
0 0 0
0 0 0
0 0 0
0 0 0
0 0 0
0 0 0
0 0 0
0 0 0
0 0 0
0 0 0
0 0 0
0 0 0
0 0 0
0 0 0
0 0 0
0 0 0
0 0 0
0 0 0
0 0 0
0 0 0
0 0 0
0 0 0
0 0 0
0 0 0
0 0 0
0 0 0
0 0 0
0 0 0
0 0 0
0 0 0
0 0 0
0 0 0
0 0 0
0 0 0
0 0 0
0 0 0
0 0 0
0 0 0
0 0 0
0 0 0
0 0 0
0 0 0
0 0 0
0 0 0
0 0 0
0 0 0
0 0 0
0 0 0
0 0 0
231 124 39
231 124 39
231 124 39
231 124 39
231 124 39
231 124 39
231 124 39
231 124 39
231 124 39
231 124 39
231 124 39
231 124 39
231 124 39
231 124 39
231 124 39
231 124 39
231 124 39
231 124 39
231 124 39
231 124 39
231 124 39
231 124 39
231 124 39
231 124 39
231 124 39
231 124 39
231 124 39
231 124 39
231 124 39
231 124 39
231 124 39
231 124 39
231 124 39
231 124 39
231 124 39
231 124 39
231 124 39
231 124 39
231 124 39
231 124 39
231 124 39
231 124 39
231 124 39
231 124 39
231 124 39
231 124 39
0 0 0
0 0 0
0 0 0
0 0 0
0 0 0
0 0 0
0 0 0
0 0 0
0 0 0
0 0 0
0 0 0
0 0 0
0 0 0
0 0 0
0 0 0
0 0 0
0 0 0
0 0 0
0 0 0
0 0 0
0 0 0
0 0 0
0 0 0
0 0 0
0 0 0
0 0 0
0 0 0
0 0 0
0 0 0
0 0 0
0 0 0
0 0 0
0 0 0
0 0 0
0 0 0
0 0 0
0 0 0
0 0 0
0 0 0
0 0 0
0 0 0
0 0 0
0 0 0
0 0 0
0 0 0
0 0 0
0 0 0
0 0 0
0 0 0
0 0 0
0 0 0
0 0 0
0 0 0
0 0 0
0 0 0
0 0 0
0 0 0
0 0 0
0 0 0
0 0 0
0 0 0
0 0 0
0 0 0
0 0 0
0 0 0
0 0 0
0 0 0
0 0 0
0 0 0
0 0 0
0 0 0
0 0 0
0 0 0
0 0 0
0 0 0
0 0 0
0 0 0
0 0 0
0 0 0
0 0 0
0 0 0
0 0 0
231 124 39
231 124 39
231 124 39
231 124 39
231 124 39
231 124 39
231 124 39
231 124 39
231 124 39
231 124 39
231 124 39
231 124 39
231 124 39
231 124 39
231 124 39
231 124 39
231 124 39
231 124 39
231 124 39
231 124 39
231 124 39
231 124 39
231 124 39
231 124 39
231 124 39
231 124 39
231 124 39
231 124 39
231 124 39
231 124 39
231 124 39
231 124 39
231 124 39
231 124 39
231 124 39
231 124 39
231 124 39
231 124 39
231 124 39
231 124 39
231 124 39
231 124 39
231 124 39
231 124 39
231 124 39
231 124 39
0 0 0
0 0 0
0 0 0
0 0 0
0 0 0
0 0 0
0 0 0
0 0 0
0 0 0
0 0 0
0 0 0
0 0 0
0 0 0
0 0 0
0 0 0
0 0 0
0 0 0
0 0 0
0 0 0
0 0 0
0 0 0
0 0 0
0 0 0
0 0 0
0 0 0
0 0 0
0 0 0
0 0 0
0 0 0
0 0 0
0 0 0
0 0 0
0 0 0
0 0 0
0 0 0
0 0 0
0 0 0
0 0 0
0 0 0
0 0 0
0 0 0
0 0 0
0 0 0
0 0 0
0 0 0
0 0 0
0 0 0
0 0 0
0 0 0
0 0 0
0 0 0
0 0 0
0 0 0
0 0 0
0 0 0
0 0 0
0 0 0
0 0 0
0 0 0
0 0 0
0 0 0
0 0 0
0 0 0
0 0 0
0 0 0
0 0 0
0 0 0
0 0 0
0 0 0
0 0 0
0 0 0
0 0 0
0 0 0
0 0 0
0 0 0
0 0 0
0 0 0
0 0 0
0 0 0
0 0 0
0 0 0
231 124 39
231 124 39
231 124 39
231 124 39
231 124 39
231 124 39
231 124 39
231 124 39
231 124 39
231 124 39
231 124 39
231 124 39
231 124 39
231 124 39
231 124 39
231 124 39
231 124 39
231 124 39
231 124 39
231 124 39
231 124 39
231 124 39
231 124 39
231 124 39
231 124 39
231 124 39
231 124 39
231 124 39
231 124 39
231 124 39
231 124 39
231 124 39
231 124 39
231 124 39
231 124 39
231 124 39
231 124 39
231 124 39
231 124 39
231 124 39
231 124 39
231 124 39
231 124 39
231 124 39
231 124 39
231 124 39
231 124 39
231 124 39
0 0 0
0 0 0
0 0 0
0 0 0
0 0 0
0 0 0
0 0 0
0 0 0
0 0 0
0 0 0
0 0 0
0 0 0
0 0 0
0 0 0
0 0 0
0 0 0
0 0 0
0 0 0
0 0 0
0 0 0
0 0 0
0 0 0
0 0 0
0 0 0
0 0 0
0 0 0
0 0 0
0 0 0
0 0 0
0 0 0
0 0 0
0 0 0
0 0 0
0 0 0
0 0 0
0 0 0
0 0 0
0 0 0
0 0 0
0 0 0
0 0 0
0 0 0
0 0 0
0 0 0
0 0 0
0 0 0
0 0 0
0 0 0
0 0 0
0 0 0
0 0 0
0 0 0
0 0 0
0 0 0
0 0 0
0 0 0
0 0 0
0 0 0
0 0 0
0 0 0
0 0 0
0 0 0
0 0 0
0 0 0
0 0 0
0 0 0
0 0 0
0 0 0
0 0 0
0 0 0
0 0 0
0 0 0
0 0 0
0 0 0
0 0 0
0 0 0
0 0 0
0 0 0
0 0 0
0 0 0
231 124 39
231 124 39
231 124 39
231 124 39
231 124 39
231 124 39
231 124 39
231 124 39
231 124 39
231 124 39
231 124 39
231 124 39
231 124 39
231 124 39
231 124 39
231 124 39
231 124 39
231 124 39
231 124 39
231 124 39
231 124 39
231 124 39
231 124 39
231 124 39
231 124 39
231 124 39
231 124 39
231 124 39
231 124 39
231 124 39
231 124 39
231 124 39
231 124 39
231 124 39
231 124 39
231 124 39
231 124 39
231 124 39
231 124 39
231 124 39
231 124 39
231 124 39
231 124 39
231 124 39
231 124 39
231 124 39
231 124 39
231 124 39
0 0 0
0 0 0
0 0 0
0 0 0
0 0 0
0 0 0
0 0 0
0 0 0
0 0 0
0 0 0
0 0 0
0 0 0
0 0 0
0 0 0
0 0 0
0 0 0
0 0 0
0 0 0
0 0 0
0 0 0
0 0 0
0 0 0
0 0 0
0 0 0
0 0 0
0 0 0
0 0 0
0 0 0
0 0 0
0 0 0
0 0 0
0 0 0
0 0 0
0 0 0
0 0 0
0 0 0
0 0 0
0 0 0
0 0 0
0 0 0
0 0 0
0 0 0
0 0 0
0 0 0
0 0 0
0 0 0
0 0 0
0 0 0
0 0 0
0 0 0
0 0 0
0 0 0
0 0 0
0 0 0
0 0 0
0 0 0
0 0 0
0 0 0
0 0 0
0 0 0
0 0 0
0 0 0
0 0 0
0 0 0
0 0 0
0 0 0
0 0 0
0 0 0
0 0 0
0 0 0
0 0 0
0 0 0
0 0 0
0 0 0
0 0 0
0 0 0
0 0 0
0 0 0
0 0 0
231 124 39
231 124 39
231 124 39
231 124 39
231 124 39
231 124 39
231 124 39
231 124 39
231 124 39
231 124 39
231 124 39
231 124 39
231 124 39
231 124 39
231 124 39
231 124 39
231 124 39
231 124 39
231 124 39
231 124 39
231 124 39
231 124 39
231 124 39
231 124 39
231 124 39
231 124 39
231 124 39
231 124 39
231 124 39
231 124 39
231 124 39
231 124 39
231 124 39
231 124 39
231 124 39
231 124 39
231 124 39
231 124 39
231 124 39
231 124 39
231 124 39
231 124 39
231 124 39
231 124 39
231 124 39
231 124 39
231 124 39
231 124 39
231 124 39
231 124 39
0 0 0
0 0 0
0 0 0
0 0 0
0 0 0
0 0 0
0 0 0
0 0 0
0 0 0
0 0 0
0 0 0
0 0 0
0 0 0
0 0 0
0 0 0
0 0 0
0 0 0
0 0 0
0 0 0
0 0 0
0 0 0
0 0 0
0 0 0
0 0 0
0 0 0
0 0 0
0 0 0
0 0 0
0 0 0
0 0 0
0 0 0
0 0 0
0 0 0
0 0 0
0 0 0
0 0 0
0 0 0
0 0 0
0 0 0
0 0 0
0 0 0
0 0 0
0 0 0
0 0 0
0 0 0
0 0 0
0 0 0
0 0 0
0 0 0
0 0 0
0 0 0
0 0 0
0 0 0
0 0 0
0 0 0
0 0 0
0 0 0
0 0 0
0 0 0
0 0 0
0 0 0
0 0 0
0 0 0
0 0 0
0 0 0
0 0 0
0 0 0
0 0 0
0 0 0
0 0 0
0 0 0
0 0 0
0 0 0
0 0 0
0 0 0
0 0 0
0 0 0
0 0 0
231 124 39
231 124 39
231 124 39
231 124 39
231 124 39
231 124 39
231 124 39
231 124 39
231 124 39
231 124 39
231 124 39
231 124 39
231 124 39
231 124 39
231 124 39
231 124 39
231 124 39
231 124 39
231 124 39
231 124 39
231 124 39
231 124 39
231 124 39
231 124 39
231 124 39
231 124 39
231 124 39
231 124 39
231 124 39
231 124 39
231 124 39
231 124 39
231 124 39
231 124 39
231 124 39
231 124 39
231 124 39
231 124 39
231 124 39
231 124 39
231 124 39
231 124 39
231 124 39
231 124 39
231 124 39
231 124 39
231 124 39
231 124 39
231 124 39
231 124 39
0 0 0
0 0 0
0 0 0
0 0 0
0 0 0
0 0 0
0 0 0
0 0 0
0 0 0
0 0 0
0 0 0
0 0 0
0 0 0
0 0 0
0 0 0
0 0 0
0 0 0
0 0 0
0 0 0
0 0 0
0 0 0
0 0 0
0 0 0
0 0 0
0 0 0
0 0 0
0 0 0
0 0 0
0 0 0
0 0 0
0 0 0
0 0 0
0 0 0
0 0 0
0 0 0
0 0 0
0 0 0
0 0 0
0 0 0
0 0 0
0 0 0
0 0 0
0 0 0
0 0 0
0 0 0
0 0 0
0 0 0
0 0 0
0 0 0
0 0 0
0 0 0
0 0 0
0 0 0
0 0 0
0 0 0
0 0 0
0 0 0
0 0 0
0 0 0
0 0 0
0 0 0
0 0 0
0 0 0
0 0 0
0 0 0
0 0 0
0 0 0
0 0 0
0 0 0
0 0 0
0 0 0
0 0 0
0 0 0
0 0 0
0 0 0
0 0 0
0 0 0
231 124 39
231 124 39
231 124 39
231 124 39
231 124 39
231 124 39
231 124 39
231 124 39
231 124 39
231 124 39
231 124 39
231 124 39
231 124 39
231 124 39
231 124 39
231 124 39
231 124 39
231 124 39
231 124 39
231 124 39
231 124 39
231 124 39
231 124 39
231 124 39
231 124 39
231 124 39
231 124 39
231 124 39
231 124 39
231 124 39
231 124 39
231 124 39
231 124 39
231 124 39
231 124 39
231 124 39
231 124 39
231 124 39
231 124 39
231 124 39
231 124 39
231 124 39
231 124 39
231 124 39
231 124 39
231 124 39
231 124 39
231 124 39
231 124 39
231 124 39
231 124 39
39 137 231
0 0 0
0 0 0
0 0 0
0 0 0
0 0 0
0 0 0
0 0 0
0 0 0
0 0 0
0 0 0
0 0 0
0 0 0
0 0 0
0 0 0
0 0 0
0 0 0
0 0 0
0 0 0
0 0 0
0 0 0
0 0 0
0 0 0
0 0 0
0 0 0
0 0 0
0 0 0
0 0 0
0 0 0
0 0 0
0 0 0
0 0 0
0 0 0
0 0 0
0 0 0
0 0 0
0 0 0
0 0 0
0 0 0
0 0 0
0 0 0
0 0 0
0 0 0
0 0 0
0 0 0
0 0 0
0 0 0
0 0 0
0 0 0
0 0 0
0 0 0
0 0 0
0 0 0
0 0 0
0 0 0
0 0 0
0 0 0
0 0 0
0 0 0
0 0 0
0 0 0
0 0 0
0 0 0
0 0 0
0 0 0
0 0 0
0 0 0
0 0 0
0 0 0
0 0 0
0 0 0
0 0 0
0 0 0
0 0 0
0 0 0
0 0 0
0 0 0
231 124 39
231 124 39
231 124 39
231 124 39
231 124 39
231 124 39
231 124 39
231 124 39
231 124 39
231 124 39
231 124 39
231 124 39
231 124 39
231 124 39
231 124 39
231 124 39
231 124 39
231 124 39
231 124 39
231 124 39
231 124 39
231 124 39
231 124 39
231 124 39
231 124 39
231 124 39
231 124 39
231 124 39
231 124 39
231 124 39
231 124 39
231 124 39
231 124 39
231 124 39
231 124 39
231 124 39
231 124 39
231 124 39
231 124 39
231 124 39
231 124 39
231 124 39
231 124 39
231 124 39
231 124 39
231 124 39
231 124 39
231 124 39
231 124 39
231 124 39
231 124 39
39 137 231
0 0 0
0 0 0
0 0 0
0 0 0
0 0 0
0 0 0
0 0 0
0 0 0
0 0 0
0 0 0
0 0 0
0 0 0
0 0 0
0 0 0
0 0 0
0 0 0
0 0 0
0 0 0
0 0 0
0 0 0
0 0 0
0 0 0
0 0 0
0 0 0
0 0 0
0 0 0
0 0 0
0 0 0
0 0 0
0 0 0
0 0 0
0 0 0
0 0 0
0 0 0
0 0 0
0 0 0
0 0 0
0 0 0
0 0 0
0 0 0
0 0 0
0 0 0
0 0 0
0 0 0
0 0 0
0 0 0
0 0 0
0 0 0
0 0 0
0 0 0
0 0 0
0 0 0
0 0 0
0 0 0
0 0 0
0 0 0
0 0 0
0 0 0
0 0 0
0 0 0
0 0 0
0 0 0
0 0 0
0 0 0
0 0 0
0 0 0
0 0 0
0 0 0
0 0 0
0 0 0
0 0 0
0 0 0
0 0 0
0 0 0
0 0 0
231 124 39
231 124 39
231 124 39
231 124 39
231 124 39
231 124 39
231 124 39
231 124 39
231 124 39
231 124 39
231 124 39
231 124 39
231 124 39
231 124 39
231 124 39
231 124 39
231 124 39
231 124 39
231 124 39
231 124 39
231 124 39
231 124 39
231 124 39
231 124 39
231 124 39
231 124 39
231 124 39
231 124 39
231 124 39
231 124 39
231 124 39
231 124 39
231 124 39
231 124 39
231 124 39
231 124 39
231 124 39
231 124 39
231 124 39
231 124 39
231 124 39
231 124 39
231 124 39
231 124 39
231 124 39
231 124 39
231 124 39
231 124 39
231 124 39
231 124 39
231 124 39
39 137 231
39 137 231
39 137 231
0 0 0
0 0 0
0 0 0
0 0 0
0 0 0
0 0 0
0 0 0
0 0 0
0 0 0
0 0 0
0 0 0
0 0 0
0 0 0
0 0 0
0 0 0
0 0 0
0 0 0
0 0 0
0 0 0
0 0 0
0 0 0
0 0 0
0 0 0
0 0 0
0 0 0
0 0 0
0 0 0
0 0 0
0 0 0
0 0 0
0 0 0
0 0 0
0 0 0
0 0 0
0 0 0
0 0 0
0 0 0
0 0 0
0 0 0
0 0 0
0 0 0
0 0 0
0 0 0
0 0 0
0 0 0
0 0 0
0 0 0
0 0 0
0 0 0
0 0 0
0 0 0
0 0 0
0 0 0
0 0 0
0 0 0
0 0 0
0 0 0
0 0 0
0 0 0
0 0 0
0 0 0
0 0 0
0 0 0
0 0 0
0 0 0
0 0 0
0 0 0
0 0 0
0 0 0
0 0 0
0 0 0
0 0 0
0 0 0
0 0 0
231 124 39
231 124 39
231 124 39
231 124 39
231 124 39
231 124 39
231 124 39
231 124 39
231 124 39
231 124 39
231 124 39
231 124 39
231 124 39
231 124 39
231 124 39
231 124 39
231 124 39
231 124 39
231 124 39
231 124 39
231 124 39
231 124 39
231 124 39
231 124 39
231 124 39
231 124 39
231 124 39
231 124 39
231 124 39
231 124 39
231 124 39
231 124 39
231 124 39
231 124 39
231 124 39
231 124 39
231 124 39
231 124 39
231 124 39
231 124 39
231 124 39
231 124 39
231 124 39
231 124 39
231 124 39
231 124 39
231 124 39
231 124 39
231 124 39
231 124 39
231 124 39
39 137 231
39 137 231
39 137 231
0 0 0
0 0 0
0 0 0
0 0 0
0 0 0
0 0 0
0 0 0
0 0 0
0 0 0
0 0 0
0 0 0
0 0 0
0 0 0
0 0 0
0 0 0
0 0 0
0 0 0
0 0 0
0 0 0
0 0 0
0 0 0
0 0 0
0 0 0
0 0 0
0 0 0
0 0 0
0 0 0
0 0 0
0 0 0
0 0 0
0 0 0
0 0 0
0 0 0
0 0 0
0 0 0
0 0 0
0 0 0
0 0 0
0 0 0
0 0 0
0 0 0
0 0 0
0 0 0
0 0 0
0 0 0
0 0 0
0 0 0
0 0 0
0 0 0
0 0 0
0 0 0
0 0 0
0 0 0
0 0 0
0 0 0
0 0 0
0 0 0
0 0 0
0 0 0
0 0 0
0 0 0
0 0 0
0 0 0
0 0 0
0 0 0
0 0 0
0 0 0
0 0 0
0 0 0
0 0 0
0 0 0
0 0 0
0 0 0
231 124 39
231 124 39
231 124 39
231 124 39
231 124 39
231 124 39
231 124 39
231 124 39
231 124 39
231 124 39
231 124 39
231 124 39
231 124 39
231 124 39
231 124 39
231 124 39
231 124 39
231 124 39
231 124 39
231 124 39
231 124 39
231 124 39
231 124 39
231 124 39
231 124 39
231 124 39
231 124 39
231 124 39
231 124 39
231 124 39
231 124 39
231 124 39
231 124 39
231 124 39
231 124 39
231 124 39
231 124 39
231 124 39
231 124 39
231 124 39
231 124 39
231 124 39
231 124 39
231 124 39
231 124 39
231 124 39
231 124 39
231 124 39
231 124 39
231 124 39
231 124 39
39 137 231
39 137 231
39 137 231
39 137 231
39 137 231
0 0 0
0 0 0
0 0 0
0 0 0
0 0 0
0 0 0
0 0 0
0 0 0
0 0 0
0 0 0
0 0 0
0 0 0
0 0 0
0 0 0
0 0 0
0 0 0
0 0 0
0 0 0
0 0 0
0 0 0
0 0 0
0 0 0
0 0 0
0 0 0
0 0 0
0 0 0
0 0 0
0 0 0
0 0 0
0 0 0
0 0 0
0 0 0
0 0 0
0 0 0
0 0 0
0 0 0
0 0 0
0 0 0
0 0 0
0 0 0
0 0 0
0 0 0
0 0 0
0 0 0
0 0 0
0 0 0
0 0 0
0 0 0
0 0 0
0 0 0
0 0 0
0 0 0
0 0 0
0 0 0
0 0 0
0 0 0
0 0 0
0 0 0
0 0 0
0 0 0
0 0 0
0 0 0
0 0 0
0 0 0
0 0 0
0 0 0
0 0 0
0 0 0
0 0 0
0 0 0
0 0 0
0 0 0
231 124 39
231 124 39
231 124 39
231 124 39
231 124 39
231 124 39
231 124 39
231 124 39
231 124 39
231 124 39
231 124 39
231 124 39
231 124 39
231 124 39
231 124 39
231 124 39
231 124 39
231 124 39
231 124 39
231 124 39
231 124 39
231 124 39
231 124 39
231 124 39
231 124 39
231 124 39
231 124 39
231 124 39
231 124 39
231 124 39
231 124 39
231 124 39
231 124 39
231 124 39
231 124 39
231 124 39
231 124 39
231 124 39
231 124 39
231 124 39
231 124 39
231 124 39
231 124 39
231 124 39
231 124 39
231 124 39
231 124 39
231 124 39
231 124 39
231 124 39
231 124 39
39 137 231
39 137 231
39 137 231
39 137 231
39 137 231
0 0 0
0 0 0
0 0 0
0 0 0
0 0 0
0 0 0
0 0 0
0 0 0
0 0 0
0 0 0
0 0 0
0 0 0
0 0 0
0 0 0
0 0 0
0 0 0
0 0 0
0 0 0
0 0 0
0 0 0
0 0 0
0 0 0
0 0 0
0 0 0
0 0 0
0 0 0
0 0 0
0 0 0
0 0 0
0 0 0
0 0 0
0 0 0
0 0 0
0 0 0
0 0 0
0 0 0
0 0 0
0 0 0
0 0 0
0 0 0
0 0 0
0 0 0
0 0 0
0 0 0
0 0 0
0 0 0
0 0 0
0 0 0
0 0 0
0 0 0
0 0 0
0 0 0
0 0 0
0 0 0
0 0 0
0 0 0
0 0 0
0 0 0
0 0 0
0 0 0
0 0 0
0 0 0
0 0 0
0 0 0
0 0 0
0 0 0
0 0 0
0 0 0
0 0 0
0 0 0
0 0 0
231 124 39
231 124 39
231 124 39
231 124 39
231 124 39
231 124 39
231 124 39
231 124 39
231 124 39
231 124 39
231 124 39
231 124 39
231 124 39
231 124 39
231 124 39
231 124 39
231 124 39
231 124 39
231 124 39
231 124 39
231 124 39
231 124 39
231 124 39
231 124 39
231 124 39
231 124 39
231 124 39
231 124 39
231 124 39
231 124 39
231 124 39
231 124 39
231 124 39
231 124 39
231 124 39
231 124 39
231 124 39
231 124 39
231 124 39
231 124 39
231 124 39
231 124 39
231 124 39
231 124 39
231 124 39
231 124 39
231 124 39
231 124 39
231 124 39
231 124 39
231 124 39
39 137 231
39 137 231
39 137 231
39 137 231
39 137 231
39 137 231
39 137 231
0 0 0
0 0 0
0 0 0
0 0 0
0 0 0
0 0 0
0 0 0
0 0 0
0 0 0
0 0 0
0 0 0
0 0 0
0 0 0
0 0 0
0 0 0
0 0 0
0 0 0
0 0 0
0 0 0
0 0 0
0 0 0
0 0 0
0 0 0
0 0 0
0 0 0
0 0 0
0 0 0
0 0 0
0 0 0
0 0 0
0 0 0
0 0 0
0 0 0
0 0 0
0 0 0
0 0 0
0 0 0
0 0 0
0 0 0
0 0 0
0 0 0
0 0 0
0 0 0
0 0 0
0 0 0
0 0 0
0 0 0
0 0 0
0 0 0
0 0 0
0 0 0
0 0 0
0 0 0
0 0 0
0 0 0
0 0 0
0 0 0
0 0 0
0 0 0
0 0 0
0 0 0
0 0 0
0 0 0
0 0 0
0 0 0
0 0 0
0 0 0
0 0 0
0 0 0
0 0 0
231 124 39
231 124 39
231 124 39
231 124 39
231 124 39
231 124 39
231 124 39
231 124 39
231 124 39
231 124 39
231 124 39
231 124 39
231 124 39
231 124 39
231 124 39
231 124 39
231 124 39
231 124 39
231 124 39
231 124 39
231 124 39
231 124 39
231 124 39
231 124 39
231 124 39
231 124 39
231 124 39
231 124 39
231 124 39
231 124 39
231 124 39
231 124 39
231 124 39
231 124 39
231 124 39
231 124 39
231 124 39
231 124 39
231 124 39
231 124 39
231 124 39
231 124 39
231 124 39
231 124 39
231 124 39
231 124 39
231 124 39
231 124 39
231 124 39
231 124 39
231 124 39
39 137 231
39 137 231
39 137 231
39 137 231
39 137 231
39 137 231
39 137 231
0 0 0
0 0 0
0 0 0
0 0 0
0 0 0
0 0 0
0 0 0
0 0 0
0 0 0
0 0 0
0 0 0
0 0 0
0 0 0
0 0 0
0 0 0
0 0 0
0 0 0
0 0 0
0 0 0
0 0 0
0 0 0
0 0 0
0 0 0
0 0 0
0 0 0
0 0 0
0 0 0
0 0 0
0 0 0
0 0 0
0 0 0
0 0 0
0 0 0
0 0 0
0 0 0
0 0 0
0 0 0
0 0 0
0 0 0
0 0 0
0 0 0
0 0 0
0 0 0
0 0 0
0 0 0
0 0 0
0 0 0
0 0 0
0 0 0
0 0 0
0 0 0
0 0 0
0 0 0
0 0 0
0 0 0
0 0 0
0 0 0
0 0 0
0 0 0
0 0 0
0 0 0
0 0 0
0 0 0
0 0 0
0 0 0
0 0 0
0 0 0
0 0 0
0 0 0
231 124 39
231 124 39
231 124 39
231 124 39
231 124 39
231 124 39
231 124 39
231 124 39
231 124 39
231 124 39
231 124 39
231 124 39
231 124 39
231 124 39
231 124 39
231 124 39
231 124 39
231 124 39
231 124 39
231 124 39
231 124 39
231 124 39
231 124 39
231 124 39
231 124 39
231 124 39
231 124 39
231 124 39
231 124 39
231 124 39
231 124 39
231 124 39
231 124 39
231 124 39
231 124 39
231 124 39
231 124 39
231 124 39
231 124 39
231 124 39
231 124 39
231 124 39
231 124 39
231 124 39
231 124 39
231 124 39
231 124 39
231 124 39
231 124 39
231 124 39
231 124 39
39 137 231
39 137 231
39 137 231
39 137 231
39 137 231
39 137 231
39 137 231
39 137 231
39 137 231
0 0 0
0 0 0
0 0 0
0 0 0
0 0 0
0 0 0
0 0 0
0 0 0
0 0 0
0 0 0
0 0 0
0 0 0
0 0 0
0 0 0
0 0 0
0 0 0
0 0 0
0 0 0
0 0 0
0 0 0
0 0 0
0 0 0
0 0 0
0 0 0
0 0 0
0 0 0
0 0 0
0 0 0
0 0 0
0 0 0
0 0 0
0 0 0
0 0 0
0 0 0
0 0 0
0 0 0
0 0 0
0 0 0
0 0 0
0 0 0
0 0 0
0 0 0
0 0 0
0 0 0
0 0 0
0 0 0
0 0 0
0 0 0
0 0 0
0 0 0
0 0 0
0 0 0
0 0 0
0 0 0
0 0 0
0 0 0
0 0 0
0 0 0
0 0 0
0 0 0
0 0 0
0 0 0
0 0 0
0 0 0
0 0 0
0 0 0
0 0 0
0 0 0
231 124 39
231 124 39
231 124 39
231 124 39
231 124 39
231 124 39
231 124 39
231 124 39
231 124 39
231 124 39
231 124 39
231 124 39
231 124 39
231 124 39
231 124 39
231 124 39
231 124 39
231 124 39
231 124 39
231 124 39
231 124 39
231 124 39
231 124 39
231 124 39
231 124 39
231 124 39
231 124 39
231 124 39
231 124 39
231 124 39
231 124 39
231 124 39
231 124 39
231 124 39
231 124 39
231 124 39
231 124 39
231 124 39
231 124 39
231 124 39
231 124 39
231 124 39
231 124 39
231 124 39
231 124 39
231 124 39
231 124 39
231 124 39
231 124 39
231 124 39
231 124 39
39 137 231
39 137 231
39 137 231
39 137 231
39 137 231
39 137 231
39 137 231
39 137 231
39 137 231
0 0 0
0 0 0
0 0 0
0 0 0
0 0 0
0 0 0
0 0 0
0 0 0
0 0 0
0 0 0
0 0 0
0 0 0
0 0 0
0 0 0
0 0 0
0 0 0
0 0 0
0 0 0
0 0 0
0 0 0
0 0 0
0 0 0
0 0 0
0 0 0
0 0 0
0 0 0
0 0 0
0 0 0
0 0 0
0 0 0
0 0 0
0 0 0
0 0 0
0 0 0
0 0 0
0 0 0
0 0 0
0 0 0
0 0 0
0 0 0
0 0 0
0 0 0
0 0 0
0 0 0
0 0 0
0 0 0
0 0 0
0 0 0
0 0 0
0 0 0
0 0 0
0 0 0
0 0 0
0 0 0
0 0 0
0 0 0
0 0 0
0 0 0
0 0 0
0 0 0
0 0 0
0 0 0
0 0 0
0 0 0
0 0 0
0 0 0
0 0 0
231 124 39
231 124 39
231 124 39
231 124 39
231 124 39
231 124 39
231 124 39
231 124 39
231 124 39
231 124 39
231 124 39
231 124 39
231 124 39
231 124 39
231 124 39
231 124 39
231 124 39
231 124 39
231 124 39
231 124 39
231 124 39
231 124 39
231 124 39
231 124 39
231 124 39
231 124 39
231 124 39
231 124 39
231 124 39
231 124 39
231 124 39
231 124 39
231 124 39
231 124 39
231 124 39
231 124 39
231 124 39
231 124 39
231 124 39
231 124 39
231 124 39
231 124 39
231 124 39
231 124 39
231 124 39
231 124 39
231 124 39
231 124 39
231 124 39
231 124 39
231 124 39
39 137 231
39 137 231
39 137 231
39 137 231
39 137 231
39 137 231
39 137 231
39 137 231
39 137 231
39 137 231
39 137 231
0 0 0
0 0 0
0 0 0
0 0 0
0 0 0
0 0 0
0 0 0
0 0 0
0 0 0
0 0 0
0 0 0
0 0 0
0 0 0
0 0 0
0 0 0
0 0 0
0 0 0
0 0 0
0 0 0
0 0 0
0 0 0
0 0 0
0 0 0
0 0 0
0 0 0
0 0 0
0 0 0
0 0 0
0 0 0
0 0 0
0 0 0
0 0 0
0 0 0
0 0 0
0 0 0
0 0 0
0 0 0
0 0 0
0 0 0
0 0 0
0 0 0
0 0 0
0 0 0
0 0 0
0 0 0
0 0 0
0 0 0
0 0 0
0 0 0
0 0 0
0 0 0
0 0 0
0 0 0
0 0 0
0 0 0
0 0 0
0 0 0
0 0 0
0 0 0
0 0 0
0 0 0
0 0 0
0 0 0
0 0 0
0 0 0
0 0 0
231 124 39
231 124 39
231 124 39
231 124 39
231 124 39
231 124 39
231 124 39
231 124 39
231 124 39
231 124 39
231 124 39
231 124 39
231 124 39
231 124 39
231 124 39
231 124 39
231 124 39
231 124 39
231 124 39
231 124 39
231 124 39
231 124 39
231 124 39
231 124 39
231 124 39
231 124 39
231 124 39
231 124 39
231 124 39
231 124 39
231 124 39
231 124 39
231 124 39
231 124 39
231 124 39
231 124 39
231 124 39
231 124 39
231 124 39
231 124 39
231 124 39
231 124 39
231 124 39
231 124 39
231 124 39
231 124 39
231 124 39
231 124 39
231 124 39
231 124 39
231 124 39
39 137 231
39 137 231
39 137 231
39 137 231
39 137 231
39 137 231
39 137 231
39 137 231
39 137 231
39 137 231
39 137 231
0 0 0
0 0 0
0 0 0
0 0 0
0 0 0
0 0 0
0 0 0
0 0 0
0 0 0
0 0 0
0 0 0
0 0 0
0 0 0
0 0 0
0 0 0
0 0 0
0 0 0
0 0 0
0 0 0
0 0 0
0 0 0
0 0 0
0 0 0
0 0 0
0 0 0
0 0 0
0 0 0
0 0 0
0 0 0
0 0 0
0 0 0
0 0 0
0 0 0
0 0 0
0 0 0
0 0 0
0 0 0
0 0 0
0 0 0
0 0 0
0 0 0
0 0 0
0 0 0
0 0 0
0 0 0
0 0 0
0 0 0
0 0 0
0 0 0
0 0 0
0 0 0
0 0 0
0 0 0
0 0 0
0 0 0
0 0 0
0 0 0
0 0 0
0 0 0
0 0 0
0 0 0
0 0 0
0 0 0
0 0 0
0 0 0
231 124 39
231 124 39
231 124 39
231 124 39
231 124 39
231 124 39
231 124 39
231 124 39
231 124 39
231 124 39
231 124 39
231 124 39
231 124 39
231 124 39
231 124 39
231 124 39
231 124 39
231 124 39
231 124 39
231 124 39
231 124 39
231 124 39
231 124 39
231 124 39
231 124 39
231 124 39
231 124 39
231 124 39
231 124 39
231 124 39
231 124 39
231 124 39
231 124 39
231 124 39
231 124 39
231 124 39
231 124 39
231 124 39
231 124 39
231 124 39
231 124 39
231 124 39
231 124 39
231 124 39
231 124 39
231 124 39
231 124 39
231 124 39
231 124 39
231 124 39
231 124 39
39 137 231
39 137 231
39 137 231
39 137 231
39 137 231
39 137 231
39 137 231
39 137 231
39 137 231
39 137 231
39 137 231
39 137 231
39 137 231
0 0 0
0 0 0
0 0 0
0 0 0
0 0 0
0 0 0
0 0 0
0 0 0
0 0 0
0 0 0
0 0 0
0 0 0
0 0 0
0 0 0
0 0 0
0 0 0
0 0 0
0 0 0
0 0 0
0 0 0
0 0 0
0 0 0
0 0 0
0 0 0
0 0 0
0 0 0
0 0 0
0 0 0
0 0 0
0 0 0
0 0 0
0 0 0
0 0 0
0 0 0
0 0 0
0 0 0
0 0 0
0 0 0
0 0 0
0 0 0
0 0 0
0 0 0
0 0 0
0 0 0
0 0 0
0 0 0
0 0 0
0 0 0
0 0 0
0 0 0
0 0 0
0 0 0
0 0 0
0 0 0
0 0 0
0 0 0
0 0 0
0 0 0
0 0 0
0 0 0
0 0 0
0 0 0
0 0 0
0 0 0
231 124 39
231 124 39
231 124 39
231 124 39
231 124 39
231 124 39
231 124 39
231 124 39
231 124 39
231 124 39
231 124 39
231 124 39
231 124 39
231 124 39
231 124 39
231 124 39
231 124 39
231 124 39
231 124 39
231 124 39
231 124 39
231 124 39
231 124 39
231 124 39
231 124 39
231 124 39
231 124 39
231 124 39
231 124 39
231 124 39
231 124 39
231 124 39
231 124 39
231 124 39
231 124 39
231 124 39
231 124 39
231 124 39
231 124 39
231 124 39
231 124 39
231 124 39
231 124 39
231 124 39
231 124 39
231 124 39
231 124 39
231 124 39
231 124 39
231 124 39
231 124 39
39 137 231
39 137 231
39 137 231
39 137 231
39 137 231
39 137 231
39 137 231
39 137 231
39 137 231
39 137 231
39 137 231
39 137 231
39 137 231
0 0 0
0 0 0
0 0 0
0 0 0
0 0 0
0 0 0
0 0 0
0 0 0
0 0 0
0 0 0
0 0 0
0 0 0
0 0 0
0 0 0
0 0 0
0 0 0
0 0 0
0 0 0
0 0 0
0 0 0
0 0 0
0 0 0
0 0 0
0 0 0
0 0 0
0 0 0
0 0 0
0 0 0
0 0 0
0 0 0
0 0 0
0 0 0
0 0 0
0 0 0
0 0 0
0 0 0
0 0 0
0 0 0
0 0 0
0 0 0
0 0 0
0 0 0
0 0 0
0 0 0
0 0 0
0 0 0
0 0 0
0 0 0
0 0 0
0 0 0
0 0 0
0 0 0
0 0 0
0 0 0
0 0 0
0 0 0
0 0 0
0 0 0
0 0 0
0 0 0
0 0 0
0 0 0
0 0 0
231 124 39
231 124 39
231 124 39
231 124 39
231 124 39
231 124 39
231 124 39
231 124 39
231 124 39
231 124 39
231 124 39
231 124 39
231 124 39
231 124 39
231 124 39
231 124 39
231 124 39
231 124 39
231 124 39
231 124 39
231 124 39
231 124 39
231 124 39
231 124 39
231 124 39
231 124 39
231 124 39
231 124 39
231 124 39
231 124 39
231 124 39
231 124 39
231 124 39
231 124 39
231 124 39
231 124 39
231 124 39
231 124 39
231 124 39
231 124 39
231 124 39
231 124 39
231 124 39
231 124 39
231 124 39
231 124 39
231 124 39
231 124 39
231 124 39
231 124 39
231 124 39
39 137 231
39 137 231
39 137 231
39 137 231
39 137 231
39 137 231
39 137 231
39 137 231
39 137 231
39 137 231
39 137 231
39 137 231
39 137 231
39 137 231
39 137 231
0 0 0
0 0 0
0 0 0
0 0 0
0 0 0
0 0 0
0 0 0
0 0 0
0 0 0
0 0 0
0 0 0
0 0 0
0 0 0
0 0 0
0 0 0
0 0 0
0 0 0
0 0 0
0 0 0
0 0 0
0 0 0
0 0 0
0 0 0
0 0 0
0 0 0
0 0 0
0 0 0
0 0 0
0 0 0
0 0 0
0 0 0
0 0 0
0 0 0
0 0 0
0 0 0
0 0 0
0 0 0
0 0 0
0 0 0
0 0 0
0 0 0
0 0 0
0 0 0
0 0 0
0 0 0
0 0 0
0 0 0
0 0 0
0 0 0
0 0 0
0 0 0
0 0 0
0 0 0
0 0 0
0 0 0
0 0 0
0 0 0
0 0 0
0 0 0
0 0 0
0 0 0
0 0 0
231 124 39
231 124 39
231 124 39
231 124 39
231 124 39
231 124 39
231 124 39
231 124 39
231 124 39
231 124 39
231 124 39
231 124 39
231 124 39
231 124 39
231 124 39
231 124 39
231 124 39
231 124 39
231 124 39
231 124 39
231 124 39
231 124 39
231 124 39
231 124 39
231 124 39
231 124 39
231 124 39
231 124 39
231 124 39
231 124 39
231 124 39
231 124 39
231 124 39
231 124 39
231 124 39
231 124 39
231 124 39
231 124 39
231 124 39
231 124 39
231 124 39
231 124 39
231 124 39
231 124 39
231 124 39
231 124 39
231 124 39
231 124 39
231 124 39
231 124 39
231 124 39
39 137 231
39 137 231
39 137 231
39 137 231
39 137 231
39 137 231
39 137 231
39 137 231
39 137 231
39 137 231
39 137 231
39 137 231
39 137 231
39 137 231
39 137 231
0 0 0
0 0 0
0 0 0
0 0 0
0 0 0
0 0 0
0 0 0
0 0 0
0 0 0
0 0 0
0 0 0
0 0 0
0 0 0
0 0 0
0 0 0
0 0 0
0 0 0
0 0 0
0 0 0
0 0 0
0 0 0
0 0 0
0 0 0
0 0 0
0 0 0
0 0 0
0 0 0
0 0 0
0 0 0
0 0 0
0 0 0
0 0 0
0 0 0
0 0 0
0 0 0
0 0 0
0 0 0
0 0 0
0 0 0
0 0 0
0 0 0
0 0 0
0 0 0
0 0 0
0 0 0
0 0 0
0 0 0
0 0 0
0 0 0
0 0 0
0 0 0
0 0 0
0 0 0
0 0 0
0 0 0
0 0 0
0 0 0
0 0 0
0 0 0
0 0 0
0 0 0
231 124 39
231 124 39
231 124 39
231 124 39
231 124 39
231 124 39
231 124 39
231 124 39
231 124 39
231 124 39
231 124 39
231 124 39
231 124 39
231 124 39
231 124 39
231 124 39
231 124 39
231 124 39
231 124 39
231 124 39
231 124 39
231 124 39
231 124 39
231 124 39
231 124 39
231 124 39
231 124 39
231 124 39
231 124 39
231 124 39
231 124 39
231 124 39
231 124 39
231 124 39
231 124 39
231 124 39
231 124 39
231 124 39
231 124 39
231 124 39
231 124 39
231 124 39
231 124 39
231 124 39
231 124 39
231 124 39
231 124 39
231 124 39
231 124 39
231 124 39
231 124 39
39 137 231
39 137 231
39 137 231
39 137 231
39 137 231
39 137 231
39 137 231
39 137 231
39 137 231
39 137 231
39 137 231
39 137 231
39 137 231
39 137 231
39 137 231
39 137 231
39 137 231
0 0 0
0 0 0
0 0 0
0 0 0
0 0 0
0 0 0
0 0 0
0 0 0
0 0 0
0 0 0
0 0 0
0 0 0
0 0 0
0 0 0
0 0 0
0 0 0
0 0 0
0 0 0
0 0 0
0 0 0
0 0 0
0 0 0
0 0 0
0 0 0
0 0 0
0 0 0
0 0 0
0 0 0
0 0 0
0 0 0
0 0 0
0 0 0
0 0 0
0 0 0
0 0 0
0 0 0
0 0 0
0 0 0
0 0 0
0 0 0
0 0 0
0 0 0
0 0 0
0 0 0
0 0 0
0 0 0
0 0 0
0 0 0
0 0 0
0 0 0
0 0 0
0 0 0
0 0 0
0 0 0
0 0 0
0 0 0
0 0 0
0 0 0
0 0 0
0 0 0
231 124 39
231 124 39
231 124 39
231 124 39
231 124 39
231 124 39
231 124 39
231 124 39
231 124 39
231 124 39
231 124 39
231 124 39
231 124 39
231 124 39
231 124 39
231 124 39
231 124 39
231 124 39
231 124 39
231 124 39
231 124 39
231 124 39
231 124 39
231 124 39
231 124 39
231 124 39
231 124 39
231 124 39
231 124 39
231 124 39
231 124 39
231 124 39
231 124 39
231 124 39
231 124 39
231 124 39
231 124 39
231 124 39
231 124 39
231 124 39
231 124 39
231 124 39
231 124 39
231 124 39
231 124 39
231 124 39
231 124 39
231 124 39
231 124 39
231 124 39
231 124 39
39 137 231
39 137 231
39 137 231
39 137 231
39 137 231
39 137 231
39 137 231
39 137 231
39 137 231
39 137 231
39 137 231
39 137 231
39 137 231
39 137 231
39 137 231
39 137 231
39 137 231
0 0 0
0 0 0
0 0 0
0 0 0
0 0 0
0 0 0
0 0 0
0 0 0
0 0 0
0 0 0
0 0 0
0 0 0
0 0 0
0 0 0
0 0 0
0 0 0
0 0 0
0 0 0
0 0 0
0 0 0
0 0 0
0 0 0
0 0 0
0 0 0
0 0 0
0 0 0
0 0 0
0 0 0
0 0 0
0 0 0
0 0 0
0 0 0
0 0 0
0 0 0
0 0 0
0 0 0
0 0 0
0 0 0
0 0 0
0 0 0
0 0 0
0 0 0
0 0 0
0 0 0
0 0 0
0 0 0
0 0 0
0 0 0
0 0 0
0 0 0
0 0 0
0 0 0
0 0 0
0 0 0
0 0 0
0 0 0
0 0 0
0 0 0
0 0 0
231 124 39
231 124 39
231 124 39
231 124 39
231 124 39
231 124 39
231 124 39
231 124 39
231 124 39
231 124 39
231 124 39
231 124 39
231 124 39
231 124 39
231 124 39
231 124 39
231 124 39
231 124 39
231 124 39
231 124 39
231 124 39
231 124 39
231 124 39
231 124 39
231 124 39
231 124 39
231 124 39
231 124 39
231 124 39
231 124 39
231 124 39
231 124 39
231 124 39
231 124 39
231 124 39
231 124 39
231 124 39
231 124 39
231 124 39
231 124 39
231 124 39
231 124 39
231 124 39
231 124 39
231 124 39
231 124 39
231 124 39
231 124 39
231 124 39
231 124 39
231 124 39
39 137 231
39 137 231
39 137 231
39 137 231
39 137 231
39 137 231
39 137 231
39 137 231
39 137 231
39 137 231
39 137 231
39 137 231
39 137 231
39 137 231
39 137 231
39 137 231
39 137 231
39 137 231
39 137 231
0 0 0
0 0 0
0 0 0
0 0 0
0 0 0
0 0 0
0 0 0
0 0 0
0 0 0
0 0 0
0 0 0
0 0 0
0 0 0
0 0 0
0 0 0
0 0 0
0 0 0
0 0 0
0 0 0
0 0 0
0 0 0
0 0 0
0 0 0
0 0 0
0 0 0
0 0 0
0 0 0
0 0 0
0 0 0
0 0 0
0 0 0
0 0 0
0 0 0
0 0 0
0 0 0
0 0 0
0 0 0
0 0 0
0 0 0
0 0 0
0 0 0
0 0 0
0 0 0
0 0 0
0 0 0
0 0 0
0 0 0
0 0 0
0 0 0
0 0 0
0 0 0
0 0 0
0 0 0
0 0 0
0 0 0
0 0 0
0 0 0
0 0 0
231 124 39
231 124 39
231 124 39
231 124 39
231 124 39
231 124 39
231 124 39
231 124 39
231 124 39
231 124 39
231 124 39
231 124 39
231 124 39
231 124 39
231 124 39
231 124 39
231 124 39
231 124 39
231 124 39
231 124 39
231 124 39
231 124 39
231 124 39
231 124 39
231 124 39
231 124 39
231 124 39
231 124 39
231 124 39
231 124 39
231 124 39
231 124 39
231 124 39
231 124 39
231 124 39
231 124 39
231 124 39
231 124 39
231 124 39
231 124 39
231 124 39
231 124 39
231 124 39
231 124 39
231 124 39
231 124 39
231 124 39
231 124 39
231 124 39
231 124 39
231 124 39
39 137 231
39 137 231
39 137 231
39 137 231
39 137 231
39 137 231
39 137 231
39 137 231
39 137 231
39 137 231
39 137 231
39 137 231
39 137 231
39 137 231
39 137 231
39 137 231
39 137 231
39 137 231
39 137 231
0 0 0
0 0 0
0 0 0
0 0 0
0 0 0
0 0 0
0 0 0
0 0 0
0 0 0
0 0 0
0 0 0
0 0 0
0 0 0
0 0 0
0 0 0
0 0 0
0 0 0
0 0 0
0 0 0
0 0 0
0 0 0
0 0 0
0 0 0
0 0 0
0 0 0
0 0 0
0 0 0
0 0 0
0 0 0
0 0 0
0 0 0
0 0 0
0 0 0
0 0 0
0 0 0
0 0 0
0 0 0
0 0 0
0 0 0
0 0 0
0 0 0
0 0 0
0 0 0
0 0 0
0 0 0
0 0 0
0 0 0
0 0 0
0 0 0
0 0 0
0 0 0
0 0 0
0 0 0
0 0 0
0 0 0
0 0 0
0 0 0
231 124 39
231 124 39
231 124 39
231 124 39
231 124 39
231 124 39
231 124 39
231 124 39
231 124 39
231 124 39
231 124 39
231 124 39
231 124 39
231 124 39
231 124 39
231 124 39
231 124 39
231 124 39
231 124 39
231 124 39
231 124 39
231 124 39
231 124 39
231 124 39
231 124 39
231 124 39
231 124 39
231 124 39
231 124 39
231 124 39
231 124 39
231 124 39
231 124 39
231 124 39
231 124 39
231 124 39
231 124 39
231 124 39
231 124 39
231 124 39
231 124 39
231 124 39
231 124 39
231 124 39
231 124 39
231 124 39
231 124 39
231 124 39
231 124 39
231 124 39
231 124 39
39 137 231
39 137 231
39 137 231
39 137 231
39 137 231
39 137 231
39 137 231
39 137 231
39 137 231
39 137 231
39 137 231
39 137 231
39 137 231
39 137 231
39 137 231
39 137 231
39 137 231
39 137 231
39 137 231
39 137 231
39 137 231
0 0 0
0 0 0
0 0 0
0 0 0
0 0 0
0 0 0
0 0 0
0 0 0
0 0 0
0 0 0
0 0 0
0 0 0
0 0 0
0 0 0
0 0 0
0 0 0
0 0 0
0 0 0
0 0 0
0 0 0
0 0 0
0 0 0
0 0 0
0 0 0
0 0 0
0 0 0
0 0 0
0 0 0
0 0 0
0 0 0
0 0 0
0 0 0
0 0 0
0 0 0
0 0 0
0 0 0
0 0 0
0 0 0
0 0 0
0 0 0
0 0 0
0 0 0
0 0 0
0 0 0
0 0 0
0 0 0
0 0 0
0 0 0
0 0 0
0 0 0
0 0 0
0 0 0
0 0 0
0 0 0
0 0 0
0 0 0
231 124 39
231 124 39
231 124 39
231 124 39
231 124 39
231 124 39
231 124 39
231 124 39
231 124 39
231 124 39
231 124 39
231 124 39
231 124 39
231 124 39
231 124 39
231 124 39
231 124 39
231 124 39
231 124 39
231 124 39
231 124 39
231 124 39
231 124 39
231 124 39
231 124 39
231 124 39
231 124 39
231 124 39
231 124 39
231 124 39
231 124 39
231 124 39
231 124 39
231 124 39
231 124 39
231 124 39
231 124 39
231 124 39
231 124 39
231 124 39
231 124 39
231 124 39
231 124 39
231 124 39
231 124 39
231 124 39
231 124 39
231 124 39
231 124 39
231 124 39
231 124 39
39 137 231
39 137 231
39 137 231
39 137 231
39 137 231
39 137 231
39 137 231
39 137 231
39 137 231
39 137 231
39 137 231
39 137 231
39 137 231
39 137 231
39 137 231
39 137 231
39 137 231
39 137 231
39 137 231
39 137 231
39 137 231
0 0 0
0 0 0
0 0 0
0 0 0
0 0 0
0 0 0
0 0 0
0 0 0
0 0 0
0 0 0
0 0 0
0 0 0
0 0 0
0 0 0
0 0 0
0 0 0
0 0 0
0 0 0
0 0 0
0 0 0
0 0 0
0 0 0
0 0 0
0 0 0
0 0 0
0 0 0
0 0 0
0 0 0
0 0 0
0 0 0
0 0 0
0 0 0
0 0 0
0 0 0
0 0 0
0 0 0
0 0 0
0 0 0
0 0 0
0 0 0
0 0 0
0 0 0
0 0 0
0 0 0
0 0 0
0 0 0
0 0 0
0 0 0
0 0 0
0 0 0
0 0 0
0 0 0
0 0 0
0 0 0
0 0 0
231 124 39
231 124 39
231 124 39
231 124 39
231 124 39
231 124 39
231 124 39
231 124 39
231 124 39
231 124 39
231 124 39
231 124 39
231 124 39
231 124 39
231 124 39
231 124 39
231 124 39
231 124 39
231 124 39
231 124 39
231 124 39
231 124 39
231 124 39
231 124 39
231 124 39
231 124 39
231 124 39
231 124 39
231 124 39
231 124 39
231 124 39
231 124 39
231 124 39
231 124 39
231 124 39
231 124 39
231 124 39
231 124 39
231 124 39
231 124 39
231 124 39
231 124 39
231 124 39
231 124 39
231 124 39
231 124 39
231 124 39
231 124 39
231 124 39
231 124 39
231 124 39
39 137 231
39 137 231
39 137 231
39 137 231
39 137 231
39 137 231
39 137 231
39 137 231
39 137 231
39 137 231
39 137 231
39 137 231
39 137 231
39 137 231
39 137 231
39 137 231
39 137 231
39 137 231
39 137 231
39 137 231
39 137 231
39 137 231
39 137 231
0 0 0
0 0 0
0 0 0
0 0 0
0 0 0
0 0 0
0 0 0
0 0 0
0 0 0
0 0 0
0 0 0
0 0 0
0 0 0
0 0 0
0 0 0
0 0 0
0 0 0
0 0 0
0 0 0
0 0 0
0 0 0
0 0 0
0 0 0
0 0 0
0 0 0
0 0 0
0 0 0
0 0 0
0 0 0
0 0 0
0 0 0
0 0 0
0 0 0
0 0 0
0 0 0
0 0 0
0 0 0
0 0 0
0 0 0
0 0 0
0 0 0
0 0 0
0 0 0
0 0 0
0 0 0
0 0 0
0 0 0
0 0 0
0 0 0
0 0 0
0 0 0
0 0 0
0 0 0
0 0 0
231 124 39
231 124 39
231 124 39
231 124 39
231 124 39
231 124 39
231 124 39
231 124 39
231 124 39
231 124 39
231 124 39
231 124 39
231 124 39
231 124 39
231 124 39
231 124 39
231 124 39
231 124 39
231 124 39
231 124 39
231 124 39
231 124 39
231 124 39
231 124 39
231 124 39
231 124 39
231 124 39
231 124 39
231 124 39
231 124 39
231 124 39
231 124 39
231 124 39
231 124 39
231 124 39
231 124 39
231 124 39
231 124 39
231 124 39
231 124 39
231 124 39
231 124 39
231 124 39
231 124 39
231 124 39
231 124 39
231 124 39
231 124 39
231 124 39
231 124 39
231 124 39
39 137 231
39 137 231
39 137 231
39 137 231
39 137 231
39 137 231
39 137 231
39 137 231
39 137 231
39 137 231
39 137 231
39 137 231
39 137 231
39 137 231
39 137 231
39 137 231
39 137 231
39 137 231
39 137 231
39 137 231
39 137 231
39 137 231
39 137 231
0 0 0
0 0 0
0 0 0
0 0 0
0 0 0
0 0 0
0 0 0
0 0 0
0 0 0
0 0 0
0 0 0
0 0 0
0 0 0
0 0 0
0 0 0
0 0 0
0 0 0
0 0 0
0 0 0
0 0 0
0 0 0
0 0 0
0 0 0
0 0 0
0 0 0
0 0 0
0 0 0
0 0 0
0 0 0
0 0 0
0 0 0
0 0 0
0 0 0
0 0 0
0 0 0
0 0 0
0 0 0
0 0 0
0 0 0
0 0 0
0 0 0
0 0 0
0 0 0
0 0 0
0 0 0
0 0 0
0 0 0
0 0 0
0 0 0
0 0 0
0 0 0
0 0 0
0 0 0
231 124 39
231 124 39
231 124 39
231 124 39
231 124 39
231 124 39
231 124 39
231 124 39
231 124 39
231 124 39
231 124 39
231 124 39
231 124 39
231 124 39
231 124 39
231 124 39
231 124 39
231 124 39
231 124 39
231 124 39
231 124 39
231 124 39
231 124 39
231 124 39
231 124 39
231 124 39
231 124 39
231 124 39
231 124 39
231 124 39
231 124 39
231 124 39
231 124 39
231 124 39
231 124 39
231 124 39
231 124 39
231 124 39
231 124 39
231 124 39
231 124 39
231 124 39
231 124 39
231 124 39
231 124 39
231 124 39
231 124 39
231 124 39
231 124 39
231 124 39
231 124 39
39 137 231
39 137 231
39 137 231
39 137 231
39 137 231
39 137 231
39 137 231
39 137 231
39 137 231
39 137 231
39 137 231
39 137 231
39 137 231
39 137 231
39 137 231
39 137 231
39 137 231
39 137 231
39 137 231
39 137 231
39 137 231
39 137 231
39 137 231
39 137 231
39 137 231
0 0 0
0 0 0
0 0 0
0 0 0
0 0 0
0 0 0
0 0 0
0 0 0
0 0 0
0 0 0
0 0 0
0 0 0
0 0 0
0 0 0
0 0 0
0 0 0
0 0 0
0 0 0
0 0 0
0 0 0
0 0 0
0 0 0
0 0 0
0 0 0
0 0 0
0 0 0
0 0 0
0 0 0
0 0 0
0 0 0
0 0 0
0 0 0
0 0 0
0 0 0
0 0 0
0 0 0
0 0 0
0 0 0
0 0 0
0 0 0
0 0 0
0 0 0
0 0 0
0 0 0
0 0 0
0 0 0
0 0 0
0 0 0
0 0 0
0 0 0
0 0 0
0 0 0
231 124 39
231 124 39
231 124 39
231 124 39
231 124 39
231 124 39
231 124 39
231 124 39
231 124 39
231 124 39
231 124 39
231 124 39
231 124 39
231 124 39
231 124 39
231 124 39
231 124 39
231 124 39
231 124 39
231 124 39
231 124 39
231 124 39
231 124 39
231 124 39
231 124 39
231 124 39
231 124 39
231 124 39
231 124 39
231 124 39
231 124 39
231 124 39
231 124 39
231 124 39
231 124 39
231 124 39
231 124 39
231 124 39
231 124 39
231 124 39
231 124 39
231 124 39
231 124 39
231 124 39
231 124 39
231 124 39
231 124 39
231 124 39
231 124 39
231 124 39
231 124 39
39 137 231
39 137 231
39 137 231
39 137 231
39 137 231
39 137 231
39 137 231
39 137 231
39 137 231
39 137 231
39 137 231
39 137 231
39 137 231
39 137 231
39 137 231
39 137 231
39 137 231
39 137 231
39 137 231
39 137 231
39 137 231
39 137 231
39 137 231
39 137 231
39 137 231
0 0 0
0 0 0
0 0 0
0 0 0
0 0 0
0 0 0
0 0 0
0 0 0
0 0 0
0 0 0
0 0 0
0 0 0
0 0 0
0 0 0
0 0 0
0 0 0
0 0 0
0 0 0
0 0 0
0 0 0
0 0 0
0 0 0
0 0 0
0 0 0
0 0 0
0 0 0
0 0 0
0 0 0
0 0 0
0 0 0
0 0 0
0 0 0
0 0 0
0 0 0
0 0 0
0 0 0
0 0 0
0 0 0
0 0 0
0 0 0
0 0 0
0 0 0
0 0 0
0 0 0
0 0 0
0 0 0
0 0 0
0 0 0
0 0 0
0 0 0
0 0 0
231 124 39
231 124 39
231 124 39
231 124 39
231 124 39
231 124 39
231 124 39
231 124 39
231 124 39
231 124 39
231 124 39
231 124 39
231 124 39
231 124 39
231 124 39
231 124 39
231 124 39
231 124 39
231 124 39
231 124 39
231 124 39
231 124 39
231 124 39
231 124 39
231 124 39
231 124 39
231 124 39
231 124 39
231 124 39
231 124 39
231 124 39
231 124 39
231 124 39
231 124 39
231 124 39
231 124 39
231 124 39
231 124 39
231 124 39
231 124 39
231 124 39
231 124 39
231 124 39
231 124 39
231 124 39
231 124 39
231 124 39
231 124 39
231 124 39
231 124 39
231 124 39
39 137 231
39 137 231
39 137 231
39 137 231
39 137 231
39 137 231
39 137 231
39 137 231
39 137 231
39 137 231
39 137 231
39 137 231
39 137 231
39 137 231
39 137 231
39 137 231
39 137 231
39 137 231
39 137 231
39 137 231
39 137 231
39 137 231
39 137 231
39 137 231
39 137 231
39 137 231
39 137 231
0 0 0
0 0 0
0 0 0
0 0 0
0 0 0
0 0 0
0 0 0
0 0 0
0 0 0
0 0 0
0 0 0
0 0 0
0 0 0
0 0 0
0 0 0
0 0 0
0 0 0
0 0 0
0 0 0
0 0 0
0 0 0
0 0 0
0 0 0
0 0 0
0 0 0
0 0 0
0 0 0
0 0 0
0 0 0
0 0 0
0 0 0
0 0 0
0 0 0
0 0 0
0 0 0
0 0 0
0 0 0
0 0 0
0 0 0
0 0 0
0 0 0
0 0 0
0 0 0
0 0 0
0 0 0
0 0 0
0 0 0
0 0 0
0 0 0
0 0 0
231 124 39
231 124 39
231 124 39
231 124 39
231 124 39
231 124 39
231 124 39
231 124 39
231 124 39
231 124 39
231 124 39
231 124 39
231 124 39
231 124 39
231 124 39
231 124 39
231 124 39
231 124 39
231 124 39
231 124 39
231 124 39
231 124 39
231 124 39
231 124 39
231 124 39
231 124 39
231 124 39
231 124 39
231 124 39
231 124 39
231 124 39
231 124 39
231 124 39
231 124 39
231 124 39
231 124 39
231 124 39
231 124 39
231 124 39
231 124 39
231 124 39
231 124 39
231 124 39
231 124 39
231 124 39
231 124 39
231 124 39
231 124 39
231 124 39
231 124 39
231 124 39
39 137 231
39 137 231
39 137 231
39 137 231
39 137 231
39 137 231
39 137 231
39 137 231
39 137 231
39 137 231
39 137 231
39 137 231
39 137 231
39 137 231
39 137 231
39 137 231
39 137 231
39 137 231
39 137 231
39 137 231
39 137 231
39 137 231
39 137 231
39 137 231
39 137 231
39 137 231
39 137 231
0 0 0
0 0 0
0 0 0
0 0 0
0 0 0
0 0 0
0 0 0
0 0 0
0 0 0
0 0 0
0 0 0
0 0 0
0 0 0
0 0 0
0 0 0
0 0 0
0 0 0
0 0 0
0 0 0
0 0 0
0 0 0
0 0 0
0 0 0
0 0 0
0 0 0
0 0 0
0 0 0
0 0 0
0 0 0
0 0 0
0 0 0
0 0 0
0 0 0
0 0 0
0 0 0
0 0 0
0 0 0
0 0 0
0 0 0
0 0 0
0 0 0
0 0 0
0 0 0
0 0 0
0 0 0
0 0 0
0 0 0
0 0 0
0 0 0
231 124 39
231 124 39
231 124 39
231 124 39
231 124 39
231 124 39
231 124 39
231 124 39
231 124 39
231 124 39
231 124 39
231 124 39
231 124 39
231 124 39
231 124 39
231 124 39
231 124 39
231 124 39
231 124 39
231 124 39
231 124 39
231 124 39
231 124 39
231 124 39
231 124 39
231 124 39
231 124 39
231 124 39
231 124 39
231 124 39
231 124 39
231 124 39
231 124 39
231 124 39
231 124 39
231 124 39
231 124 39
231 124 39
231 124 39
231 124 39
231 124 39
231 124 39
231 124 39
231 124 39
231 124 39
231 124 39
231 124 39
231 124 39
231 124 39
231 124 39
231 124 39
39 137 231
39 137 231
39 137 231
39 137 231
39 137 231
39 137 231
39 137 231
39 137 231
39 137 231
39 137 231
39 137 231
39 137 231
39 137 231
39 137 231
39 137 231
39 137 231
39 137 231
39 137 231
39 137 231
39 137 231
39 137 231
39 137 231
39 137 231
39 137 231
39 137 231
39 137 231
39 137 231
39 137 231
39 137 231
0 0 0
0 0 0
0 0 0
0 0 0
0 0 0
0 0 0
0 0 0
0 0 0
0 0 0
0 0 0
0 0 0
0 0 0
0 0 0
0 0 0
0 0 0
0 0 0
0 0 0
0 0 0
0 0 0
0 0 0
0 0 0
0 0 0
0 0 0
0 0 0
0 0 0
0 0 0
0 0 0
0 0 0
0 0 0
0 0 0
0 0 0
0 0 0
0 0 0
0 0 0
0 0 0
0 0 0
0 0 0
0 0 0
0 0 0
0 0 0
0 0 0
0 0 0
0 0 0
0 0 0
0 0 0
0 0 0
0 0 0
0 0 0
231 124 39
231 124 39
231 124 39
231 124 39
231 124 39
231 124 39
231 124 39
231 124 39
231 124 39
231 124 39
231 124 39
231 124 39
231 124 39
231 124 39
231 124 39
231 124 39
231 124 39
231 124 39
231 124 39
231 124 39
231 124 39
231 124 39
231 124 39
231 124 39
231 124 39
231 124 39
231 124 39
231 124 39
231 124 39
231 124 39
231 124 39
231 124 39
231 124 39
231 124 39
231 124 39
231 124 39
231 124 39
231 124 39
231 124 39
231 124 39
231 124 39
231 124 39
231 124 39
231 124 39
231 124 39
231 124 39
231 124 39
231 124 39
231 124 39
231 124 39
231 124 39
39 137 231
39 137 231
39 137 231
39 137 231
39 137 231
39 137 231
39 137 231
39 137 231
39 137 231
39 137 231
39 137 231
39 137 231
39 137 231
39 137 231
39 137 231
39 137 231
39 137 231
39 137 231
39 137 231
39 137 231
39 137 231
39 137 231
39 137 231
39 137 231
39 137 231
39 137 231
39 137 231
39 137 231
39 137 231
0 0 0
0 0 0
0 0 0
0 0 0
0 0 0
0 0 0
0 0 0
0 0 0
0 0 0
0 0 0
0 0 0
0 0 0
0 0 0
0 0 0
0 0 0
0 0 0
0 0 0
0 0 0
0 0 0
0 0 0
0 0 0
0 0 0
0 0 0
0 0 0
0 0 0
0 0 0
0 0 0
0 0 0
0 0 0
0 0 0
0 0 0
0 0 0
0 0 0
0 0 0
0 0 0
0 0 0
0 0 0
0 0 0
0 0 0
0 0 0
0 0 0
0 0 0
0 0 0
0 0 0
0 0 0
0 0 0
0 0 0
231 124 39
231 124 39
231 124 39
231 124 39
231 124 39
231 124 39
231 124 39
231 124 39
231 124 39
231 124 39
231 124 39
231 124 39
231 124 39
231 124 39
231 124 39
231 124 39
231 124 39
231 124 39
231 124 39
231 124 39
231 124 39
231 124 39
231 124 39
231 124 39
231 124 39
231 124 39
231 124 39
231 124 39
231 124 39
231 124 39
231 124 39
231 124 39
231 124 39
231 124 39
231 124 39
231 124 39
231 124 39
231 124 39
231 124 39
231 124 39
231 124 39
231 124 39
231 124 39
231 124 39
231 124 39
231 124 39
231 124 39
231 124 39
231 124 39
231 124 39
231 124 39
39 137 231
39 137 231
39 137 231
39 137 231
39 137 231
39 137 231
39 137 231
39 137 231
39 137 231
39 137 231
39 137 231
39 137 231
39 137 231
39 137 231
39 137 231
39 137 231
39 137 231
39 137 231
39 137 231
39 137 231
39 137 231
39 137 231
39 137 231
39 137 231
39 137 231
39 137 231
39 137 231
39 137 231
39 137 231
39 137 231
39 137 231
0 0 0
0 0 0
0 0 0
0 0 0
0 0 0
0 0 0
0 0 0
0 0 0
0 0 0
0 0 0
0 0 0
0 0 0
0 0 0
0 0 0
0 0 0
0 0 0
0 0 0
0 0 0
0 0 0
0 0 0
0 0 0
0 0 0
0 0 0
0 0 0
0 0 0
0 0 0
0 0 0
0 0 0
0 0 0
0 0 0
0 0 0
0 0 0
0 0 0
0 0 0
0 0 0
0 0 0
0 0 0
0 0 0
0 0 0
0 0 0
0 0 0
0 0 0
0 0 0
0 0 0
0 0 0
0 0 0
231 124 39
231 124 39
231 124 39
231 124 39
231 124 39
231 124 39
231 124 39
231 124 39
231 124 39
231 124 39
231 124 39
231 124 39
231 124 39
231 124 39
231 124 39
231 124 39
231 124 39
231 124 39
231 124 39
231 124 39
231 124 39
231 124 39
231 124 39
231 124 39
231 124 39
231 124 39
231 124 39
231 124 39
231 124 39
231 124 39
231 124 39
231 124 39
231 124 39
231 124 39
231 124 39
231 124 39
231 124 39
231 124 39
231 124 39
231 124 39
231 124 39
231 124 39
231 124 39
231 124 39
231 124 39
231 124 39
231 124 39
231 124 39
231 124 39
231 124 39
231 124 39
39 137 231
39 137 231
39 137 231
39 137 231
39 137 231
39 137 231
39 137 231
39 137 231
39 137 231
39 137 231
39 137 231
39 137 231
39 137 231
39 137 231
39 137 231
39 137 231
39 137 231
39 137 231
39 137 231
39 137 231
39 137 231
39 137 231
39 137 231
39 137 231
39 137 231
39 137 231
39 137 231
39 137 231
39 137 231
39 137 231
39 137 231
0 0 0
0 0 0
0 0 0
0 0 0
0 0 0
0 0 0
0 0 0
0 0 0
0 0 0
0 0 0
0 0 0
0 0 0
0 0 0
0 0 0
0 0 0
0 0 0
0 0 0
0 0 0
0 0 0
0 0 0
0 0 0
0 0 0
0 0 0
0 0 0
0 0 0
0 0 0
0 0 0
0 0 0
0 0 0
0 0 0
0 0 0
0 0 0
0 0 0
0 0 0
0 0 0
0 0 0
0 0 0
0 0 0
0 0 0
0 0 0
0 0 0
0 0 0
0 0 0
0 0 0
0 0 0
231 124 39
231 124 39
231 124 39
231 124 39
231 124 39
231 124 39
231 124 39
231 124 39
231 124 39
231 124 39
231 124 39
231 124 39
231 124 39
231 124 39
231 124 39
231 124 39
231 124 39
231 124 39
231 124 39
231 124 39
231 124 39
231 124 39
231 124 39
231 124 39
231 124 39
231 124 39
231 124 39
231 124 39
231 124 39
231 124 39
231 124 39
231 124 39
231 124 39
231 124 39
231 124 39
231 124 39
231 124 39
231 124 39
231 124 39
231 124 39
231 124 39
231 124 39
231 124 39
231 124 39
231 124 39
231 124 39
231 124 39
231 124 39
231 124 39
231 124 39
231 124 39
39 137 231
39 137 231
39 137 231
39 137 231
39 137 231
39 137 231
39 137 231
39 137 231
39 137 231
39 137 231
39 137 231
39 137 231
39 137 231
39 137 231
39 137 231
39 137 231
39 137 231
39 137 231
39 137 231
39 137 231
39 137 231
39 137 231
39 137 231
39 137 231
39 137 231
39 137 231
39 137 231
39 137 231
39 137 231
39 137 231
39 137 231
39 137 231
39 137 231
0 0 0
0 0 0
0 0 0
0 0 0
0 0 0
0 0 0
0 0 0
0 0 0
0 0 0
0 0 0
0 0 0
0 0 0
0 0 0
0 0 0
0 0 0
0 0 0
0 0 0
0 0 0
0 0 0
0 0 0
0 0 0
0 0 0
0 0 0
0 0 0
0 0 0
0 0 0
0 0 0
0 0 0
0 0 0
0 0 0
0 0 0
0 0 0
0 0 0
0 0 0
0 0 0
0 0 0
0 0 0
0 0 0
0 0 0
0 0 0
0 0 0
0 0 0
0 0 0
0 0 0
231 124 39
231 124 39
231 124 39
231 124 39
231 124 39
231 124 39
231 124 39
231 124 39
231 124 39
231 124 39
231 124 39
231 124 39
231 124 39
231 124 39
231 124 39
231 124 39
231 124 39
231 124 39
231 124 39
231 124 39
231 124 39
231 124 39
231 124 39
231 124 39
231 124 39
231 124 39
231 124 39
231 124 39
231 124 39
231 124 39
231 124 39
231 124 39
231 124 39
231 124 39
231 124 39
231 124 39
231 124 39
231 124 39
231 124 39
231 124 39
231 124 39
231 124 39
231 124 39
231 124 39
231 124 39
231 124 39
231 124 39
231 124 39
231 124 39
231 124 39
231 124 39
39 137 231
39 137 231
39 137 231
39 137 231
39 137 231
39 137 231
39 137 231
39 137 231
39 137 231
39 137 231
39 137 231
39 137 231
39 137 231
39 137 231
39 137 231
39 137 231
39 137 231
39 137 231
39 137 231
39 137 231
39 137 231
39 137 231
39 137 231
39 137 231
39 137 231
39 137 231
39 137 231
39 137 231
39 137 231
39 137 231
39 137 231
39 137 231
39 137 231
0 0 0
0 0 0
0 0 0
0 0 0
0 0 0
0 0 0
0 0 0
0 0 0
0 0 0
0 0 0
0 0 0
0 0 0
0 0 0
0 0 0
0 0 0
0 0 0
0 0 0
0 0 0
0 0 0
0 0 0
0 0 0
0 0 0
0 0 0
0 0 0
0 0 0
0 0 0
0 0 0
0 0 0
0 0 0
0 0 0
0 0 0
0 0 0
0 0 0
0 0 0
0 0 0
0 0 0
0 0 0
0 0 0
0 0 0
0 0 0
0 0 0
0 0 0
0 0 0
231 124 39
231 124 39
231 124 39
231 124 39
231 124 39
231 124 39
231 124 39
231 124 39
231 124 39
231 124 39
231 124 39
231 124 39
231 124 39
231 124 39
231 124 39
231 124 39
231 124 39
231 124 39
231 124 39
231 124 39
231 124 39
231 124 39
231 124 39
231 124 39
231 124 39
231 124 39
231 124 39
231 124 39
231 124 39
231 124 39
231 124 39
231 124 39
231 124 39
231 124 39
231 124 39
231 124 39
231 124 39
231 124 39
231 124 39
231 124 39
231 124 39
231 124 39
231 124 39
231 124 39
231 124 39
231 124 39
231 124 39
231 124 39
231 124 39
231 124 39
231 124 39
39 137 231
39 137 231
39 137 231
39 137 231
39 137 231
39 137 231
39 137 231
39 137 231
39 137 231
39 137 231
39 137 231
39 137 231
39 137 231
39 137 231
39 137 231
39 137 231
39 137 231
39 137 231
39 137 231
39 137 231
39 137 231
39 137 231
39 137 231
39 137 231
39 137 231
39 137 231
39 137 231
39 137 231
39 137 231
39 137 231
39 137 231
39 137 231
39 137 231
39 137 231
39 137 231
0 0 0
0 0 0
0 0 0
0 0 0
0 0 0
0 0 0
0 0 0
0 0 0
0 0 0
0 0 0
0 0 0
0 0 0
0 0 0
0 0 0
0 0 0
0 0 0
0 0 0
0 0 0
0 0 0
0 0 0
0 0 0
0 0 0
0 0 0
0 0 0
0 0 0
0 0 0
0 0 0
0 0 0
0 0 0
0 0 0
0 0 0
0 0 0
0 0 0
0 0 0
0 0 0
0 0 0
0 0 0
0 0 0
0 0 0
0 0 0
0 0 0
0 0 0
231 124 39
231 124 39
231 124 39
231 124 39
231 124 39
231 124 39
231 124 39
231 124 39
231 124 39
231 124 39
231 124 39
231 124 39
231 124 39
231 124 39
231 124 39
231 124 39
231 124 39
231 124 39
231 124 39
231 124 39
231 124 39
231 124 39
231 124 39
231 124 39
231 124 39
231 124 39
231 124 39
231 124 39
231 124 39
231 124 39
231 124 39
231 124 39
231 124 39
231 124 39
231 124 39
231 124 39
231 124 39
231 124 39
231 124 39
231 124 39
231 124 39
231 124 39
231 124 39
231 124 39
231 124 39
231 124 39
231 124 39
231 124 39
231 124 39
231 124 39
231 124 39
39 137 231
39 137 231
39 137 231
39 137 231
39 137 231
39 137 231
39 137 231
39 137 231
39 137 231
39 137 231
39 137 231
39 137 231
39 137 231
39 137 231
39 137 231
39 137 231
39 137 231
39 137 231
39 137 231
39 137 231
39 137 231
39 137 231
39 137 231
39 137 231
39 137 231
39 137 231
39 137 231
39 137 231
39 137 231
39 137 231
39 137 231
39 137 231
39 137 231
39 137 231
39 137 231
0 0 0
0 0 0
0 0 0
0 0 0
0 0 0
0 0 0
0 0 0
0 0 0
0 0 0
0 0 0
0 0 0
0 0 0
0 0 0
0 0 0
0 0 0
0 0 0
0 0 0
0 0 0
0 0 0
0 0 0
0 0 0
0 0 0
0 0 0
0 0 0
0 0 0
0 0 0
0 0 0
0 0 0
0 0 0
0 0 0
0 0 0
0 0 0
0 0 0
0 0 0
0 0 0
0 0 0
0 0 0
0 0 0
0 0 0
0 0 0
0 0 0
231 124 39
231 124 39
231 124 39
231 124 39
231 124 39
231 124 39
231 124 39
231 124 39
231 124 39
231 124 39
231 124 39
231 124 39
231 124 39
231 124 39
231 124 39
231 124 39
231 124 39
231 124 39
231 124 39
231 124 39
231 124 39
231 124 39
231 124 39
231 124 39
231 124 39
231 124 39
231 124 39
231 124 39
231 124 39
231 124 39
231 124 39
231 124 39
231 124 39
231 124 39
231 124 39
231 124 39
231 124 39
231 124 39
231 124 39
231 124 39
231 124 39
231 124 39
231 124 39
231 124 39
231 124 39
231 124 39
231 124 39
231 124 39
231 124 39
231 124 39
231 124 39
39 137 231
39 137 231
39 137 231
39 137 231
39 137 231
39 137 231
39 137 231
39 137 231
39 137 231
39 137 231
39 137 231
39 137 231
39 137 231
39 137 231
39 137 231
39 137 231
39 137 231
39 137 231
39 137 231
39 137 231
39 137 231
39 137 231
39 137 231
39 137 231
39 137 231
39 137 231
39 137 231
39 137 231
39 137 231
39 137 231
39 137 231
39 137 231
39 137 231
39 137 231
39 137 231
39 137 231
39 137 231
0 0 0
0 0 0
0 0 0
0 0 0
0 0 0
0 0 0
0 0 0
0 0 0
0 0 0
0 0 0
0 0 0
0 0 0
0 0 0
0 0 0
0 0 0
0 0 0
0 0 0
0 0 0
0 0 0
0 0 0
0 0 0
0 0 0
0 0 0
0 0 0
0 0 0
0 0 0
0 0 0
0 0 0
0 0 0
0 0 0
0 0 0
0 0 0
0 0 0
0 0 0
0 0 0
0 0 0
0 0 0
0 0 0
0 0 0
0 0 0
231 124 39
231 124 39
231 124 39
231 124 39
231 124 39
231 124 39
231 124 39
231 124 39
231 124 39
231 124 39
231 124 39
231 124 39
231 124 39
231 124 39
231 124 39
231 124 39
231 124 39
231 124 39
231 124 39
231 124 39
231 124 39
231 124 39
231 124 39
231 124 39
231 124 39
231 124 39
231 124 39
231 124 39
231 124 39
231 124 39
231 124 39
231 124 39
231 124 39
231 124 39
231 124 39
231 124 39
231 124 39
231 124 39
231 124 39
231 124 39
231 124 39
231 124 39
231 124 39
231 124 39
231 124 39
231 124 39
231 124 39
231 124 39
231 124 39
231 124 39
231 124 39
39 137 231
39 137 231
39 137 231
39 137 231
39 137 231
39 137 231
39 137 231
39 137 231
39 137 231
39 137 231
39 137 231
39 137 231
39 137 231
39 137 231
39 137 231
39 137 231
39 137 231
39 137 231
39 137 231
39 137 231
39 137 231
39 137 231
39 137 231
39 137 231
39 137 231
39 137 231
39 137 231
39 137 231
39 137 231
39 137 231
39 137 231
39 137 231
39 137 231
39 137 231
39 137 231
39 137 231
39 137 231
0 0 0
0 0 0
0 0 0
0 0 0
0 0 0
0 0 0
0 0 0
0 0 0
0 0 0
0 0 0
0 0 0
0 0 0
0 0 0
0 0 0
0 0 0
0 0 0
0 0 0
0 0 0
0 0 0
0 0 0
0 0 0
0 0 0
0 0 0
0 0 0
0 0 0
0 0 0
0 0 0
0 0 0
0 0 0
0 0 0
0 0 0
0 0 0
0 0 0
0 0 0
0 0 0
0 0 0
0 0 0
0 0 0
0 0 0
231 124 39
231 124 39
231 124 39
231 124 39
231 124 39
231 124 39
231 124 39
231 124 39
231 124 39
231 124 39
231 124 39
231 124 39
231 124 39
231 124 39
231 124 39
231 124 39
231 124 39
231 124 39
231 124 39
231 124 39
231 124 39
231 124 39
231 124 39
231 124 39
231 124 39
231 124 39
231 124 39
231 124 39
231 124 39
231 124 39
231 124 39
231 124 39
231 124 39
231 124 39
231 124 39
231 124 39
231 124 39
231 124 39
231 124 39
231 124 39
231 124 39
231 124 39
231 124 39
231 124 39
231 124 39
231 124 39
231 124 39
231 124 39
231 124 39
231 124 39
231 124 39
39 137 231
39 137 231
39 137 231
39 137 231
39 137 231
39 137 231
39 137 231
39 137 231
39 137 231
39 137 231
39 137 231
39 137 231
39 137 231
39 137 231
39 137 231
39 137 231
39 137 231
39 137 231
39 137 231
39 137 231
39 137 231
39 137 231
39 137 231
39 137 231
39 137 231
39 137 231
39 137 231
39 137 231
39 137 231
39 137 231
39 137 231
39 137 231
39 137 231
39 137 231
39 137 231
39 137 231
39 137 231
39 137 231
39 137 231
0 0 0
0 0 0
0 0 0
0 0 0
0 0 0
0 0 0
0 0 0
0 0 0
0 0 0
0 0 0
0 0 0
0 0 0
0 0 0
0 0 0
0 0 0
0 0 0
0 0 0
0 0 0
0 0 0
0 0 0
0 0 0
0 0 0
0 0 0
0 0 0
0 0 0
0 0 0
0 0 0
0 0 0
0 0 0
0 0 0
0 0 0
0 0 0
0 0 0
0 0 0
0 0 0
0 0 0
0 0 0
0 0 0
231 124 39
231 124 39
231 124 39
231 124 39
231 124 39
231 124 39
231 124 39
231 124 39
231 124 39
231 124 39
231 124 39
231 124 39
231 124 39
231 124 39
231 124 39
231 124 39
231 124 39
231 124 39
231 124 39
231 124 39
231 124 39
231 124 39
231 124 39
231 124 39
231 124 39
231 124 39
231 124 39
231 124 39
231 124 39
231 124 39
231 124 39
231 124 39
231 124 39
231 124 39
231 124 39
231 124 39
231 124 39
231 124 39
231 124 39
231 124 39
231 124 39
231 124 39
231 124 39
231 124 39
231 124 39
231 124 39
231 124 39
231 124 39
231 124 39
231 124 39
231 124 39
39 137 231
39 137 231
39 137 231
39 137 231
39 137 231
39 137 231
39 137 231
39 137 231
39 137 231
39 137 231
39 137 231
39 137 231
39 137 231
39 137 231
39 137 231
39 137 231
39 137 231
39 137 231
39 137 231
39 137 231
39 137 231
39 137 231
39 137 231
39 137 231
39 137 231
39 137 231
39 137 231
39 137 231
39 137 231
39 137 231
39 137 231
39 137 231
39 137 231
39 137 231
39 137 231
39 137 231
39 137 231
39 137 231
39 137 231
0 0 0
0 0 0
0 0 0
0 0 0
0 0 0
0 0 0
0 0 0
0 0 0
0 0 0
0 0 0
0 0 0
0 0 0
0 0 0
0 0 0
0 0 0
0 0 0
0 0 0
0 0 0
0 0 0
0 0 0
0 0 0
0 0 0
0 0 0
0 0 0
0 0 0
0 0 0
0 0 0
0 0 0
0 0 0
0 0 0
0 0 0
0 0 0
0 0 0
0 0 0
0 0 0
0 0 0
0 0 0
231 124 39
231 124 39
231 124 39
231 124 39
231 124 39
231 124 39
231 124 39
231 124 39
231 124 39
231 124 39
231 124 39
231 124 39
231 124 39
231 124 39
231 124 39
231 124 39
231 124 39
231 124 39
231 124 39
231 124 39
231 124 39
231 124 39
231 124 39
231 124 39
231 124 39
231 124 39
231 124 39
231 124 39
231 124 39
231 124 39
231 124 39
231 124 39
231 124 39
231 124 39
231 124 39
231 124 39
231 124 39
231 124 39
231 124 39
231 124 39
231 124 39
231 124 39
231 124 39
231 124 39
231 124 39
231 124 39
231 124 39
231 124 39
231 124 39
231 124 39
231 124 39
39 137 231
39 137 231
39 137 231
39 137 231
39 137 231
39 137 231
39 137 231
39 137 231
39 137 231
39 137 231
39 137 231
39 137 231
39 137 231
39 137 231
39 137 231
39 137 231
39 137 231
39 137 231
39 137 231
39 137 231
39 137 231
39 137 231
39 137 231
39 137 231
39 137 231
39 137 231
39 137 231
39 137 231
39 137 231
39 137 231
39 137 231
39 137 231
39 137 231
39 137 231
39 137 231
39 137 231
39 137 231
39 137 231
39 137 231
39 137 231
39 137 231
0 0 0
0 0 0
0 0 0
0 0 0
0 0 0
0 0 0
0 0 0
0 0 0
0 0 0
0 0 0
0 0 0
0 0 0
0 0 0
0 0 0
0 0 0
0 0 0
0 0 0
0 0 0
0 0 0
0 0 0
0 0 0
0 0 0
0 0 0
0 0 0
0 0 0
0 0 0
0 0 0
0 0 0
0 0 0
0 0 0
0 0 0
0 0 0
0 0 0
0 0 0
0 0 0
0 0 0
231 124 39
231 124 39
231 124 39
231 124 39
231 124 39
231 124 39
231 124 39
231 124 39
231 124 39
231 124 39
231 124 39
231 124 39
231 124 39
231 124 39
231 124 39
231 124 39
231 124 39
231 124 39
231 124 39
231 124 39
231 124 39
231 124 39
231 124 39
231 124 39
231 124 39
231 124 39
231 124 39
231 124 39
231 124 39
231 124 39
231 124 39
231 124 39
231 124 39
231 124 39
231 124 39
231 124 39
231 124 39
231 124 39
231 124 39
231 124 39
231 124 39
231 124 39
231 124 39
231 124 39
231 124 39
231 124 39
231 124 39
231 124 39
231 124 39
231 124 39
231 124 39
39 137 231
39 137 231
39 137 231
39 137 231
39 137 231
39 137 231
39 137 231
39 137 231
39 137 231
39 137 231
39 137 231
39 137 231
39 137 231
39 137 231
39 137 231
39 137 231
39 137 231
39 137 231
39 137 231
39 137 231
39 137 231
39 137 231
39 137 231
39 137 231
39 137 231
39 137 231
39 137 231
39 137 231
39 137 231
39 137 231
39 137 231
39 137 231
39 137 231
39 137 231
39 137 231
39 137 231
39 137 231
39 137 231
39 137 231
39 137 231
39 137 231
0 0 0
0 0 0
0 0 0
0 0 0
0 0 0
0 0 0
0 0 0
0 0 0
0 0 0
0 0 0
0 0 0
0 0 0
0 0 0
0 0 0
0 0 0
0 0 0
0 0 0
0 0 0
0 0 0
0 0 0
0 0 0
0 0 0
0 0 0
0 0 0
0 0 0
0 0 0
0 0 0
0 0 0
0 0 0
0 0 0
0 0 0
0 0 0
0 0 0
0 0 0
0 0 0
231 124 39
231 124 39
231 124 39
231 124 39
231 124 39
231 124 39
231 124 39
231 124 39
231 124 39
231 124 39
231 124 39
231 124 39
231 124 39
231 124 39
231 124 39
231 124 39
231 124 39
231 124 39
231 124 39
231 124 39
231 124 39
231 124 39
231 124 39
231 124 39
231 124 39
231 124 39
231 124 39
231 124 39
231 124 39
231 124 39
231 124 39
231 124 39
231 124 39
231 124 39
231 124 39
231 124 39
231 124 39
231 124 39
231 124 39
231 124 39
231 124 39
231 124 39
231 124 39
231 124 39
231 124 39
231 124 39
231 124 39
231 124 39
231 124 39
231 124 39
231 124 39
39 137 231
39 137 231
39 137 231
39 137 231
39 137 231
39 137 231
39 137 231
39 137 231
39 137 231
39 137 231
39 137 231
39 137 231
39 137 231
39 137 231
39 137 231
39 137 231
39 137 231
39 137 231
39 137 231
39 137 231
39 137 231
39 137 231
39 137 231
39 137 231
39 137 231
39 137 231
39 137 231
39 137 231
39 137 231
39 137 231
39 137 231
39 137 231
39 137 231
39 137 231
39 137 231
39 137 231
39 137 231
39 137 231
39 137 231
39 137 231
39 137 231
39 137 231
39 137 231
0 0 0
0 0 0
0 0 0
0 0 0
0 0 0
0 0 0
0 0 0
0 0 0
0 0 0
0 0 0
0 0 0
0 0 0
0 0 0
0 0 0
0 0 0
0 0 0
0 0 0
0 0 0
0 0 0
0 0 0
0 0 0
0 0 0
0 0 0
0 0 0
0 0 0
0 0 0
0 0 0
0 0 0
0 0 0
0 0 0
0 0 0
0 0 0
0 0 0
0 0 0
231 124 39
231 124 39
231 124 39
231 124 39
231 124 39
231 124 39
231 124 39
231 124 39
231 124 39
231 124 39
231 124 39
231 124 39
231 124 39
231 124 39
231 124 39
231 124 39
231 124 39
231 124 39
231 124 39
231 124 39
231 124 39
231 124 39
231 124 39
231 124 39
231 124 39
231 124 39
231 124 39
231 124 39
231 124 39
231 124 39
231 124 39
231 124 39
231 124 39
231 124 39
231 124 39
231 124 39
231 124 39
231 124 39
231 124 39
231 124 39
231 124 39
231 124 39
231 124 39
231 124 39
231 124 39
231 124 39
231 124 39
231 124 39
231 124 39
231 124 39
231 124 39
39 137 231
39 137 231
39 137 231
39 137 231
39 137 231
39 137 231
39 137 231
39 137 231
39 137 231
39 137 231
39 137 231
39 137 231
39 137 231
39 137 231
39 137 231
39 137 231
39 137 231
39 137 231
39 137 231
39 137 231
39 137 231
39 137 231
39 137 231
39 137 231
39 137 231
39 137 231
39 137 231
39 137 231
39 137 231
39 137 231
39 137 231
39 137 231
39 137 231
39 137 231
39 137 231
39 137 231
39 137 231
39 137 231
39 137 231
39 137 231
39 137 231
39 137 231
39 137 231
0 0 0
0 0 0
0 0 0
0 0 0
0 0 0
0 0 0
0 0 0
0 0 0
0 0 0
0 0 0
0 0 0
0 0 0
0 0 0
0 0 0
0 0 0
0 0 0
0 0 0
0 0 0
0 0 0
0 0 0
0 0 0
0 0 0
0 0 0
0 0 0
0 0 0
0 0 0
0 0 0
0 0 0
0 0 0
0 0 0
0 0 0
0 0 0
0 0 0
231 124 39
231 124 39
231 124 39
231 124 39
231 124 39
231 124 39
231 124 39
231 124 39
231 124 39
231 124 39
231 124 39
231 124 39
231 124 39
231 124 39
231 124 39
231 124 39
231 124 39
231 124 39
231 124 39
231 124 39
231 124 39
231 124 39
231 124 39
231 124 39
231 124 39
231 124 39
231 124 39
231 124 39
231 124 39
231 124 39
231 124 39
231 124 39
231 124 39
231 124 39
231 124 39
231 124 39
231 124 39
231 124 39
231 124 39
231 124 39
231 124 39
231 124 39
231 124 39
231 124 39
231 124 39
231 124 39
231 124 39
231 124 39
231 124 39
231 124 39
231 124 39
39 137 231
39 137 231
39 137 231
39 137 231
39 137 231
39 137 231
39 137 231
39 137 231
39 137 231
39 137 231
39 137 231
39 137 231
39 137 231
39 137 231
39 137 231
39 137 231
39 137 231
39 137 231
39 137 231
39 137 231
39 137 231
39 137 231
39 137 231
39 137 231
39 137 231
39 137 231
39 137 231
39 137 231
39 137 231
39 137 231
39 137 231
39 137 231
39 137 231
39 137 231
39 137 231
39 137 231
39 137 231
39 137 231
39 137 231
39 137 231
39 137 231
39 137 231
39 137 231
39 137 231
39 137 231
0 0 0
0 0 0
0 0 0
0 0 0
0 0 0
0 0 0
0 0 0
0 0 0
0 0 0
0 0 0
0 0 0
0 0 0
0 0 0
0 0 0
0 0 0
0 0 0
0 0 0
0 0 0
0 0 0
0 0 0
0 0 0
0 0 0
0 0 0
0 0 0
0 0 0
0 0 0
0 0 0
0 0 0
0 0 0
0 0 0
0 0 0
0 0 0
231 124 39
231 124 39
231 124 39
231 124 39
231 124 39
231 124 39
231 124 39
231 124 39
231 124 39
231 124 39
231 124 39
231 124 39
231 124 39
231 124 39
231 124 39
231 124 39
231 124 39
231 124 39
231 124 39
231 124 39
231 124 39
231 124 39
231 124 39
231 124 39
231 124 39
231 124 39
231 124 39
231 124 39
231 124 39
231 124 39
231 124 39
231 124 39
231 124 39
231 124 39
231 124 39
231 124 39
231 124 39
231 124 39
231 124 39
231 124 39
231 124 39
231 124 39
231 124 39
231 124 39
231 124 39
231 124 39
231 124 39
231 124 39
231 124 39
231 124 39
231 124 39
39 137 231
39 137 231
39 137 231
39 137 231
39 137 231
39 137 231
39 137 231
39 137 231
39 137 231
39 137 231
39 137 231
39 137 231
39 137 231
39 137 231
39 137 231
39 137 231
39 137 231
39 137 231
39 137 231
39 137 231
39 137 231
39 137 231
39 137 231
39 137 231
39 137 231
39 137 231
39 137 231
39 137 231
39 137 231
39 137 231
39 137 231
39 137 231
39 137 231
39 137 231
39 137 231
39 137 231
39 137 231
39 137 231
39 137 231
39 137 231
39 137 231
39 137 231
39 137 231
39 137 231
39 137 231
0 0 0
0 0 0
0 0 0
0 0 0
0 0 0
0 0 0
0 0 0
0 0 0
0 0 0
0 0 0
0 0 0
0 0 0
0 0 0
0 0 0
0 0 0
0 0 0
0 0 0
0 0 0
0 0 0
0 0 0
0 0 0
0 0 0
0 0 0
0 0 0
0 0 0
0 0 0
0 0 0
0 0 0
0 0 0
0 0 0
0 0 0
231 124 39
231 124 39
231 124 39
231 124 39
231 124 39
231 124 39
231 124 39
231 124 39
231 124 39
231 124 39
231 124 39
231 124 39
231 124 39
231 124 39
231 124 39
231 124 39
231 124 39
231 124 39
231 124 39
231 124 39
231 124 39
231 124 39
231 124 39
231 124 39
231 124 39
231 124 39
231 124 39
231 124 39
231 124 39
231 124 39
231 124 39
231 124 39
231 124 39
231 124 39
231 124 39
231 124 39
231 124 39
231 124 39
231 124 39
231 124 39
231 124 39
231 124 39
231 124 39
231 124 39
231 124 39
231 124 39
231 124 39
231 124 39
231 124 39
231 124 39
231 124 39
39 137 231
39 137 231
39 137 231
39 137 231
39 137 231
39 137 231
39 137 231
39 137 231
39 137 231
39 137 231
39 137 231
39 137 231
39 137 231
39 137 231
39 137 231
39 137 231
39 137 231
39 137 231
39 137 231
39 137 231
39 137 231
39 137 231
39 137 231
39 137 231
39 137 231
39 137 231
39 137 231
39 137 231
39 137 231
39 137 231
39 137 231
39 137 231
39 137 231
39 137 231
39 137 231
39 137 231
39 137 231
39 137 231
39 137 231
39 137 231
39 137 231
39 137 231
39 137 231
39 137 231
39 137 231
39 137 231
39 137 231
0 0 0
0 0 0
0 0 0
0 0 0
0 0 0
0 0 0
0 0 0
0 0 0
0 0 0
0 0 0
0 0 0
0 0 0
0 0 0
0 0 0
0 0 0
0 0 0
0 0 0
0 0 0
0 0 0
0 0 0
0 0 0
0 0 0
0 0 0
0 0 0
0 0 0
0 0 0
0 0 0
0 0 0
0 0 0
0 0 0
231 124 39
231 124 39
231 124 39
231 124 39
231 124 39
231 124 39
231 124 39
231 124 39
231 124 39
231 124 39
231 124 39
231 124 39
231 124 39
231 124 39
231 124 39
231 124 39
231 124 39
231 124 39
231 124 39
231 124 39
231 124 39
231 124 39
231 124 39
231 124 39
231 124 39
231 124 39
231 124 39
231 124 39
231 124 39
231 124 39
231 124 39
231 124 39
231 124 39
231 124 39
231 124 39
231 124 39
231 124 39
231 124 39
231 124 39
231 124 39
231 124 39
231 124 39
231 124 39
231 124 39
231 124 39
231 124 39
231 124 39
231 124 39
231 124 39
231 124 39
231 124 39
39 137 231
39 137 231
39 137 231
39 137 231
39 137 231
39 137 231
39 137 231
39 137 231
39 137 231
39 137 231
39 137 231
39 137 231
39 137 231
39 137 231
39 137 231
39 137 231
39 137 231
39 137 231
39 137 231
39 137 231
39 137 231
39 137 231
39 137 231
39 137 231
39 137 231
39 137 231
39 137 231
39 137 231
39 137 231
39 137 231
39 137 231
39 137 231
39 137 231
39 137 231
39 137 231
39 137 231
39 137 231
39 137 231
39 137 231
39 137 231
39 137 231
39 137 231
39 137 231
39 137 231
39 137 231
39 137 231
39 137 231
0 0 0
0 0 0
0 0 0
0 0 0
0 0 0
0 0 0
0 0 0
0 0 0
0 0 0
0 0 0
0 0 0
0 0 0
0 0 0
0 0 0
0 0 0
0 0 0
0 0 0
0 0 0
0 0 0
0 0 0
0 0 0
0 0 0
0 0 0
0 0 0
0 0 0
0 0 0
0 0 0
0 0 0
0 0 0
231 124 39
231 124 39
231 124 39
231 124 39
231 124 39
231 124 39
231 124 39
231 124 39
231 124 39
231 124 39
231 124 39
231 124 39
231 124 39
231 124 39
231 124 39
231 124 39
231 124 39
231 124 39
231 124 39
231 124 39
231 124 39
231 124 39
231 124 39
231 124 39
231 124 39
231 124 39
231 124 39
231 124 39
231 124 39
231 124 39
231 124 39
231 124 39
231 124 39
231 124 39
231 124 39
231 124 39
231 124 39
231 124 39
231 124 39
231 124 39
231 124 39
231 124 39
231 124 39
231 124 39
231 124 39
231 124 39
231 124 39
231 124 39
231 124 39
231 124 39
231 124 39
39 137 231
39 137 231
39 137 231
39 137 231
39 137 231
39 137 231
39 137 231
39 137 231
39 137 231
39 137 231
39 137 231
39 137 231
39 137 231
39 137 231
39 137 231
39 137 231
39 137 231
39 137 231
39 137 231
39 137 231
39 137 231
39 137 231
39 137 231
39 137 231
39 137 231
39 137 231
39 137 231
39 137 231
39 137 231
39 137 231
39 137 231
39 137 231
39 137 231
39 137 231
39 137 231
39 137 231
39 137 231
39 137 231
39 137 231
39 137 231
39 137 231
39 137 231
39 137 231
39 137 231
39 137 231
39 137 231
39 137 231
39 137 231
39 137 231
0 0 0
0 0 0
0 0 0
0 0 0
0 0 0
0 0 0
0 0 0
0 0 0
0 0 0
0 0 0
0 0 0
0 0 0
0 0 0
0 0 0
0 0 0
0 0 0
0 0 0
0 0 0
0 0 0
0 0 0
0 0 0
0 0 0
0 0 0
0 0 0
0 0 0
0 0 0
0 0 0
0 0 0
231 124 39
231 124 39
231 124 39
231 124 39
231 124 39
231 124 39
231 124 39
231 124 39
231 124 39
231 124 39
231 124 39
231 124 39
231 124 39
231 124 39
231 124 39
231 124 39
231 124 39
231 124 39
231 124 39
231 124 39
231 124 39
231 124 39
231 124 39
231 124 39
231 124 39
231 124 39
231 124 39
231 124 39
231 124 39
231 124 39
231 124 39
231 124 39
231 124 39
231 124 39
231 124 39
231 124 39
231 124 39
231 124 39
231 124 39
231 124 39
231 124 39
231 124 39
231 124 39
231 124 39
231 124 39
231 124 39
231 124 39
231 124 39
231 124 39
231 124 39
231 124 39
39 137 231
39 137 231
39 137 231
39 137 231
39 137 231
39 137 231
39 137 231
39 137 231
39 137 231
39 137 231
39 137 231
39 137 231
39 137 231
39 137 231
39 137 231
39 137 231
39 137 231
39 137 231
39 137 231
39 137 231
39 137 231
39 137 231
39 137 231
39 137 231
39 137 231
39 137 231
39 137 231
39 137 231
39 137 231
39 137 231
39 137 231
39 137 231
39 137 231
39 137 231
39 137 231
39 137 231
39 137 231
39 137 231
39 137 231
39 137 231
39 137 231
39 137 231
39 137 231
39 137 231
39 137 231
39 137 231
39 137 231
39 137 231
39 137 231
0 0 0
0 0 0
0 0 0
0 0 0
0 0 0
0 0 0
0 0 0
0 0 0
0 0 0
0 0 0
0 0 0
0 0 0
0 0 0
0 0 0
0 0 0
0 0 0
0 0 0
0 0 0
0 0 0
0 0 0
0 0 0
0 0 0
0 0 0
0 0 0
0 0 0
0 0 0
0 0 0
231 124 39
231 124 39
231 124 39
231 124 39
231 124 39
231 124 39
231 124 39
231 124 39
231 124 39
231 124 39
231 124 39
231 124 39
231 124 39
231 124 39
231 124 39
231 124 39
231 124 39
231 124 39
231 124 39
231 124 39
231 124 39
231 124 39
231 124 39
231 124 39
231 124 39
231 124 39
231 124 39
231 124 39
231 124 39
231 124 39
231 124 39
231 124 39
231 124 39
231 124 39
231 124 39
231 124 39
231 124 39
231 124 39
231 124 39
231 124 39
231 124 39
231 124 39
231 124 39
231 124 39
231 124 39
231 124 39
231 124 39
231 124 39
231 124 39
231 124 39
231 124 39
39 137 231
39 137 231
39 137 231
39 137 231
39 137 231
39 137 231
39 137 231
39 137 231
39 137 231
39 137 231
39 137 231
39 137 231
39 137 231
39 137 231
39 137 231
39 137 231
39 137 231
39 137 231
39 137 231
39 137 231
39 137 231
39 137 231
39 137 231
39 137 231
39 137 231
39 137 231
39 137 231
39 137 231
39 137 231
39 137 231
39 137 231
39 137 231
39 137 231
39 137 231
39 137 231
39 137 231
39 137 231
39 137 231
39 137 231
39 137 231
39 137 231
39 137 231
39 137 231
39 137 231
39 137 231
39 137 231
39 137 231
39 137 231
39 137 231
39 137 231
39 137 231
0 0 0
0 0 0
0 0 0
0 0 0
0 0 0
0 0 0
0 0 0
0 0 0
0 0 0
0 0 0
0 0 0
0 0 0
0 0 0
0 0 0
0 0 0
0 0 0
0 0 0
0 0 0
0 0 0
0 0 0
0 0 0
0 0 0
0 0 0
0 0 0
0 0 0
0 0 0
0 0 0
0 0 0
0 0 0
0 0 0
0 0 0
0 0 0
0 0 0
0 0 0
0 0 0
0 0 0
0 0 0
0 0 0
0 0 0
0 0 0
0 0 0
0 0 0
0 0 0
0 0 0
0 0 0
0 0 0
0 0 0
0 0 0
0 0 0
0 0 0
0 0 0
0 0 0
0 0 0
0 0 0
0 0 0
0 0 0
0 0 0
0 0 0
0 0 0
0 0 0
0 0 0
0 0 0
0 0 0
0 0 0
0 0 0
0 0 0
0 0 0
0 0 0
0 0 0
0 0 0
0 0 0
0 0 0
0 0 0
0 0 0
0 0 0
0 0 0
0 0 0
0 0 0
0 0 0
0 0 0
0 0 0
0 0 0
0 0 0
0 0 0
0 0 0
0 0 0
0 0 0
0 0 0
0 0 0
0 0 0
0 0 0
0 0 0
0 0 0
0 0 0
0 0 0
0 0 0
0 0 0
0 0 0
0 0 0
0 0 0
0 0 0
0 0 0
0 0 0
0 0 0
0 0 0
0 0 0
0 0 0
0 0 0
0 0 0
0 0 0
0 0 0
0 0 0
0 0 0
0 0 0
0 0 0
0 0 0
0 0 0
0 0 0
0 0 0
0 0 0
0 0 0
0 0 0
0 0 0
0 0 0
0 0 0
0 0 0
0 0 0
0 0 0
0 0 0
0 0 0
0 0 0
0 0 0
0 0 0
0 0 0
0 0 0
0 0 0
0 0 0
0 0 0
0 0 0
0 0 0
0 0 0
0 0 0
0 0 0
0 0 0
0 0 0
0 0 0
0 0 0
0 0 0
0 0 0
0 0 0
0 0 0
0 0 0
0 0 0
0 0 0
0 0 0
0 0 0
0 0 0
0 0 0
0 0 0
0 0 0
0 0 0
0 0 0
0 0 0
0 0 0
0 0 0
0 0 0
0 0 0
0 0 0
0 0 0
0 0 0
0 0 0
0 0 0
0 0 0
0 0 0
0 0 0
0 0 0
0 0 0
0 0 0
0 0 0
0 0 0
0 0 0
0 0 0
0 0 0
0 0 0
0 0 0
0 0 0
0 0 0
0 0 0
0 0 0
0 0 0
0 0 0
0 0 0
0 0 0
0 0 0
0 0 0
0 0 0
0 0 0
0 0 0
0 0 0
0 0 0
0 0 0
0 0 0
0 0 0
0 0 0
0 0 0
0 0 0
0 0 0
0 0 0
0 0 0
0 0 0
0 0 0
0 0 0
0 0 0
0 0 0
0 0 0
0 0 0
0 0 0
0 0 0
0 0 0
0 0 0
0 0 0
0 0 0
0 0 0
0 0 0
0 0 0
0 0 0
0 0 0
0 0 0
0 0 0
0 0 0
0 0 0
0 0 0
0 0 0
0 0 0
0 0 0
0 0 0
0 0 0
0 0 0
0 0 0
0 0 0
0 0 0
0 0 0
0 0 0
0 0 0
0 0 0
0 0 0
0 0 0
0 0 0
0 0 0
0 0 0
0 0 0
0 0 0
0 0 0
0 0 0
0 0 0
0 0 0
0 0 0
0 0 0
0 0 0
0 0 0
0 0 0
0 0 0
0 0 0
0 0 0
0 0 0
0 0 0
0 0 0
0 0 0
0 0 0
0 0 0
0 0 0
0 0 0
0 0 0
0 0 0
0 0 0
0 0 0
0 0 0
0 0 0
0 0 0
0 0 0
0 0 0
0 0 0
0 0 0
0 0 0
0 0 0
0 0 0
0 0 0
0 0 0
0 0 0
0 0 0
0 0 0
0 0 0
0 0 0
0 0 0
0 0 0
0 0 0
0 0 0
0 0 0
0 0 0
0 0 0
0 0 0
0 0 0
0 0 0
0 0 0
0 0 0
0 0 0
0 0 0
0 0 0
0 0 0
0 0 0
0 0 0
0 0 0
0 0 0
0 0 0
0 0 0
0 0 0
0 0 0
0 0 0
0 0 0
0 0 0
0 0 0
0 0 0
0 0 0
0 0 0
0 0 0
0 0 0
0 0 0
0 0 0
0 0 0
0 0 0
0 0 0
0 0 0
0 0 0
0 0 0
0 0 0
0 0 0
0 0 0
0 0 0
0 0 0
0 0 0
0 0 0
0 0 0
0 0 0
0 0 0
0 0 0
0 0 0
0 0 0
0 0 0
0 0 0
0 0 0
0 0 0
0 0 0
0 0 0
0 0 0
0 0 0
0 0 0
0 0 0
0 0 0
0 0 0
0 0 0
0 0 0
0 0 0
0 0 0
0 0 0
0 0 0
0 0 0
0 0 0
0 0 0
0 0 0
0 0 0
0 0 0
0 0 0
0 0 0
0 0 0
0 0 0
0 0 0
0 0 0
0 0 0
0 0 0
0 0 0
0 0 0
0 0 0
0 0 0
0 0 0
0 0 0
0 0 0
0 0 0
0 0 0
0 0 0
0 0 0
0 0 0
0 0 0
0 0 0
0 0 0
0 0 0
0 0 0
0 0 0
0 0 0
0 0 0
0 0 0
0 0 0
0 0 0
0 0 0
0 0 0
0 0 0
0 0 0
0 0 0
0 0 0
0 0 0
0 0 0
0 0 0
0 0 0
0 0 0
0 0 0
0 0 0
0 0 0
0 0 0
0 0 0
0 0 0
0 0 0
0 0 0
0 0 0
0 0 0
0 0 0
0 0 0
0 0 0
0 0 0
0 0 0
0 0 0
0 0 0
0 0 0
0 0 0
0 0 0
0 0 0
0 0 0
0 0 0
0 0 0
0 0 0
0 0 0
0 0 0
0 0 0
0 0 0
0 0 0
0 0 0
0 0 0
0 0 0
0 0 0
0 0 0
0 0 0
0 0 0
0 0 0
0 0 0
0 0 0
0 0 0
0 0 0
0 0 0
0 0 0
0 0 0
0 0 0
0 0 0
0 0 0
0 0 0
0 0 0
0 0 0
0 0 0
0 0 0
0 0 0
0 0 0
0 0 0
0 0 0
0 0 0
0 0 0
0 0 0
0 0 0
0 0 0
0 0 0
0 0 0
0 0 0
0 0 0
0 0 0
0 0 0
0 0 0
0 0 0
0 0 0
0 0 0
0 0 0
0 0 0
0 0 0
0 0 0
0 0 0
0 0 0
0 0 0
0 0 0
0 0 0
0 0 0
0 0 0
0 0 0
0 0 0
0 0 0
0 0 0
0 0 0
0 0 0
0 0 0
0 0 0
0 0 0
0 0 0
0 0 0
0 0 0
0 0 0
0 0 0
0 0 0
0 0 0
0 0 0
0 0 0
0 0 0
0 0 0
0 0 0
0 0 0
0 0 0
0 0 0
0 0 0
0 0 0
0 0 0
0 0 0
0 0 0
0 0 0
0 0 0
0 0 0
0 0 0
0 0 0
0 0 0
0 0 0
0 0 0
0 0 0
0 0 0
0 0 0
0 0 0
0 0 0
0 0 0
0 0 0
0 0 0
0 0 0
0 0 0
0 0 0
0 0 0
0 0 0
0 0 0
0 0 0
0 0 0
0 0 0
0 0 0
0 0 0
0 0 0
0 0 0
0 0 0
0 0 0
0 0 0
0 0 0
0 0 0
0 0 0
0 0 0
0 0 0
0 0 0
0 0 0
0 0 0
0 0 0
0 0 0
0 0 0
0 0 0
0 0 0
0 0 0
0 0 0
0 0 0
0 0 0
0 0 0
0 0 0
0 0 0
0 0 0
0 0 0
0 0 0
0 0 0
0 0 0
0 0 0
0 0 0
0 0 0
0 0 0
0 0 0
0 0 0
0 0 0
0 0 0
0 0 0
0 0 0
0 0 0
0 0 0
0 0 0
0 0 0
0 0 0
0 0 0
0 0 0
0 0 0
0 0 0
0 0 0
0 0 0
0 0 0
0 0 0
0 0 0
0 0 0
0 0 0
0 0 0
0 0 0
0 0 0
0 0 0
0 0 0
0 0 0
0 0 0
0 0 0
0 0 0
0 0 0
0 0 0
0 0 0
0 0 0
0 0 0
0 0 0
0 0 0
0 0 0
0 0 0
0 0 0
0 0 0
0 0 0
0 0 0
0 0 0
0 0 0
0 0 0
0 0 0
0 0 0
0 0 0
0 0 0
0 0 0
0 0 0
0 0 0
0 0 0
0 0 0
0 0 0
0 0 0
0 0 0
0 0 0
0 0 0
0 0 0
0 0 0
0 0 0
0 0 0
0 0 0
0 0 0
0 0 0
0 0 0
0 0 0
0 0 0
0 0 0
0 0 0
0 0 0
0 0 0
0 0 0
0 0 0
0 0 0
0 0 0
0 0 0
0 0 0
0 0 0
0 0 0
0 0 0
0 0 0
0 0 0
0 0 0
0 0 0
0 0 0
0 0 0
0 0 0
0 0 0
0 0 0
0 0 0
0 0 0
0 0 0
0 0 0
0 0 0
0 0 0
0 0 0
0 0 0
0 0 0
0 0 0
0 0 0
0 0 0
0 0 0
0 0 0
0 0 0
0 0 0
0 0 0
0 0 0
0 0 0
0 0 0
0 0 0
0 0 0
0 0 0
0 0 0
0 0 0
0 0 0
0 0 0
0 0 0
0 0 0
0 0 0
0 0 0
0 0 0
0 0 0
0 0 0
0 0 0
0 0 0
0 0 0
0 0 0
0 0 0
0 0 0
0 0 0
0 0 0
0 0 0
0 0 0
0 0 0
0 0 0
0 0 0
0 0 0
0 0 0
0 0 0
0 0 0
0 0 0
0 0 0
0 0 0
0 0 0
0 0 0
0 0 0
0 0 0
0 0 0
0 0 0
0 0 0
0 0 0
0 0 0
0 0 0
0 0 0
0 0 0
0 0 0
0 0 0
0 0 0
0 0 0
0 0 0
0 0 0
0 0 0
0 0 0
0 0 0
0 0 0
0 0 0
0 0 0
0 0 0
0 0 0
0 0 0
0 0 0
0 0 0
0 0 0
0 0 0
0 0 0
0 0 0
0 0 0
0 0 0
0 0 0
0 0 0
0 0 0
0 0 0
0 0 0
0 0 0
0 0 0
0 0 0
0 0 0
0 0 0
0 0 0
0 0 0
0 0 0
0 0 0
0 0 0
0 0 0
0 0 0
0 0 0
0 0 0
0 0 0
0 0 0
0 0 0
0 0 0
0 0 0
0 0 0
0 0 0
0 0 0
0 0 0
0 0 0
0 0 0
0 0 0
0 0 0
0 0 0
0 0 0
0 0 0
0 0 0
0 0 0
0 0 0
0 0 0
0 0 0
0 0 0
0 0 0
0 0 0
0 0 0
0 0 0
0 0 0
0 0 0
0 0 0
0 0 0
0 0 0
0 0 0
0 0 0
0 0 0
0 0 0
0 0 0
0 0 0
0 0 0
0 0 0
0 0 0
0 0 0
0 0 0
0 0 0
0 0 0
0 0 0
0 0 0
0 0 0
0 0 0
0 0 0
0 0 0
0 0 0
0 0 0
0 0 0
0 0 0
0 0 0
0 0 0
0 0 0
0 0 0
0 0 0
0 0 0
0 0 0
0 0 0
0 0 0
0 0 0
0 0 0
0 0 0
0 0 0
0 0 0
0 0 0
0 0 0
0 0 0
0 0 0
0 0 0
0 0 0
0 0 0
0 0 0
0 0 0
0 0 0
0 0 0
0 0 0
0 0 0
0 0 0
0 0 0
0 0 0
0 0 0
0 0 0
0 0 0
0 0 0
0 0 0
0 0 0
0 0 0
0 0 0
0 0 0
0 0 0
0 0 0
0 0 0
0 0 0
0 0 0
0 0 0
0 0 0
0 0 0
0 0 0
0 0 0
0 0 0
0 0 0
0 0 0
0 0 0
0 0 0
0 0 0
0 0 0
0 0 0
0 0 0
0 0 0
0 0 0
0 0 0
0 0 0
0 0 0
0 0 0
0 0 0
0 0 0
0 0 0
0 0 0
0 0 0
0 0 0
0 0 0
0 0 0
0 0 0
0 0 0
0 0 0
0 0 0
0 0 0
0 0 0
0 0 0
0 0 0
0 0 0
0 0 0
0 0 0
0 0 0
0 0 0
0 0 0
0 0 0
0 0 0
0 0 0
0 0 0
0 0 0
0 0 0
0 0 0
0 0 0
0 0 0
0 0 0
0 0 0
0 0 0
0 0 0
0 0 0
0 0 0
0 0 0
0 0 0
0 0 0
0 0 0
0 0 0
0 0 0
0 0 0
0 0 0
0 0 0
0 0 0
0 0 0
0 0 0
0 0 0
0 0 0
0 0 0
0 0 0
0 0 0
0 0 0
0 0 0
0 0 0
0 0 0
0 0 0
0 0 0
0 0 0
0 0 0
0 0 0
0 0 0
0 0 0
0 0 0
0 0 0
0 0 0
0 0 0
0 0 0
0 0 0
0 0 0
0 0 0
0 0 0
0 0 0
0 0 0
0 0 0
0 0 0
0 0 0
0 0 0
0 0 0
0 0 0
0 0 0
0 0 0
0 0 0
0 0 0
0 0 0
0 0 0
0 0 0
0 0 0
0 0 0
0 0 0
0 0 0
0 0 0
0 0 0
0 0 0
0 0 0
0 0 0
0 0 0
0 0 0
0 0 0
0 0 0
0 0 0
0 0 0
0 0 0
0 0 0
0 0 0
0 0 0
0 0 0
0 0 0
0 0 0
0 0 0
0 0 0
0 0 0
0 0 0
0 0 0
0 0 0
0 0 0
0 0 0
0 0 0
0 0 0
0 0 0
0 0 0
0 0 0
0 0 0
0 0 0
0 0 0
0 0 0
0 0 0
0 0 0
0 0 0
0 0 0
0 0 0
0 0 0
0 0 0
0 0 0
0 0 0
0 0 0
0 0 0
0 0 0
0 0 0
0 0 0
0 0 0
0 0 0
0 0 0
0 0 0
0 0 0
0 0 0
0 0 0
0 0 0
0 0 0
0 0 0
0 0 0
0 0 0
0 0 0
0 0 0
0 0 0
0 0 0
0 0 0
0 0 0
0 0 0
0 0 0
0 0 0
0 0 0
0 0 0
0 0 0
0 0 0
0 0 0
0 0 0
0 0 0
0 0 0
0 0 0
0 0 0
0 0 0
0 0 0
0 0 0
0 0 0
0 0 0
0 0 0
0 0 0
0 0 0
0 0 0
0 0 0
0 0 0
0 0 0
0 0 0
0 0 0
0 0 0
0 0 0
0 0 0
0 0 0
0 0 0
0 0 0
0 0 0
0 0 0
0 0 0
0 0 0
0 0 0
0 0 0
0 0 0
0 0 0
0 0 0
0 0 0
0 0 0
0 0 0
0 0 0
0 0 0
0 0 0
0 0 0
0 0 0
0 0 0
0 0 0
0 0 0
0 0 0
0 0 0
0 0 0
0 0 0
0 0 0
0 0 0
0 0 0
0 0 0
0 0 0
0 0 0
0 0 0
0 0 0
0 0 0
0 0 0
0 0 0
0 0 0
0 0 0
0 0 0
0 0 0
0 0 0
0 0 0
0 0 0
0 0 0
0 0 0
0 0 0
0 0 0
0 0 0
0 0 0
0 0 0
0 0 0
0 0 0
0 0 0
0 0 0
0 0 0
0 0 0
0 0 0
0 0 0
0 0 0
0 0 0
0 0 0
0 0 0
0 0 0
0 0 0
0 0 0
0 0 0
0 0 0
0 0 0
0 0 0
0 0 0
0 0 0
0 0 0
0 0 0
0 0 0
0 0 0
0 0 0
0 0 0
0 0 0
0 0 0
0 0 0
0 0 0
0 0 0
0 0 0
0 0 0
0 0 0
0 0 0
0 0 0
0 0 0
0 0 0
0 0 0
0 0 0
0 0 0
0 0 0
0 0 0
0 0 0
0 0 0
0 0 0
0 0 0
0 0 0
0 0 0
0 0 0
0 0 0
0 0 0
0 0 0
0 0 0
0 0 0
0 0 0
0 0 0
0 0 0
0 0 0
0 0 0
0 0 0
0 0 0
0 0 0
0 0 0
0 0 0
0 0 0
0 0 0
0 0 0
0 0 0
0 0 0
0 0 0
0 0 0
0 0 0
0 0 0
0 0 0
0 0 0
0 0 0
0 0 0
0 0 0
0 0 0
0 0 0
0 0 0
0 0 0
0 0 0
0 0 0
0 0 0
0 0 0
0 0 0
0 0 0
0 0 0
0 0 0
0 0 0
0 0 0
0 0 0
0 0 0
0 0 0
0 0 0
0 0 0
0 0 0
0 0 0
0 0 0
0 0 0
0 0 0
0 0 0
0 0 0
0 0 0
0 0 0
0 0 0
0 0 0
0 0 0
0 0 0
0 0 0
0 0 0
0 0 0
0 0 0
0 0 0
0 0 0
0 0 0
0 0 0
0 0 0
0 0 0
0 0 0
0 0 0
0 0 0
0 0 0
0 0 0
0 0 0
0 0 0
0 0 0
0 0 0
0 0 0
0 0 0
0 0 0
0 0 0
0 0 0
0 0 0
0 0 0
0 0 0
0 0 0
0 0 0
0 0 0
0 0 0
0 0 0
0 0 0
0 0 0
0 0 0
0 0 0
0 0 0
0 0 0
0 0 0
0 0 0
0 0 0
0 0 0
0 0 0
0 0 0
0 0 0
0 0 0
0 0 0
0 0 0
0 0 0
0 0 0
0 0 0
0 0 0
0 0 0
0 0 0
0 0 0
0 0 0
0 0 0
0 0 0
0 0 0
0 0 0
0 0 0
0 0 0
0 0 0
0 0 0
0 0 0
0 0 0
0 0 0
0 0 0
0 0 0
0 0 0
0 0 0
0 0 0
0 0 0
0 0 0
0 0 0
0 0 0
0 0 0
0 0 0
0 0 0
0 0 0
0 0 0
0 0 0
0 0 0
0 0 0
0 0 0
0 0 0
0 0 0
0 0 0
0 0 0
0 0 0
0 0 0
0 0 0
0 0 0
0 0 0
0 0 0
0 0 0
0 0 0
0 0 0
0 0 0
0 0 0
0 0 0
0 0 0
0 0 0
0 0 0
0 0 0
0 0 0
0 0 0
0 0 0
0 0 0
0 0 0
0 0 0
0 0 0
0 0 0
0 0 0
0 0 0
0 0 0
0 0 0
0 0 0
0 0 0
0 0 0
0 0 0
0 0 0
0 0 0
0 0 0
0 0 0
0 0 0
0 0 0
0 0 0
0 0 0
0 0 0
0 0 0
0 0 0
0 0 0
0 0 0
0 0 0
0 0 0
0 0 0
0 0 0
0 0 0
0 0 0
0 0 0
0 0 0
0 0 0
0 0 0
0 0 0
0 0 0
0 0 0
0 0 0
0 0 0
0 0 0
0 0 0
0 0 0
0 0 0
0 0 0
0 0 0
0 0 0
0 0 0
0 0 0
0 0 0
0 0 0
0 0 0
0 0 0
0 0 0
0 0 0
0 0 0
0 0 0
0 0 0
0 0 0
0 0 0
0 0 0
0 0 0
0 0 0
0 0 0
0 0 0
0 0 0
0 0 0
0 0 0
0 0 0
0 0 0
0 0 0
0 0 0
0 0 0
0 0 0
0 0 0
0 0 0
0 0 0
0 0 0
0 0 0
0 0 0
0 0 0
0 0 0
0 0 0
0 0 0
0 0 0
0 0 0
0 0 0
0 0 0
0 0 0
0 0 0
0 0 0
0 0 0
0 0 0
0 0 0
0 0 0
0 0 0
0 0 0
0 0 0
0 0 0
0 0 0
0 0 0
0 0 0
0 0 0
0 0 0
0 0 0
0 0 0
0 0 0
0 0 0
0 0 0
0 0 0
0 0 0
0 0 0
0 0 0
0 0 0
0 0 0
0 0 0
0 0 0
0 0 0
0 0 0
0 0 0
0 0 0
0 0 0
0 0 0
0 0 0
0 0 0
0 0 0
0 0 0
0 0 0
0 0 0
0 0 0
0 0 0
0 0 0
0 0 0
0 0 0
0 0 0
0 0 0
0 0 0
0 0 0
0 0 0
0 0 0
0 0 0
0 0 0
0 0 0
0 0 0
0 0 0
0 0 0
0 0 0
0 0 0
0 0 0
0 0 0
0 0 0
0 0 0
0 0 0
0 0 0
0 0 0
0 0 0
0 0 0
0 0 0
0 0 0
0 0 0
0 0 0
0 0 0
0 0 0
0 0 0
0 0 0
0 0 0
0 0 0
0 0 0
0 0 0
0 0 0
0 0 0
0 0 0
0 0 0
0 0 0
0 0 0
0 0 0
0 0 0
0 0 0
0 0 0
0 0 0
0 0 0
0 0 0
0 0 0
0 0 0
0 0 0
0 0 0
0 0 0
0 0 0
0 0 0
0 0 0
0 0 0
0 0 0
0 0 0
0 0 0
0 0 0
0 0 0
0 0 0
0 0 0
0 0 0
0 0 0
0 0 0
0 0 0
0 0 0
0 0 0
0 0 0
0 0 0
0 0 0
0 0 0
0 0 0
0 0 0
0 0 0
0 0 0
0 0 0
0 0 0
0 0 0
0 0 0
0 0 0
0 0 0
0 0 0
0 0 0
0 0 0
0 0 0
0 0 0
0 0 0
0 0 0
0 0 0
0 0 0
0 0 0
0 0 0
0 0 0
0 0 0
0 0 0
0 0 0
0 0 0
0 0 0
0 0 0
0 0 0
0 0 0
0 0 0
0 0 0
0 0 0
0 0 0
0 0 0
0 0 0
0 0 0
0 0 0
0 0 0
0 0 0
0 0 0
0 0 0
0 0 0
0 0 0
0 0 0
0 0 0
0 0 0
0 0 0
0 0 0
0 0 0
0 0 0
0 0 0
0 0 0
0 0 0
0 0 0
0 0 0
0 0 0
0 0 0
0 0 0
0 0 0
0 0 0
0 0 0
0 0 0
0 0 0
0 0 0
0 0 0
0 0 0
0 0 0
0 0 0
0 0 0
0 0 0
0 0 0
0 0 0
0 0 0
0 0 0
0 0 0
0 0 0
0 0 0
0 0 0
0 0 0
0 0 0
0 0 0
0 0 0
0 0 0
0 0 0
0 0 0
0 0 0
0 0 0
0 0 0
0 0 0
0 0 0
0 0 0
0 0 0
0 0 0
0 0 0
0 0 0
0 0 0
0 0 0
0 0 0
0 0 0
0 0 0
