P3
16 16
255
100 100 100
155 155 155
155 155 155
100 100 100
100 100 100
155 155 155
155 155 155
100 100 100
100 100 100
155 155 155
155 155 155
100 100 100
100 100 100
155 155 155
155 155 155
100 100 100
100 100 100
155 155 155
155 155 155
100 100 100
100 100 100
155 155 155
155 155 155
100 100 100
100 100 100
155 155 155
155 155 155
100 100 100
100 100 100
155 155 155
155 155 155
100 100 100
100 100 100
155 155 155
155 155 155
100 100 100
100 100 100
155 155 155
155 155 155
100 100 100
100 100 100
155 155 155
155 155 155
100 100 100
100 100 100
155 155 155
155 155 155
100 100 100
100 100 100
155 155 155
155 155 155
100 100 100
100 100 100
155 155 155
155 155 155
100 100 100
100 100 100
155 155 155
155 155 155
100 100 100
100 100 100
155 155 155
155 155 155
100 100 100
100 100 100
155 155 155
155 155 155
100 100 100
100 100 100
155 155 155
155 155 155
100 100 100
100 100 100
155 155 155
155 155 155
100 100 100
100 100 100
155 155 155
155 155 155
100 100 100
100 100 100
155 155 155
155 155 155
100 100 100
100 100 100
155 155 155
155 155 155
100 100 100
100 100 100
155 155 155
155 155 155
100 100 100
100 100 100
155 155 155
155 155 155
100 100 100
100 100 100
155 155 155
155 155 155
100 100 100
100 100 100
155 155 155
155 155 155
100 100 100
100 100 100
155 155 155
155 155 155
100 100 100
100 100 100
155 155 155
155 155 155
100 100 100
100 100 100
155 155 155
155 155 155
100 100 100
100 100 100
155 155 155
155 155 155
100 100 100
100 100 100
155 155 155
155 155 155
100 100 100
100 100 100
155 155 155
155 155 155
100 100 100
100 100 100
155 155 155
155 155 155
100 100 100
100 100 100
155 155 155
155 155 155
100 100 100
100 100 100
155 155 155
155 155 155
100 100 100
100 100 100
155 155 155
155 155 155
100 100 100
100 100 100
155 155 155
155 155 155
100 100 100
100 100 100
155 155 155
155 155 155
100 100 100
100 100 100
155 155 155
155 155 155
100 100 100
100 100 100
155 155 155
155 155 155
100 100 100
100 100 100
155 155 155
155 155 155
100 100 100
100 100 100
155 155 155
155 155 155
100 100 100
100 100 100
155 155 155
155 155 155
100 100 100
100 100 100
155 155 155
155 155 155
100 100 100
100 100 100
155 155 155
155 155 155
100 100 100
100 100 100
155 155 155
155 155 155
100 100 100
100 100 100
155 155 155
155 155 155
100 100 100
100 100 100
155 155 155
155 155 155
100 100 100
100 100 100
155 155 155
155 155 155
100 100 100
100 100 100
155 155 155
155 155 155
100 100 100
100 100 100
155 155 155
155 155 155
100 100 100
100 100 100
155 155 155
155 155 155
100 100 100
100 100 100
155 155 155
155 155 155
100 100 100
100 100 100
155 155 155
155 155 155
100 100 100
100 100 100
155 155 155
155 155 155
100 100 100
100 100 100
155 155 155
155 155 155
100 100 100
100 100 100
155 155 155
155 155 155
100 100 100
100 100 100
155 155 155
155 155 155
100 100 100
100 100 100
155 155 155
155 155 155
100 100 100
100 100 100
155 155 155
155 155 155
100 100 100
100 100 100
155 155 155
155 155 155
100 100 100
100 100 100
155 155 155
155 155 155
100 100 100
100 100 100
155 155 155
155 155 155
100 100 100
100 100 100
155 155 155
155 155 155
100 100 100
