P3
64 16
255
227 227 227
104 104 104
10 10 10
61 61 61
194 194 194
245 245 245
151 151 151
28 28 28
28 28 28
151 151 151
245 245 245
194 194 194
61 61 61
10 10 10
104 104 104
227 227 227
227 227 227
104 104 104
10 10 10
61 61 61
194 194 194
245 245 245
151 151 151
28 28 28
28 28 28
151 151 151
245 245 245
194 194 194
61 61 61
10 10 10
104 104 104
227 227 227
227 227 227
104 104 104
10 10 10
61 61 61
194 194 194
245 245 245
151 151 151
28 28 28
28 28 28
151 151 151
245 245 245
194 194 194
61 61 61
10 10 10
104 104 104
227 227 227
227 227 227
104 104 104
10 10 10
61 61 61
194 194 194
245 245 245
151 151 151
28 28 28
28 28 28
151 151 151
245 245 245
194 194 194
61 61 61
10 10 10
104 104 104
227 227 227
227 227 227
104 104 104
10 10 10
61 61 61
194 194 194
245 245 245
151 151 151
28 28 28
28 28 28
151 151 151
245 245 245
194 194 194
61 61 61
10 10 10
104 104 104
227 227 227
227 227 227
104 104 104
10 10 10
61 61 61
194 194 194
245 245 245
151 151 151
28 28 28
28 28 28
151 151 151
245 245 245
194 194 194
61 61 61
10 10 10
104 104 104
227 227 227
227 227 227
104 104 104
10 10 10
61 61 61
194 194 194
245 245 245
151 151 151
28 28 28
28 28 28
151 151 151
245 245 245
194 194 194
61 61 61
10 10 10
104 104 104
227 227 227
227 227 227
104 104 104
10 10 10
61 61 61
194 194 194
245 245 245
151 151 151
28 28 28
28 28 28
151 151 151
245 245 245
194 194 194
61 61 61
10 10 10
104 104 104
227 227 227
227 227 227
104 104 104
10 10 10
61 61 61
194 194 194
245 245 245
151 151 151
28 28 28
28 28 28
151 151 151
245 245 245
194 194 194
61 61 61
10 10 10
104 104 104
227 227 227
227 227 227
104 104 104
10 10 10
61 61 61
194 194 194
245 245 245
151 151 151
28 28 28
28 28 28
151 151 151
245 245 245
194 194 194
61 61 61
10 10 10
104 104 104
227 227 227
227 227 227
104 104 104
10 10 10
61 61 61
194 194 194
245 245 245
151 151 151
28 28 28
28 28 28
151 151 151
245 245 245
194 194 194
61 61 61
10 10 10
104 104 104
227 227 227
227 227 227
104 104 104
10 10 10
61 61 61
194 194 194
245 245 245
151 151 151
28 28 28
28 28 28
151 151 151
245 245 245
194 194 194
61 61 61
10 10 10
104 104 104
227 227 227
227 227 227
104 104 104
10 10 10
61 61 61
194 194 194
245 245 245
151 151 151
28 28 28
28 28 28
151 151 151
245 245 245
194 194 194
61 61 61
10 10 10
104 104 104
227 227 227
227 227 227
104 104 104
10 10 10
61 61 61
194 194 194
245 245 245
151 151 151
28 28 28
28 28 28
151 151 151
245 245 245
194 194 194
61 61 61
10 10 10
104 104 104
227 227 227
227 227 227
104 104 104
10 10 10
61 61 61
194 194 194
245 245 245
151 151 151
28 28 28
28 28 28
151 151 151
245 245 245
194 194 194
61 61 61
10 10 10
104 104 104
227 227 227
227 227 227
104 104 104
10 10 10
61 61 61
194 194 194
245 245 245
151 151 151
28 28 28
28 28 28
151 151 151
245 245 245
194 194 194
61 61 61
10 10 10
104 104 104
227 227 227
227 227 227
104 104 104
10 10 10
61 61 61
194 194 194
245 245 245
151 151 151
28 28 28
28 28 28
151 151 151
245 245 245
194 194 194
61 61 61
10 10 10
104 104 104
227 227 227
227 227 227
104 104 104
10 10 10
61 61 61
194 194 194
245 245 245
151 151 151
28 28 28
28 28 28
151 151 151
245 245 245
194 194 194
61 61 61
10 10 10
104 104 104
227 227 227
227 227 227
104 104 104
10 10 10
61 61 61
194 194 194
245 245 245
151 151 151
28 28 28
28 28 28
151 151 151
245 245 245
194 194 194
61 61 61
10 10 10
104 104 104
227 227 227
227 227 227
104 104 104
10 10 10
61 61 61
194 194 194
245 245 245
151 151 151
28 28 28
28 28 28
151 151 151
245 245 245
194 194 194
61 61 61
10 10 10
104 104 104
227 227 227
227 227 227
104 104 104
10 10 10
61 61 61
194 194 194
245 245 245
151 151 151
28 28 28
28 28 28
151 151 151
245 245 245
194 194 194
61 61 61
10 10 10
104 104 104
227 227 227
227 227 227
104 104 104
10 10 10
61 61 61
194 194 194
245 245 245
151 151 151
28 28 28
28 28 28
151 151 151
245 245 245
194 194 194
61 61 61
10 10 10
104 104 104
227 227 227
227 227 227
104 104 104
10 10 10
61 61 61
194 194 194
245 245 245
151 151 151
28 28 28
28 28 28
151 151 151
245 245 245
194 194 194
61 61 61
10 10 10
104 104 104
227 227 227
227 227 227
104 104 104
10 10 10
61 61 61
194 194 194
245 245 245
151 151 151
28 28 28
28 28 28
151 151 151
245 245 245
194 194 194
61 61 61
10 10 10
104 104 104
227 227 227
227 227 227
104 104 104
10 10 10
61 61 61
194 194 194
245 245 245
151 151 151
28 28 28
28 28 28
151 151 151
245 245 245
194 194 194
61 61 61
10 10 10
104 104 104
227 227 227
227 227 227
104 104 104
10 10 10
61 61 61
194 194 194
245 245 245
151 151 151
28 28 28
28 28 28
151 151 151
245 245 245
194 194 194
61 61 61
10 10 10
104 104 104
227 227 227
227 227 227
104 104 104
10 10 10
61 61 61
194 194 194
245 245 245
151 151 151
28 28 28
28 28 28
151 151 151
245 245 245
194 194 194
61 61 61
10 10 10
104 104 104
227 227 227
227 227 227
104 104 104
10 10 10
61 61 61
194 194 194
245 245 245
151 151 151
28 28 28
28 28 28
151 151 151
245 245 245
194 194 194
61 61 61
10 10 10
104 104 104
227 227 227
227 227 227
104 104 104
10 10 10
61 61 61
194 194 194
245 245 245
151 151 151
28 28 28
28 28 28
151 151 151
245 245 245
194 194 194
61 61 61
10 10 10
104 104 104
227 227 227
227 227 227
104 104 104
10 10 10
61 61 61
194 194 194
245 245 245
151 151 151
28 28 28
28 28 28
151 151 151
245 245 245
194 194 194
61 61 61
10 10 10
104 104 104
227 227 227
227 227 227
104 104 104
10 10 10
61 61 61
194 194 194
245 245 245
151 151 151
28 28 28
28 28 28
151 151 151
245 245 245
194 194 194
61 61 61
10 10 10
104 104 104
227 227 227
227 227 227
104 104 104
10 10 10
61 61 61
194 194 194
245 245 245
151 151 151
28 28 28
28 28 28
151 151 151
245 245 245
194 194 194
61 61 61
10 10 10
104 104 104
227 227 227
227 227 227
104 104 104
10 10 10
61 61 61
194 194 194
245 245 245
151 151 151
28 28 28
28 28 28
151 151 151
245 245 245
194 194 194
61 61 61
10 10 10
104 104 104
227 227 227
227 227 227
104 104 104
10 10 10
61 61 61
194 194 194
245 245 245
151 151 151
28 28 28
28 28 28
151 151 151
245 245 245
194 194 194
61 61 61
10 10 10
104 104 104
227 227 227
227 227 227
104 104 104
10 10 10
61 61 61
194 194 194
245 245 245
151 151 151
28 28 28
28 28 28
151 151 151
245 245 245
194 194 194
61 61 61
10 10 10
104 104 104
227 227 227
227 227 227
104 104 104
10 10 10
61 61 61
194 194 194
245 245 245
151 151 151
28 28 28
28 28 28
151 151 151
245 245 245
194 194 194
61 61 61
10 10 10
104 104 104
227 227 227
227 227 227
104 104 104
10 10 10
61 61 61
194 194 194
245 245 245
151 151 151
28 28 28
28 28 28
151 151 151
245 245 245
194 194 194
61 61 61
10 10 10
104 104 104
227 227 227
227 227 227
104 104 104
10 10 10
61 61 61
194 194 194
245 245 245
151 151 151
28 28 28
28 28 28
151 151 151
245 245 245
194 194 194
61 61 61
10 10 10
104 104 104
227 227 227
227 227 227
104 104 104
10 10 10
61 61 61
194 194 194
245 245 245
151 151 151
28 28 28
28 28 28
151 151 151
245 245 245
194 194 194
61 61 61
10 10 10
104 104 104
227 227 227
227 227 227
104 104 104
10 10 10
61 61 61
194 194 194
245 245 245
151 151 151
28 28 28
28 28 28
151 151 151
245 245 245
194 194 194
61 61 61
10 10 10
104 104 104
227 227 227
227 227 227
104 104 104
10 10 10
61 61 61
194 194 194
245 245 245
151 151 151
28 28 28
28 28 28
151 151 151
245 245 245
194 194 194
61 61 61
10 10 10
104 104 104
227 227 227
227 227 227
104 104 104
10 10 10
61 61 61
194 194 194
245 245 245
151 151 151
28 28 28
28 28 28
151 151 151
245 245 245
194 194 194
61 61 61
10 10 10
104 104 104
227 227 227
227 227 227
104 104 104
10 10 10
61 61 61
194 194 194
245 245 245
151 151 151
28 28 28
28 28 28
151 151 151
245 245 245
194 194 194
61 61 61
10 10 10
104 104 104
227 227 227
227 227 227
104 104 104
10 10 10
61 61 61
194 194 194
245 245 245
151 151 151
28 28 28
28 28 28
151 151 151
245 245 245
194 194 194
61 61 61
10 10 10
104 104 104
227 227 227
227 227 227
104 104 104
10 10 10
61 61 61
194 194 194
245 245 245
151 151 151
28 28 28
28 28 28
151 151 151
245 245 245
194 194 194
61 61 61
10 10 10
104 104 104
227 227 227
227 227 227
104 104 104
10 10 10
61 61 61
194 194 194
245 245 245
151 151 151
28 28 28
28 28 28
151 151 151
245 245 245
194 194 194
61 61 61
10 10 10
104 104 104
227 227 227
227 227 227
104 104 104
10 10 10
61 61 61
194 194 194
245 245 245
151 151 151
28 28 28
28 28 28
151 151 151
245 245 245
194 194 194
61 61 61
10 10 10
104 104 104
227 227 227
227 227 227
104 104 104
10 10 10
61 61 61
194 194 194
245 245 245
151 151 151
28 28 28
28 28 28
151 151 151
245 245 245
194 194 194
61 61 61
10 10 10
104 104 104
227 227 227
227 227 227
104 104 104
10 10 10
61 61 61
194 194 194
245 245 245
151 151 151
28 28 28
28 28 28
151 151 151
245 245 245
194 194 194
61 61 61
10 10 10
104 104 104
227 227 227
227 227 227
104 104 104
10 10 10
61 61 61
194 194 194
245 245 245
151 151 151
28 28 28
28 28 28
151 151 151
245 245 245
194 194 194
61 61 61
10 10 10
104 104 104
227 227 227
227 227 227
104 104 104
10 10 10
61 61 61
194 194 194
245 245 245
151 151 151
28 28 28
28 28 28
151 151 151
245 245 245
194 194 194
61 61 61
10 10 10
104 104 104
227 227 227
227 227 227
104 104 104
10 10 10
61 61 61
194 194 194
245 245 245
151 151 151
28 28 28
28 28 28
151 151 151
245 245 245
194 194 194
61 61 61
10 10 10
104 104 104
227 227 227
227 227 227
104 104 104
10 10 10
61 61 61
194 194 194
245 245 245
151 151 151
28 28 28
28 28 28
151 151 151
245 245 245
194 194 194
61 61 61
10 10 10
104 104 104
227 227 227
227 227 227
104 104 104
10 10 10
61 61 61
194 194 194
245 245 245
151 151 151
28 28 28
28 28 28
151 151 151
245 245 245
194 194 194
61 61 61
10 10 10
104 104 104
227 227 227
227 227 227
104 104 104
10 10 10
61 61 61
194 194 194
245 245 245
151 151 151
28 28 28
28 28 28
151 151 151
245 245 245
194 194 194
61 61 61
10 10 10
104 104 104
227 227 227
227 227 227
104 104 104
10 10 10
61 61 61
194 194 194
245 245 245
151 151 151
28 28 28
28 28 28
151 151 151
245 245 245
194 194 194
61 61 61
10 10 10
104 104 104
227 227 227
227 227 227
104 104 104
10 10 10
61 61 61
194 194 194
245 245 245
151 151 151
28 28 28
28 28 28
151 151 151
245 245 245
194 194 194
61 61 61
10 10 10
104 104 104
227 227 227
227 227 227
104 104 104
10 10 10
61 61 61
194 194 194
245 245 245
151 151 151
28 28 28
28 28 28
151 151 151
245 245 245
194 194 194
61 61 61
10 10 10
104 104 104
227 227 227
227 227 227
104 104 104
10 10 10
61 61 61
194 194 194
245 245 245
151 151 151
28 28 28
28 28 28
151 151 151
245 245 245
194 194 194
61 61 61
10 10 10
104 104 104
227 227 227
227 227 227
104 104 104
10 10 10
61 61 61
194 194 194
245 245 245
151 151 151
28 28 28
28 28 28
151 151 151
245 245 245
194 194 194
61 61 61
10 10 10
104 104 104
227 227 227
227 227 227
104 104 104
10 10 10
61 61 61
194 194 194
245 245 245
151 151 151
28 28 28
28 28 28
151 151 151
245 245 245
194 194 194
61 61 61
10 10 10
104 104 104
227 227 227
227 227 227
104 104 104
10 10 10
61 61 61
194 194 194
245 245 245
151 151 151
28 28 28
28 28 28
151 151 151
245 245 245
194 194 194
61 61 61
10 10 10
104 104 104
227 227 227
227 227 227
104 104 104
10 10 10
61 61 61
194 194 194
245 245 245
151 151 151
28 28 28
28 28 28
151 151 151
245 245 245
194 194 194
61 61 61
10 10 10
104 104 104
227 227 227
227 227 227
104 104 104
10 10 10
61 61 61
194 194 194
245 245 245
151 151 151
28 28 28
28 28 28
151 151 151
245 245 245
194 194 194
61 61 61
10 10 10
104 104 104
227 227 227
