P3
32 16
255
166 166 166
35 35 35
220 220 220
89 89 89
89 89 89
220 220 220
35 35 35
166 166 166
166 166 166
35 35 35
220 220 220
89 89 89
89 89 89
220 220 220
35 35 35
166 166 166
166 166 166
35 35 35
220 220 220
89 89 89
89 89 89
220 220 220
35 35 35
166 166 166
166 166 166
35 35 35
220 220 220
89 89 89
89 89 89
220 220 220
35 35 35
166 166 166
166 166 166
35 35 35
220 220 220
89 89 89
89 89 89
220 220 220
35 35 35
166 166 166
166 166 166
35 35 35
220 220 220
89 89 89
89 89 89
220 220 220
35 35 35
166 166 166
166 166 166
35 35 35
220 220 220
89 89 89
89 89 89
220 220 220
35 35 35
166 166 166
166 166 166
35 35 35
220 220 220
89 89 89
89 89 89
220 220 220
35 35 35
166 166 166
166 166 166
35 35 35
220 220 220
89 89 89
89 89 89
220 220 220
35 35 35
166 166 166
166 166 166
35 35 35
220 220 220
89 89 89
89 89 89
220 220 220
35 35 35
166 166 166
166 166 166
35 35 35
220 220 220
89 89 89
89 89 89
220 220 220
35 35 35
166 166 166
166 166 166
35 35 35
220 220 220
89 89 89
89 89 89
220 220 220
35 35 35
166 166 166
166 166 166
35 35 35
220 220 220
89 89 89
89 89 89
220 220 220
35 35 35
166 166 166
166 166 166
35 35 35
220 220 220
89 89 89
89 89 89
220 220 220
35 35 35
166 166 166
166 166 166
35 35 35
220 220 220
89 89 89
89 89 89
220 220 220
35 35 35
166 166 166
166 166 166
35 35 35
220 220 220
89 89 89
89 89 89
220 220 220
35 35 35
166 166 166
166 166 166
35 35 35
220 220 220
89 89 89
89 89 89
220 220 220
35 35 35
166 166 166
166 166 166
35 35 35
220 220 220
89 89 89
89 89 89
220 220 220
35 35 35
166 166 166
166 166 166
35 35 35
220 220 220
89 89 89
89 89 89
220 220 220
35 35 35
166 166 166
166 166 166
35 35 35
220 220 220
89 89 89
89 89 89
220 220 220
35 35 35
166 166 166
166 166 166
35 35 35
220 220 220
89 89 89
89 89 89
220 220 220
35 35 35
166 166 166
166 166 166
35 35 35
220 220 220
89 89 89
89 89 89
220 220 220
35 35 35
166 166 166
166 166 166
35 35 35
220 220 220
89 89 89
89 89 89
220 220 220
35 35 35
166 166 166
166 166 166
35 35 35
220 220 220
89 89 89
89 89 89
220 220 220
35 35 35
166 166 166
166 166 166
35 35 35
220 220 220
89 89 89
89 89 89
220 220 220
35 35 35
166 166 166
166 166 166
35 35 35
220 220 220
89 89 89
89 89 89
220 220 220
35 35 35
166 166 166
166 166 166
35 35 35
220 220 220
89 89 89
89 89 89
220 220 220
35 35 35
166 166 166
166 166 166
35 35 35
220 220 220
89 89 89
89 89 89
220 220 220
35 35 35
166 166 166
166 166 166
35 35 35
220 220 220
89 89 89
89 89 89
220 220 220
35 35 35
166 166 166
166 166 166
35 35 35
220 220 220
89 89 89
89 89 89
220 220 220
35 35 35
166 166 166
166 166 166
35 35 35
220 220 220
89 89 89
89 89 89
220 220 220
35 35 35
166 166 166
166 166 166
35 35 35
220 220 220
89 89 89
89 89 89
220 220 220
35 35 35
166 166 166
166 166 166
35 35 35
220 220 220
89 89 89
89 89 89
220 220 220
35 35 35
166 166 166
166 166 166
35 35 35
220 220 220
89 89 89
89 89 89
220 220 220
35 35 35
166 166 166
166 166 166
35 35 35
220 220 220
89 89 89
89 89 89
220 220 220
35 35 35
166 166 166
166 166 166
35 35 35
220 220 220
89 89 89
89 89 89
220 220 220
35 35 35
166 166 166
166 166 166
35 35 35
220 220 220
89 89 89
89 89 89
220 220 220
35 35 35
166 166 166
166 166 166
35 35 35
220 220 220
89 89 89
89 89 89
220 220 220
35 35 35
166 166 166
166 166 166
35 35 35
220 220 220
89 89 89
89 89 89
220 220 220
35 35 35
166 166 166
166 166 166
35 35 35
220 220 220
89 89 89
89 89 89
220 220 220
35 35 35
166 166 166
166 166 166
35 35 35
220 220 220
89 89 89
89 89 89
220 220 220
35 35 35
166 166 166
166 166 166
35 35 35
220 220 220
89 89 89
89 89 89
220 220 220
35 35 35
166 166 166
166 166 166
35 35 35
220 220 220
89 89 89
89 89 89
220 220 220
35 35 35
166 166 166
166 166 166
35 35 35
220 220 220
89 89 89
89 89 89
220 220 220
35 35 35
166 166 166
166 166 166
35 35 35
220 220 220
89 89 89
89 89 89
220 220 220
35 35 35
166 166 166
166 166 166
35 35 35
220 220 220
89 89 89
89 89 89
220 220 220
35 35 35
166 166 166
166 166 166
35 35 35
220 220 220
89 89 89
89 89 89
220 220 220
35 35 35
166 166 166
166 166 166
35 35 35
220 220 220
89 89 89
89 89 89
220 220 220
35 35 35
166 166 166
166 166 166
35 35 35
220 220 220
89 89 89
89 89 89
220 220 220
35 35 35
166 166 166
166 166 166
35 35 35
220 220 220
89 89 89
89 89 89
220 220 220
35 35 35
166 166 166
166 166 166
35 35 35
220 220 220
89 89 89
89 89 89
220 220 220
35 35 35
166 166 166
166 166 166
35 35 35
220 220 220
89 89 89
89 89 89
220 220 220
35 35 35
166 166 166
166 166 166
35 35 35
220 220 220
89 89 89
89 89 89
220 220 220
35 35 35
166 166 166
166 166 166
35 35 35
220 220 220
89 89 89
89 89 89
220 220 220
35 35 35
166 166 166
166 166 166
35 35 35
220 220 220
89 89 89
89 89 89
220 220 220
35 35 35
166 166 166
166 166 166
35 35 35
220 220 220
89 89 89
89 89 89
220 220 220
35 35 35
166 166 166
166 166 166
35 35 35
220 220 220
89 89 89
89 89 89
220 220 220
35 35 35
166 166 166
166 166 166
35 35 35
220 220 220
89 89 89
89 89 89
220 220 220
35 35 35
166 166 166
166 166 166
35 35 35
220 220 220
89 89 89
89 89 89
220 220 220
35 35 35
166 166 166
166 166 166
35 35 35
220 220 220
89 89 89
89 89 89
220 220 220
35 35 35
166 166 166
166 166 166
35 35 35
220 220 220
89 89 89
89 89 89
220 220 220
35 35 35
166 166 166
166 166 166
35 35 35
220 220 220
89 89 89
89 89 89
220 220 220
35 35 35
166 166 166
166 166 166
35 35 35
220 220 220
89 89 89
89 89 89
220 220 220
35 35 35
166 166 166
166 166 166
35 35 35
220 220 220
89 89 89
89 89 89
220 220 220
35 35 35
166 166 166
