P3
64 16
255
234 234 234
103 103 103
2 2 2
57 57 57
198 198 198
253 253 253
152 152 152
21 21 21
21 21 21
152 152 152
253 253 253
198 198 198
57 57 57
2 2 2
103 103 103
234 234 234
234 234 234
103 103 103
2 2 2
57 57 57
198 198 198
253 253 253
152 152 152
21 21 21
21 21 21
152 152 152
253 253 253
198 198 198
57 57 57
2 2 2
103 103 103
234 234 234
234 234 234
103 103 103
2 2 2
57 57 57
198 198 198
253 253 253
152 152 152
21 21 21
21 21 21
152 152 152
253 253 253
198 198 198
57 57 57
2 2 2
103 103 103
234 234 234
234 234 234
103 103 103
2 2 2
57 57 57
198 198 198
253 253 253
152 152 152
21 21 21
21 21 21
152 152 152
253 253 253
198 198 198
57 57 57
2 2 2
103 103 103
234 234 234
234 234 234
103 103 103
2 2 2
57 57 57
198 198 198
253 253 253
152 152 152
21 21 21
21 21 21
152 152 152
253 253 253
198 198 198
57 57 57
2 2 2
103 103 103
234 234 234
234 234 234
103 103 103
2 2 2
57 57 57
198 198 198
253 253 253
152 152 152
21 21 21
21 21 21
152 152 152
253 253 253
198 198 198
57 57 57
2 2 2
103 103 103
234 234 234
234 234 234
103 103 103
2 2 2
57 57 57
198 198 198
253 253 253
152 152 152
21 21 21
21 21 21
152 152 152
253 253 253
198 198 198
57 57 57
2 2 2
103 103 103
234 234 234
234 234 234
103 103 103
2 2 2
57 57 57
198 198 198
253 253 253
152 152 152
21 21 21
21 21 21
152 152 152
253 253 253
198 198 198
57 57 57
2 2 2
103 103 103
234 234 234
234 234 234
103 103 103
2 2 2
57 57 57
198 198 198
253 253 253
152 152 152
21 21 21
21 21 21
152 152 152
253 253 253
198 198 198
57 57 57
2 2 2
103 103 103
234 234 234
234 234 234
103 103 103
2 2 2
57 57 57
198 198 198
253 253 253
152 152 152
21 21 21
21 21 21
152 152 152
253 253 253
198 198 198
57 57 57
2 2 2
103 103 103
234 234 234
234 234 234
103 103 103
2 2 2
57 57 57
198 198 198
253 253 253
152 152 152
21 21 21
21 21 21
152 152 152
253 253 253
198 198 198
57 57 57
2 2 2
103 103 103
234 234 234
234 234 234
103 103 103
2 2 2
57 57 57
198 198 198
253 253 253
152 152 152
21 21 21
21 21 21
152 152 152
253 253 253
198 198 198
57 57 57
2 2 2
103 103 103
234 234 234
234 234 234
103 103 103
2 2 2
57 57 57
198 198 198
253 253 253
152 152 152
21 21 21
21 21 21
152 152 152
253 253 253
198 198 198
57 57 57
2 2 2
103 103 103
234 234 234
234 234 234
103 103 103
2 2 2
57 57 57
198 198 198
253 253 253
152 152 152
21 21 21
21 21 21
152 152 152
253 253 253
198 198 198
57 57 57
2 2 2
103 103 103
234 234 234
234 234 234
103 103 103
2 2 2
57 57 57
198 198 198
253 253 253
152 152 152
21 21 21
21 21 21
152 152 152
253 253 253
198 198 198
57 57 57
2 2 2
103 103 103
234 234 234
234 234 234
103 103 103
2 2 2
57 57 57
198 198 198
253 253 253
152 152 152
21 21 21
21 21 21
152 152 152
253 253 253
198 198 198
57 57 57
2 2 2
103 103 103
234 234 234
234 234 234
103 103 103
2 2 2
57 57 57
198 198 198
253 253 253
152 152 152
21 21 21
21 21 21
152 152 152
253 253 253
198 198 198
57 57 57
2 2 2
103 103 103
234 234 234
234 234 234
103 103 103
2 2 2
57 57 57
198 198 198
253 253 253
152 152 152
21 21 21
21 21 21
152 152 152
253 253 253
198 198 198
57 57 57
2 2 2
103 103 103
234 234 234
234 234 234
103 103 103
2 2 2
57 57 57
198 198 198
253 253 253
152 152 152
21 21 21
21 21 21
152 152 152
253 253 253
198 198 198
57 57 57
2 2 2
103 103 103
234 234 234
234 234 234
103 103 103
2 2 2
57 57 57
198 198 198
253 253 253
152 152 152
21 21 21
21 21 21
152 152 152
253 253 253
198 198 198
57 57 57
2 2 2
103 103 103
234 234 234
234 234 234
103 103 103
2 2 2
57 57 57
198 198 198
253 253 253
152 152 152
21 21 21
21 21 21
152 152 152
253 253 253
198 198 198
57 57 57
2 2 2
103 103 103
234 234 234
234 234 234
103 103 103
2 2 2
57 57 57
198 198 198
253 253 253
152 152 152
21 21 21
21 21 21
152 152 152
253 253 253
198 198 198
57 57 57
2 2 2
103 103 103
234 234 234
234 234 234
103 103 103
2 2 2
57 57 57
198 198 198
253 253 253
152 152 152
21 21 21
21 21 21
152 152 152
253 253 253
198 198 198
57 57 57
2 2 2
103 103 103
234 234 234
234 234 234
103 103 103
2 2 2
57 57 57
198 198 198
253 253 253
152 152 152
21 21 21
21 21 21
152 152 152
253 253 253
198 198 198
57 57 57
2 2 2
103 103 103
234 234 234
234 234 234
103 103 103
2 2 2
57 57 57
198 198 198
253 253 253
152 152 152
21 21 21
21 21 21
152 152 152
253 253 253
198 198 198
57 57 57
2 2 2
103 103 103
234 234 234
234 234 234
103 103 103
2 2 2
57 57 57
198 198 198
253 253 253
152 152 152
21 21 21
21 21 21
152 152 152
253 253 253
198 198 198
57 57 57
2 2 2
103 103 103
234 234 234
234 234 234
103 103 103
2 2 2
57 57 57
198 198 198
253 253 253
152 152 152
21 21 21
21 21 21
152 152 152
253 253 253
198 198 198
57 57 57
2 2 2
103 103 103
234 234 234
234 234 234
103 103 103
2 2 2
57 57 57
198 198 198
253 253 253
152 152 152
21 21 21
21 21 21
152 152 152
253 253 253
198 198 198
57 57 57
2 2 2
103 103 103
234 234 234
234 234 234
103 103 103
2 2 2
57 57 57
198 198 198
253 253 253
152 152 152
21 21 21
21 21 21
152 152 152
253 253 253
198 198 198
57 57 57
2 2 2
103 103 103
234 234 234
234 234 234
103 103 103
2 2 2
57 57 57
198 198 198
253 253 253
152 152 152
21 21 21
21 21 21
152 152 152
253 253 253
198 198 198
57 57 57
2 2 2
103 103 103
234 234 234
234 234 234
103 103 103
2 2 2
57 57 57
198 198 198
253 253 253
152 152 152
21 21 21
21 21 21
152 152 152
253 253 253
198 198 198
57 57 57
2 2 2
103 103 103
234 234 234
234 234 234
103 103 103
2 2 2
57 57 57
198 198 198
253 253 253
152 152 152
21 21 21
21 21 21
152 152 152
253 253 253
198 198 198
57 57 57
2 2 2
103 103 103
234 234 234
234 234 234
103 103 103
2 2 2
57 57 57
198 198 198
253 253 253
152 152 152
21 21 21
21 21 21
152 152 152
253 253 253
198 198 198
57 57 57
2 2 2
103 103 103
234 234 234
234 234 234
103 103 103
2 2 2
57 57 57
198 198 198
253 253 253
152 152 152
21 21 21
21 21 21
152 152 152
253 253 253
198 198 198
57 57 57
2 2 2
103 103 103
234 234 234
234 234 234
103 103 103
2 2 2
57 57 57
198 198 198
253 253 253
152 152 152
21 21 21
21 21 21
152 152 152
253 253 253
198 198 198
57 57 57
2 2 2
103 103 103
234 234 234
234 234 234
103 103 103
2 2 2
57 57 57
198 198 198
253 253 253
152 152 152
21 21 21
21 21 21
152 152 152
253 253 253
198 198 198
57 57 57
2 2 2
103 103 103
234 234 234
234 234 234
103 103 103
2 2 2
57 57 57
198 198 198
253 253 253
152 152 152
21 21 21
21 21 21
152 152 152
253 253 253
198 198 198
57 57 57
2 2 2
103 103 103
234 234 234
234 234 234
103 103 103
2 2 2
57 57 57
198 198 198
253 253 253
152 152 152
21 21 21
21 21 21
152 152 152
253 253 253
198 198 198
57 57 57
2 2 2
103 103 103
234 234 234
234 234 234
103 103 103
2 2 2
57 57 57
198 198 198
253 253 253
152 152 152
21 21 21
21 21 21
152 152 152
253 253 253
198 198 198
57 57 57
2 2 2
103 103 103
234 234 234
234 234 234
103 103 103
2 2 2
57 57 57
198 198 198
253 253 253
152 152 152
21 21 21
21 21 21
152 152 152
253 253 253
198 198 198
57 57 57
2 2 2
103 103 103
234 234 234
234 234 234
103 103 103
2 2 2
57 57 57
198 198 198
253 253 253
152 152 152
21 21 21
21 21 21
152 152 152
253 253 253
198 198 198
57 57 57
2 2 2
103 103 103
234 234 234
234 234 234
103 103 103
2 2 2
57 57 57
198 198 198
253 253 253
152 152 152
21 21 21
21 21 21
152 152 152
253 253 253
198 198 198
57 57 57
2 2 2
103 103 103
234 234 234
234 234 234
103 103 103
2 2 2
57 57 57
198 198 198
253 253 253
152 152 152
21 21 21
21 21 21
152 152 152
253 253 253
198 198 198
57 57 57
2 2 2
103 103 103
234 234 234
234 234 234
103 103 103
2 2 2
57 57 57
198 198 198
253 253 253
152 152 152
21 21 21
21 21 21
152 152 152
253 253 253
198 198 198
57 57 57
2 2 2
103 103 103
234 234 234
234 234 234
103 103 103
2 2 2
57 57 57
198 198 198
253 253 253
152 152 152
21 21 21
21 21 21
152 152 152
253 253 253
198 198 198
57 57 57
2 2 2
103 103 103
234 234 234
234 234 234
103 103 103
2 2 2
57 57 57
198 198 198
253 253 253
152 152 152
21 21 21
21 21 21
152 152 152
253 253 253
198 198 198
57 57 57
2 2 2
103 103 103
234 234 234
234 234 234
103 103 103
2 2 2
57 57 57
198 198 198
253 253 253
152 152 152
21 21 21
21 21 21
152 152 152
253 253 253
198 198 198
57 57 57
2 2 2
103 103 103
234 234 234
234 234 234
103 103 103
2 2 2
57 57 57
198 198 198
253 253 253
152 152 152
21 21 21
21 21 21
152 152 152
253 253 253
198 198 198
57 57 57
2 2 2
103 103 103
234 234 234
234 234 234
103 103 103
2 2 2
57 57 57
198 198 198
253 253 253
152 152 152
21 21 21
21 21 21
152 152 152
253 253 253
198 198 198
57 57 57
2 2 2
103 103 103
234 234 234
234 234 234
103 103 103
2 2 2
57 57 57
198 198 198
253 253 253
152 152 152
21 21 21
21 21 21
152 152 152
253 253 253
198 198 198
57 57 57
2 2 2
103 103 103
234 234 234
234 234 234
103 103 103
2 2 2
57 57 57
198 198 198
253 253 253
152 152 152
21 21 21
21 21 21
152 152 152
253 253 253
198 198 198
57 57 57
2 2 2
103 103 103
234 234 234
234 234 234
103 103 103
2 2 2
57 57 57
198 198 198
253 253 253
152 152 152
21 21 21
21 21 21
152 152 152
253 253 253
198 198 198
57 57 57
2 2 2
103 103 103
234 234 234
234 234 234
103 103 103
2 2 2
57 57 57
198 198 198
253 253 253
152 152 152
21 21 21
21 21 21
152 152 152
253 253 253
198 198 198
57 57 57
2 2 2
103 103 103
234 234 234
234 234 234
103 103 103
2 2 2
57 57 57
198 198 198
253 253 253
152 152 152
21 21 21
21 21 21
152 152 152
253 253 253
198 198 198
57 57 57
2 2 2
103 103 103
234 234 234
234 234 234
103 103 103
2 2 2
57 57 57
198 198 198
253 253 253
152 152 152
21 21 21
21 21 21
152 152 152
253 253 253
198 198 198
57 57 57
2 2 2
103 103 103
234 234 234
234 234 234
103 103 103
2 2 2
57 57 57
198 198 198
253 253 253
152 152 152
21 21 21
21 21 21
152 152 152
253 253 253
198 198 198
57 57 57
2 2 2
103 103 103
234 234 234
234 234 234
103 103 103
2 2 2
57 57 57
198 198 198
253 253 253
152 152 152
21 21 21
21 21 21
152 152 152
253 253 253
198 198 198
57 57 57
2 2 2
103 103 103
234 234 234
234 234 234
103 103 103
2 2 2
57 57 57
198 198 198
253 253 253
152 152 152
21 21 21
21 21 21
152 152 152
253 253 253
198 198 198
57 57 57
2 2 2
103 103 103
234 234 234
234 234 234
103 103 103
2 2 2
57 57 57
198 198 198
253 253 253
152 152 152
21 21 21
21 21 21
152 152 152
253 253 253
198 198 198
57 57 57
2 2 2
103 103 103
234 234 234
234 234 234
103 103 103
2 2 2
57 57 57
198 198 198
253 253 253
152 152 152
21 21 21
21 21 21
152 152 152
253 253 253
198 198 198
57 57 57
2 2 2
103 103 103
234 234 234
234 234 234
103 103 103
2 2 2
57 57 57
198 198 198
253 253 253
152 152 152
21 21 21
21 21 21
152 152 152
253 253 253
198 198 198
57 57 57
2 2 2
103 103 103
234 234 234
234 234 234
103 103 103
2 2 2
57 57 57
198 198 198
253 253 253
152 152 152
21 21 21
21 21 21
152 152 152
253 253 253
198 198 198
57 57 57
2 2 2
103 103 103
234 234 234
234 234 234
103 103 103
2 2 2
57 57 57
198 198 198
253 253 253
152 152 152
21 21 21
21 21 21
152 152 152
253 253 253
198 198 198
57 57 57
2 2 2
103 103 103
234 234 234
234 234 234
103 103 103
2 2 2
57 57 57
198 198 198
253 253 253
152 152 152
21 21 21
21 21 21
152 152 152
253 253 253
198 198 198
57 57 57
2 2 2
103 103 103
234 234 234
