P3
16 16
255
37 37 37
218 218 218
218 218 218
37 37 37
37 37 37
218 218 218
218 218 218
37 37 37
37 37 37
218 218 218
218 218 218
37 37 37
37 37 37
218 218 218
218 218 218
37 37 37
37 37 37
218 218 218
218 218 218
37 37 37
37 37 37
218 218 218
218 218 218
37 37 37
37 37 37
218 218 218
218 218 218
37 37 37
37 37 37
218 218 218
218 218 218
37 37 37
37 37 37
218 218 218
218 218 218
37 37 37
37 37 37
218 218 218
218 218 218
37 37 37
37 37 37
218 218 218
218 218 218
37 37 37
37 37 37
218 218 218
218 218 218
37 37 37
37 37 37
218 218 218
218 218 218
37 37 37
37 37 37
218 218 218
218 218 218
37 37 37
37 37 37
218 218 218
218 218 218
37 37 37
37 37 37
218 218 218
218 218 218
37 37 37
37 37 37
218 218 218
218 218 218
37 37 37
37 37 37
218 218 218
218 218 218
37 37 37
37 37 37
218 218 218
218 218 218
37 37 37
37 37 37
218 218 218
218 218 218
37 37 37
37 37 37
218 218 218
218 218 218
37 37 37
37 37 37
218 218 218
218 218 218
37 37 37
37 37 37
218 218 218
218 218 218
37 37 37
37 37 37
218 218 218
218 218 218
37 37 37
37 37 37
218 218 218
218 218 218
37 37 37
37 37 37
218 218 218
218 218 218
37 37 37
37 37 37
218 218 218
218 218 218
37 37 37
37 37 37
218 218 218
218 218 218
37 37 37
37 37 37
218 218 218
218 218 218
37 37 37
37 37 37
218 218 218
218 218 218
37 37 37
37 37 37
218 218 218
218 218 218
37 37 37
37 37 37
218 218 218
218 218 218
37 37 37
37 37 37
218 218 218
218 218 218
37 37 37
37 37 37
218 218 218
218 218 218
37 37 37
37 37 37
218 218 218
218 218 218
37 37 37
37 37 37
218 218 218
218 218 218
37 37 37
37 37 37
218 218 218
218 218 218
37 37 37
37 37 37
218 218 218
218 218 218
37 37 37
37 37 37
218 218 218
218 218 218
37 37 37
37 37 37
218 218 218
218 218 218
37 37 37
37 37 37
218 218 218
218 218 218
37 37 37
37 37 37
218 218 218
218 218 218
37 37 37
37 37 37
218 218 218
218 218 218
37 37 37
37 37 37
218 218 218
218 218 218
37 37 37
37 37 37
218 218 218
218 218 218
37 37 37
37 37 37
218 218 218
218 218 218
37 37 37
37 37 37
218 218 218
218 218 218
37 37 37
37 37 37
218 218 218
218 218 218
37 37 37
37 37 37
218 218 218
218 218 218
37 37 37
37 37 37
218 218 218
218 218 218
37 37 37
37 37 37
218 218 218
218 218 218
37 37 37
37 37 37
218 218 218
218 218 218
37 37 37
37 37 37
218 218 218
218 218 218
37 37 37
37 37 37
218 218 218
218 218 218
37 37 37
37 37 37
218 218 218
218 218 218
37 37 37
37 37 37
218 218 218
218 218 218
37 37 37
37 37 37
218 218 218
218 218 218
37 37 37
37 37 37
218 218 218
218 218 218
37 37 37
37 37 37
218 218 218
218 218 218
37 37 37
37 37 37
218 218 218
218 218 218
37 37 37
37 37 37
218 218 218
218 218 218
37 37 37
37 37 37
218 218 218
218 218 218
37 37 37
37 37 37
218 218 218
218 218 218
37 37 37
37 37 37
218 218 218
218 218 218
37 37 37
