P3
32 16
255
176 176 176
10 10 10
245 245 245
79 79 79
79 79 79
245 245 245
10 10 10
176 176 176
176 176 176
10 10 10
245 245 245
79 79 79
79 79 79
245 245 245
10 10 10
176 176 176
176 176 176
10 10 10
245 245 245
79 79 79
79 79 79
245 245 245
10 10 10
176 176 176
176 176 176
10 10 10
245 245 245
79 79 79
79 79 79
245 245 245
10 10 10
176 176 176
176 176 176
10 10 10
245 245 245
79 79 79
79 79 79
245 245 245
10 10 10
176 176 176
176 176 176
10 10 10
245 245 245
79 79 79
79 79 79
245 245 245
10 10 10
176 176 176
176 176 176
10 10 10
245 245 245
79 79 79
79 79 79
245 245 245
10 10 10
176 176 176
176 176 176
10 10 10
245 245 245
79 79 79
79 79 79
245 245 245
10 10 10
176 176 176
176 176 176
10 10 10
245 245 245
79 79 79
79 79 79
245 245 245
10 10 10
176 176 176
176 176 176
10 10 10
245 245 245
79 79 79
79 79 79
245 245 245
10 10 10
176 176 176
176 176 176
10 10 10
245 245 245
79 79 79
79 79 79
245 245 245
10 10 10
176 176 176
176 176 176
10 10 10
245 245 245
79 79 79
79 79 79
245 245 245
10 10 10
176 176 176
176 176 176
10 10 10
245 245 245
79 79 79
79 79 79
245 245 245
10 10 10
176 176 176
176 176 176
10 10 10
245 245 245
79 79 79
79 79 79
245 245 245
10 10 10
176 176 176
176 176 176
10 10 10
245 245 245
79 79 79
79 79 79
245 245 245
10 10 10
176 176 176
176 176 176
10 10 10
245 245 245
79 79 79
79 79 79
245 245 245
10 10 10
176 176 176
176 176 176
10 10 10
245 245 245
79 79 79
79 79 79
245 245 245
10 10 10
176 176 176
176 176 176
10 10 10
245 245 245
79 79 79
79 79 79
245 245 245
10 10 10
176 176 176
176 176 176
10 10 10
245 245 245
79 79 79
79 79 79
245 245 245
10 10 10
176 176 176
176 176 176
10 10 10
245 245 245
79 79 79
79 79 79
245 245 245
10 10 10
176 176 176
176 176 176
10 10 10
245 245 245
79 79 79
79 79 79
245 245 245
10 10 10
176 176 176
176 176 176
10 10 10
245 245 245
79 79 79
79 79 79
245 245 245
10 10 10
176 176 176
176 176 176
10 10 10
245 245 245
79 79 79
79 79 79
245 245 245
10 10 10
176 176 176
176 176 176
10 10 10
245 245 245
79 79 79
79 79 79
245 245 245
10 10 10
176 176 176
176 176 176
10 10 10
245 245 245
79 79 79
79 79 79
245 245 245
10 10 10
176 176 176
176 176 176
10 10 10
245 245 245
79 79 79
79 79 79
245 245 245
10 10 10
176 176 176
176 176 176
10 10 10
245 245 245
79 79 79
79 79 79
245 245 245
10 10 10
176 176 176
176 176 176
10 10 10
245 245 245
79 79 79
79 79 79
245 245 245
10 10 10
176 176 176
176 176 176
10 10 10
245 245 245
79 79 79
79 79 79
245 245 245
10 10 10
176 176 176
176 176 176
10 10 10
245 245 245
79 79 79
79 79 79
245 245 245
10 10 10
176 176 176
176 176 176
10 10 10
245 245 245
79 79 79
79 79 79
245 245 245
10 10 10
176 176 176
176 176 176
10 10 10
245 245 245
79 79 79
79 79 79
245 245 245
10 10 10
176 176 176
176 176 176
10 10 10
245 245 245
79 79 79
79 79 79
245 245 245
10 10 10
176 176 176
176 176 176
10 10 10
245 245 245
79 79 79
79 79 79
245 245 245
10 10 10
176 176 176
176 176 176
10 10 10
245 245 245
79 79 79
79 79 79
245 245 245
10 10 10
176 176 176
176 176 176
10 10 10
245 245 245
79 79 79
79 79 79
245 245 245
10 10 10
176 176 176
176 176 176
10 10 10
245 245 245
79 79 79
79 79 79
245 245 245
10 10 10
176 176 176
176 176 176
10 10 10
245 245 245
79 79 79
79 79 79
245 245 245
10 10 10
176 176 176
176 176 176
10 10 10
245 245 245
79 79 79
79 79 79
245 245 245
10 10 10
176 176 176
176 176 176
10 10 10
245 245 245
79 79 79
79 79 79
245 245 245
10 10 10
176 176 176
176 176 176
10 10 10
245 245 245
79 79 79
79 79 79
245 245 245
10 10 10
176 176 176
176 176 176
10 10 10
245 245 245
79 79 79
79 79 79
245 245 245
10 10 10
176 176 176
176 176 176
10 10 10
245 245 245
79 79 79
79 79 79
245 245 245
10 10 10
176 176 176
176 176 176
10 10 10
245 245 245
79 79 79
79 79 79
245 245 245
10 10 10
176 176 176
176 176 176
10 10 10
245 245 245
79 79 79
79 79 79
245 245 245
10 10 10
176 176 176
176 176 176
10 10 10
245 245 245
79 79 79
79 79 79
245 245 245
10 10 10
176 176 176
176 176 176
10 10 10
245 245 245
79 79 79
79 79 79
245 245 245
10 10 10
176 176 176
176 176 176
10 10 10
245 245 245
79 79 79
79 79 79
245 245 245
10 10 10
176 176 176
176 176 176
10 10 10
245 245 245
79 79 79
79 79 79
245 245 245
10 10 10
176 176 176
176 176 176
10 10 10
245 245 245
79 79 79
79 79 79
245 245 245
10 10 10
176 176 176
176 176 176
10 10 10
245 245 245
79 79 79
79 79 79
245 245 245
10 10 10
176 176 176
176 176 176
10 10 10
245 245 245
79 79 79
79 79 79
245 245 245
10 10 10
176 176 176
176 176 176
10 10 10
245 245 245
79 79 79
79 79 79
245 245 245
10 10 10
176 176 176
176 176 176
10 10 10
245 245 245
79 79 79
79 79 79
245 245 245
10 10 10
176 176 176
176 176 176
10 10 10
245 245 245
79 79 79
79 79 79
245 245 245
10 10 10
176 176 176
176 176 176
10 10 10
245 245 245
79 79 79
79 79 79
245 245 245
10 10 10
176 176 176
176 176 176
10 10 10
245 245 245
79 79 79
79 79 79
245 245 245
10 10 10
176 176 176
176 176 176
10 10 10
245 245 245
79 79 79
79 79 79
245 245 245
10 10 10
176 176 176
176 176 176
10 10 10
245 245 245
79 79 79
79 79 79
245 245 245
10 10 10
176 176 176
176 176 176
10 10 10
245 245 245
79 79 79
79 79 79
245 245 245
10 10 10
176 176 176
176 176 176
10 10 10
245 245 245
79 79 79
79 79 79
245 245 245
10 10 10
176 176 176
176 176 176
10 10 10
245 245 245
79 79 79
79 79 79
245 245 245
10 10 10
176 176 176
176 176 176
10 10 10
245 245 245
79 79 79
79 79 79
245 245 245
10 10 10
176 176 176
176 176 176
10 10 10
245 245 245
79 79 79
79 79 79
245 245 245
10 10 10
176 176 176
